/* XPM */
static char *mb_ringmod_sc_stereo[] = {
/* columns rows colors chars-per-pixel */
"256 256 256 2 ",
"   c #0B0B0C",
".  c #070607",
"X  c #0E0E11",
"o  c #050B10",
"O  c #0E161A",
"+  c #131415",
"@  c #1B1416",
"#  c #15161B",
"$  c #1B161B",
"%  c #17181D",
"&  c #19191E",
"*  c #1B1915",
"=  c #14140D",
"-  c #2B1B1E",
";  c #32191E",
":  c #3A181C",
">  c #281909",
",  c #1E251E",
"<  c #1B2215",
"1  c #1C220F",
"2  c #20261F",
"3  c #282A1D",
"4  c #332E1C",
"5  c #151A22",
"6  c #1B1C22",
"7  c #191B29",
"8  c #171D2E",
"9  c #241C23",
"0  c #271D25",
"q  c #311C26",
"w  c #1F2027",
"e  c #1C222B",
"r  c #17252A",
"t  c #1E2432",
"y  c #192B35",
"u  c #18343B",
"i  c #0C2932",
"p  c #212324",
"a  c #242B24",
"s  c #22232B",
"d  c #25292D",
"f  c #282E29",
"g  c #2B2526",
"h  c #362827",
"j  c #2C3726",
"k  c #232434",
"l  c #262831",
"z  c #2A2C35",
"x  c #25263A",
"c  c #222939",
"v  c #2D2E39",
"b  c #2A2538",
"n  c #362736",
"m  c #2E313B",
"M  c #24323B",
"N  c #31333D",
"B  c #3A3535",
"V  c #353625",
"C  c #53171B",
"Z  c #56281A",
"A  c #4E2E1C",
"S  c #682816",
"D  c #783718",
"F  c #6A331A",
"G  c #791A27",
"H  c #462B2B",
"J  c #543429",
"K  c #5B392B",
"L  c #593728",
"P  c #5B3A35",
"I  c #573C37",
"U  c #493032",
"Y  c #63382A",
"T  c #663C35",
"R  c #7A3C34",
"E  c #703027",
"W  c #681316",
"Q  c #214D20",
"!  c #70640C",
"~  c #59422A",
"^  c #594438",
"/  c #4E4936",
"(  c #67442A",
")  c #674539",
"_  c #7A4E3F",
"`  c #774937",
"'  c #7D523D",
"]  c #7D553A",
"[  c #754B2E",
"{  c #66540D",
"}  c #173B46",
"|  c #14374F",
" . c #292C43",
".. c #263449",
"X. c #343641",
"o. c #363944",
"O. c #383A46",
"+. c #3B3D4A",
"@. c #363549",
"#. c #293857",
"$. c #363859",
"%. c #2E2D4C",
"&. c #323A67",
"*. c #163E62",
"=. c #53354B",
"-. c #6E3B50",
";. c #453C6A",
":. c #6C3C6C",
">. c #014750",
",. c #004A53",
"<. c #0D4750",
"1. c #1B4954",
"2. c #00545D",
"3. c #144951",
"4. c #3E414D",
"5. c #394B48",
"6. c #294355",
"7. c #005C66",
"8. c #085965",
"9. c #025F71",
"0. c #1A5667",
"q. c #344678",
"w. c #2F4D6C",
"e. c #02636E",
"r. c #006679",
"t. c #026474",
"y. c #156A76",
"u. c #1F6876",
"i. c #5A4343",
"p. c #584747",
"a. c #424553",
"s. c #494958",
"d. c #504A52",
"f. c #694A46",
"g. c #744A45",
"h. c #7A4B42",
"j. c #754C49",
"k. c #7A4D4B",
"l. c #754546",
"z. c #6F514E",
"x. c #6B5146",
"c. c #725145",
"v. c #7C5142",
"b. c #72544C",
"n. c #78584C",
"m. c #6E5452",
"M. c #6D5958",
"N. c #735253",
"B. c #745A53",
"V. c #74565A",
"C. c #735A5B",
"Z. c #7B5B5C",
"A. c #7A5855",
"S. c #6F4C54",
"D. c #78615B",
"F. c #575668",
"G. c #4A4578",
"H. c #475278",
"J. c #5A5975",
"K. c #504C68",
"L. c #6B5B63",
"P. c #7C5B63",
"I. c #755A64",
"U. c #6E5071",
"Y. c #6F636D",
"T. c #5E6175",
"R. c #AE0A0C",
"E. c #8B3518",
"W. c #8B1C29",
"Q. c #883535",
"!. c #963538",
"~. c #903127",
"^. c #AB3926",
"/. c #AF372F",
"(. c #AA2C1A",
"). c #CA0708",
"_. c #CE3D21",
"`. c #94421C",
"'. c #A3471B",
"]. c #814337",
"[. c #80563D",
"{. c #89573D",
"}. c #934530",
"|. c #B9423A",
" X c #A84431",
".X c #816700",
"XX c #CD4331",
"oX c #CA411D",
"OX c #AC3F41",
"+X c #8D3E46",
"@X c #83554A",
"#X c #845647",
"$X c #965647",
"%X c #875557",
"&X c #914C49",
"*X c #B2494B",
"=X c #8C546D",
"-X c #AB516C",
";X c #8D6264",
":X c #C74647",
">X c #E74D4D",
",X c #AFAE0C",
"<X c #A29B1E",
"1X c #CBCB07",
"2X c #C4B70B",
"3X c #0F2A91",
"4X c #1637B8",
"5X c #005E9B",
"6X c #005994",
"7X c #0B5786",
"8X c #384C8F",
"9X c #04758B",
"0X c #007896",
"qX c #2E7289",
"wX c #3756AB",
"eX c #046CAC",
"rX c #0170B6",
"tX c #3E61A8",
"yX c #4C4889",
"uX c #524A8B",
"iX c #534B95",
"pX c #475599",
"aX c #54568F",
"sX c #6D5892",
"dX c #576891",
"fX c #6A698C",
"gX c #5A57A7",
"hX c #485AB0",
"jX c #645BA9",
"kX c #695DB5",
"lX c #4D66B3",
"zX c #6E63B3",
"xX c #0E37C2",
"cX c #395BC5",
"vX c #017BC6",
"bX c #3B65D4",
"nX c #455DC1",
"mX c #4873CA",
"MX c #576BD8",
"NX c #4D6BCE",
"BX c #6C65C7",
"VX c #6E69D0",
"CX c #5071F0",
"ZX c #6970E6",
"AX c #8D5A92",
"SX c #8863B3",
"DX c #935C97",
"FX c #8467C3",
"GX c #0189A4",
"HX c #0198B6",
"JX c #2397AE",
"KX c #12879A",
"LX c #0082D0",
"PX c #0097D7",
"IX c #6282A3",
"UX c #638E6C",
/* pixels */
"6 6 6 6 6 6 6 6 6 6 6 6 6 6 6 6 6 6 6 6 6 6 6 6 6 6 6 6 6 6 6 6 6 6 6 6 6 6 6 6 6 6 6 6 6 6 6 6 6 6 6 6 6 6 6 6 6 6 6 6 6 6 6 6 6 6 6 6 6 6 6 6 6 6 6 6 6 6 6 6 6 6 6 6 6 6 6 6 6 6 6 6 6 6 6 6 6 6 6 6 6 6 6 6 6 6 6 6 6 6 6 6 6 6 6 6 6 6 6 6 6 6 6 6 6 6 6 6 6 6 6 6 6 6 6 6 6 6 6 6 6 6 6 6 6 6 6 6 6 6 6 6 6 6 6 6 6 6 6 6 6 6 6 6 6 6 6 6 6 6 6 6 6 6 6 6 6 6 6 6 6 6 6 6 6 6 6 6 6 6 6 6 6 6 6 6 6 6 6 6 6 6 6 6 6 6 6 6 6 6 6 6 6 6 6 6 6 6 6 6 6 6 6 6 6 6 6 6 6 6 6 6 6 6 6 6 6 6 6 6 6 6 6 6 6 6 6 6 6 6 6 6 6 6 6 6 ",
"6 6 6 6 6 6 6 6 6 6 6 6 6 6 6 6 6 6 6 6 6 6 6 6 6 6 6 6 6 6 6 6 6 6 6 6 6 6 6 6 6 6 6 6 6 6 6 6 6 6 6 6 6 6 6 6 6 6 6 6 6 6 6 6 6 6 6 6 6 6 6 6 6 6 6 6 6 6 6 6 6 6 6 6 6 6 6 6 6 6 6 6 6 6 6 6 6 6 6 6 6 6 6 6 6 6 6 6 6 6 6 6 6 6 6 6 6 6 6 6 6 6 6 6 6 6 6 6 6 6 6 6 6 6 6 6 6 6 6 6 6 6 6 6 & & & 6 6 & 6 6 6 6 6 6 6 6 6 & 6 6 6 6 6 6 & 6 6 6 6 6 6 6 6 6 6 6 6 6 6 & 6 6 & 6 6 6 6 6 6 6 6 6 6 6 & & 6 6 & 6 & 6 6 6 6 & 6 6 6 & 6 6 6 % 6 6 & 6 6 6 6 6 6 6 6 6 6 6 6 6 6 6 6 & & & 6 & 6 & 6 6 & 6 6 & 6 6 6 6 6 6 6 6 ",
"$ 6 6 6 6 6 6 6 6 6 6 6 6 6 6 6 6 6 6 6 6 6 6 6 6 6 6 6 6 6 6 6 6 6 6 6 6 6 6 6 6 6 6 6 6 6 6 6 6 6 6 6 6 6 6 6 6 6 6 6 6 6 6 6 6 6 6 6 6 6 6 6 6 6 6 6 6 6 6 6 6 6 6 6 6 6 6 6 6 6 6 6 6 6 6 6 6 6 6 6 6 6 6 6 6 6 6 6 6 6 6 6 6 6 6 6 6 6 6 6 6 6 6 6 6 6 6 6 6 6 6 6 6 6 6 6 6 6 6 6 6 6 6 6 l d d s 6 l 6 6 6 6 6 6 6 6 s d % 6 6 s s 6 s 6 6 6 6 % s s 6 6 6 6 6 6 % s 6 & d s % 6 6 6 6 6 6 6 6 6 d d s s l 6 l 6 6 6 6 d w s 6 d p % w z 6 & d 6 6 6 6 6 6 6 s w 6 6 6 6 & w s s d s s z 6 l 6 6 z s % d 6 6 6 d 6 6 6 6 ",
"} 6 6 6 6 6 6 6 6 6 6 6 6 6 6 6 6 6 6 6 6 6 6 6 6 6 6 6 6 6 6 6 6 6 6 6 6 6 6 6 6 6 6 6 6 6 6 6 6 6 6 6 6 6 6 6 6 6 6 6 6 6 6 6 6 6 6 6 6 6 6 6 6 6 6 6 6 6 6 6 6 6 6 6 6 6 6 6 6 6 6 6 6 6 6 6 6 6 6 6 6 6 6 6 6 6 6 6 6 6 6 6 6 6 6 6 6 6 6 6 6 6 6 6 6 6 6 6 6 6 6 6 % m fX# T.a.s.l s.a.N 6 T.J.K.K.+.T.F.+ F.+.X.J.v a.F.T.s.# s J.F.4.J.N T.l s.X.T.a.6 % fXz a.F.X.T.F.N T.J.v s.l s.O.s.% 6 T.z s.fX4.T.4.s.T.F.s # F.K.o.T.N T.J.z s.J.z F.F.a.+.z a.6 T.6 T.N T.N s.s s T.4.a.fXa.J.s.4.T.s.a.T.v s.J.K.6 6 X.w @ 0.0.",
"UX} 6 6 6 6 6 6 6 6 6 6 6 6 6 6 6 6 6 6 6 6 6 6 6 6 6 6 6 6 6 6 6 6 6 6 6 6 6 6 6 6 6 6 6 6 6 6 6 6 6 6 6 6 6 6 6 6 6 6 6 6 6 6 6 6 6 6 6 6 6 6 6 6 6 6 6 6 6 6 6 6 6 6 6 6 6 6 6 6 6 6 6 6 6 6 6 6 6 6 6 6 6 6 6 6 6 6 6 6 6 6 6 6 6 6 6 6 6 6 6 6 6 6 6 6 6 6 6 6 6 6 % m fXO.fXa.s.s K.s.X.  4.+.v a.4.T.J.w fXJ.X.fXK.a.K.% T.s s T.J.+.s.z fXF.s.F.v K.s % fXs.J.F.J.% a.J.4.d F.F.s s.4.K.  N IXa.6 F.6 fXN K.l a.a.X s.s.l s.N a.l F.F.K.+.F.. N T.T.s.o.IXN s.z T.F.F.s s J.o.& F.6 T.+.4.T.K.s.J.N T.  J.m # N w @ 0.u.",
"UXu.} & 6 6 6 6 6 6 6 6 6 6 6 6 6 6 6 6 6 6 6 6 6 6 6 6 6 6 6 6 6 6 6 6 6 6 6 6 6 6 6 6 6 6 6 6 6 6 6 6 6 6 6 6 6 6 6 6 6 6 6 6 6 6 6 6 6 6 6 6 6 6 6 6 6 6 6 6 6 6 6 6 6 6 6 6 6 6 6 6 6 6 6 6 6 6 6 6 6 6 6 6 6 6 6 6 6 6 6 6 6 6 6 6 6 6 6 6 6 6 6 6 6 6 6 6 6 6 6 6 # X.J.T.F.a.F.s.s.s.F.6 a.a.O.K.a.J.F.s.T.T.J.O.fXK.F.a.J.6 s T.T.+.J.o.s.J.J.s.a.T.v 6 F.T.T.s.F.a.F.s.F.s.s.s.s.F.X.T.l J.J.T.v F.s fXz K.s.F.N % z T.K.F.X.J.s.a.F.s.N T.v 4.K.o.K.J.T.J.J.o.K.a.fX6 6 O.fXd J.s T.N a.fXK.s.F.l J.O.T.d % X.w $ 1.u.",
"8 KX1.e 6 6 6 6 6 6 6 6 6 6 6 6 6 6 6 6 6 6 6 6 6 6 6 6 6 6 6 6 6 6 6 6 6 6 6 6 6 6 6 6 6 6 6 6 6 6 6 6 6 6 6 6 6 6 6 6 6 6 6 6 6 6 6 6 6 6 6 6 6 6 6 6 6 6 6 6 6 6 6 6 6 6 6 6 6 6 6 6 6 6 6 6 6 6 6 6 6 6 6 6 6 6 6 6 6 6 6 6 6 6 6 6 6 6 6 6 6 6 6 6 6 6 6 6 6 6 6 6 & d N N N s N s.w v F.m l z N +.z K.N N 6 s 4.s v N O.s.l % s m d 4.a.z z d o.6 s.a.6 6 N N N v w s.O.6 s.a.6 s s.X.6 s.s.O.+ N z N 6 s.4.m K.X.% 6 +.4.z a.d s.a.& X.s.d N s.m z s o.N + o.s.z N 6 4.6 s s.X.6 o.6 a.a.N s N o.s.v l K.m % 6 z 6 & u u ",
"@ u.u.y & 6 6 6 6 6 6 6 6 6 6 6 6 6 6 6 6 6 6 6 6 6 6 6 6 6 6 6 6 6 6 6 6 6 6 6 6 6 6 6 6 6 6 6 6 6 6 6 6 6 6 6 6 6 6 6 6 6 6 6 6 6 6 6 6 6 6 6 6 6 6 6 6 6 6 6 6 6 6 6 6 6 6 6 6 6 6 6 6 6 6 6 6 6 6 6 6 6 6 6 6 6 6 6 6 6 6 6 6 6 6 6 6 6 6 6 6 6 6 6 6 6 6 6 6 6 6 6 6 6 % % % 6 % + 6 & + & & & % # & + % % 6 6 # 6 % % # + & 6 6 % 6 # # & & & # 6 + # 6 6 % % % & 6 + # 6 + # 6 6 + % 6 + # # 6 % & % 6 # # % + # 6 6 # # & # 6 + # 6 % + 6 % + % & 6 % % 6 # # & % 6 # 6 6 # % 6 % 6 # # % 6 % % + & & + % 6 6 6 6 6 & & ",
"@ u.qXy & 6 6 6 6 6 6 6 6 6 6 6 6 6 6 6 6 6 6 6 6 6 6 6 6 6 6 6 6 6 6 6 6 6 6 6 6 6 6 6 6 6 6 6 6 6 6 6 6 6 6 6 6 6 6 6 6 6 6 6 6 6 6 6 6 6 6 6 6 6 6 6 6 6 6 6 6 6 6 6 6 6 6 6 6 6 6 6 6 6 6 6 6 6 6 6 6 6 6 6 6 6 6 6 6 6 6 6 6 6 6 6 6 6 6 6 6 6 6 6 6 6 6 6 6 6 6 6 6 6 6 6 6 6 6 6 6 6 6 6 6 6 6 6 6 6 6 6 6 6 6 6 6 6 6 6 6 6 6 6 6 6 6 6 6 6 6 6 6 6 6 6 6 6 6 6 6 6 6 6 6 6 6 6 6 6 6 6 6 6 6 6 6 6 6 6 6 6 6 6 6 6 6 6 6 6 6 6 6 6 6 6 6 6 6 6 6 6 6 6 6 6 6 6 6 6 6 6 6 6 6 6 $ & 6 6 6 6 6 6 6 6 6 6 6 6 6 6 6 6 6 6 ",
"& u.0.y & 6 6 6 6 6 6 6 6 6 6 6 6 6 6 6 6 6 6 6 6 6 6 6 6 6 6 6 6 6 6 6 6 6 6 6 6 6 6 6 6 6 6 6 6 6 6 6 6 6 6 6 6 6 6 6 6 6 6 6 6 6 6 6 6 6 6 6 6 6 6 6 6 6 6 6 6 6 6 6 6 6 6 6 6 6 6 6 6 6 6 6 6 6 6 6 6 6 6 6 6 6 6 6 6 6 6 6 6 6 6 6 6 6 6 6 6 6 6 6 6 6 6 6 6 6 6 6 6 6 & 6 6 6 6 6 6 6 6 6 6 6 6 6 6 6 6 6 6 6 6 6 6 6 6 & 6 6 & 6 6 & 6 6 & % 6 6 & 6 6 6 6 6 6 6 6 6 % 6 6 6 6 6 6 6 6 6 6 6 6 6 6 6 6 6 6 6 6 6 6 6 6 & 6 6 6 6 6 6 6 6 6 6 6 6 6 6 , w 6 6 6 6 6 6 6 6 6 6 6 6 u y 6 6 6 6 6 6 6 6 6 6 6 6 & & & 6 & 6 ",
"1.KX1.6 6 6 6 6 6 6 6 6 6 6 6 6 6 6 6 6 6 6 6 6 6 6 6 6 6 6 6 6 6 6 6 6 6 6 6 6 6 6 6 6 6 6 6 6 6 6 6 6 6 6 6 6 6 6 6 6 6 6 6 6 6 6 6 6 6 6 6 6 6 6 6 6 6 6 6 6 6 6 6 6 6 6 6 6 6 6 6 6 6 6 6 6 6 6 6 6 6 6 6 6 6 6 6 6 6 6 6 6 6 6 6 6 6 6 6 6 6 6 6 6 6 6 6 6 6 6 6 6 & e y & 6 6 6 6 6 6 6 6 6 6 6 6 6 6 6 6 6 6 6 6 6 6 & N O.w w l X.6 6 6 z o.6 6 l 6 s s s 6 s s w w X.s 6 6 6 6 6 6 6 6 6 6 6 6 6 6 6 6 6 6 6 6 6 6 & y e & 6 6 6 6 6 6 6 6 6 6 6 6 Q Q 6 6 6 6 $ $ & 6 6 6 $ y e.e.y & 6 6 6 6 6 6 6 6 & y 1.1.1.% O.z ",
"qX0.u & 6 6 6 6 6 6 6 6 6 6 6 6 6 6 6 6 6 6 6 6 6 6 6 6 6 6 6 6 6 6 6 6 6 6 6 6 6 6 6 6 6 6 6 6 6 6 6 6 6 6 6 6 6 6 6 6 6 6 6 6 6 6 6 6 6 6 6 6 6 6 6 6 6 6 6 6 6 6 6 6 6 6 6 6 6 6 6 6 6 6 6 6 6 6 6 6 6 6 6 6 6 6 6 6 6 6 6 6 6 6 6 6 6 6 6 6 6 6 6 6 6 6 6 6 6 6 6 6 e 1.e 6 6 6 6 6 6 6 6 6 6 6 6 6 6 6 6 6 6 6 6 6 6 6 % O.N v s.a.+.s.a.+.N s.6 N a.O.a.o.s.a.a.v s.s.s.s 6 6 6 6 6 6 6 6 6 6 6 6 6 6 6 6 6 6 6 6 6 6 6 w 1.e 6 6 6 6 6 6 6 6 6 6 6 , Q Q 6 6 6 e 2.3.e.8.$ 6 $ y 8.8.u $ 6 6 6 6 6 6 6 6 & u 0.0.1.# 4.4.",
"u.u & 6 6 6 6 6 6 6 6 6 6 6 6 6 6 6 6 6 6 6 6 6 6 6 6 6 6 6 6 6 6 6 6 6 6 6 6 6 6 6 6 6 6 6 6 6 6 6 6 6 6 6 6 6 6 6 6 6 6 6 6 6 6 6 6 6 6 6 6 6 6 6 6 6 6 6 6 6 6 6 6 6 6 6 6 6 6 6 6 6 6 6 6 6 6 6 6 6 6 6 6 6 6 6 6 6 6 6 6 6 6 6 6 6 6 6 6 6 6 6 6 6 6 6 6 6 6 6 6 6 6 1.t 6 6 6 6 6 6 6 6 6 6 6 6 6 6 6 6 6 6 6 6 6 6 6 6 6 +.s.4.N s.a.o.4.w 4.# X.X.4.+.m s.v X.a.s.N 4.6 6 6 6 6 6 6 6 6 6 6 6 6 6 6 6 6 6 6 6 6 6 6 6 e 1.6 6 6 6 6 6 6 6 6 6 6 6 Q Q Q 2 6 6 6 u y } u & 6 $ u e.8.u $ 6 6 6 6 6 6 6 6 & u 0.0.1.& X.a.",
"e & 6 6 6 6 6 6 6 6 6 6 6 6 6 6 6 6 6 6 6 6 6 6 6 6 6 6 6 6 6 6 6 6 6 6 6 6 6 6 6 6 6 6 6 6 6 6 6 6 6 6 6 6 6 6 6 6 6 6 6 6 6 6 6 6 6 6 6 6 6 6 6 6 6 6 6 6 6 6 6 6 6 6 6 6 6 6 6 6 6 6 6 6 6 6 6 6 6 6 6 6 6 6 6 6 6 6 6 6 6 6 6 6 6 6 6 6 6 6 6 6 6 6 6 6 6 6 6 6 6 6 6 6 e 6 6 6 6 6 6 6 6 6 6 6 6 6 6 6 6 6 6 6 6 6 6 6 6 v X.s X.z l N l m N N w N s.l z 6 X.z N z m z m l & 6 6 6 6 6 6 6 6 6 6 6 6 6 6 6 6 6 6 6 6 6 6 e 6 & 6 6 6 6 6 6 6 6 6 6 6 , 6 6 , 6 6 6 $ $ $ $ 6 6 6 6 u y 6 6 6 6 6 6 6 6 6 6 6 t } } u 6 d z ",
"& 6 6 6 6 6 6 6 6 6 6 6 6 6 6 6 6 6 6 6 6 6 6 6 6 6 6 6 6 6 6 6 6 6 6 6 6 6 6 6 6 6 6 6 6 6 6 6 6 6 6 6 6 6 6 6 6 6 6 6 6 6 6 6 6 6 6 6 6 6 6 6 6 6 6 6 6 6 6 6 6 6 6 6 6 6 6 6 6 6 6 6 6 6 6 6 6 6 6 6 6 6 6 6 6 6 6 6 6 6 6 6 6 6 6 6 6 6 6 6 6 6 6 6 6 6 6 6 6 6 6 6 6 6 6 6 6 6 6 6 6 6 6 6 6 6 6 6 6 6 6 6 6 6 6 6 6 6 6 6 & 6 & 6 6 & 6 & & & % m d # 6 6 & 6 & & & 6 & 6 6 6 6 6 6 6 6 6 6 6 6 6 6 6 6 6 6 6 6 6 6 6 6 6 6 6 6 6 6 6 6 6 6 6 6 6 6 6 6 6 6 6 6 6 6 6 6 6 6 6 6 6 $ & 6 6 6 6 6 6 6 6 6 6 6 6 $ & & 6 6 & ",
"6 & & & & & & & & & & & & & & & & & & & & & & & & & & & & & & & & & & & & & & & & & & & & & & & & & & & & & & & & & & & & & & & & & & & & & & & & & & & & & & & & & & & & & & & & & & & & & & & & & & & & & & & & & & & & & & & & & & & & & & & & & & & & & & & & & & & & & & & & & & & & & & & & & & & & & & & & & & & & & & 6 6 6 6 6 6 6 6 6 6 6 6 % & 6 6 & 6 6 6 6 6 6 6 & & & & & & & & & & & & & & & & & & & & & & & & & & & & & & & & & & & & & & & & & & & & & & & & & & & & & 6 6 & & & & & & & & & & & & 6 6 6 & 6 6 ",
"l l l l l l l l l l l l l l l l l l l l l l l l l l l l l l l l l l l l l l l l l l l l l l l l l l l l l l l l l l l l l l l l l l l l l l l l l l l l l l l l l l l l l l l l l l l l l l l l l l l l l l l l l l l l l l l l l l l l l l l l l l l l l l l l l l l l l l l l l l l l l l l l l l l l l l l l l l l l l l l l l l l l l l l l l l l l l l l l l l l l l l l l l l l l l l l l l l l l l l l l l l l l l l l l l l l l l l l l l l l l l l l l l l l l l l l l l l l l l l l l l l l l l l l l l l l l l l l l ",
"l l l l l l l l l l l l l l l l l l l l l l l l l l l l l l l l l l l l l l l l l l l l l l l l l l l l l l l l l l l l l l l l l l l l l l l l l l l l l l l l l l l l l l l l l l l l l l l l l l l l l l l l l l l l l l l l l l l l l l l l l l l l l l l l l l l l l l l l l l l l l l l l l l l l l l l l l l l l l l l l l l l l l l l l l l l l l l l l l l l l l l l l l l l l l l l l l l l l l l l l l l l l l l l l l l l l l l l l l l l l l l l l l l l l l l l l l l l l l l l l l l l l l l l d d d d d d d d d ",
"& & & & & & & & & & & & & & & & & & & & & & & & & & & & & & & & & & & & & & & & & & & & & & & & & & & & & & & & & & & & & & & & & & & & & & & & & & & & & & & & & & & & & & & & & & & & & & & & & & & & & & & & & & & & & & & & & & & & & & & & & & & & & & & & & & & & & & & & & & & & & & & & & & & & & & & & & & & & & & & & & & & & & & & & & & & & & & & & & & & & & & & & & & & & & & & & & & & & & & & & & & & & & & & & % % % % % & & & & & & & & 6 & & & & & & & & 6 & 6 6 & & & & & 6 6 & & & & & & s d d d s d d d d ",
"6 6 6 6 6 6 6 6 6 6 6 6 6 6 6 6 6 6 6 6 6 6 6 6 6 6 6 6 6 6 6 6 6 6 6 6 6 6 6 6 6 6 6 6 6 6 6 6 6 6 6 6 6 6 6 6 6 6 6 6 6 6 6 6 6 6 6 6 6 6 6 6 6 6 6 6 6 6 6 6 6 6 6 6 6 6 6 6 6 6 6 6 6 6 6 6 6 6 6 6 6 6 6 6 6 6 6 6 6 6 6 6 6 6 6 6 6 6 6 6 6 6 6 6 6 6 6 6 6 6 6 6 6 6 6 6 6 6 6 6 6 6 6 6 6 6 6 6 6 6 6 6 6 6 6 6 6 6 6 6 6 6 6 6 6 6 6 6 6 6 6 6 6 6 6 6 6 6 6 6 6 6 6 6 6 6 6 6 6 6 6 6 6 6 6 6 6 6 6 6 6 6 6 6 6 6 6 6 s s s d s 6 6 6 6 6 6 6 6 6 6 6 6 6 6 6 6 6 & 6 & & 6 6 6 6 6 % & 6 6 6 6 6 6 O.4.+.+.4.4.4.4.4.",
"6 6 6 6 6 6 6 6 6 6 6 6 6 6 6 6 6 6 6 6 6 6 6 6 6 6 6 6 6 6 6 6 6 6 6 6 6 6 6 6 6 6 6 6 6 6 6 6 6 6 6 6 6 6 6 6 6 6 6 6 6 6 6 6 6 6 6 6 6 6 6 6 6 6 6 6 6 6 6 6 6 6 6 6 6 6 6 6 6 6 6 6 6 6 6 6 6 6 6 6 6 6 6 6 6 6 6 6 6 6 6 6 6 6 6 6 6 6 6 6 6 6 6 6 6 6 6 6 6 6 6 6 6 6 6 6 6 6 6 6 6 6 6 6 6 6 6 6 6 6 6 6 6 6 6 6 6 6 6 6 6 6 6 6 6 6 6 6 6 6 6 6 6 6 6 6 6 6 6 6 6 6 6 6 6 6 6 6 6 6 6 6 6 6 6 6 6 6 6 6 6 6 6 6 6 6 6 & N K.T.a.N & 6 6 6 6 6 & l z & 6 6 6 6 6 6 6 N s v N 6 6 6 6 6 X.z & 6 w s 6 6 o.+.s.s.4.+.+.O.+.",
"6 6 6 6 6 6 6 6 6 6 6 6 6 6 6 6 6 6 6 6 6 6 6 6 6 6 6 6 6 6 6 6 6 6 6 6 6 6 6 6 6 6 6 6 6 6 6 6 6 6 6 6 6 6 6 6 6 6 6 6 6 6 6 6 6 6 6 6 6 6 6 6 6 6 6 6 6 6 6 6 6 6 6 6 6 6 6 6 6 6 6 6 6 6 6 6 6 6 6 6 6 6 6 6 6 6 6 6 6 6 6 6 6 6 6 6 6 6 6 6 6 6 6 6 6 6 6 6 6 6 6 6 6 6 6 6 6 6 6 6 6 6 6 6 6 6 6 6 6 6 6 6 6 6 6 6 6 6 6 6 6 6 6 6 6 6 6 6 6 6 6 6 6 6 6 6 6 6 6 6 6 6 6 6 6 6 6 6 6 6 6 6 6 6 6 6 6 6 6 6 6 6 6 6 6 6 6 # 4.F.6 K.m & 6 6 6 6 6 % z o.+.X.6 6 6 6 6 s 4.v o.6 6 6 6 % N v X.o.d 4.O.% 6 o.+.J.s.s.F.F.F.F.",
"6 6 6 6 6 6 6 6 6 6 6 6 6 6 6 6 6 6 6 6 6 6 6 6 6 6 6 6 6 6 6 6 6 6 6 6 6 6 6 6 6 6 6 6 6 6 6 6 6 6 6 6 6 6 6 6 6 6 6 6 6 6 6 6 6 6 6 6 6 6 6 6 6 6 6 6 6 6 6 6 6 6 6 6 6 6 6 6 6 6 6 6 6 6 6 6 6 6 6 6 6 6 6 6 6 6 6 6 6 6 6 6 6 6 6 6 6 6 6 6 6 6 6 6 6 6 6 6 6 6 6 6 6 6 6 6 6 6 6 6 6 6 6 6 6 6 6 6 6 6 6 6 6 6 6 6 6 6 6 6 6 6 6 6 6 6 6 6 6 6 6 6 6 6 6 6 6 6 6 6 6 6 6 6 6 6 6 6 6 6 6 6 6 6 6 6 6 6 6 6 6 6 6 6 6 6 6 % O.F.X.fXO.% 6 6 6 6 6 % z +.N o.6 6 6 6 6 6 m s.X.6 6 6 6 % N v N +.o.a.v % 6 o.+.a.J.J.F.F.F.K.",
"6 6 6 6 6 6 6 6 6 6 6 6 6 6 6 6 6 6 6 6 6 6 6 6 6 6 6 6 6 6 6 6 6 6 6 6 6 6 6 6 6 6 6 6 6 6 6 6 6 6 6 6 6 6 6 6 6 6 6 6 6 6 6 6 6 6 6 6 6 6 6 6 6 6 6 6 6 6 6 6 6 6 6 6 6 6 6 6 6 6 6 6 6 6 6 6 6 6 6 6 6 6 6 6 6 6 6 6 6 6 6 6 6 6 6 6 6 6 6 6 6 6 6 6 6 6 6 6 6 6 6 6 6 6 6 6 6 6 6 6 6 6 6 6 6 6 6 6 6 6 6 6 6 6 6 6 6 6 6 6 6 6 6 6 6 6 6 6 6 6 6 6 6 6 6 6 6 6 6 6 6 6 6 6 6 6 6 6 6 6 6 6 6 6 6 6 6 6 6 6 6 6 6 6 6 6 6 & N a.K.fXs.+ 6 6 6 6 6 & l m s l 6 6 6 6 6 6 N s m m 6 6 6 6 6 X.z s o.l v 6 6 o.+.s.s.a.K.T.a.a.",
"6 6 6 6 6 6 6 6 6 6 6 6 6 6 6 6 6 6 6 6 6 6 6 6 6 6 6 6 6 6 6 6 6 6 6 6 6 6 6 6 6 6 6 6 6 6 6 6 6 6 6 6 6 6 6 6 6 6 6 6 6 6 6 6 6 6 6 6 6 6 6 6 6 6 6 6 6 6 6 6 6 6 6 6 6 6 6 6 6 6 6 6 6 6 6 6 6 6 6 6 6 6 6 6 6 6 6 6 6 6 6 6 6 6 6 6 6 6 6 6 6 6 6 6 6 6 6 6 6 6 6 6 6 6 6 6 6 6 6 6 6 6 6 6 6 6 6 6 6 6 6 6 6 6 6 6 6 6 6 6 6 6 6 6 6 6 6 6 6 6 6 6 6 6 6 6 6 6 6 6 6 6 6 6 6 6 6 6 6 6 6 6 6 6 6 6 6 6 6 6 & 6 6 6 6 6 6 6 6 s 6 6 6 6 6 6 6 6 6 6 6 & 6 6 6 6 6 6 6 6 & 6 & & 6 6 6 6 6 % & 6 % & & 6 6 o.+.O.O.o.s.s.o.O.",
"l z z z z z z z z z z z z z z v v v v v v v v z z z z z z z z z v v v v v v v v v v v v v v v v v v v v v v v v v v v v v v v v v v v v v v v v v v v v v v v v v v v v v v v v v v v v v v v v v v v v v v v v v v v v v v v v v v v v v v v v v v v v v v v v v v v v v v v v v v v v v v v v v v v v v v v v v v v v v v v v v v v v v v v v v v v v v v v v v v v v v v v v v v v v v v v v v v v v v v v v z 6 6 6 6 6 6 6 6 l m l 6 6 6 6 6 6 6 6 6 6 6 6 6 6 6 6 6 6 6 6 6 6 6 6 6 6 6 6 6 6 6 6 6 6 6 m 6 w w w 6 6 w 6 ",
"#.n h h h h h h h h h h h N %.p s s s s s s p %.N h h h h h @. .s s s s s s s s s s s s s s s s s s s s s s s s s s s s s s s s s s s s s s s s s s s s s s s s s s s s s s s s s s s s s s s s s s s s s s s s s s s s s s s s s s s s s s s s s s s s s s s s s s s s s s s s s s s s s s s s s s s s s s s s s s s s s s s s s s s s s s s s s s s s s s s s s s s s s s s s s s s s s s s s s s s s s s s s z N 6 6 6 6 6 6 s N 6 N s 6 6 6 6 6 6 0 0 0 9 0 - 9 6 6 9 - 0 9 9 0 - 9 6 6 9 - 0 9 0 0 0 6 6 m 6 6 6 6 6 6 6 6 ",
"hXP K K K K K K K T K K L K.8X& l p s s s l & wXp.L T K P L aX&.* l s 7 j j a a p s s s s s s s s s s s s s s s s d s s s s s s s s s s p d s s s s s s s s d s s s s p d s p s s s s u <.e y l e p d s p s d s w l s s s s s s s s s s s s 9 *.} t t e s s d p s s s s s s s s s s d s s s s s s w l $.k k s s p d s p s s s d p s p d s s s d s p s d p s =.n l l s s s s s s s s s s s s s s s s s d p s s s 6 z l & 6 6 6 6 s z # v s 6 6 6 6 6 6 ; ; ; - ; ; - 6 6 9 ; ; ; ; ; ; 9 6 6 - ; ; - ; ; ; 6 6 m 6 6 6 6 6 6 6 6 ",
"pXK J J J J J J J K J J A d.8X* s & 6 6 6 s * 8X=.J K J J A J.&.+ s 6 5 j 3 , , & 6 6 6 6 6 6 6 6 6 6 6 6 6 6 6 6 s 6 6 6 6 6 6 6 6 6 6 & s 6 6 6 6 6 6 6 6 s 6 6 6 6 & s 6 6 6 6 6 p y } r r e 6 6 p w & 6 s 6 & d 6 6 6 6 6 6 6 6 6 6 6 6 $ *.} r r 7 6 6 s & 6 6 6 6 6 6 6 6 6 6 s 6 6 6 6 6 6 % k $.0 s 7 6 & s 6 6 6 6 6 s & 6 & s 6 6 6 s 6 & 6 s & 6 =.n 0 0 9 6 6 6 6 6 6 6 6 6 6 6 6 6 6 6 6 s & 6 6 6 & s z & 6 6 6 6 s v % v s 6 6 6 6 6 6 ; ; ; - ; ; - 6 6 9 ; ; - - ; ; 9 6 6 - ; ; - ; ; ; 6 6 m 6 6 6 6 6 6 6 6 ",
"pXK J J J J J J J P J J A d.8X* s 6 6 6 6 d * 8X=.L K J J A J.8X  s w 5 j 4 w p w 6 6 6 6 6 6 6 6 6 6 6 6 6 6 6 6 s 6 6 6 6 6 6 6 6 6 6 6 s 6 6 6 6 6 6 6 6 s 6 6 6 6 6 s w 6 6 6 6 p y } r t e 6 6 s s 6 6 s 6 6 d 6 6 6 6 6 6 6 6 6 6 6 6 $ *.} e e 7 6 6 s 6 6 6 6 6 6 6 6 6 6 6 s 6 6 6 6 6 6 & k $.s k w 6 6 s w 6 6 6 6 s 6 6 6 s 6 6 6 s 6 6 w s 6 6 =.n 0 0 9 6 6 6 6 6 6 6 6 6 6 6 6 6 6 6 6 s 6 6 6 6 6 s z & 6 6 6 6 s X.v X.s 6 6 6 6 6 6 ; ; ; - ; ; - 6 6 9 ; ; - - ; ; 9 6 6 - ; ; - ; ; ; 6 6 m 6 6 6 6 6 6 6 e ",
"pXK J J J J J J J P J J A d.8X* s 6 6 6 6 s $ pX=.L K J J J p.lXpX..& 5 j 4 w , w 6 6 6 6 6 6 6 6 6 6 6 6 6 6 6 6 s 6 6 6 6 6 6 6 6 6 6 6 s 6 6 6 6 6 6 6 6 s 6 6 6 6 6 s w 6 6 6 6 p y } r t e 6 6 s p 6 6 s 6 6 d 6 6 6 6 6 6 6 6 6 6 6 6 $ *.} r e 7 6 6 s 6 6 6 6 6 6 6 6 6 6 6 s 6 6 6 6 6 6 & k $.s k w 6 6 s w 6 6 6 6 s 6 6 6 s 6 6 6 s 6 6 6 s 6 6 =.n 0 0 9 6 6 6 6 6 6 6 6 6 6 6 6 6 6 6 6 s 6 6 6 6 6 s z & 6 6 6 6 s v & v s 6 6 6 6 6 6 ; ; ; - ; ; - 6 6 9 ; ; - - ; ; 9 6 6 - ; ; - ; ; ; 6 6 m 6 6 6 6 6 $ u KX",
"pXK J J J J J J J K J J A d.8X$ s 6 6 6 6 s & pX=.L K J J J P T sX8X* 7 j 4 w p w 6 6 6 6 6 6 6 6 6 6 6 6 6 6 6 6 s 6 6 6 6 6 6 6 6 6 6 6 s 6 6 6 6 6 6 6 6 s 6 6 6 6 6 s w 6 6 6 6 p y } r t d 6 6 s s 5 6 s 6 6 d 6 6 6 6 6 6 6 6 6 6 6 6 $ *.} r e 7 6 6 s 6 6 6 6 6 6 6 6 6 6 6 s 6 6 6 6 6 6 & k $.s k w 6 6 s w 6 6 6 6 s 6 6 6 s 6 6 6 s 6 6 6 s 6 6 =.n 0 0 9 6 6 6 6 6 6 6 6 6 6 6 6 6 6 6 6 s 6 6 6 6 6 s z & 6 6 6 6 s v # v s 6 6 6 6 6 6 ; ; ; - ; ; - 6 6 9 ; ; - - ; ; 9 6 6 9 - 0 9 ; ; ; 6 6 m 6 6 6 6 $ u JXJX",
"pXL J J J J ) ) ) ) L J J p.8X& s 6 6 6 6 s 6 pXI L K J J J P A d.8X& 5 j 3 < * w 6 6 6 6 6 6 6 6 6 6 6 6 6 6 6 6 s 6 6 6 6 6 6 6 6 6 6 6 s 6 6 6 6 6 6 6 6 s 6 6 6 6 6 s w 6 6 6 6 p y } r y r 6 6 s w H 9 s 6 6 d 6 6 6 6 6 6 6 6 6 6 6 6 $ *.} r e 7 6 6 s 6 6 6 6 6 6 6 6 6 6 6 s 6 6 6 6 6 6 & k $.s k w 6 6 s w 6 6 6 6 s 6 6 6 s 6 6 6 s 6 6 6 s 6 6 =.n 0 0 9 6 6 6 6 6 6 6 6 6 6 6 6 6 6 6 6 s 6 6 6 6 6 s z & 6 6 6 6 s v % v s 6 6 6 6 6 6 ; ; ; - ; ; - 6 6 9 ; ; - - ; ; 9 6 6 C C C : - ; ; 6 6 m 6 6 6 6 6 u.KXy ",
"pXL J J J L g.g.g.g.K J J p.8X& s 6 6 6 6 e 5 pXI L K J J J P J d.pX= 5 4 4 c #.w 6 6 6 6 6 6 6 6 6 6 6 6 6 6 6 6 s 6 6 6 6 6 6 6 6 6 6 6 s 6 6 6 6 6 6 6 6 s 6 6 6 6 6 s w 6 6 6 6 p y } r K R 5 6 s p ^.h e 6 6 d 6 6 6 6 6 6 6 6 6 6 6 6 $ *.} r e 7 6 6 s 6 6 6 6 6 6 6 6 6 6 6 s 6 6 6 6 6 6 & k $.s k w 6 6 s w 6 6 6 6 s 6 6 6 s 6 6 6 s 6 6 6 s 6 6 =.n 0 0 9 6 6 6 6 6 6 6 6 6 6 6 6 6 6 6 6 s 6 6 6 6 6 s z & 6 6 6 6 s v % v s 6 6 6 6 6 6 ; ; ; - ; ; - 6 6 9 ; ; ; ; ; ; 9 6 6 R.).).W 9 ; ; 6 6 m 6 6 6 & y JX0.. ",
"pXL J J J K ` g.g.g.K J J =.8X& s 6 6 6 6 h h pXI L K J J J P J =.lX#.& +.hX8XhX#.* 6 6 6 6 6 6 6 6 6 6 6 6 6 6 6 s 6 6 6 6 6 6 6 6 6 6 6 s 6 6 6 6 6 6 6 6 s 6 6 6 6 6 s w 6 6 6 6 p y } i E _.6 6 w g =Xg e 6 6 d 6 6 6 6 6 6 6 6 6 6 6 6 $ *.} r e 7 6 6 s 6 6 6 6 6 6 6 6 6 6 6 s 6 6 6 6 6 6 & k $.s k w 6 6 s w 6 6 6 6 s 6 6 6 s 6 6 6 s 6 6 6 s 6 6 =.n 0 0 9 6 6 6 6 6 6 6 6 6 6 6 6 6 6 6 6 s 6 6 6 6 6 s z & 6 6 6 6 s v % v s 6 6 6 6 6 6 ; ; ; - ; ; - 6 5 W ).R.R.R.R.).W 5 6 R.).).R.R.).R.- 6 m 6 6 6 $ 1.JXu   ",
"gXL J J J K ` g.g.g.K J J =.8X& s 6 6 6 s jXjXgXJ K K J J J K J J F.kX .q.H.A K.&.* 6 6 6 6 6 6 6 6 6 6 6 6 6 6 6 s 6 6 6 6 6 6 6 6 6 6 6 s 6 6 6 6 6 6 6 6 s 6 6 6 6 6 s w 6 6 6 6 p y <.5 =.AX- 5 w v CXx p 6 6 d 6 6 6 6 6 6 6 6 6 6 6 6 $ *.} r e 7 6 6 s 6 6 6 6 6 6 6 6 6 6 6 s 6 6 6 6 6 6 & k $.s k w 6 6 s w 6 6 6 6 s 6 6 6 s 6 6 6 s 6 6 6 s 6 6 =.n 0 0 9 6 6 6 6 6 6 6 6 6 6 6 6 6 6 6 6 s 6 6 6 6 6 s z & 6 6 6 6 s v % v s 6 6 6 6 6 6 ; ; ; - ; ; - 6 5 W ).).R.R.).).W 5 6 R.).).R.).).R.- 6 m 6 6 6 $ 1.KXr X ",
"gXL J J J K g.g.g.g.P J J =.8X& s 6 6 $  .hXJ J J K P T K J K J J Z J.#.q.S.Z J.&.* 6 6 6 6 6 6 6 6 6 6 6 6 6 6 6 s 6 6 6 6 6 6 6 6 6 6 6 s 6 6 6 6 6 6 6 6 s 6 6 6 6 6 s w 6 6 6 6 p y <.% yXMXl % 6 X.MXx p 6 6 d 6 6 6 6 6 6 6 6 6 6 6 6 $ *.} r e 7 6 6 s 6 6 6 6 6 6 6 6 6 6 6 s 6 6 6 6 6 6 & k $.s k w 6 6 s w 6 6 6 6 s 6 6 6 s 6 6 6 s 6 6 6 s 6 6 =.n 0 0 9 6 6 6 6 6 6 6 6 6 6 6 6 6 6 6 6 s 6 6 6 6 6 s z & 6 6 6 6 s v % v s 6 6 6 6 6 6 ; ; ; - ; ; - 6 5 W ).).R.R.).).W 5 6 R.).).R.).).R.- 6 m 6 6 6 $ } JX3.. ",
"gXL J J J K g.g.g.g.P J J =.8X& s 6 6 $  .aXZ J J J T g.) J K J J L K.wXhXi.A F.q.* 6 6 6 6 6 6 6 6 6 6 6 6 6 6 6 s 6 6 6 6 6 6 6 6 6 6 6 s 6 6 6 6 6 6 6 6 s 6 6 6 6 6 s w 6 6 6 6 p y <.5 yXNX..* 6 @.CXx p 6 6 d 6 6 6 6 6 6 6 6 6 6 6 6 $ *.} r e e 6 6 s 6 6 6 6 6 6 6 6 6 6 6 s 6 6 6 6 6 6 & k $.s k w 6 6 s w 6 6 6 6 s 6 6 6 s 6 6 6 s 6 6 6 s 6 6 =.n 0 0 9 6 6 6 6 6 6 6 6 6 6 6 6 6 6 6 6 s 6 6 6 6 6 s z & 6 6 6 6 s v % v s 6 6 6 6 6 6 ; ; ; - ; ; - 6 5 W ).).R.R.).).W 5 6 R.).).R.).).R.- 6 m 6 6 6 6 e JXu.. ",
"gXL J J J K g.g.g.g.T L L =.pX& s 6 6 $  .aXL J J J ) g.) J K J J K K K.m.( A K.8X* 6 6 6 6 6 6 6 6 6 6 6 6 6 6 6 s 6 6 6 6 6 6 6 6 6 6 6 s 6 6 6 6 6 6 6 6 s 6 6 6 6 6 s w 6 6 6 6 p y <.5 yXjX&.* 6 =.CX .p 6 6 d 6 6 6 & % 6 6 6 6 6 6 6 $ *.} r e 6 & 6 s 6 6 6 6 6 6 6 6 6 6 6 s 6 6 6 6 6 6 & k $.s k w 6 6 s w 6 6 6 6 s 6 6 6 s 6 6 6 s 6 6 w s 6 6 =.n 0 0 9 6 6 6 6 6 6 6 6 6 6 6 6 6 6 6 6 s 6 6 6 6 6 s z & 6 6 6 6 s v % v s 6 6 6 6 6 6 ; ; ; - ; ; - 6 5 W ).).R.R.).).W 5 6 R.).).R.R.).R.- 6 m 6 6 6 6 & 0.JX1.",
"gX( ) ) ) ) f.) ) g.) ) ) S.wXO r O 5 O | aXA J T ) ` g.) J K J J K L A ~ ~ A d.8X* 6 6 6 6 6 6 6 6 6 6 6 6 6 6 6 s 6 6 6 6 6 6 6 6 6 6 5 s 6 5 6 6 6 6 6 6 s 6 6 6 6 6 s 6 6 6 5 6 p y <.5 yXgX&.+ 6 =.CX .p 6 & d 6 6 & c #.& 7 6 6 5 5 6 $ *.} r 7  .c & s 5 5 7 7 6 6 6 6 6 6 6 s 6 6 6 6 6 6 & k $.s s 7 6 6 s 6 6 6 6 6 s & & % p 6 % % p & % 6 p % % =.q 0 9 6 & % & % % % % % % % % % % & % & p % & % & # s z & 6 6 6 6 s v % v s 6 6 6 6 6 6 ; ; ; - ; ; - 6 5 W ).).R.R.).).W 5 6 R.).).R.).).R.- 6 m 6 6 6 6 & e qXJX",
"jX}.&X&X&X&X&X&X&X&X&X&X&X%XgXZ J Z H C =.sXF T h.g.g.g.) J P L J P K J ( ( L d.8X= w 6 6 6 7 6 6 w w p p p a a 2 f a 3 3 3 3 3 3 3 3 a 2 f a 2 a a a a p p d w 6 6 7 6 s s 6 9 g w s u <.r aXaX&.$ w ;.MXb  .hX6 d p 6 @ &.8X6 wXw 6 h g 7 9 *.} t & 8XsX* k q > 8X%.* 6 6 6 6 6 & s 6 6 6 6 6 6 6 k &.s k s w 6 s w & 6 6 s l s k k v x x x  .x x  . .x x =.@. . . .x x x x x x x x x x x x x x x x  .x x x x x l z & 6 6 6 6 s v % v s 6 6 6 6 6 6 ; ; ; - ; ; - 6 5 W ).).R.R.).).W 5 6 R.).).R.).).R.- 6 m 6 6 6 6 6 $ e u.",
"zX X&X&X&X&X$X$X$X$X&X&X$X&XjXG R E Q.W.:.sX^. X*X$X$X$X&XT P K P T P P ( ( K i.nXyXl s d j j V V V j j j j j j j V j j j j j j j j j j j V j j j j j j j j V V V V j j z l e H ~.k z } 3.d pXaX8Xp p K.MXw.w.CX1.1.1.1.} 8XwX..CXv r !.E r g 1.| c p 8XsXH d K.G.cX8X*.1.1.1.1.*.*.#.c s s d d d p %.pXz v l l s l v @.$.$.&.&.$.$.$.&.$.$.$.$.$.$.$.$.$.$.:.;.$.$.$.$.$.$.$.$.$.$.$.$.$.$.$.$.$.$.$.$.$.$.$.$.$.z z & 6 6 6 6 s v % v s 6 6 6 6 6 6 ; ; ; - ; ; - 6 5 W ).).R.R.).).W 5 6 R.).).R.).).R.- 6 m 6 6 6 6 6 6 6 $ ",
"jX` g.g.g.g.g.g.g.g.g.g.` j.gXC H : 9 * #.aXZ T h.h.#X&X&X*X}.E J J L J ( ~ L L I hX..3 j 3 3 2 2 , , , , , , , , f w , , , , , , , , , , a p , , , , , , , f , 2 2 3 3 j j , H ^.5 0 y | 6 pXJ.q.% } yXMX6.6.CX} u y y d q.wX| CX| 5 ^.E 9 - *.y r % 8XzX~.+.gXbXNXq.i y y y y } | *.*.| } 6 $ 6 # ..wX#.8X& 6 x $.$.%. .x x b k k 7 x k e 8 b k 8 k x 8 t =.n b b k k k k k k k k k k k k k k k e k x 8 k k k 7 d z & 6 6 6 6 s v % v s 6 6 6 6 6 6 ; ; ; - ; ; - 6 5 W ).).R.R.).).W 5 6 R.).).R.).).R.- 6 m 6 6 6 6 6 6 6 6 ",
"jX` h.h.h.h.h.h.h.h.h.h.h.g.kXAXAXAXn - &.sXF T h.h.h.g.g.h.&X!./.T J J ( ~ L K Z aX6.3 p w w p 2 2 2 2 2 2 2 2 2 f p 2 2 2 2 2 2 2 2 2 , f a 2 2 2 2 2 2 p f 2 p p w , a a 3 ~ +X6 p y | r pXJ.8X} u J.NX#.#.CX .y y i Z -XwXc CX6.| |.E E Z | *.&.+ 8XVX XJ gXnXNX&.r y y y y r y c y } | *.y & % #.wX#.CX8X%.$.%.k t k k x v k k  . .x k k  .x k x v k k =.@.b b b x k k k k k k k k k k k k k k x v k x k x k l z & 6 6 6 6 s v % v s 6 6 6 6 6 6 4 4 4 3 4 4 3 6 5 ! 1X2X,X,X2X1X{ 5 6 <X1X2X<X2X2X,X3 7 m 6 6 6 6 6 $ y qX",
"sX` h.h.h.h.h.h.h.h.h.h.h._ =.d.p.gX$.> &.sXF T h.h.h.h.h.h.g.L R |.R H ( ~ L K { aX#.< p 2 2 2 2 2 2 2 2 2 2 2 2 f p 2 2 2 2 2 2 2 2 2 , f a , 2 2 2 2 2 2 f 2 2 2 2 , a a < U kX3 0 y <.w pXJ.8Xr e uXlX#.#.CX..y ..cXI DXlX .CX%.i _.E R Z | 8XwXi wXMX*XJ gXNXCX&.r }  .y  .&.y  .y y t } *.| @ #.hX&.CXhXb k x b U t k x v k 9 8Xq.s x k v x k x v k k =.@.b b b k k k k k k k k k k k k k k k x v k k k k k l z & 6 6 6 6 s v % v s 6 6 6 6 6 6 4 4 4 3 4 4 3 6 5 ! 1X1X,X,X1X1X! 5 6 ,X1X1X,X1X1X2X3 7 m 6 6 6 6 $ y qXJX",
") h.h.h.h.h.h.h.h.h.h.h.h.h.Y Y F J.q.- 8XsXF T h.h.h.h.h.h.h.Y L T |.R ~ ( ~ ( F aX#.1 p 2 2 p p 2 2 2 2 2 2 2 2 f p 2 2 2 2 2 2 2 2 2 , f a , 2 2 2 2 2 2 f 2 2 2 2 , a a < =.MXj 3 y } y gXF.8Xr y uXlX#.#.CX| i *.CXwXZXNX| CX#.5 *Xd.l.H | 8XNX| yXkX*XY jXnXMXq.w q.wXr | wXi | i i y y y *.y #.hX&.CXwXs s 8X;.^.k k x v k 9 8X8Xs x k v x k b v k k =.@.b b b k k k k k k k k k k k k k k k x v k k k k k l z & 6 6 6 6 s v % v s 6 6 6 6 6 6 4 4 4 3 4 4 3 6 5 ! 1X1X,X,X1X1X! 5 6 <X1X1X,X1X1X,X3 7 m 6 6 6 6 6 0.JX} ",
"` h.h.h.h.h.h.h.h.h.h.h.h.h.T Y Y l.jXiXjXS.L T h.h.h.h.h.h.h.Y Y Y Y /.].~ ( ~ A J.&.1 p p p < , p 2 2 2 2 2 2 2 f p 2 2 2 2 2 2 2 2 2 , f a , 2 2 2 2 2 2 f 2 2 2 2 , a a < =.CX .4 u <.1.gXK.pXr h sXlX&.$.SX-.E +X=X-X-X-X!.-X/.^.:X|.|././.*X*X(./.:XXXoXXX*X:X/.(./.*X(.^.*X~.Q.Y n y i y y | 8XnXpXCXhXk 7 wX;.^.Q.k x v k 9 wX8Xs k k v k k y x k k =.@.b b b k k k k k k k k k k k k k k k x v k k k k k l z & 6 6 6 6 s v % v s 6 6 6 6 6 6 4 4 4 3 4 4 3 6 5 ! 1X1X,X,X1X1X! 5 6 <X1X1X,X1X1X,X3 7 m 6 6 6 & e JXu.. ",
"` h.h.h.h.h.h.h.h.h.h.h.h.h.T Y T E ^.~.^.R K T h.h.h.h.h.h.h.T Y T Y Y  X[ ~ K A J.q.1 p , 1 M l , p 2 2 2 2 2 2 f p 2 2 2 2 2 2 2 2 2 , f a , 2 2 2 2 2 2 f 2 2 2 2 , a a < =.VXw.3 Q 8...jXd.pXi L *X*X|.|.:X/.E.!.=X=XAX-X=XDXR P BX=XzXK.aXZXkXG.gXBXDXsXBXVXVXlXpXkXBXaXsXzXU.=X*X|./.^.~.y i 8XNX8XCXhXt H hX;._./.k x v x 9 wX8Xs b k v  .@.~.n t k =. .b b b k k k k k k k k k k k k k k k x v k k k k k l z & 6 6 6 6 s v % v s 6 6 6 6 6 6 4 4 4 3 4 4 3 6 5 ! 1X1X,X,X1X1X! 5 6 <X1X1X,X,X1X,X3 7 m 6 6 6 $ 1.JX}   ",
"` h.h.h.h.h.h.h.h.h.h.h.h.h.T Y T K K K L T Y T h.h.h.h.h.h.h._ ` T Y L [  XL ~ A J.q.1 p d 8XNX8X< p 2 2 2 2 2 2 f p 2 2 2 2 2 2 2 2 2 , f a , 2 2 2 2 2 2 f 2 2 2 2 , a a < =.FXq.2 3.3.$.jXd.aXQ._.*X=X=.q.MX8X0.wXCXCXCXMXMXCXNXcXCXCXCXCXCXMXCXcXNXMXMXzXMXMXCXkX8XNXCXwXCXCXbXcXCXMXBXSX-X&XA 8XNXpXZXgXy ~.kXG.-X/.k Q.!.b 7 hX8Xg Q.b l &.iX_.Y 8 k -.-.b b b k k k k k k k k k k k k k k k x v k k k k k l z & 6 6 6 6 s v % v s 6 6 6 6 6 6 4 4 4 3 4 4 a 6 5 ! 1X1X,X,X1X1X! 5 6 <X1X1X,X,X1X,X3 7 m 6 6 6 $ 1.KXr X ",
"` h.h.h.h.h.h.h.h.h.h.h.h.h.T Y T Y Y Y Y T Y T h.h.h.h.h.h.h.h.h.T Y Y { }.}.~ L d.NX$.1 &.wXM 8X, p 2 2 2 2 2 2 f p 2 2 2 2 2 2 2 2 2 , f a , 2 2 2 2 2 2 f 2 2 2 2 , a a < ;.SXq.f 3.0.BXgX].XXE.Q.kXNXNXMXCXVXkXNXMXCXCXkXBXMXuX=XCXjXBXwXwX-XsX| yXaXCX-XsXlXlX-XC 8XlXyXCXCX8X..CX8XS.gXCXCXBXzXNXhXMXhXt ^.zX8XMX*Xb /.XXJ 7 nX8Xg /.b l 8XsX-X8X#. .gXgXb b b k k k k k k k k k k k k k k k x v k k k k k l z & 6 6 6 6 s v % v s 6 6 6 6 6 6 4 4 4 3 4 4 3 6 O ! 1X1X,X,X1X1X! 5 6 ,X1X1X,X1X1X1X3 7 m 6 6 6 $ 1.JX}   ",
"` h.h.h.h.h.h.h.h.h.h.h.h.h.T Y T Y Y Y Y T Y T h.h.h.h.h.h.h.h.h.T Y ( ( (  X( K L K.8X= w.&.p wX< p 2 2 2 2 2 2 f p 2 2 2 2 2 2 2 2 2 , f a , 2 2 2 2 2 2 f 2 2 2 2 , a a 1 s.SXq.3.} 0.MX-XoXsXwXNXMXNX8XH.lX=X&XNXaXMXNXU.zXNX=.&XkXAXSX8X8X=XjX*.pXaXMXZXaXkXlXsXD 8XkXCXCXCX8X..CX8XpXU.NXNXbXMXMXCXCXjX=.oXzXwXMX|.h -XXX*X..nXpX~./.x l 8XsX-XCXnX#.MXhXb b b k k k k k k k k k k k k k k k x v k k k k k l z & 6 6 6 6 s v % v s 6 6 6 6 6 6 f 4 j a j 4 a 6 5 { 2X,X<X<X,X2X{ 5 6 <X2X2X<X<X<X<Xa 6 m 6 6 6 & e JX0.. ",
"` h.h.h.h.h.h.h.h.h.h.h.h.h.T Y T Y Y Y Y T Y T h.h.h.h.h.h.h.h.h.T ( ( ( ( ].}.L L i.pX1 q.U.!.pX, p 2 2 2 2 2 2 f p 2 2 2 2 2 2 2 2 2 , f a , 2 2 2 2 2 2 f 2 2 2 2 , a a 1 K.DXtXu f aXDXoXJ.CXhXgXgXJ.q.G.pX=X%XCXaXNXlXU.BXNXS.U.gXzXzX8XwX&XAX8X8XS.%XMX=.kXaXaX&XhXgXCXCXCXwXq.CXNXMXsXMXCXjXsXzXSXzXCXCX-XzXwXMXAXJ.NXsX-XnXCXyXoX/.n g 8XzXAXCXhX#.MXhX@. .k k k k k k k k k k k k k k k k k b k k k k k l z & 6 6 6 6 s v % v s 6 6 6 6 6 6 g g g s k k s 6 5 A ^.E.E._ #X&XU 5 6 ~./.(.-.cXcXcXt 6 m 6 6 6 6 6 0.JX} ",
"` h.h.h.h.h.h.h.h.h.h.h.h.h.T Y T Y Y Y Y T T ` h.h.h.h.h.h.h.h.h._ [ Y [ ] ` $X( L i.pX1 q.U.Y pX, p 2 2 2 2 2 2 f p 2 2 2 2 2 2 2 2 2 , f a , 2 2 2 2 2 2 f 2 2 2 2 , a a 1 G.AXpXy U XX:XMXNXkX#.NXNXF.8XG.uXsXBXCXJ.lXaXd.nXNXJ.CXaXzXjXsXsX%X&XgXpXI R kXI kXK.aXDXNXS.CXCXCXnXMXCXCXzXsXBXCXSXsXMXjX X*XSXMXCXCXCXCXZXMXCXAXCXCXaXXX|.R -.bXCXCXMXhX&.CXhXhX&.b  .x x x x x x x x x x x x x x  . .x x x x x l z & 6 6 6 6 s v % v s 6 6 6 6 6 6 9 p 9 s l l s 6 5 A '.'.`.] {.{.U 5 6 ~.^.^.-.cXlXhXt 6 m 6 6 6 6 $ y KXJX",
"` h.h.h.h.h.h.h.h.h.h.h.h.h.T Y T Y Y Y Y ` h.h.h.h.h.h.h.h.h.h.h.v.' Y [ [.h.{. XL ^ pX1 q.K.H pX, 2 2 2 2 2 2 , f 2 2 2 2 2 2 2 2 2 2 , f a , 2 2 2 2 2 2 f , 2 2 p , a a 1 G.AXaXi Y XXVXCX) S.wXjXF.S.nXlXp.aXCXCXK.lXI J d.aXkXMXH.BXsXSXSXk.}.zXgXI I d.L jXd.uXSXjXE.DXCXjXMXCXCXCXSXBXsXMXBXsXMXjX^ sX:X_.SXCXMXCXCXCXCXCXCXCXCXMXVXMXMXCXCXCXCXCXMXCXCXCXMXNXNXNXNXNXNXNXNXNXNXNXNXNXNXNXNXNXNXNXNXNXNXNX%.d 6 6 6 6 6 s v % v s 6 6 6 6 6 p ` ` ` h 7 s w 6 5 A '.'.`.' $X$XU 5 6 ~.^.^.-.cXnXhXt 6 m 6 6 6 6 6 $ y qX",
"` h.h.h.h.h.h.h.h.h.h.h.h.h.T Y T Y Y Y Y ` h.h.h.h.h.h.h.h.h.h._ ] h.Y [ [.h._  XE I pX1 q.K.H pXw 2 p p p p p 2 f p p p p p p p p p p 2 f a 2 p p p p p p f 2 p p < , f a 2 yXAXaXM oXzXCXdX[ ].BXzXF f.CXBXF yXCXMXd.pXK I J s.ZX%Xd.CXU.MXZXh. XSXlXI I ^ I -XR yXVX*XL S.hXE.AXBXDXBXjXNXU.MXNXaXNXgXY pXCX=XXX*X=XVXCXNXnXCXzXgXCXzX:XVXCXzXBXCXBXsX8XCXNXNXuX-...%.%.%.%.%.%.%.%.%.%.%.%.%.%.%.#.%.%.%.%.%.l z & 6 6 6 6 s v % v s 6 6 6 6 5 g $X$X$X=.$.4.@.6 5 A '.'.`.' $X$XU 5 6 ~.^.^.-.cXnXhXt 6 m 6 6 6 6 6 6 6 & ",
"h.k.h.h.h.h.h.h.h.k.h.h.h.h.) T T T T T T h.k.h.h.h.k.h.h.h.k.h.v.v.v.` ] [.v.v.`  X~ kX=.8XK.H gXz f f f f f f f j f f f f f f f f f f f j f f f f f f f f j f f a 8XO.f f 3 yX=XpX~.-XCXgXgX_ }.*XF.^ j.MX=XY p.-XgXi.^ ^ ^ ^ p.BX_ K.MXk.AXVXg. XDXNX^ ^ i.^ |.Q.yXZX XI K.lXQ.XXXX^.AXsXNXP.BXMXaXkXgX) F.SXkXBXDX*X:X-X*X%XSXXXk.zXAX=X-XDXsXjXU.jX=XpXZXkXNXU.~.v n n n n n n n n n n n n n n n N n n n n n d z & 6 6 6 6 s v % v s 6 6 6 6 5 g &X$X&XL.dXfXJ.& 5 A '.'.`.' $X$XU 5 6 ~.^.^.-.cXnXhXt 6 m 6 6 6 6 6 6 6 $ ",
"` h.h.h.h.h.h.h.h.h.h.h.h.h.T Y T Y Y Y Y _ h.h.h.h.h.h.h.h.h._ ] v.h.h.[.[._ ' (  XD K.pXq.s.A gXt , 2 , 2 2 2 , f 2 , , , , , , , , 2 , f a , 2 , , , , 2 f , 2 , MXS.2 a , pX=XAX/.MXJ.~ p.x.[ _.K ^ h.&X~.I K ~.I I I I I I I P d.d.].R *XBXi. X&XH.p.I ^ U  XR H.MXT J d.pXR XXXXR ^.=XNXi.J.NXaXjXaXP p.oXDXVXVXgXsX-X&X*X*X/.|.:XXXXXXXXX|.*X|.*XXX*X*X*X*XXX_./././.XX/./././././././././././././././././.H l & 6 6 6 6 s v % v s 6 6 6 6 5 g &X$X&XF.dXdXH.6 5 A '.'.`.' {.$XU 5 6 ~.^.^.-.cXnXhXt 6 m 6 6 6 6 6 $ e u.",
"` h.h.h.h.h.h.h.h.h.h.h.h.h.T Y T Y Y Y Y h.h.h.h.h.h.h.h.h.h.' ' v.v._ [.[._ v.( [ }.I yX8Xd.L gXe 2 p 2 p p 2 2 f p 2 2 2 2 2 2 2 2 2 , f a 2 2 2 2 2 2 p f 2 2 p CXU.3 a u hXA.XXsXCX/ / ) b.^ ( I ^ ` /.}.U I ^ I I I I I I I I d.^ / ^ *XNXd.p.^ I d.^ I U  XR K.BXY I I U Q.!.` R ^.I.lXP P NXaXL.d.i.p.` gXzXzXuXP.!.U gXhXZ K.BXR !.!.XXT K.l.U.&XMXAXzXzXsXS.n U n ^.jX$.h n n n n n n n n n B n n n n n l z & 6 6 6 6 s v % v s 6 6 6 6 5 g &X$X&XF.dXdXH.6 5 A '.'.`.' $X$XU 5 6 ~.^.^.-.cXnXhXt 6 m 6 6 6 6 & e u.JX",
"` h.h.h.h.h.h.h.h.h.h.h.h.h.T Y T Y Y Y Y h.h.h.h.h.h.h.h.h.h.] _ v.v._ [.[._ v.( Y  X( pX8Xd.F gX..< p w < < , 2 f p 2 2 2 2 2 2 2 2 2 , f a , 2 2 2 2 2 2 f 2 2 a MXU.3 d 3.pX&X:XCXlX/ ^ ) b.^ / ^ ^ ) XX` I I ^ I I I I I I K p.d.^ i.^ |.J.d.p.p.i.p.d.I U  XR s.zXK I I I P T ^ I ^.U.aXI I lXaXS.i.p.i.i.H.F.NX=.K P L aXgXL s.BXT Q.Q./.I J T R !.CX-XzXzXBXwXH ^.t ^.lX#.7 t t t t t t t t c x t t t t t l z & 6 6 6 6 s v % v s 6 6 6 6 5 g &X$X$XF.dXdXH.6 5 A '.'.`.' $X$XU 5 6 ~.^.^.-.cXnXhXt 6 m 6 6 6 6 & 0.JX1.",
"` h.h.h.h.h.h.h.h.h.h.h.h.h.T Y T Y Y Y Y h.h.h.h.h.h.h.h.h.v.' _ v.v._ [.[._ ' ' ) ].`.pXNX^ L =XhX< w 4 Q.&Xh , f p 2 2 2 2 2 2 2 2 2 , f a , 2 2 2 2 2 2 f w < l NXsX4 } u pXXXzXhXdXp.^ ) n.^ ~ ^ ^ g.|.) ^ I ^ I I I I I I ^ d.i.^ ^ ^ /.d.d.p.p.p.i.d.^ I  XR =.d.I I I I I I ^ I }.k.=.i.P hXaXS.p.p.i.=.d.i.aXI P I L aXaXZ s.zXT P P T P P P I ^.jXU.kXAXZXcXE BXq.(.BX&.0 x k k k k k k k x v k k k k k l z & 6 6 6 6 s v % v s 6 6 6 6 5 g &X$X$XF.dXdXH.6 5 A '.'.`.' $X$XU 5 6 ~.^.^.-.cXnXhXt 6 m 6 6 6 6 e JXu.. ",
"` h.h.h.h.h.h.h.h.h.h.h.h.h.T Y T Y Y Y Y h.h.h.h.h.h.h.h.h.] _ _ v.v._ [.[._ ' v.` Y  XI B L L ^.pX, < =.kXlX@.< f p 2 2 2 2 2 2 2 2 2 , f a , 2 2 2 2 2 p r L F c NXsX4 3.u =X-XCXCXdX/ ^ ) n.^ ~ ~ ^ g.^.^ ^ I ^ I I I I I J p.d.^ i.^ ^ ` K.d.p.p.p.f.p.p.I  X` I I I I I I I I ^ I f.p.I i.I J.K.S.p.p.i.=.p.d.K P P P L aXaXL d.kXP I P P P P P I !.|.l.kX-XMXnXQ.CXhX^.MX&.0 x k k k k k k k x v k k k k k l z & 6 6 6 6 s v % v s 6 6 6 6 5 g &X$X&XF.dXdXH.6 5 A '.'.`.' {.$XU 5 6 ~.^.^.-.cXnXhXt 6 m 6 6 6 $ 1.JX1.. ",
"` h.h.h.h.h.h.h.h.h.h.h.h.h.` ` h.` Y Y Y h.h.h.h.h.h.h.h.' ' _ _ v.v._ [.[._ ' v.` K }.R A K L }.gXw 1 q.#.w.w.1 f p 2 2 2 2 2 2 2 2 2 , f a , 2 2 2 2 2 a r ~.^...lXsXB 3.d /.zXMXCXaX/ ^ ) n.^ ~ ~ ) f.I ^ ^ I ^ I I I I ^ J d.p.^ i.^ ^ / s.d.p.p.p.f.i.d.^  X) I I I I I I I I ^ I S.i.i.i.i.I i.L.i.f.p.i.I d.=.P P P P i.=.K d.lXK P P P P P P I !./.l.%X|.MXkX&XCXhXsXCX&.0 x k k k k k k k x v k k k k k l z & 6 6 6 6 s v % v s 6 6 6 6 5 g &X$X&XF.dXdXH.6 5 A '.'.`.' {.$XU 5 6 ~.^.^.-.cXnXhXt 6 m 6 6 6 $ 1.KXr X ",
"h.h.h.h.h.h.h.h.h.h.h.h.h.h.h.h.h.` Y Y Y h.h.h.h.h.h.h.h.] v._ _ v.v._ [.[._ ' v._ Y Y  XK L L U pXa 1 8X#.w.w.1 f p 2 2 2 2 2 2 2 2 2 , f a , 2 2 2 2 2 a r Q.^...gXsX5.u Z -XNXXXVXaX/ ^ ) n.^ ~ ^ ) f.I ^ ) I ^ I I I ^ ) I F.^ / i.^ ^ ^ s.d.p.p.p.f.^ d.p.) ^ I I I I I I I I ^ p.p.I i.i.i.=.p.L.p.f.p.i.I d.p.P P P P P P P =.aXK P P P P P P I Q.!.S.Q.|.NXSX=XCXMXBXCX&.6 k k k k k k k k x v k k k k k l z & 6 6 6 6 s v % v s 6 6 6 6 5 g &X$X$XF.dXdXH.6 5 A '.'.`.' $X$XU 5 6 ~.^.^.-.cXnXhXt 6 m 6 6 6 $ 1.JXu   ",
"h.h.h.h.h.h.h.h.h.h.h.h.h.h.h.h.h._ Y Y Y h.h.h.h.h.h.h.h.] v._ _ v.v._ [.[._ ' v._ Y K }.R J K H pXd 1 8X..&.q.1 f p 2 2 2 2 2 2 2 2 2 , f a , 2 2 2 2 2 a 2 l.jX=.aXsXs.i ^.VXH.E.-XF./ ^ ) n.^ ~ ^ ) c.I ^ ) I ^ I ^ I ) ) d.d.^ / i.^ ^ ^ s.d.p.p.p.x.^ p.M.^ i.I I I I I I I I ^ S.i.i.i.i.i.I p.L.p.f.f.i.=.p.d.P P P P P P P P P P P P P P P P P P P l.R |.aX=XkXCXMXBXZXG.-.@.t k k k k k k x v k k k k k l z & 6 6 6 6 s v % v s 6 6 6 6 5 g &X$X$XF.dXdXH.6 5 A '.'.`.' $X$XU 5 6 ~.^.^.-.cXnXhXt 6 m 6 6 6 & t JX0.. ",
"h.h.h.h.h.h.h.h.h.h.h.h.h.h.h.h.h.h.) ) ) h.h.h.h.h.h.h.' ' v._ _ v.v._ [.[._ ' ' _ Y K R }.J K J pXd 1 8X..#.q.1 f p 2 2 2 2 2 2 2 2 2 , f a , 2 2 2 2 2 p 3 U.BXK.J.gX8XA -XMX) / ( ^ d.^ x.n.^ ~ ^ ) c.I ^ f.I ^ I ^ I ) f.s.f.^ / i.^ i.^ s.d.p.p.p.x.i.i.m.f.f.I I I ^ I I I I p.S.I i.i.i.i.I p.L.p.S.f.i.=.i.d.i.P P P P P P P P P P P P P P P P P P l.T Q.Y *XMXkXNXzX-XsXSX8X9 x k k k k k x v k k k k k l z & 6 6 6 6 s v % v s 6 6 6 6 5 g &X$X&XF.dXdXH.6 5 A '.'.`.' $X$XU 5 6 ~.^.^.-.cXnXhXt 6 m 6 6 6 6 6 u.KXy ",
"h.h.h.h.h.h.h.h.h.h.h.h.h.h.h.h.h.h.h.h.h.h.h.h.h.h.h.h.] h.v._ _ v.v._ [.[._ ' ' _ Y Y Y  XY L J pXl 1 8XM #.8X1 f w , 2 2 2 2 2 2 2 2 , f a , 2 2 2 2 2 r A AXNXJ.K.m.hXE.SXlX) ^ ^ / d.^ x.n.) ~ ^ ) c.^ ^ f.I ^ I ^ ^ ) m.d.f.i./ f.i.p.^ s.d.p.p.p.z.i.i.f.f.f.I I I ) I I ^ I S.p.I i.i.i.i.I p.L.p.S.f.i.i.i.p.p.P P P P P P P T P P P P P P P P P P l.T P P |.CX%X=XAXXXNXVX8X7 x k k k k k x v k k k k k l z & 6 6 6 6 s v % v s 6 6 6 6 5 g &X$X&XF.dXdXH.6 5 A '.'.`.' {.$XU 5 6 ~.^.^.-.cXnXhXt 6 m 6 6 6 6 $ u JXJX",
"h.h.h.h.h.h.h.h.h.h.h.h.h.h.h.h.h.h.h.h.h.h.h.h.h.h.h.' ' h.v._ _ v.v._ [.[._ ' _ _ ` Y K }.}.J L pXc 1 8Xz ..aX3 r F Y , 2 2 2 2 2 2 2 , f a 2 2 2 2 2 2 r A AXnXaXK.) sX*XCXlX) ^ ^ / d.^ x.n.) ~ ^ ` c.~ ^ f.I ^ I ^ ^ ) M.p.x.^ / f.i.p.^ s.M.p.p.p.z.i.i.f.M.f.I I ^ f.I I ^ I S.i.i.i.i.i.i.=.f.I.f.N.f.=.i.p.i.S.P P P ) P P P T P P P P P P T P P P l.T T P |.MXI._.oX*XCX=XiXt k k k k k k x v k k k k k l z & 6 6 6 6 s v % v s 6 6 6 6 5 g &X$X&XF.dXdXH.6 5 A '.'.`.' $X$XU 5 6 ~.^.^.-.cXnXhXt 6 m 6 6 6 6 6 $ } KX",
"h.h.h.h.h.h.h.h.h.h.h.h.h.h.h.h.h.h.h.h.h.h.h.h.h.h.h.] _ _ v._ _ v.h._ [.[._ ' _ _ h.( K Y  XL L gXy 4 gXc p hXa h zXuX1 p , , , , , , , a a , , , , , 2 r J AXlXkXd.^ XXSXlXJ.) ^ ^ / d.^ x.n.) ~ ^ ` c.~ ^ f.I ^ I f.^ x.M.i.z.^ ^ f.i.p.^ s.M.f.p.p.z.f.p.x.M.m.) I ^ f.I ^ ^ p.S.i.i.i.i.f.i.i.f.I.f.A.f.=.i.f.i.S.p.K T ) P P P T P P P P P P T T P P k.T T P /.BXS.^.!.|.NX*XjXx n k k k k k x v k k k k k l z & 6 6 6 6 s v % v s 6 6 6 6 5 g &X$X$XF.dXdXH.6 5 A '.'.`.' $X$XU 5 6 ~.^.^.-.cXnXhXt 6 m 6 6 6 6 6 6 6 6 ",
"h.h.h.h.h.h.h.h.h.h.h.h.h.h.h.h.h.h.h.h.h.h.h.h.h.h.v.] h.v.v.h.h.v.v.h.[.[.v.v.v.h.v.( Y K }.` L gXd G.pX2 2 8Xd yXhXpX2 a a a a a a a a f a a a a a a a r K sXhXNX/ ~ |.MXp.~ x.^ ^ / d.^ x.n.) ^ ^ _ c.) ) c.^ ^ ^ x.) M.M.f.b.i.i.z.f.f.i.s.M.m.p.p.z.z.f.b.z.M.) I i.f.^ f.f.S.f.p.i.f.f.f.p.i.S.I.f.A.z.i.f.f.i.S.S.P ) ` P P ) ) P T P T P P ) f.P P @Xl.T T T nXd.I !.|.jX^.DXq.~.x x x x x x  .x x x x k l z & 6 6 6 6 s v % v s 6 6 6 6 5 g &X$X$XF.dXdXH.6 5 A '.'.`.' $X$XU 5 6 ~.^.^.-.cXnXhXt 6 m 6 6 6 6 6 6 6 6 ",
"k.k.h.h.h.h.h.h.h.k.h.h.h.h.h.k.k.h.h.h.h.k.h.h.h.k.#Xv.v.v.v.v.v.v.v.v.#X[.v.v.v.v.v.` ( ( ].$X~ gX..8X#.3 f pXm 8X#.pXf f f f f f f f f j f f f f f f f a s.aXJ.jX/ `.DXlX~ ) c.^ ^ p.d.) c.n.x.^ ) c.b.) ) b.) ) ) c.f.L.m.x.b.p.f.N.f.z.p.F.M.m.p.f.N.N.z.N.z.M.c.^ f.j.f.g.N.S.f.f.f.z.f.z.f.f.N.I.S.A.N.f.f.f.f.z.M.i.g.g.) ) g.f.) ) P ) f.f.g.f.f.P %Xl.f.f.T lXK.I Q.!. X^.-XpX^.%. . . . . .X.v  . . .x l z & 6 6 6 6 s v % v s 6 6 6 6 5 g &X$X&XF.dXdXH.6 5 A '.'.`.' {.$XU 5 6 ~.^.^.-.cXnXhXt 6 m 6 6 6 6 6 6 6 6 ",
"h.h.h.h.h.h.h.h.h.h.h.h.h.h.h.h.h.h.h.h.h.h.h.h.h.h.] _ _ _ v._ _ v.h._ [.[._ ' _ _ h.( Y Y ) $XY J.pX8X..< < 8Xc 8X..pX, , , w , , , < < a p , , , , , 2 1 s.aXY d./  XVXK.L ^ x.^ ^ / p.) x.n.x.~ ) c.c.^ ) c.) ^ ^ g.f.M.z.x.z.^ f.b.f.z.i.s.M.m.p.p.b.z.z.z.f.m.z.P f.j.f.) N.f.p.f.f.f.f.f.f.f.j.I.S.A.j.i.f.f.p.f.S.p.` g.T ) l.) T T P P ) ) ) f.T P @Xl.T T K aX=.K P I !.~.:XiX/.hXt k k k k x k k k k k l z & 6 6 6 6 s v % v s 6 6 6 6 5 g &X$X&XF.dXdXH.6 5 A '.'.`.' {.$XU 5 6 ~.^.^.-.cXnXhXt 6 m 6 6 6 6 6 6 6 6 ",
"h.h.h.h.h.h.h.h.h.h.h.h.h.h.h.h.h.h.h.h.h.h.h.h.h.v.' _ _ h.v._ _ v.v._ [.[._ ' _ _ h.) Y Y ) &X].A 8XhXM , < 8X .8XM gXH 3 p 1 < p < pXG.2 a 2 2 2 p p p < K.uXJ a.D -XNX~ ~ ^ c.^ ^ ^ x.x.c.n.c.^ ) c.c.^ ) c.f.f.f.g.M.m.z.z.b.i.f.b.f.z.i.F.M.m.p.f.b.z.N.b.z.z.M.) f.j.f.g.V.f.f.f.f.f.f.z.z.g.N.I.S.N.j.f.f.f.p.j.z.S.g.j.) f.g.f.) T ) ) f.f.g.g.f.P %Xl.T T P P P P P P P R XXgXzXMXx k k k x v k k k k k l z & 6 6 6 6 s v % v s 6 6 6 6 5 g &X$X$XF.dXdXH.6 5 A '.'.`.' $X$XU 5 6 ~.^.^.-.cXnXhXt & m s % 6 6 6 6 6 6 ",
"h.h.h.h.h.h.h.h.h.h.h.h.h.h.h.h.h.h.h.h.h.h.h.h.h.' v._ _ h.v._ _ v.v._ [.[._ ' _ _ h.` Y Y ) `  XA 8XNXd 2 < 8X..8Xe pXzXS., q...< a hXhXa a 2 2 p , , p 1 H.J.^ / ^.SXaX~ ^ ^ c.^ ^ ^ m.x.c.b.c.^ x.c.c.^ x.n.x.x.f.z.M.z.z.z.b.p.z.b.f.z.f.F.M.m.p.f.b.z.N.z.z.z.M.f.f.j.g.j.V.f.S.z.f.z.j.j.j.g.N.P.N.N.N.f.f.f.p.j.z.S.j.j.l.j.g.f.f.T f.f.g.g.j.j.f.P %Xl.f.T P P P P P P I R /.kXCXMXx k k k x v k k k k k l z & 6 6 6 6 s v % v s 6 6 6 6 5 g &X$X$XF.dXdXH.6 5 A '.'.`.' $X$XU 5 6 ~.^.^.-.cXnXhXt & s N d s s s s s s ",
"h.h.h.h.h.h.h.h.h.h.h.h.h.h.h.h.h.h.h.h.h.h.h.h._ ] v._ _ h.v._ _ v.v._ [.[._ ' _ _ _ h.( Y ` )  XF H.hX2 p 1 8X#.8Xd 2 @.pXyXhXpX< d wX8Xf a 2 p , M l 2 1 H.J./ ~ *XMXi.~ ~ ^ c.^ ^ ^ M.c.c.b.c.f.c.c.c.) x.n.c.b.g.m.M.z.z.z.z.x.z.z.x.z.f.F.M.m.f.f.b.z.N.z.z.z.m.m.f.j.g.V.N.z.m.N.z.j.j.N.j.j.N.P.N.N.N.S.f.j.f.j.j.m.V.g.g.j.g.f.j.l.g.j.j.g.j.j.f.P %Xl.f.T T P P P P P I R ^.NXSXjX .t k k x v k k k k k l z & 6 6 6 6 s v % v s 6 6 6 6 5 g &X$X&XF.dXdXH.6 5 A '.'.`.' $X$XU 5 6 ~.^.^.-.cXnXhXt & 6 p z v v v v v v ",
"h.h.h.h.h.h.h.h.h.h.h.h.h.h.h.h.h.h.h.h.h.h.h.h.' ' h._ _ h.v._ _ v.v._ [.[._ ' _ _ _ h.( Y _ h.].}.V , 2 p 1 8X#.8Xa 2 1 hXlX, wX, z 8XpX4., p p 1 hXq.1 < 8XJ./ E.DXhX~ ^ ~ ^ c.^ ^ f.B.c.b.b.c.x.c.c.c.f.x.c.c.b.j.M.m.z.z.z.z.z.z.z.z.z.f.L.M.m.m.z.z.b.N.z.z.z.z.M.z.j.j.Z.z.z.N.N.z.j.j.N.N.j.N.P.N.N.N.N.j.j.z.j.j.N.C.j.g.j.g.f.j.j.g.j.j.g.j.j.f.P %Xl.f.T T P P P P P P T E gXDXAX%.H k k x v k k k k k l z & 6 6 6 6 s v % v s 6 6 6 6 5 g &X$X&XF.dXdXH.6 5 A '.'.E.' {.$XU 5 6 ~.^.^.-.cXhXhXt & s s s s s s s s s ",
"h.h.h.h.h.h.h.h.h.h.h.h.h.h.h.h.h.h.h.h.h.h.h.h.] v.v._ _ h.v._ _ v.v._ [.[._ ' _ _ _ h.) Y _ h.)  XJ , 2 p 1 8X$.8Xp p 1 hX8X1 hXh #.8X#.pX2 p , z MX8X< < 8XJ.~  XVXd.~ ^ ~ ^ c.^ ^ x.B.c.b.b.c.c.c.c.c.f.c.c.c.c.b.M.z.z.z.z.z.z.z.z.z.z.x.L.M.m.m.N.z.b.N.z.z.z.z.m.m.g.N.V.j.z.N.N.z.j.j.N.N.j.N.P.N.N.N.N.j.N.j.N.N.j.C.N.g.j.g.f.j.g.g.j.j.j.j.k.g.P %Xl.l.) T P P P P P P P I &XXXsX-.^.t k x v k k k k k l z & 6 6 6 6 s v % v s 6 6 6 6 5 g &X$X$XL.dXdXH.6 5 A '.'.`.[.$X$XU 5 6 ~./.^.-.nXnXhXk & 6 6 @ @ @ @ @ @ @ ",
"h.h.h.h.h.h.h.h.h.h.h.h.h.h.h.h.h.h.h.h.h.h.h._ ] h.v._ _ h.v._ _ v.v._ [.[._ ' _ _ _ h.) Y _ h.) }.E , 2 p 1 q.wXpX< p , l l 1 pX=.8X&.a pX, w 1 $.wX8X, < pXF.F -XMX( ^ ^ ~ ) c.^ ^ x.B.c.b.b.c.c.c.c.c.x.c.c.c.n.M.m.z.z.z.z.z.z.z.z.z.z.z.L.M.m.m.m.z.b.N.z.z.z.z.z.M.g.V.N.b.N.N.N.z.N.N.N.N.j.N.P.N.N.N.N.N.N.N.N.N.j.V.V.g.j.g.g.j.j.j.k.j.j.j.k.g.f.%Xl.l.l.T P T P P P P P P P ^.sX*X^.t k x v k k k k k l z & 6 6 6 6 s v % v s 6 6 6 6 5 g ].].].d.aXaXK.6 5 A `.E.D ` [.[.H 5 6 E ~.(.=.cXcXwXt & 6 e e.y.y.y.y.y.y.",
"h.h.h.h.h.h.h.h.h.h.h.h.h.h.h.h.h.h.h.h.h.h.h.' ' h.v._ _ h.v._ _ v.v._ [.[._ ' _ _ _ h.` ) _ h.) R }.V , a < =.SXI , p p , 2 1 &.q.q...< pXJ 3 1 w.yX8X, < pXs.E.SXdX( ^ ^ ~ ) c.^ ^ x.M.c.b.b.c.c.c.c.c.x.c.c.c.n.M.z.z.z.z.z.z.z.z.z.z.z.z.L.M.m.m.m.z.b.N.z.z.z.z.z.M.N.V.b.N.N.N.N.N.N.N.N.N.j.N.P.N.N.N.N.N.N.N.N.N.b.N.I.j.j.g.j.j.j.j.k.j.j.j.k.g.f.%Xj.g.g.) P ) P P P P P P I ~.sX-X^.b k x v k k k k k l z & 6 6 6 6 s v % v s 6 6 6 6 6 p R R R =.H.H.w.6 5 A E.D F ( ` ` h 5 6 E ~.E.=.xX4X4X8 & & y GXr.r.r.r.r.r.",
"h._ ` _ _ _ _ _ _ h.` _ _ _ _ _ h._ _ _ _ h.h.] h.v.v.h.h.h.v._ _ v.v._ [.[._ ' _ _ _ _ _ _ _ h.` L  XL , 2 , 4 S a p 2 2 p p < #.G.8X..1 pXZX@.1 q.-XaX, 2 gXp.|.MXm.) ^ ^ ~ ) c.) ^ x.M.c.b.b.c.c.c.c.c.c.c.c.g.B.M.z.z.z.z.z.z.z.z.z.z.z.z.L.M.m.m.m.z.b.N.z.z.z.z.z.m.I.N.b.N.N.N.N.N.N.N.N.N.j.N.P.N.N.N.N.N.N.N.N.N.N.b.I.N.g.j.j.j.j.j.k.j.j.j.k.g.f.%Xk.j.h.) T ) P T T P P P I Y gXMX!.n t x v k k k k k l z & 6 6 6 6 s v % v s 6 6 6 6 6 p R ].R d.H.H.w.6 5 A E.D F ( ` ` H 5 6 E ~.E.=.xX4X4X8 & & y KX7.7.7.7.e.7.",
"N.N.N.N.N.N.N.N.N.N.N.N.N.N.k.k.N.j.j.j.j.k.' ] ` ` ].` _ h.v._ _ v.v._ [.[._ ' _ _ _ _ _ _ _ h.` L }.Q.3 , 2 w r f p 2 2 2 p < ..sXaX .< z 8XG.= 8XV.aX< pXMX[ DXhX[ ) ^ ^ ~ ) c.) ^ x.M.c.b.b.c.c.c.c.c.c.c.c.g.C.B.z.z.z.z.z.z.z.z.z.z.z.z.L.M.m.m.m.z.b.N.z.z.z.z.z.z.I.N.N.N.N.N.N.N.N.N.N.N.j.N.P.N.N.N.N.N.N.N.N.N.N.b.V.V.g.j.k.j.j.j.k.j.j.j.k.g.g.%Xk.j.k.f.T l.P T f.P P P P L aXCX&XH t x v k k k k k l z & 6 6 6 6 s v % v s 6 6 6 6 6 p R ].R d.H.H.w.6 5 A E.D F ( ` ` H 5 6 E ~.E.=.xX4X4X8 & & y KXe.e.e.t.KXr.",
"MXMXMXMXMXMXMXMXMXMXMXMXMXMXMXMXMXMXMXMXMXMXMXNXBXkXjXU.N._ ]._ h.v.v._ [.[._ ' _ _ _ _ _ _ _ h.` K Y  XJ g , 2 2 f p 2 2 2 p 2 } AXsXu 2 3 ..pX1 8X-.aX< nXCX XVXK.` ) ^ ^ ~ ) c.x.f.x.M.c.b.b.c.c.c.c.c.c.b.c.b.C.n.z.z.z.z.z.z.z.z.z.z.z.z.L.M.m.m.m.z.b.N.z.z.z.z.z.N.I.N.j.N.N.N.N.N.N.N.N.N.j.N.P.N.N.N.N.N.N.N.N.N.N.N.N.C.j.g.k.j.j.j.k.j.j.j.k.j.j.%Xk.j.k.f.) g.P ) f.P P P P L aXCXzXH t x v k k k k k l z & 6 6 6 6 s v % v s 6 6 6 6 6 p R ].R d.H.H.w.6 5 A E.D F ( ` ` H 5 6 E ~.E.=.xX4X4X8 & & y KXe.e.e.r.KX9X",
"k.k.j.j.j.j.j.j.j.k.j.j.j.j.j.k.N.j.N.N.V.I.I.U.U.sXjXNXMXMXsXc.[ v.v._ [.[._ ' _ _ _ _ _ _ _ _ ` Y L }.R J g , , f 2 2 2 2 2 2 r kXjXr 2 a ..pX1 pXU sXw.MXzX-XNX~ c.) ^ ^ ~ ) c.c.c.z.M.c.b.b.c.c.c.c.c.c.b.c.M.C.n.b.z.z.z.z.z.z.z.z.z.z.z.L.M.m.m.m.z.b.N.z.z.z.z.z.V.C.C.j.N.N.N.N.N.N.N.N.N.j.N.P.N.N.N.N.N.N.N.N.N.N.N.N.V.N.g.k.j.j.j.k.j.j.j.k.j.j.%Xk.k.k.g.) g.) ) f.T P P P P =.hXBXH t x v k k k k k l z & 6 6 6 6 s v % v s 6 6 6 6 6 p R ].Q.d.H.H.w.6 5 A E.D D ( ` ` H 5 6 E ~.E.=.xX4X4X8 & & y KX7.7.7.e.7.e.",
"h.h._ _ _ _ _ _ _ h._ _ _ _ _ _ h._ _ _ ` [.] ` ` ` ].` k.U.kXMXsX' _ h.[.[.h.' ' _ h.h.h.h._ _ _ ( K ].}.L J p p f a p p p p a 1 8XMXp 2 a M pX2 pXH =XbX-X^.SXpXL c.) ^ ^ ^ _ c.c.c.b.M.c.b.b.c.c.c.c.c.c.b.c.C.B.b.n.z.b.z.z.z.z.z.z.z.z.b.L.M.m.m.m.z.b.N.z.b.z.z.N.P.N.C.N.N.N.N.N.N.N.N.N.N.b.N.P.N.N.N.N.N.N.N.N.N.N.N.N.V.V.g.k.j.j.j.k.j.j.j.k.j.j.%Xk.k.k.j.l.g.f.f.g.T ) P P P L d.zXU t b v k x x x k l z & 6 6 6 6 s v % v s 6 6 6 6 6 p R ].R d.H.H.w.6 5 A E.D F ( ` ` H 5 6 E ~.E.=.xX4X4X8 & & y GXr.9X9X9X9Xr.",
"k.h.h.h.h.h.h.h.h.k.h.h.h.h.h.k.k.h.h.h.h.#Xv.v.v.v.v.v.v.[.[.I.MXMXA._ #X[.v.v.v.v.v.v.v.v.v.v.v.) ( (  X( K f f j f f f f f f 3 w.NXa f f m pXf hXJ -XCX4.!.VXM.^ b.c.) ^ x.c.b.b.n.B.M.b.n.n.b.c.n.n.c.b.n.B.C.B.B.n.N.N.N.N.N.N.N.N.N.N.b.L.C.N.B.N.N.N.B.N.N.N.b.V.P.N.C.V.N.N.A.N.N.N.N.N.N.N.A.P.A.A.N.N.N.A.N.N.N.N.N.A.N.I.k.k.k.k.k.k.k.k.k.k.k.k.%X@Xk.k.j.g.j.j.j.j.f.j.f.P P T I jX=.c  . .v v v v x l z & 6 6 6 6 s v % v s 6 6 6 6 6 p R ].R d.H.H.w.6 5 A E.D F ( ` ` H 5 6 E ~.E.=.xX4X4X8 & 6 w 8.e.e.e.e.e.e.",
"h.h.h.h.h.h.h.h.h.h.h.h.h.h.h.h.h.h.h.h._ v._ _ _ h.v._ _ h.v.` [ sXCXV.[.v._ ' _ _ _ _ _ _ _ _ h.) Y K }.].J 2 , f 2 , , , , , , a v , , a r sX=.pX4 f.CXU -XNX( ^ c.c.) ^ x.c.c.c.c.z.M.c.b.b.c.c.c.c.c.c.c.M.m.b.b.n.b.z.z.z.z.z.z.z.z.z.z.L.M.m.m.m.z.b.N.z.z.z.z.Z.V.N.V.C.j.N.N.N.N.N.N.N.N.j.N.P.N.N.N.N.j.N.N.j.N.N.N.N.j.C.j.j.j.j.g.k.j.g.j.k.g.j.%Xk.k.k.j.l.g.g.g.f.f.g.T P P P I jXP 8 x v k k k k k l z & 6 6 6 6 s v % v s 6 6 6 6 6 p R ].R d.H.H.w.6 5 A E.D F ( ` ` H 5 6 E ~.E.=.xX4X4X8 & 6 6 @ @ @ @ @ @ @ ",
"h.h.h.h.h.h.h.h.h.h.h.h.h.h.h.h.h.h.h.h.' v.h._ _ h.v._ _ h.v.h.h.].sXCXn.[.h.' _ _ _ _ _ _ _ _ h.` Y K R  XJ a , f p 2 2 2 2 2 p 2 , p , f , NXNXyX4 w.bXQ.SXaX[ ^ c.c.f.x.c.c.c.c.c.b.M.c.b.b.c.c.c.c.c.c.b.C.b.B.b.b.n.z.z.z.z.z.z.z.z.z.z.L.M.m.m.m.z.b.N.z.z.z.N.P.N.N.N.C.N.N.N.N.N.N.N.N.N.b.N.P.N.N.N.N.N.N.N.N.N.N.N.N.j.V.V.k.j.j.j.k.j.j.j.k.j.j.%Xk.k.k.j.g.g.j.g.g.g.j.f.P P P K jXhXt x v k k k k k l z & 6 6 6 6 s v % v s 6 6 6 6 6 p R ].Q.d.H.H.w.6 5 A E.D D ( ` ` H 5 6 E ~.E.=.xX4X4X8 & 6 6 6 6 6 6 6 6 6 ",
"h.h.h.h.h.h.h.h.h.h.h.h.h.h.h.h.h.h.h.h.] v._ _ _ h.v._ _ h.v._ _ v.[ sXMX' _ v._ _ _ _ _ _ _ _ h.` Y Y K  XY a , f p 2 2 2 2 2 2 2 p 2 , f , $.MXyXA w.q.*XMXx.) ) c.c.x.c.c.c.c.c.c.b.M.c.b.b.c.c.c.c.c.c.B.M.b.B.b.b.n.b.z.z.z.z.z.z.z.z.z.L.M.m.m.m.z.b.N.z.z.z.V.V.N.N.N.C.V.j.N.N.N.N.N.N.N.j.N.P.N.N.N.N.N.N.N.N.N.N.N.N.j.N.C.k.j.j.j.k.j.j.j.k.j.j.%Xk.k.k.j.g.j.j.g.g.g.g.f.P P P L gXNXs x v k k k k k l z & 6 6 6 6 s v % v s 6 6 6 6 6 p R ].R d.H.H.w.6 5 A E.D F ( ` ` H 5 6 E ~.E.=.xX4X4X8 & X.O.o.o.O.O.o.O.o.",
"h.h.h.h.h.h.h.h.h.h.h.h.h.h.h.h.h.h.h.' ' v._ _ _ h.v._ _ h.v._ _ v.v.[ kXkX].v._ _ _ _ _ _ _ _ h.` Y Y K }.}.2 , f p , 2 2 2 2 2 2 2 2 , f a > NXyXJ 6.Z DXhX[ x.) c.c.c.c.c.c.c.c.c.b.M.c.b.b.c.c.c.c.c.c.C.N.b.B.b.b.b.b.z.z.z.z.z.z.z.z.z.L.M.m.m.m.z.b.N.z.z.z.I.V.N.N.N.V.C.N.N.N.N.N.N.N.N.j.N.P.N.N.N.N.N.N.N.N.N.N.N.N.N.j.V.N.j.j.j.k.j.j.j.k.j.j.%Xk.k.k.j.j.j.j.j.j.j.j.g.T P P L aXMXk x v k k k k k l z & 6 6 6 6 s v % v s 6 6 6 6 6 p R ].R d.H.H.w.6 5 A E.D F ( ` ` H 5 6 E ~.E.=.xX4X4X8 & O.+.+.4.O.O.+.O.a.",
"h.h.h.h.h.h.h.h.h.h.h.h.h.h.h.h.h.h.h.' ' v._ _ _ h.v._ _ h.v._ _ v.v._ ] MXU.] v._ _ _ _ _ _ _ h.` Y Y Y Y  Xa , f p 3 2 , 2 2 2 2 2 2 , f a < jXK./ o.!.VXK.` c.c.c.c.c.c.c.c.c.c.c.b.M.c.b.b.c.c.c.c.c.b.C.b.b.B.b.b.b.n.z.z.z.z.z.z.z.z.z.L.M.m.m.m.z.b.N.z.z.N.I.N.N.N.N.N.C.N.N.N.N.N.N.N.N.j.N.P.N.N.N.N.N.N.N.N.N.N.N.N.N.j.V.V.j.j.j.k.j.j.j.k.j.j.%Xk.k.k.j.j.j.j.j.j.j.j.j.T T P L aXCXk x v k k k k k l z & 6 6 6 6 s v % v s 6 6 6 6 6 p R ].R d.H.H.w.6 5 A E.D F ( ` ` H 5 6 E ~.E.=.xX4X4X8 & O.O.s.F.a.K.4.s.K.",
"h.h.h.h.h.h.h.h.h.h.h.h.h.h.h.h.h.h.h.] _ v._ _ _ h.v._ _ h.v._ _ v.v.h.[.I.MXv._ h._ _ _ _ _ _ h.` Y Y Y K  XJ , f 3 H 2 , 2 2 2 2 2 2 , f a , ~.Y a.L -XNX^ c.c.c.c.c.c.c.c.c.c.c.c.b.M.c.b.b.c.c.c.c.c.B.C.b.b.B.b.b.b.n.b.z.z.z.z.z.z.z.z.L.M.m.m.m.z.b.N.z.z.V.V.N.N.N.N.N.V.V.N.N.N.N.N.N.N.j.N.P.N.N.N.N.N.N.N.N.N.N.N.N.N.N.N.I.j.j.j.k.j.j.j.k.j.j.%Xk.k.k.j.j.j.j.j.j.j.j.j.) ) ) K d.NX .k v k k k k k l z & 6 6 6 6 s v % v s 6 6 6 6 6 p R ].R d.H.H.w.6 5 A E.D F ( ` ` H 5 6 E ~.E.=.xX4X4X8 & O.O.F.T.F.F.K.J.T.",
"h.h.h.h.h.h.h.h.h.h.h.h.h.h.h.h.h.h.' ' _ v._ _ _ h.v._ _ h.v._ _ v.v._ v.[.kXjX[ h._ _ _ _ _ _ _ h.` Y Y K ].Q., f 3 A 2 , 2 2 2 2 2 2 , f a , , M d.E.SXpX~ c.c.c.c.c.c.c.c.c.c.c.c.b.M.c.b.b.c.c.c.c.c.C.B.b.b.B.b.b.b.b.b.z.z.z.z.z.z.z.z.L.M.m.m.m.z.b.N.z.b.P.N.N.N.N.N.N.N.C.N.N.N.N.N.N.N.j.N.P.N.N.N.N.N.N.N.N.N.N.N.N.N.N.j.C.j.g.j.k.j.j.j.k.j.j.%Xk.k.k.j.j.j.j.j.j.j.j.j.) f.f.I K sX%.k v k k k k k l z & 6 6 6 6 s v % v s 6 6 6 6 6 p R ].Q.d.H.H.w.6 5 A E.D D ( ` ` H 5 6 E ~.E.=.xX4X4X8 & o.a.K.s.F.a.F.J.F.",
"h.h.h.h.h.h.h.h.h.h.h.h.h.h.h.h.h.h.] _ _ v._ _ _ h.v._ _ h.v._ _ v.v._ [.[.N.MXV._ h._ _ _ _ _ _ h.` Y Y Y Y !.2 f 3 A a , 2 2 2 2 2 2 , f a 2 , 6.^ |.VXp.^ c.c.c.c.c.c.c.c.c.c.c.c.b.M.c.b.b.c.c.c.c.b.C.b.b.b.B.b.b.b.b.n.z.z.z.z.z.z.z.z.L.M.m.m.m.z.b.N.z.N.I.N.N.N.N.N.N.N.C.V.j.N.N.N.N.N.j.N.P.N.N.N.N.N.N.N.N.N.N.N.N.N.N.j.V.V.g.j.k.j.j.j.k.j.j.%Xk.k.k.j.j.j.j.j.j.j.j.j.f.f.f.I K gX#.k v k k k k k l z & 6 6 6 6 s v % v s 6 6 6 6 6 p R ].R d.H.H.w.6 5 A E.D F ( ` ` H 5 6 E ~.E.=.xX4X4X8 & O.4.+.+.4.4.+.a.+.",
"h.h.h.h.h.h.h.h.h.h.h.h.h.h.h.h.h._ ] _ _ v._ _ _ h.v._ _ h.v._ _ v.v._ [.v.].jXkX[ h._ _ _ _ _ _ h.` Y Y Y K }.J r g L h , 2 2 2 2 2 2 , f a 2 r 1.D AXnXL ^ c.c.c.c.c.c.c.c.c.c.c.c.b.M.c.b.b.c.c.c.c.M.B.b.b.b.B.b.b.b.b.n.b.z.z.z.z.z.z.z.L.M.m.m.m.z.b.N.z.Z.V.N.N.N.N.N.N.N.V.C.j.N.N.N.N.N.j.N.P.N.N.N.N.N.N.N.N.N.N.N.N.N.N.j.N.C.j.j.k.j.j.j.k.j.j.%Xk.k.k.j.j.j.j.j.j.j.j.j.g.g.f.P Y aX&.s  .k k k k k l z & 6 6 6 6 s v % v s 6 6 6 6 6 p R ].R d.H.H.w.6 5 A E.D F ( ` ` H 5 6 E ~.E.=.xX4X4X8 6 X.z z z z z z z z ",
"h.h.h.h.h.h.h.h.h.h.h.h.h.h.h.h.h.' ' _ _ v._ _ _ h.v._ _ h.v._ _ v.v._ [.[._ v.MXI.` h._ _ _ _ _ h.` Y Y Y K R ~.r h K V , 2 2 2 2 2 2 , f a 2 u 5.^.FXH.L ^ c.c.c.c.c.c.c.c.c.c.c.c.b.M.c.b.b.c.c.c.c.M.b.B.b.b.B.b.b.b.b.b.n.z.z.z.z.z.z.z.L.M.m.m.m.z.b.N.N.P.N.N.N.N.N.N.N.N.N.I.N.N.N.N.N.N.j.N.P.N.N.N.N.N.N.N.N.N.N.N.N.N.N.N.N.C.j.g.k.j.j.j.k.j.j.%Xk.k.k.j.j.j.j.j.j.j.j.j.j.j.f.P Y aX&.s  .k k k k k l z & 6 6 6 6 s v % v s 6 6 6 6 6 p R ].R d.H.H.w.6 5 A E.D F ( ` ` H 5 6 E ~.E.=.xX4X4X8 6 v % & & & & & & & ",
"h.h.h.h.h.h.h.h.h.h.h.h.h.h.h.h.h.] _ _ _ v._ _ _ h.v._ _ h.v._ _ v.v._ [.[.v.].sXkX[ h._ _ _ _ _ _ h.) Y Y Y K ~.h h Y H , 2 2 2 2 2 2 , f a 2 <.J *XMX^ ~ ) c.c.c.c.c.c.c.c.c.c.c.c.b.M.c.b.b.c.c.c.B.M.b.B.b.b.B.b.b.b.b.b.n.b.z.z.z.z.z.z.L.M.m.m.m.z.b.b.V.C.N.N.N.N.N.N.N.N.N.C.V.j.N.N.N.N.j.N.P.N.N.N.N.N.N.N.N.N.N.N.N.N.N.N.N.V.N.g.k.j.j.j.k.j.j.%Xk.k.k.j.j.j.j.j.j.j.j.j.j.j.g.T Y J.8X0  .k k k k k l z & 6 6 6 6 s v % v s 6 6 6 6 6 p R ].Q.d.H.H.w.6 5 A E.D D ( ` ` H 5 6 E ~.E.=.xX4X4X8 6 m 6 6 6 6 6 6 6 6 ",
"h.h.h.h.h.h.h.h.h.h.h.h.h.h.h.h.v.' _ _ _ v._ _ _ h.v._ _ h.v._ _ v.v._ [.[.h.' v.MXV.` h._ _ _ _ _ h.` Y Y Y K }.R V K J 2 2 2 2 2 2 2 , f 2 y 1.D DXhXL ^ ) c.c.c.c.c.c.c.c.c.c.c.c.b.M.c.b.b.c.c.c.C.N.b.B.b.b.B.b.b.b.b.b.b.b.z.z.z.z.z.z.L.M.m.m.m.z.b.N.Z.V.N.N.N.N.N.N.N.N.N.C.C.j.N.N.N.N.j.N.P.N.N.N.N.N.N.N.N.N.N.N.N.N.N.N.N.N.V.g.k.j.j.j.k.j.j.%Xk.k.k.j.j.j.j.j.j.j.j.j.j.j.g.) Y K.8Xs  .k k k k k l z & 6 6 6 6 s v % v s 6 6 6 6 6 p R ].R d.H.H.w.6 5 A E.D F ( ` ` H 5 6 E ~.E.=.xX4X4X8 6 m 6 6 6 6 6 6 6 6 ",
"h.h.h.h.h.h.h.h.h.h.h.h.h.h.h.h.v.' _ _ _ v.h._ _ h.v._ _ h.v._ _ v.v._ [.[._ v.[ jXkX[ h._ _ _ _ _ h._ ( Y Y Y Y  XL K J 2 2 2 2 2 2 2 , f 2 5./ ^.VXK.~ ^ ) c.c.c.c.c.c.c.c.c.c.c.c.b.M.c.b.b.c.c.b.C.b.b.B.b.b.B.b.b.b.b.b.b.n.z.z.z.z.z.z.L.M.m.m.m.z.z.N.I.N.N.N.N.N.N.N.N.N.N.V.C.N.N.N.N.N.b.N.P.N.N.N.N.N.N.N.N.N.N.N.N.N.N.N.N.N.C.j.k.j.j.j.k.j.j.%Xk.k.k.j.j.j.j.j.j.j.j.j.j.j.g.` T d.CX&.b k k k k k l z & 6 6 6 6 s v % v s 6 6 6 6 6 p R ].R d.H.H.w.6 5 A E.D F ( ` ` H 5 6 E ~.E.=.xX4X4X8 6 m 6 & v N N N X.+.",
"k.k.h.h.h.h.h.h.k.k.h.h.h.h.h.v.#Xv.v.v.v.#Xv.v.v.v.v.v.v.v.#Xv.v.v.v.v.#X#Xv.v.[.A.MXA.' v.v.v.v.v.v.v.v.) ( ( (  X[ ~ ~ V f f f f f j j j j d.( -XMX^ ^ ^ x.n.n.n.n.b.n.n.b.n.n.n.n.B.B.b.n.n.b.c.B.C.n.B.B.B.B.B.B.B.B.B.B.B.n.B.N.N.N.N.N.L.C.V.B.B.N.N.P.P.V.V.V.V.V.V.V.V.V.V.V.C.C.N.N.N.N.N.A.=XA.A.A.A.N.A.A.N.N.N.N.A.N.N.N.A.N.C.V.k.k.k.k.k.k.k.%X@Xk.k.k.k.k.k.k.k.k.k.k.k.k.k.j.) d.CXq.m  . . . .v l z & 6 6 6 6 s v % v s 6 6 6 6 6 p R ].R d.H.H.w.6 5 A E.D F ( ` ` H 5 6 E ~.E.=.xX4X4X8 6 m 6 % O.X.+.X.l X.",
"h.h.h.h.h.h.h.h.h.h.h.h.h.h.h.' ' _ _ _ _ v._ _ _ h.v._ _ h.v._ _ v.h._ [.[._ ' v.[ kXjX[ h._ _ _ _ _ _ _ _ ( Y K ].}.J K H , 2 2 2 , a g a M a.E.SXpX~ ^ ~ ) c.c.c.c.c.c.c.c.c.c.c.c.b.M.c.b.b.c.c.C.B.b.b.B.b.b.B.b.b.b.b.b.b.b.b.z.z.z.z.z.L.M.m.m.m.z.z.P.V.N.N.N.N.N.N.N.N.N.N.V.V.C.b.N.N.N.j.N.P.N.N.N.N.N.N.N.N.N.N.N.N.N.N.b.N.N.N.V.k.j.j.j.k.j.j.%Xk.k.k.j.j.j.j.j.j.j.j.j.j.j.j.j.) p.CXq.l k k k k k l z & 6 6 6 6 s v % v s 6 6 6 6 6 p R ].R d.H.H.w.6 5 A E.D F ( ` ` H 5 6 E ~.E.=.xX4X4X8 6 m 6 % o.z o.l l X.",
"h.h.h.h.h.h.h.h.h.h.h.h.h.h.h.] v._ _ _ _ v._ _ _ h.v._ _ h.v._ _ v.v._ [.[._ ' v.` I.MXh._ h._ _ _ _ _ _ h._ Y Y (  XK K J a 2 2 2 , f g a 1./  XVXd.~ ^ ~ ) c.c.c.c.c.c.c.c.c.c.c.c.b.M.c.b.b.c.b.C.b.b.b.B.b.b.B.b.b.b.b.b.b.b.n.z.z.z.z.z.L.M.m.m.m.z.N.P.N.N.N.N.N.N.N.N.N.N.N.V.N.C.N.j.N.N.j.N.P.N.N.N.N.N.N.N.N.N.N.N.N.N.N.N.N.N.b.C.b.j.j.j.k.j.j.%Xk.k.k.j.j.j.j.j.j.j.j.j.j.j.j.j.) =.CX8Xl x k k k k l z & 6 6 6 6 s v % v s 6 6 6 6 6 p R ].Q.d.H.H.w.6 5 A E.D D ( ` ` H 5 6 E ~.E.=.xX4X4X8 6 m 6 6 s 6 s 6 6 s ",
"h.h.h.h.h.h.h.h.h.h.h.h.h.h._ ] v._ _ _ _ v._ _ _ h.v._ _ h.v._ _ v.v._ [.[._ ' _ h.` NXsX` h._ _ _ _ _ _ h._ Y Y ( }.R L L a , 2 2 , h h d 1.F -XNX) ^ ~ ~ ) c.c.c.c.c.c.c.c.c.c.c.c.b.M.c.b.b.c.B.C.b.b.b.B.b.b.B.b.b.b.b.b.b.b.n.b.z.z.z.z.L.M.m.m.m.z.V.Z.N.N.N.N.N.N.N.N.N.N.N.V.N.C.V.j.N.N.j.N.P.N.N.N.N.N.N.N.N.N.N.N.N.N.N.N.N.N.j.V.N.g.j.j.k.j.j.%Xk.k.k.j.j.j.j.j.j.j.j.j.j.j.j.j.) =.CX8Xl k k k k k l z & 6 6 6 6 s v % v s 6 6 6 6 6 p R ].R d.H.H.w.6 5 A E.D F ( ` ` H 5 6 E ~.E.=.xX4X4X8 6 m 6 6 6 6 6 6 6 6 ",
"h.h.h.h.h.h.h.h.h.h.h.h.h.h.' ' v._ _ _ _ v._ _ _ h.v._ _ h.v._ _ v.v._ [.[._ ' _ h.` U.MX` h._ _ _ _ _ _ _ _ Y Y ( [ }.J K g , 2 2 , V 4 u 6.E.SXH.) ^ ~ ~ f.c.c.c.c.c.c.c.c.c.c.c.c.b.M.c.b.b.c.C.B.b.b.b.B.b.b.B.b.b.b.b.b.b.b.b.n.z.z.z.z.L.M.m.m.m.z.P.V.N.N.N.N.N.N.N.N.N.N.N.V.N.V.C.N.N.N.j.N.P.N.N.N.N.N.N.N.N.N.N.N.N.N.N.N.N.N.j.N.V.g.j.j.k.j.j.%Xk.k.k.j.j.j.j.j.j.j.j.j.j.j.j.j.` =.CXwXl k k k k k l z & 6 6 6 6 s v % v s 6 6 6 6 6 p R ].R d.H.H.w.6 5 A E.D F ( ` ` H 5 6 E ~.E.=.xX4X4X8 6 m 6 6 6 6 6 6 6 6 ",
"h.h.h.h.h.h.h.h.h.h.h.h.h.h.] v.v._ _ _ _ v._ _ _ h.v._ _ h.v._ _ v.v._ [.[._ ' _ _ _ _ MXI.` h._ _ _ _ _ _ _ Y Y ( Y  XY K h , 2 2 , V V 3.U *XMX^ ) ^ ~ ~ x.c.c.c.c.c.c.c.c.c.c.c.c.b.M.c.b.c.b.M.b.b.b.b.B.b.b.B.b.b.b.b.b.b.b.b.n.b.z.z.z.L.M.m.m.z.V.P.V.N.N.N.N.N.N.N.N.N.N.N.V.N.N.C.N.j.N.j.N.P.N.N.N.N.N.N.N.N.N.N.N.N.N.N.N.N.N.N.N.I.j.g.j.k.j.j.%Xk.k.k.j.j.j.j.j.j.j.j.j.j.j.j.j.` =.CXwXl k k k k k l z & 6 6 6 6 s v % v s 6 6 6 6 6 p R ].R d.H.H.w.6 5 A E.D F ( ` ` H 5 6 E ~.E.=.xX4X4X8 6 m 6 6 6 6 6 6 6 6 ",
"h.h.h.h.h.h.h.h.h.h.h.h.h._ ' h.v._ _ _ _ v._ _ _ h.v._ _ h.v._ _ v.v._ [.[._ ' _ _ h.[ jXkX[ h._ _ _ _ _ _ _ Y Y ( K }.[ L V , 2 2 , h B 3.F DXlXL f.^ ~ ~ x.c.c.c.c.c.c.c.c.c.c.c.c.b.M.c.b.c.M.N.b.b.b.b.B.b.b.B.b.b.b.b.b.b.b.b.n.b.z.z.z.L.M.m.m.z.Z.V.V.N.N.N.N.N.N.N.N.N.N.N.V.N.N.C.C.j.N.j.N.P.N.N.N.N.N.N.N.N.N.N.N.N.N.N.N.N.N.N.j.C.N.g.j.k.j.j.%Xk.k.k.j.j.j.j.j.j.j.j.j.j.j.j.j.g.=.CXhXl k k k k k l z & 6 6 6 6 s v % v s 6 6 6 6 6 p R ].Q.d.H.H.w.6 5 A E.D D ( ` ` H 5 6 E ~.E.=.xX4X4X8 6 v 6 s s s s s s s ",
"h.h.h.h.h.h.h.h.h.h.h.h.h.' ' h.v._ _ _ _ v._ _ _ h.v._ _ h.v._ _ v.v._ [.[._ ' _ _ h._ N.MXb._ h._ _ _ _ _ _ Y Y ( K R }.L A , 2 2 , H a.3.~.VXK.~ x.f.^ ~ x.c.c.c.c.c.c.c.c.c.c.c.c.b.M.c.b.b.C.b.b.b.b.b.B.b.b.B.b.b.b.b.b.b.b.b.b.n.z.z.z.L.M.m.m.N.P.N.V.N.N.N.N.N.N.N.N.N.N.N.V.N.N.N.C.N.N.b.N.P.N.N.N.N.N.N.N.N.N.N.N.N.N.N.N.N.N.N.j.V.V.g.j.k.j.j.%Xk.k.k.j.j.j.j.j.j.j.j.j.j.j.j.j.g.=.CXhXl k k k k k l z & 6 6 6 6 s v % v s 6 6 6 6 6 p R ].R d.H.H.w.6 5 A E.D F ( ` ` H 5 6 E ~.E.=.xX4X4X8 6 m 6 6 6 6 6 6 6 6 ",
"h.h.h.h.h.h.h.h.h.h.h.h.h.] _ h.v._ _ _ _ v._ _ _ h.v._ _ h.v._ _ v.v._ [.[._ ' _ _ _ h.[ kXsX[ h._ _ _ _ _ _ Y Y ( Y Y  XY J 2 , 2 , J a.V -XMX~ ^ c.f.^ ) c.c.c.c.c.c.c.c.c.c.c.c.c.b.M.c.c.B.M.b.b.b.b.b.B.b.b.B.b.b.b.b.b.b.b.b.b.n.b.z.z.L.M.m.z.V.C.N.V.N.N.N.N.N.N.N.N.N.N.N.V.N.N.N.C.N.j.b.N.P.N.N.N.N.N.N.N.N.N.N.N.N.N.N.N.N.N.N.j.N.C.j.j.k.j.j.%Xk.k.k.j.j.j.j.j.j.j.j.j.j.j.j.j.g.f.MXhXl k k k k k l z & 6 6 6 6 s v % v s 6 6 6 6 6 p R ].R d.H.H.w.6 5 A E.D F ( ` ` H 5 6 E ~.E.=.xX4X4X8 6 m 6 6 6 6 6 6 6 6 ",
"h.h.h.h.h.h.h.h.h.h.h.h.' ' _ h.v._ _ _ _ v._ _ _ h.v._ _ h.v._ _ v.v._ [.[._ ' _ _ _ h.` U.MX_ h._ _ _ _ _ h.) Y ( Y ( }.}.J a , , 3 ^ 5.F DXpXL ^ c.f.^ ) b.c.c.c.c.c.c.c.c.c.c.c.c.b.M.c.c.C.m.b.b.b.b.b.B.b.b.B.b.b.b.b.b.b.b.b.b.b.b.z.z.L.M.m.m.P.V.N.V.N.N.N.N.N.N.N.N.N.N.N.V.N.N.N.V.C.j.b.N.P.N.N.N.N.N.N.N.N.N.N.N.N.N.N.N.N.N.N.N.N.C.j.j.k.j.j.%Xk.k.k.j.j.j.j.j.j.j.j.j.j.j.j.j.g.f.MXhXl k k k k k l z & 6 6 6 6 s v % v s 6 6 6 6 6 p R ` R d.H.H.w.6 5 A E.D F ( ` ` H 5 6 E ~.E.=.xX4X4X8 6 m 6 6 6 & 6 & & & ",
"h.h.h.h.h.h.h.h.h.h.h.h.] ' _ h.v._ _ _ _ v._ _ _ h.v._ _ h.v._ _ v.v._ [.[._ ' _ _ _ _ _ _ MXU.` h._ _ _ _ h.` Y ( Y [ Y  XL h , , 3 ^ / !.VXd.K ^ c.f.^ c.b.c.c.c.c.c.c.c.c.c.c.c.c.b.M.c.b.C.b.b.b.b.b.b.B.b.b.B.b.b.b.b.b.b.b.b.b.b.n.z.z.L.M.m.N.P.N.V.V.N.N.N.N.N.N.N.N.N.N.N.V.N.N.N.N.C.N.j.N.P.N.N.N.N.N.N.N.N.N.N.N.N.N.N.N.N.N.N.N.N.V.N.j.k.j.j.%Xk.k.k.j.j.j.j.j.j.j.j.j.j.j.j.j.j.f.MXhXk k k k k k l z & 6 6 6 6 s v % v s 6 6 6 6 6 p R ].Q.d.H.H.w.6 5 A E.E.D ) ` ` H 5 6 E ~.E.=.xXxX4X8 6 m 6 6 w l s l d l ",
"h.h.h.h.h.h.h.h.h.h.h.h.] _ _ h.v._ _ _ _ v._ _ _ h.v._ _ h.v._ _ v.v._ [.[._ ' _ _ _ _ h.[ jXkX[ h._ _ _ _ h.` Y ( Y ` Y }.[ V , , f d.Y -XNX~ ^ ^ c.f.^ c.c.c.c.c.c.c.c.c.c.c.c.c.c.b.M.c.C.C.b.b.b.b.b.b.B.b.b.B.b.b.b.b.b.b.b.b.b.b.n.b.z.L.M.m.C.V.N.V.V.N.N.N.N.N.N.N.N.N.N.N.V.N.N.N.N.C.V.j.N.P.N.N.N.N.N.N.N.N.N.N.N.N.N.N.N.N.N.N.N.N.N.V.j.k.j.j.%Xk.k.k.j.j.j.j.j.j.j.j.j.j.j.j.j.j.f.NXhXx k k k k k l z & 6 6 6 6 s v % v s 6 6 6 6 6 0 T R E =.q.H.$.6 5 H D D F K ( ( h 5 6 S D E.=.4X4X3X8 6 m 6 % o.X.O.X.X.4.",
"h.h.h.h.h.h.h.h.h.h.h.' ' _ _ h.v._ _ _ _ v.h._ _ h.v._ _ h.v._ _ v.v._ [.[._ ' _ _ _ _ h._ N.MXb._ h._ _ _ h.` Y ( Y _ ) R }.V p , B p.E.SXaXL ^ ^ c.f.f.c.c.c.c.c.c.c.c.c.c.c.c.c.c.b.M.c.C.B.b.b.b.b.b.b.B.b.b.B.b.b.b.b.b.b.b.b.b.b.b.b.z.L.M.m.P.V.N.V.V.N.N.N.N.N.N.N.N.N.N.N.V.N.N.N.N.V.C.j.N.P.N.N.N.N.N.N.N.N.N.N.N.N.N.N.N.N.N.N.N.N.N.C.j.k.j.j.%Xk.k.k.j.j.j.j.j.j.j.j.j.j.j.j.j.j.f.NXhXb k k k k k l z & 6 6 6 6 s v % v s 6 6 6 6 6 9 L L L X.$.$.%.6 5 : S Z Z J J L h 5 6 Z S S n 3X3X3X8 6 m 6 % O.X.+.N d N ",
"h.h.h.h.h.h.h.h.h.h.h.] _ _ _ h.v._ _ _ _ v._ _ _ h.v._ _ _ v._ _ v.h._ [.[._ ' _ _ _ _ _ h.` BXsX[ h._ _ _ h.` Y ( ( v.) Y  XJ , , 5.^ |.MXp.~ ~ ) c.x.x.c.c.c.c.c.c.c.c.c.c.c.c.c.c.z.B.b.C.B.b.b.b.b.b.b.B.b.b.B.b.b.b.b.b.b.b.b.b.b.b.n.z.L.M.V.I.N.N.N.V.N.N.N.N.N.N.N.N.N.N.N.V.N.N.N.N.N.C.N.N.P.N.N.N.N.j.N.N.j.N.N.N.N.j.N.j.N.N.N.b.N.j.V.N.j.j.j.%Xk.k.k.j.j.j.j.j.j.j.j.j.j.j.j.j.j.g.aXhXx k k k k t l z & 6 6 6 6 s v % v s 6 6 6 6 6 9 L Y Y o.$.$.@.6 5 : S S Z J L K h 5 6 Z S S U 3X3X3X8 6 m 6 & m w m 6 s m ",
"k.h.h.h.h.h.h.h.h.k.v.] v.v.v.v.v.v.v.v.v.v.v.v.v.v.v.v.v.v.v.v.v.v.v.v.[.[.v.v.v.v.v.v.v.v.[.U.MX' v.v.v.v.v.v.` ( ` v._ ~ }.R a M 6.[ AXlX~ ^ ^ x.n.c.c.c.n.c.c.c.c.c.n.n.c.c.c.b.n.B.B.C.C.B.B.B.B.B.B.B.B.B.b.B.B.B.B.B.B.B.B.B.B.B.B.n.n.L.M.I.I.V.V.V.V.V.V.V.V.V.V.V.V.V.V.V.V.V.V.V.V.V.C.V.A.P.A.A.A.N.N.A.N.N.N.N.N.A.N.N.N.A.N.N.N.A.N.V.C.k.k.k.%X@Xk.k.k.k.k.k.k.k.k.k.k.k.k.k.k.k.j.=.hX=.v v  .Q.P t z & 6 6 6 6 s v % v s 6 6 6 6 6 9 L Y Y o.$.$.@.6 5 : S S Z J L K h 5 6 Z S S U 3X3X3X8 6 m 6 6 6 6 6 6 6 6 ",
"h.h.h.h.h.h.h.h.h.h.' ' h._ _ h.v._ h._ _ v.h._ _ v.v._ _ h.v._ _ v.v._ [.[.h.' ' _ _ _ _ h._ h.MXI.` h._ _ _ h._ ` ` v._ K [ }.< u 5.^.VXH.~ ^ ) c.c.c.c.c.b.c.c.c.c.c.c.c.c.c.c.c.c.b.M.C.B.B.b.b.b.b.b.b.B.b.b.B.b.b.b.b.b.b.b.b.b.b.b.b.n.L.M.P.V.V.N.V.V.N.N.N.N.N.N.N.N.N.N.N.V.N.N.N.N.N.V.C.N.P.N.N.N.N.N.N.N.N.N.N.N.N.N.N.N.N.N.N.N.N.N.N.I.k.j.j.%Xk.k.k.j.j.j.j.j.j.j.j.j.j.j.j.j.j.g.=.hX/.E i y /.R r z & 6 6 6 6 s v % v s 6 6 6 6 6 9 L Y Y o.$.$.@.6 5 : S S Z J L K h 5 6 Z S S U 3X3X3X8 6 m 6 6 6 6 6 6 6 6 ",
"h.h.h.h.h.h.h.h.h.h.] _ _ _ _ h.v._ _ _ _ v._ _ _ h.v._ _ h.v._ _ v.h._ [.[._ ' _ _ _ _ _ _ h.[ jXjX[ h._ _ _ _ _ v._ h._ Y Y }.h 6.U *XMX^ ^ ) g.c.c.c.c.c.c.c.c.c.c.c.c.c.c.c.c.c.c.b.M.M.B.B.b.b.b.b.b.b.B.b.b.B.b.b.b.b.b.b.b.b.b.b.b.b.n.M.I.I.V.V.N.N.V.N.N.N.N.N.N.N.N.N.N.N.V.N.N.N.N.N.N.C.V.P.N.N.N.N.N.N.N.N.N.N.N.N.N.N.b.N.N.N.N.N.N.j.C.N.g.j.%Xk.k.k.j.j.j.j.j.j.j.j.j.j.j.j.j.j.g.=.jX/.Q.E s /.R r z & 6 6 6 6 s v % v s 6 6 6 6 6 9 L Y Y o.$.$.@.6 5 : S S Z J L K h 5 6 Z S S U 3X3X3X8 6 m 6 6 6 6 6 6 6 6 ",
"h.h.h.h.h.h.h.h.h.v.' _ _ _ _ h.v._ _ _ _ v._ _ _ h.v._ _ h.v._ _ v.v._ [.[._ ' _ _ _ _ _ _ h.` I.MXh._ h._ _ _ _ v._ _ _ ( L }.` 5.E.DXhX~ ^ x.c.c.c.c.c.c.c.c.c.c.c.c.c.c.c.c.c.c.c.b.Y.M.B.B.b.b.b.b.b.b.B.b.b.B.b.b.b.b.b.b.b.b.b.b.b.b.n.L.I.V.V.V.N.N.V.N.N.N.N.N.N.N.N.N.N.N.V.N.N.N.N.N.N.C.C.P.N.N.N.N.N.N.N.N.N.N.N.N.N.N.N.N.N.N.N.N.N.j.V.V.g.j.%Xk.k.k.j.j.j.j.j.j.j.j.j.j.j.j.j.j.g.I jXU ~.AX;.AXsXh c & 6 6 6 6 s v % v s 6 6 6 6 6 9 L Y Y o.$.$.@.6 5 : S S Z J L K h 5 6 Z S S U 3X3X3X8 6 v 6 s s s s s s s ",
"h.h.h.h.h.h.h.h.h.v.' _ _ _ _ h.v._ _ _ _ v._ _ _ h.v._ _ h.v._ _ v.v._ [.[._ ' _ _ _ _ _ _ _ h.` NXsX` h._ _ _ _ v._ _ h.` K E #X/  XVXK.~ ^ x.c.c.c.c.c.c.c.c.c.c.c.c.c.c.c.c.c.c.c.z.Y.z.B.B.b.b.b.b.b.b.B.b.b.B.b.b.b.b.b.b.b.b.b.b.b.b.b.D.I.V.V.V.N.N.V.N.N.N.N.N.N.N.N.N.N.N.V.N.N.N.N.N.N.N.I.P.N.N.N.N.N.N.N.N.N.N.N.N.N.N.N.N.N.N.N.N.N.j.N.C.g.j.%Xk.k.k.j.j.j.j.j.j.j.j.j.j.j.j.j.j.j.T lX8XsXZXkXZXMXn l 6 6 6 6 6 s v % v s 6 6 6 6 6 9 L Y Y o.$.$.@.6 5 : S S Z J L K h 5 6 Z S S U 3X3X3X8 6 m 6 w 6 w w w w w ",
"h.h.h.h.h.h.h.h.h.] _ _ _ _ _ h.v._ _ _ _ v._ _ _ h.v._ _ h.v._ _ v.v._ [.[._ ' _ _ _ _ _ _ _ h.` sXNX` h._ _ _ _ v._ _ _ ` Y K n.[ -XNX~ ^ ^ c.c.c.c.c.c.c.c.c.c.c.c.c.c.c.c.c.c.c.c.M.L.z.B.B.b.b.b.b.b.b.B.b.b.B.b.b.b.b.b.b.b.b.b.b.b.b.b.D.I.V.V.V.N.N.V.N.N.N.N.N.N.N.N.N.N.N.V.N.N.N.N.N.N.N.I.P.N.N.N.N.N.N.N.N.N.N.N.N.N.N.N.N.N.N.N.N.N.N.N.I.j.g.%Xk.k.k.j.j.j.j.j.j.j.j.j.j.j.j.j.j.j.T nXCXCXkXCXZXzX..d 6 6 6 6 6 s v % v s 6 6 6 6 6 9 L Y Y o.$.$.@.6 5 : S S Z J L K h 5 6 Z S S U 3X3X3X8 6 m 6 6 6 6 6 6 6 6 ",
"h.h.h.h.h.h.h.h.' v._ _ _ _ _ h.v._ _ _ _ v._ _ _ h.v._ _ h.v._ _ v.v._ [.[._ ' _ _ _ _ _ _ _ h._ j.MXV.` h._ _ _ v._ _ _ _ Y ^ b.oXSXaX~ ^ ^ c.c.c.c.c.c.c.c.c.c.c.c.c.c.c.c.c.c.c.c.L.M.z.B.B.b.b.b.b.b.b.B.b.b.B.b.b.b.b.b.b.b.b.b.b.b.b.b.P.C.V.V.V.N.N.V.N.N.N.N.N.N.N.N.N.N.N.V.N.N.N.N.N.N.N.C.P.N.N.N.N.N.N.N.N.N.N.N.N.N.N.N.N.N.N.N.N.N.N.b.C.N.g.%Xk.k.k.j.j.j.j.j.j.j.j.j.j.j.j.j.j.j.T NXCX-X-.wXG.!.d z & 6 6 6 6 s v % v s 6 6 6 6 6 9 L Y Y o.$.$.@.6 5 : S S Z J L K h 5 6 Z S S U 3X3X3X8 6 m 6 6 6 6 6 6 6 6 ",
"h.h.h.h.h.h.h.h.] v._ _ _ _ _ h.v._ _ _ _ v.h._ _ h.v._ _ h.v._ _ v.v._ [.[._ ' _ _ _ _ _ _ _ _ h.[ kXjX[ h._ _ _ v._ _ _ h.Y p.) XXMXd.^ ^ ) c.c.c.c.c.c.c.c.c.c.c.c.c.c.c.c.c.c.c.b.L.M.m.B.B.b.b.b.b.b.b.B.b.b.B.b.b.b.b.b.b.b.b.b.b.b.b.N.Y.D.V.V.V.N.N.V.N.N.N.N.N.N.N.N.N.N.N.V.N.N.N.N.N.N.N.V.Y.N.N.N.N.N.N.N.N.N.N.N.N.N.N.N.N.N.N.N.N.N.N.N.V.V.g.%Xk.k.k.j.j.j.j.j.j.j.j.j.j.j.j.j.j.j.T NXCX=.h t 0 b l z & 6 6 6 6 s v % v s 6 6 6 6 6 9 L Y Y o.$.$.@.6 5 : S S Z J L K h 5 6 Z S S U 3X3X3X8 6 m 6 6 & & & 6 & % ",
"h.h.h.h.h.h.h._ ] v._ _ _ _ _ h.v._ _ _ _ v._ _ _ h.v._ _ h.v._ _ v.v._ [.[._ ' _ _ _ _ _ _ _ _ h.` I.MX_ _ _ _ _ v._ _ _ _ ) p.E.DXlX( ^ ^ ) c.c.c.c.c.c.c.c.c.c.c.c.c.c.c.c.c.c.c.B.M.M.m.B.B.b.b.b.b.b.b.B.b.b.B.b.b.b.b.b.b.b.b.b.b.b.b.A.Y.D.V.V.V.N.N.V.N.N.N.N.N.N.N.N.N.N.N.V.N.N.N.N.N.N.N.V.Y.V.N.N.N.N.N.N.N.N.N.N.N.N.N.N.N.N.N.N.N.N.b.N.N.V.j.%Xk.k.k.j.j.j.j.j.j.j.j.j.j.j.j.j.j.j.T MXwX8 k k x t l z & 6 6 6 6 s v % v s 6 6 6 6 6 9 L Y Y o.$.$.@.6 5 : S S Z J L K h 5 6 Z S S U 3X3X3X8 6 m 6 & z N v N X.O.",
"h.h.h.h.h.h.h.' ' v._ _ _ _ _ h.v._ _ _ _ v._ h.h.v.v._ _ h.v._ _ v.v._ [.[._ ' _ _ _ _ h.h._ _ _ h._ MXU.` h._ _ v._ _ _ _ x./ ^.VXU.~ f.^ ) c.c.c.c.c.c.c.c.c.c.c.c.c.c.c.c.c.c.c.C.M.M.z.B.B.b.b.b.b.b.b.B.b.b.B.b.b.b.b.b.b.b.b.b.b.b.b.Z.I.C.B.V.V.N.N.V.V.V.N.N.N.N.N.N.N.N.N.V.N.N.N.N.N.N.N.V.P.C.N.N.N.N.N.N.N.N.N.N.N.N.N.N.N.N.N.N.N.N.N.N.N.V.N.%Xk.k.k.j.j.j.j.j.j.j.j.j.j.j.j.j.j.j.T lX&.9 x k k k l z & 6 6 6 6 s v % v s 6 6 6 6 6 9 L Y Y o.$.$.@.6 5 : S S Z J L K h 5 6 Z S S U 3X3X3X8 6 m 6 % O.X.+.N z o.",
"h.h.@Xk.@Xh.h.] _ v._ _ _ _ _ h.v._ _ _ _ v.@X#Xv.@Xv._ _ h.v._ _ v.v._ [.[._ ' _ _ _ @Xv.@Xv._ _ h.[ sXkX` h._ _ v._ _ _ h.z.( *XMX}.) f.^ ) c.c.c.c.c.c.c.c.c.c.c.c.c.n.n.n.n.g.b.C.m.M.z.B.B.b.b.b.b.b.b.B.b.b.B.B.B.B.b.b.b.b.b.b.b.b.B.Z.L.C.B.V.V.N.V.Z.V.Z.V.N.N.N.N.N.N.N.N.V.N.N.N.N.N.N.N.V.P.I.Z.N.N.N.N.N.N.N.N.N.N.N.N.N.N.N.N.j.A.A.A.A.N.V.V.%Xk.k.k.j.j.j.j.j.j.j.j.j.j.j.j.j.j.j.) =. .k k k k k l z & 6 6 6 6 s v % v s 6 6 6 6 6 9 L Y Y o.$.$.@.6 5 : S S Z J L K h 5 6 Z S S U 3X3X3X8 6 m 6 % o.v O.z l N ",
"h.@Xk.h.@Xh._ ' h.v._ _ _ _ _ h.v._ _ _ _ v.@X_ v.#Xv._ _ h.v._ _ v.v._ [.[._ ' _ _ h.@X_ v.@X_ _ h._ b.MXN._ h._ v._ _ _ v.m.`.DXlX}.#Xf.^ x.c.c.c.c.c.c.c.c.c.c.c.c.c.n.c.c.n.c.C.B.m.M.z.B.B.b.b.b.b.b.b.B.b.b.A.b.A.A.b.b.b.b.b.b.b.b.Z.V.L.C.B.B.V.N.V.Z.N.Z.V.N.N.N.N.N.N.N.N.V.N.N.N.N.N.N.N.C.P.I.P.N.N.N.N.N.N.N.N.N.N.N.N.N.N.N.N.N.Z.N.A.Z.N.N.V.%Xk.k.k.j.j.j.j.j.j.j.j.j.j.j.j.j.j.j.l.U x k k k k k l z & 6 6 6 6 s v % v s 6 6 6 6 6 9 L Y Y o.$.$.@.6 5 : S S Z J L K h 5 6 Z S S U 3X3X3X8 6 m 6 6 s 6 s 6 w s ",
"h.h.@Xh.h.h.' ' _ v._ _ _ _ _ h.v._ _ _ _ v.v.#X@X#Xv._ _ h.v._ _ v.v._ [.[._ ' _ _ _ #X#X#Xv._ _ _ h.[ kXjX[ h._ v._ _ _ n.c.|.MXd.` $Xf.^ x.c.c.c.c.c.c.c.c.c.c.c.c.c.n.n.n.n.c.C.b.B.M.z.B.B.b.b.b.b.b.b.B.b.b.B.B.B.B.b.b.b.b.b.b.b.b.P.B.I.C.B.B.V.N.N.Z.V.V.N.N.N.N.N.N.N.N.N.V.N.N.N.N.N.N.N.V.P.I.P.N.N.N.N.N.N.N.N.N.N.N.N.N.N.N.N.j.A.A.N.A.N.b.C.%Xk.k.k.j.j.j.j.j.j.j.j.j.j.j.j.j.j.j.l.U x k k k k k l z & 6 6 6 6 s v % v s 6 6 6 6 6 9 L Y Y o.$.$.@.6 5 : S S Z J L K h 5 6 Z S S U 3X3X3X8 6 m 6 6 6 6 6 6 6 6 ",
"h.h.h.h.h.h.] _ _ v._ _ _ _ _ h.v._ _ _ _ v._ _ _ h.v._ _ h.v._ _ v.v._ ] [._ ' _ _ _ _ _ _ _ _ _ _ h.` L.MX_ _ _ v._ _ _ M.}.DXnXY ) $Xv.^ x.c.c.c.c.c.c.c.c.c.c.c.c.c.c.c.c.c.N.M.b.M.M.z.B.B.b.b.b.b.b.b.B.b.b.B.b.b.b.b.b.b.b.b.b.b.V.Z.N.I.C.V.B.N.N.N.V.N.N.N.N.N.N.N.N.N.N.N.V.N.N.N.N.N.N.N.V.P.V.I.N.N.j.N.N.j.b.j.N.N.j.N.N.N.N.N.j.N.N.j.N.N.j.V.%Xk.k.j.j.j.j.g.j.j.j.j.j.j.j.j.j.j.j.g.U x k k k k k l z & 6 6 6 6 s v % v s 6 6 6 6 6 9 L Y Y o.$.$.@.6 5 : S S Z J L K h 5 6 Z S S U 3X3X3X8 6 m 6 6 6 6 6 6 6 6 ",
"h.@Xh.@Xh._ #X@X_ v.@X@X@Xh.v.@Xv._ #X@X_ v.#Xv.@Xh.h.@Xv._ @X@X@X@X_ v.#X] v.#X#X_ #Xv.@X@X_ v.@Xv.h.@X[.MXU.` @X@X_ v.@XB.|.BXJ.[ ) $X$Xx.x.n.n.n.n.c.c.n.n.c.n.n.c.c.n.n.n.c.C.Z.B.m.D.B.C.B.z.B.Z.b.b.A.B.b.B.B.B.B.b.B.A.B.b.B.B.B.P.V.A.Y.C.C.D.B.N.Z.V.Z.V.N.Z.Z.N.V.Z.Z.Z.V.V.Z.V.N.V.Z.N.V.P.P.Z.I.V.A.A.b.A.A.A.A.N.N.Z.N.b.Z.A.j.A.A.A.A.N.N.Z.V.=X%XA.%Xk.g.k.A.k.k.k.k.k.k.k.k.k.k.k.g.=. .v v v  .x l z & 6 6 6 6 s v % v s 6 6 6 6 6 9 L Y Y o.$.$.@.6 5 : S S Z J L K h 5 6 Z S S U 3X3X3X8 6 m 6 6 6 6 6 6 6 6 ",
"h.@Xk.%Xk.] @X@X_ v.@X@X@Xh.v.@X#X_ @X@X_ v.@X#X@Xh.h.@X@X_ @X@X@X@X_ @X#X] v.@X#X_ @X@X@X@X_ #X@Xv.h.@X{.fXBX` @X@X_ #XD.{.-XMX) c.x.v.$XB.x.n.A.n.A.c.c.A.n.c.n.A.c.b.n.n.A.b.C.D.B.m.D.Z.D.Z.z.B.D.B.b.D.A.b.B.B.A.Z.b.B.D.B.b.Z.A.D.P.B.Z.Y.C.C.P.A.N.P.V.P.Z.N.Z.P.N.V.P.Z.P.V.N.P.Z.N.Z.P.V.V.P.;XP.C.C.Z.Z.j.A.Z.Z.Z.j.N.%XN.b.Z.Z.j.A.A.Z.Z.N.N.%XA.P.%X%X%XA.g.A.%Xk.j.j.j.j.j.j.j.j.j.j.g.U x k k k k k l z & 6 6 6 6 s v % v s 6 6 6 6 6 9 L Y Y o.$.$.@.6 5 : S S Z J L K h 5 6 Z S S U 3X3X3X8 6 v 6 d s s s s d p ",
"h.@Xk.%Xv.] @X@X_ v.@X@X@Xh.v.@X#X_ @X@X_ v.@X#X@Xh.h.@X#X_ @X@X@X@X_ @X#X] v.#X#X_ @X#X@X@X_ #X@Xv.h.@X@X@XMXI.#X@X_ v.D.|.SXdX( x.c.c.$X@Xx.n.n.n.A.c.c.A.n.c.n.A.c.b.n.n.A.B.C.Z.B.m.D.B.D.Z.z.B.D.B.b.Z.A.b.B.B.A.Z.b.B.D.B.b.Z.B.P.P.N.Z.Y.C.C.P.D.N.Z.V.P.Z.N.Z.P.N.V.P.Z.P.V.N.P.Z.N.Z.P.V.V.P.;XP.V.I.Z.Z.j.A.Z.Z.Z.j.N.Z.N.b.Z.Z.j.A.A.A.Z.N.N.Z.N.P.%X%X%XA.g.A.%Xk.j.j.j.j.j.j.j.j.j.j.g.U x k k k k k l z & 6 6 6 6 s v % v s 6 6 6 6 6 9 L Y Y o.$.$.@.6 5 : S S Z J L K h 5 6 Z S S U 3X3X3X8 6 m 6 6 6 6 6 6 @ u ",
"h.@Xk.%X#X' @X@X_ v.@X@X@Xh.v.@X#X_ @X@X_ v.@X#X@Xh.h.@X@X_ @X@X@X@X_ @X#X] v.#X#X_ @X#X@X@X_ #X@Xv.h.@X@X{.sXzX{.@X_ n.$X*XMXn.) c.c.c.$X$Xx.n.A.n.A.c.c.A.n.c.n.A.c.b.n.n.A.C.N.D.B.m.D.C.D.Z.z.B.D.B.b.Z.A.b.B.B.A.Z.b.B.D.B.b.Z.B.;XZ.B.Z.Y.C.C.P.Z.B.Z.V.P.Z.N.Z.P.N.V.P.Z.P.V.N.P.Z.N.Z.P.V.V.P.;XP.V.C.P.A.j.A.Z.Z.Z.j.N.Z.N.N.Z.Z.j.A.A.A.Z.N.N.Z.N.=X;X%X%XA.g.A.%Xk.j.j.j.j.j.j.j.j.j.j.g.U x k k k k k l z & 6 6 6 6 s v % v s 6 6 6 6 6 9 L Y Y o.$.$.@.6 5 : S S Z J L K h 5 6 Z S S U 3X3X3X8 6 m 6 6 6 6 6 & 0.KX",
"h.@Xk.%X#X_ @X@X_ v.@X@X@X_ v.@X#X_ @X@X_ v.@X#X@Xh.h.@X#X_ @X@X@X@X_ @X#X] v.#X#X_ @X#X@X@X_ v.@Xv._ @X@X@Xv.MX=X#Xh.C.XXzXdX[.) c.c.c.@X$Xc.b.A.n.A.c.c.A.n.g.n.A.c.c.n.n.Z.C.b.D.B.m.D.C.D.Z.z.B.D.b.b.Z.B.z.B.B.A.Z.b.B.D.B.b.A.Z.;XA.N.Z.Y.C.C.P.Z.B.Z.V.P.Z.N.Z.P.N.V.P.Z.P.V.N.P.Z.N.Z.P.N.V.P.;XP.V.V.P.A.j.A.Z.Z.Z.j.N.Z.N.j.Z.Z.j.A.A.A.Z.j.N.Z.N.%X;X%X%XA.g.A.%Xk.j.j.j.j.j.j.j.j.j.j.g.U x k k k k k l z & 6 6 6 6 s v % v s 6 6 6 6 6 9 L Y Y o.$.$.@.6 5 : S S Z J L K h 5 6 Z S S U 3X3X3X8 6 m 6 6 6 6 $ 0.JXu.",
"@X@Xk.@X#X@X@X@Xv.@X@X@X@Xv.@X@X@Xv.@X@Xv.@X@X#X@Xv.@X@X@Xv.@X@X@X@Xv.@X#X#X#X#X#Xv.@X#X@X@Xv.@X@X@X@X@X@X@X{.fXVX Xn. X-XMX@Xn.x.b.n.n.A.$X@Xn.n.n.A.n.n.A.n.n.A.A.n.n.n.n.D.C.B.D.A.C.D.B.D.Z.B.A.D.B.B.Z.Z.B.Z.B.A.Z.B.A.D.B.B.Z.P.;XZ.Z.Z.Y.C.Z.P.Z.D.Z.V.P.Z.V.P.P.V.Z.P.Z.P.Z.Z.P.Z.V.Z.P.V.Z.P.;XP.Z.Z.P.Z.A.Z.Z.Z.Z.A.Z.Z.A.A.Z.Z.A.Z.A.A.Z.A.A.Z.A.%XP.%X%XA.k.A.%Xk.j.j.j.j.j.j.j.j.j.j.g.U x k k k k k l z & 6 6 6 6 s v % v s 6 6 6 6 6 9 L Y Y o.$.$.@.6 5 : S S Z J L K h 5 6 Z S S U 3X3X3X8 6 m 6 6 6 $ u qXu.X ",
"@X@Xk.#X#X@X@X@X@X@X@X@X@X@X@X@X@X@X@X@X@X@X@X#X@X@X@X@X@X@X@X@X@X@X@X@X#X#X#X#X@X@X@Xv.@X@X@X@X@X@X@X@X@X@X@X#XBXzXXX*XCXY.#X@Xx.A.A.@X@X%X$XA.n.n.A.n.A.A.A.n.A.A.n.A.n.n.I.Z.Z.D.Z.D.D.C.D.D.A.D.Z.A.Z.D.Z.A.D.B.A.D.A.D.Z.Z.Z.Z.;XP.Z.Z.Z.Y.I.P.P.Z.D.D.V.P.P.Z.P.P.Z.P.P.Z.P.Z.P.P.P.Z.P.P.Z.P.P.;XP.P.P.P.P.Z.Z.Z.Z.Z.Z.Z.Z.Z.Z.Z.Z.Z.%XA.A.Z.Z.Z.Z.Z.%X;XZ.%X%XA.%X%XA.j.j.j.j.j.j.j.j.j.j.g.I x k k k k k l z & 6 6 6 6 s v % v s 6 6 6 6 6 9 L Y Y o.$.$.@.6 5 : S S Z J L K h 5 6 Z S S U 3X3X3X8 6 m 6 6 6 $ 0.JXr   ",
"@X@Xh.#X@X@X@X@X@X@X@X@X@X@X@X@X@X@X@X@X@X@X@X#X@X@X@X@X@X@X@X@X@X@X@X@X#X#X#X#X#X#X@Xv.@X@X@X@X@X@X@X@X@X@X@X#X@XBXMXMXfX#XA.@Xc.@X@Xn.@X@X$X@Xn.n.A.n.n.A.n.n.A.A.n.A.n.B.I.B.Z.Z.A.C.D.B.Z.Z.B.Z.Z.B.A.Z.Z.B.Z.B.B.Z.B.Z.Z.A.B.Z.P.Z.Z.Z.Z.Y.I.D.P.Z.Z.D.V.P.Z.Z.P.P.Z.P.Z.Z.P.Z.Z.P.Z.Z.P.P.Z.Z.P.P.P.P.Z.P.I.A.Z.A.Z.Z.A.Z.Z.Z.Z.Z.Z.A.Z.A.A.Z.A.Z.Z.Z.%X;XP.%XA.A.A.%Xk.j.j.j.j.j.j.j.j.j.j.k.I x k k k k k l z & 6 6 6 6 s v % v s 6 6 6 6 6 9 L Y Y o.$.$.@.6 5 : S S Z J L K h 5 6 Z S S U 3X3X3X8 6 m 6 6 6 $ u.qXX 6 ",
"h.h._ ' h.h.h.h.h.v._ h.h.h._ v.v._ h.h._ v.h._ _ v.v._ h.h.v._ _ v.v.h.[.[.v.v.v.h.h._ h.h._ h.h.h.h.h.h.h._ h._ v.L.N.' c.v.v.v.v.v.v.v.c.$X#Xx.c.c.c.c.c.b.c.c.c.c.c.c.C.B.b.b.b.b.M.M.B.B.B.b.b.b.b.b.b.B.b.b.B.b.b.b.b.b.b.b.Z.V.B.B.B.B.I.C.V.V.B.B.B.B.N.N.N.N.N.N.N.N.N.N.N.V.N.N.N.N.N.N.N.V.P.V.V.V.N.C.V.N.N.N.N.N.N.N.N.N.N.N.N.N.N.N.N.N.N.N.N.%XA.C.k.j.j.j.j.j.j.j.j.j.j.j.j.j.j.j.k.I x k k k k k l z & 6 6 6 6 s v % v s 6 6 6 6 6 9 L Y Y o.$.$.@.6 5 : S S Z J L K h 5 6 Z S S U 3X3X3X8 6 m 6 6 6 $ u.qXX & ",
"h.h.' ' _ _ _ _ _ v._ _ _ _ _ h.v._ _ _ _ v._ _ _ h.v._ _ h.v._ _ v.h._ [.[._ ' _ _ _ _ _ _ _ _ _ _ _ _ _ _ _ _ _ B.v.v.c.v.v.v.c.v.v.v.v.n.@X$Xc.c.c.c.c.c.c.c.c.c.c.c.b.C.b.b.b.b.b.M.M.z.B.B.b.b.b.b.b.b.B.b.b.B.b.b.b.b.b.b.b.P.B.B.B.B.B.I.C.V.V.B.B.B.B.N.N.N.N.N.N.N.N.N.N.N.V.N.N.N.N.N.N.N.V.P.V.V.V.N.C.C.b.N.b.j.N.N.b.N.j.N.N.N.N.N.N.j.N.N.j.N.%XA.C.k.j.j.j.j.j.j.j.j.j.j.j.j.j.j.j.k.=.x k k k k k l z & 6 6 6 6 s v % v s 6 6 6 6 6 9 L Y Y o.$.$.@.6 5 : S S Z J L K h 5 6 Z S S U 3X3X3X8 6 m 6 6 6 $ 0.JXr   ",
"h.h.B.N.b._ _ _ _ v._ _ _ _ _ _ n.N.b.N._ v.h._ _ h.v._ _ h.v._ _ v.v._ [.v.N.n.B.N.c._ _ _ _ _ _ _ _ _ _ _ _ _ h.B.B.V.B.B.B.v.v.v.v.v.c.v.b.%XB.M.M.c.c.c.c.c.c.c.c.c.B.C.M.M.M.M.B.B.M.z.B.B.b.b.b.b.b.b.B.b.b.n.M.M.m.b.b.b.V.Z.B.B.B.B.B.I.C.V.V.B.B.B.A.C.L.V.N.N.N.N.N.N.N.N.V.V.L.C.N.N.N.N.V.P.V.V.V.N.V.C.V.M.V.N.N.N.N.N.N.N.N.N.N.N.N.N.N.N.N.N.%XV.I.C.N.j.j.j.j.j.j.j.j.j.j.j.j.j.j.k.I x @.@.@.X.k l z & 6 6 6 6 s v % v s 6 6 6 6 6 9 L Y Y o.$.$.@.6 5 : S S Z J L K h 5 6 Z S S U 3X3X3X8 6 m 6 6 6 $ u qXu.+ ",
"h.' B.V.b.h._ _ _ v._ _ _ _ _ _ v.N.B.N.h.v.h._ _ h.v._ _ h.v._ _ v.v._ [.' B.n.C.N.b._ h._ _ _ _ _ _ _ _ _ _ _ c.B.c.C.B.C.B.n.v.v.v.v.c.v.c.P.A.M.m.b.c.c.c.c.c.c.c.c.C.B.M.M.M.M.M.B.M.z.B.B.b.b.b.b.b.b.B.b.b.n.B.M.L.N.b.b.Z.V.B.B.B.B.B.I.C.V.V.B.B.B.A.B.L.L.N.N.N.N.N.N.N.N.V.V.L.L.V.N.N.N.V.P.V.V.V.N.N.C.V.M.L.N.N.N.N.N.N.N.N.N.N.N.N.N.N.N.N.N.%XV.L.V.L.M.g.j.j.j.j.j.j.j.j.j.j.j.j.k.=.x X.+.@.K.b s z & 6 6 6 6 s v % v s 6 6 6 6 6 9 L Y Y o.$.$.@.6 5 : S S Z J L K h 5 6 Z S S U 3X3X3X8 6 m 6 6 6 6 $ 0.JXu.",
"h.v.b.N.b._ _ _ _ v._ _ _ _ _ h.v.b.N.N._ v._ _ _ h.v._ _ _ v._ _ v.h._ ] ' b.b.N.N.c._ _ _ _ _ _ _ _ _ _ _ _ _ b.n.V.B.B.B.B.c.c.c.c.c.c.v.b.B.%Xm.M.c.c.c.c.c.c.c.c.c.C.b.M.M.M.M.B.m.M.z.B.B.z.b.b.b.b.b.b.b.z.b.N.M.M.m.b.N.P.N.B.B.B.B.N.L.C.V.V.B.B.B.B.L.M.L.V.N.N.N.N.N.N.N.V.M.L.L.M.N.N.N.V.P.V.V.V.N.N.C.C.M.M.m.j.N.j.z.j.N.N.j.j.N.N.j.N.N.j.j.%XA.V.L.V.m.j.g.j.j.j.j.j.j.j.j.j.j.g.k.I  .+.@.@.+.v s z & 6 6 6 6 s v % v s 6 6 6 6 6 9 L Y Y o.$.$.@.6 5 : S S Z J L K h 5 6 Z S S U 3X3X3X8 6 m 6 6 6 6 6 @ 0.1.",
"#X#Xv.#X#X#X#X#X#X#X#X#X#X#X#X#X#Xv.#X#X#X#X#X#X#X#X#Xv.#X#X#X#X#X#X#Xh.{.{.#X#X#X#X#X#X#X#X#X#X#X#X#X#X#X#X#Xv.A.@Xn.v.v.v.v.v.v.v.v.v.v.@Xn.v.$X#Xc.n.n.n.n.n.n.n.v.C.Z.n.B.n.B.B.A.B.D.B.B.B.B.B.B.B.B.B.A.B.n.A.B.n.n.B.n.Z.P.A.A.A.A.A.A.Y.D.Z.Z.Z.A.Z.Z.D.A.A.V.V.V.V.V.V.V.V.Z.V.V.A.V.V.V.V.Z.;XZ.Z.Z.A.A.Z.I.N.N.N.A.A.N.A.N.A.A.N.N.A.A.N.A.A.N.N.;X%XA.P.k.k.k.k.k.k.k.k.k.k.k.k.k.k.k.@X=.x x x k k k l z & 6 6 6 6 s v % v s 6 6 6 6 6 9 L Y Y o.$.$.@.6 5 : S S Z J L K h 5 6 Z S S U 3X3X3X8 6 m 6 6 6 6 6 6 & @ ",
") ^ P P P P P P P ^ P P P P P P P P P P P ^ P P P P P P P P P P P P P P ) ) P P P P P P P P P P P P P P P P P ^ i.^ ^ ^ ^ ^ ^ ^ ^ ^ ^ ^ ^ ^ ^ ^ ) ) ^ ^ ^ ^ ^ ^ ^ ^ ^ p.i.^ ^ ^ ^ ^ ^ i.p.i.i.i.^ ^ i.i.^ ^ i.^ ^ i.^ ^ ^ ^ ^ p.p.i.i.i.i.i.i.p.p.p.p.i.i.i.p.i.i.i.i.i.i.i.i.i.i.i.p.i.i.i.i.i.i.i.p.p.i.i.i.i.i.i.p.i.i.i.i.i.i.i.i.i.i.i.i.i.i.i.i.i.i.i.f.i.=.p.i.I I I I I I I I I I I I I I P U t 7 8 8 e k N s 6 6 6 6 6 s v # v s 6 6 6 6 6 9 L Y Y o.$.$.@.6 5 : S S Z J L K h 5 6 Z S S U 3X3X3X8 6 m 6 6 6 6 6 6 & 1.",
"z z z z z z z z z z z z z z z z z z z z z z z z z z z z z z z z z z z z z z z z z z z z z z z z z z z z z z z z z z z z z z z z z z z z z z z z z z z z z z z z z z z z z z z z z z z z z z z z z z z z z z z z z z z z z z z z z z z z z z z z z z z z z z z z z z z z z z z z z z z z z z z z z z z z z z z z z z z z z z z z z z z z z z z z z z z z z z z z z z z z z z z z z z z z z z z z z z z v v v v v N d 6 6 6 6 6 6 6 m z m 6 6 6 6 6 6 9 L Y Y o.$.$.@.6 5 : S S Z J L K h 5 6 Z S S U 3X3X3X8 6 m 6 6 6 6 6 6 u.KX",
"p p p p p p p p p s p p p p p p p p p p p p p p p p p p p p s p p p p p p p p p p p p p p p p p p p p p p p p s s s s s s s s s s s s s p s s p s s p p p p s p p s p s s s s s s s s s s s s s s s s s s s s s s s s s s s s s s s s s s s s s s s s s s s s s s s s s s s s s s s s s s s s s s s s p s s s s s s s s s s s s s s s s s s s s s s s s s s s s s s s s s s s s s s s s s s s s s s s s s s s s 6 6 6 6 6 6 6 6 & 6 d 6 & 6 6 6 6 6 9 L Y L o.$.$.@.6 5 : S Z Z J L K h 5 6 Z S S n 3X3X3X8 6 m 6 6 6 6 $ u.JX0.",
"6 6 6 6 6 6 6 6 6 6 6 6 6 6 6 6 6 6 6 6 6 6 6 6 6 6 6 6 6 6 6 6 6 6 6 6 6 6 6 6 6 6 6 6 6 6 6 6 6 6 6 6 6 6 6 6 6 6 6 6 6 6 6 6 6 6 6 6 6 6 6 6 6 6 6 6 6 6 6 6 6 6 6 6 6 6 6 6 6 6 6 6 6 6 6 6 6 6 6 6 6 6 6 6 6 6 6 6 6 6 6 6 6 6 6 6 6 6 & & & & & & & & & & & & & & & & 6 6 & & & & & & & & & 6 6 6 6 6 & % % % % % % % % % % % % % % % % % % % % % % % % % % % % % % % % % % % % % % % % % % % % % % % % % & 6 6 6 6 6 6 s s % s 6 s 6 6 6 6 6 9 Y Y Y O.w.w.$.6 5 : S S Z J K Y h 5 6 Z S S =.3X3X3X8 6 m 6 6 6 $ } KX0.  ",
"6 6 6 6 6 6 6 6 6 6 6 6 6 6 6 6 6 6 6 6 6 6 6 6 6 6 6 6 6 6 6 6 6 6 6 6 6 6 6 6 6 6 6 6 6 6 6 6 6 6 6 6 6 6 6 6 6 6 6 6 6 6 6 6 6 6 6 6 6 6 6 6 6 6 6 6 6 6 6 6 6 6 6 6 6 6 6 6 6 6 6 6 6 6 6 6 6 6 6 6 6 6 6 6 6 6 6 6 6 6 6 6 6 6 6 6 6 6 w s s s s s s s s s s s s s s s 6 6 s s s s s s s s p 6 6 s 6 6 s z z z z z z z z z z z z z z z z z z z z z z z z z z z z z z z z z z z z z z z z z z z z z z z z z l 6 6 6 6 6 6 +.O.w +.+.+.X.6 6 6 6 6 g g g s e e e 6 6 9 2 3 2 p p g 9 6 6 0 0 - 9 y y t 6 6 m 6 6 6 $ 0.JX5   ",
"s s s w s 6 6 6 6 6 6 & 6 6 6 6 6 6 6 6 6 p s s s s s s s s s s s s s s s s s s s w 6 6 6 6 & % 6 6 6 6 6 6 6 6 p s s s s s s s s s s s s s s s w s 6 6 6 6 6 & & 6 6 6 6 6 6 6 6 6 6 6 w s s s s s s s s s s s s s s s s s s p s w 6 6 6 6 X.N N N N N N N N N N N N N N o.6 v X.N N N N N N N X.w 6 s 6 & v N z v v v v v v v v v v v v v v v v v z v z z v z v z v v v v v v v v v v v v v v v v v v v v v v X.6 6 6 6 6 s N N v v a.X.X.6 6 6 6 6 5 p 6 6 p g p 6 6 5 0 9 9 - - 6 6 6 6 5 0 6 - - ; & 6 6 m 6 6 6 $ u.qXX 6 ",
"d s s +.z s 6 6 6 6 s l l % 6 & & 6 & 6 6 d d d l d d d z l d d d s d s s s s o.N s 6 6 6 6 l v 6 & % & 6 & 6 6 d z d d s d s d s s s d s z s s +.z s 6 6 6 6 s d % & 6 6 & & & & & 6 6 s d d s l z s d l l l l s l l s s s s O.m s 6 6 6 6 N s d s d s d d s s s d d s s N w v l s s s d s s s N w & s 6 & z z s s s s s s s s s s s s s s s s s d l l v z d l d z d s s s s s s s s s s s s s s s s s s s s s N 6 6 6 6 6 6 o.O.z O.X.+.N & 6 6 6 6 6 P H h H H H 5 6 6 W - C W C C 5 6 5 ; W 5 C W C 6 6 6 m 6 6 6 $ u.KXO % ",
"d p m fXa.w 6 6 6 6 a.v X.m v m N d o.6 6 s 4.+.a.v s 4.4.a.o.N N m d X.4.d s T.F.s 6 6 6 & m a.z l X.N d o.6 6 4.+.z z 4.z m v m N v z m 4.w m fXa.w 6 6 6 6 a.d m m l d N v v v X.d % X.N d v 4.s.N N a.a.N z N o.4.z +.s l T.K.p 6 6 6 6 N d a.+.4.+.a.l o.O.+.4.4.O.d N w v d +.o.4.4.4.O.d N w & s 6 & z z s d d d d d d d d d d d d d d d s v +.z a.s.+.O.s.+.d d d d d d d d d d d d d d d d d d d d d d N 6 6 6 6 6 6 6 6 6 6 & 6 6 6 6 6 6 6 g P H U I h p 6 6 5 C C C W C C 5 6 5 ; W.; C W W 0 5 6 m 6 6 6 $ 0.JXr . ",
"d p N a.O.s 6 6 6 6 v +.a.o.O.4.X.s.s.l & N s.a.s.v O.a.a.a.4.+.4.4.a.X.s.s z 4.+.l 6 6 6 & s N X.4.O.o.s.s.d % a.X.a.s.a.a.s.s.o.a.4.o.s.4.w N a.O.s 6 6 6 6 z a.o.O.+.N a.v X.N K.m # O.v O.s.s.a.+.o.s.s.+.a.4.a.a.a.a.w m a.+.d 6 6 6 6 N d s.O.s.a.a.v +.s.a.O.4.a.p N w v d O.s.a.O.a.a.p N w & s 6 & z z s d d d d d d d d d d d d d d d s v +.l 4.+.s.+.K.+.s l l d d d d d d d d d d d d d d d d d d d N 6 6 6 6 6 6 6 & 6 p s 6 6 6 6 6 6 6 5 9 9 9 9 6 6 6 6 6 9 9 0 9 0 6 6 6 6 6 9 9 0 9 9 6 6 6 m 6 6 6 $ u qXqX% ",
"d p m fXa.w 6 6 6 6 N o.m X.N 4.O.v o.6 6 N s.s.a.N X.a.a.a.s.o.O.4.a.o.4.d s T.F.s 6 6 6 6 s l N o.+.O.v o.6 6 a.O.4.4.+.a.a.+.v o.O.s.s.4.w m fXa.w 6 6 6 6 N X.X.N m +.N w N N o.s % o.4.+.a.O.X.a.X.O.+.a.+.4.a.N +.4.s l T.K.w 6 6 6 6 N d X.d o.o.4.m N 4.o.+.+.X.l N w v l m 4.X.+.O.X.d N w & s 6 & z z d d d d d d d d d d d d d d d d d l a.+.4.N o.4.N O.O.X.X.d d d d d d d d d d d d d d d d d d d N 6 6 6 6 6 6 6 6 O.O.4.N & 6 6 6 6 6 & k e e k l w 6 6 6 : 9 5 - ; 6 6 6 6 9 : 6 ; ; ; 6 6 6 m 6 6 6 6 $ 1.JXu.",
"d s s N l s 6 6 6 6 6 6 & 6 6 m 6 & 6 6 6 s d l v d l m l m z d z v d m z d s m v s 6 6 6 6 6 6 N s v 6 & 6 6 6 z N l l z z z l l l l z z l s s N l s 6 6 6 6 6 & 6 6 6 6 6 6 6 6 6 6 6 d N l z z l v l l l z v s.N d l z d s N z s 6 6 6 6 N s s d s s d d s s s s s s s N w v z s s s s s s s N p & s 6 & z z s s s s s s s s s s s s s s s s s s s s s s s s s s s s s s s s s s s s s s s s s s s s s s s s N 6 6 6 6 6 6 & X.O.+.a.o.& 6 6 6 6 6 s 4.@.m $.4.X.% 6 5 W ; : W C ; 5 6 5 ; W 9 W W W 6 6 6 m 6 6 6 6 6 @ 1.} ",
"s w s w s 6 6 6 6 6 6 6 6 6 6 6 6 6 6 6 6 w s s p s s p s w s s s s s p s w s s s 6 6 6 6 6 6 6 6 6 6 6 6 6 6 6 6 w s s s s s s s s s s s s w s w s 6 6 6 6 6 6 6 6 6 6 6 6 6 6 6 6 6 6 6 w s s s s p s s s p d l s s s s w s p s 6 6 6 6 6 N N N N N N N N N N N N N N N X.6 z X.N N N N N N N X.6 6 s 6 & v N m m m m m m m m m m m m m m m m m m m m m m m m m m m m m m m m m m m m m m m m m m m m m m m m X.6 6 6 6 6 6 & N +.O.4.X.6 6 6 6 6 6 s @.X.m @.+.v & 6 5 C C C W C 0 5 6 6 9 W : W C W 9 6 6 v l % & & & 6 @ # ",
"6 6 6 6 6 6 6 6 6 6 6 6 6 6 6 6 6 6 6 6 6 6 6 6 6 6 6 6 6 6 6 6 6 6 6 6 6 6 6 6 6 6 6 6 6 6 6 6 6 6 6 6 6 6 6 6 6 6 6 6 6 6 6 6 6 6 6 6 6 6 6 6 6 6 6 6 6 6 6 6 6 6 6 6 6 6 6 6 6 6 6 6 6 6 6 6 6 6 6 6 6 6 6 6 & 6 6 6 6 6 6 6 6 6 6 6 6 6 6 6 6 6 6 6 6 6 6 6 6 6 6 6 6 6 6 6 6 6 6 6 6 6 6 6 6 6 6 s 6 6 s l d d d d d d d d d d d d d d d d d d d d d d d d d d d d d d d d d d d d d d d d d d d d d d d l s 6 6 6 6 6 6 6 6 s 6 s 6 6 6 6 6 6 6 & 6 6 6 6 6 6 6 6 6 9 9 6 6 6 6 6 6 6 6 9 6 9 6 9 6 6 6 6 v v z z z z z z ",
"6 6 6 6 6 6 6 6 6 6 6 6 6 6 6 6 6 6 6 6 6 6 6 6 6 6 6 6 6 6 6 6 6 6 6 6 6 6 6 6 6 6 6 6 6 6 6 6 6 6 6 6 6 6 6 6 6 6 6 6 6 6 6 6 6 6 6 6 6 6 6 6 6 6 6 6 6 6 6 6 6 6 6 6 6 6 6 6 6 6 6 6 6 6 6 6 6 6 6 6 6 6 6 6 6 6 6 6 6 6 6 6 6 6 6 6 6 6 6 6 6 6 6 6 6 6 6 6 6 6 6 6 6 6 6 6 6 6 6 6 6 6 6 6 6 6 6 w 6 6 6 6 6 6 6 6 6 6 6 6 6 6 6 6 6 6 6 6 6 6 6 6 6 6 6 6 & & & & 6 6 6 6 6 6 6 6 6 6 6 6 6 6 6 6 6 6 6 6 6 6 6 6 6 6 6 6 6 6 6 6 6 6 6 6 6 6 6 6 6 6 6 6 6 6 6 6 6 6 6 6 6 6 6 6 6 6 6 6 6 6 6 6 6 6 6 6 6 s l d d d d d ",
"O O O O O O O O O O O O O O O O O O O 5 5 O 5 6 6 w 6 6 6 6 6 6 6 6 6 6 6 6 6 6 6 6 6 6 6 6 6 6 6 6 6 6 6 6 6 6 6 6 6 6 6 6 6 6 6 6 6 $ $ $ $ $ $ $ $ $ $ $ $ $ $ $ $ $ $ $ $ $ $ $ $ $ $ $ $ $ $ $ $ 6 6 6 w 6 6 6 6 6 6 6 6 6 6 6 6 6 6 6 6 6 6 6 6 6 6 6 6 6 6 6 6 6 6 6 6 6 6 6 6 6 6 6 6 $ $ $ $ @ $ $ $ $ $ $ $ $ $ $ $ $ $ $ $ $ $ $ $ $ $ $ $ $ $ $ $ 6 6 6 6 6 & @ @ @ @ @ @ @ @ @ @ @ @ @ @ @ @ @ @ @ @ @ @ @ @ @ @ @ @ @ @ @ @ 6 6 w 6 6 & + + + + + + + + + + + + + + + + + + + + + + + + + + + + + + + + & & 6 6 6 ",
"H H H H H H H H H H H H H H H H H H H H H U g 5 w s 6 6 w s s s s s s s s s s s s s s s s s s s s s s s s s s s s s s s w 6 6 s s & e u u u u u u u u u u u u u u u u u u u u u u u u u u u u u u u u r & w s 6 6 w s s s s s s s s s s s s s s s s s s s s s s s s s s s s s s s 6 6 s s & e } } } } } } } } } } } } } } } } } } } } } } } } } } } } } } } } e & s s & t | | | | | | | | | | | | | | | | | | | | | | | | | | | | | | | | 6 & s w & x $.$.$.$.$.$.$.$.$.$.$.$.$.$.$.$.$.$.$.$.$.$.$.$.$.$.$.$.$.$.$.%.6 6 d 6 6 ",
":X:X:X:X:X:X:X:X:X:X:X:X:X:X:X:X:X:X:X:X:X>XQ.O p s & w z d l l l l l l l l l l l l l d d d l l l l l l l l l l l l l d z s & s s $ } r.e.e.e.e.e.e.e.e.e.e.e.e.e.e.e.e.e.e.e.e.e.e.e.e.e.e.e.e.e.e.r.<.$ w s 6 6 z d l l l l l l l l l l l l l s d d l l l l l l l l l l l l d z s & s s @ 3.HXGXGXGXGXGXGXGXGXGXGXGXGXGXGXGXGXGXGXGXGXGXGXGXGXGXGXGXGXGXGXHX} @ s e @ 0.PXvXLXLXLXLXLXLXLXLXLXLXLXLXLXvXvXLXLXLXLXLXLXLXLXLXLXLXLXLXvXPXu $ s s + uXZXBXVXBXBXBXBXBXBXBXBXBXBXBXBXBXBXBXBXBXBXBXBXBXBXBXBXBXBXBXVXVXw & s 9 O ",
"Q.Q.Q.Q.!.!.!.Q.Q.Q.Q.Q.Q.Q.Q.Q.Q.Q.Q.Q.Q.OXQ.O p s & w l 6 6 6 6 6 6 6 6 6 6 6 6 6 6 s l l 6 6 6 6 6 6 6 6 6 6 6 6 6 6 s s & s s $ } 7.>.>.>.>.>.>.>.>.>.>.>.>.>.,.2.2.,.>.>.>.>.>.>.>.>.>.>.>.>.>.7.<.$ w s & w l 6 6 6 6 6 6 6 6 6 6 6 6 6 6 l s d 6 6 6 6 6 6 6 6 6 6 6 6 6 s s & s s @ 3.GX7.t.9.9.9.9.9.9.9.9.9.9.9.t.9X9Xt.9.9.9.9.9.9.9.9.9.9.9.t.7.GX3.@ s e @ 0.vX7X6X6X6X6X6X6X6X6X6X6X6X6X5XeXeX6X6X6X6X6X6X6X6X6X6X6X6X6X6XvX} $ s s + uXjXyXuXyXyXyXyXyXyXyXyXyXyXyXiXiXgXiXyXyXyXyXyXyXyXyXyXyXyXyXyXBXs & s 6 O ",
"!.!.!.!.:X*XOX!.!.!.!.!.!.!.!.!.!.!.!.!.Q.OXQ.O p s & w l 6 6 6 6 6 6 6 6 6 6 6 6 6 6 +.m z w 6 6 6 6 6 6 6 6 6 6 6 6 6 d s & s s $ } e.>.,.,.,.,.,.,.,.,.,.,.,.,.7.t.7.7.,.,.,.,.,.,.,.,.,.,.,.,.>.7.<.$ w s & w l 6 6 6 6 6 6 6 6 6 6 6 w 6 d +.X.v 6 w 6 6 6 6 6 6 6 6 6 6 6 s s & s s @ 3.GXt.r.r.r.r.r.r.r.r.r.r.r.t.9XGX0X9Xr.r.r.r.r.r.r.r.r.r.r.r.t.GX} @ s e @ 0.vX6X5X5X5X5X5X5X5X5X5X5X5X5XrXLXvXeX5X5X5X5X5X5X5X5X5X5X5X5X6XLX} $ s s + uXkXuXiXiXiXiXiXiXiXiXiXiXiXiXkXBXgXiXiXiXiXiXiXiXiXiXiXiXiXiXiXBXs & s 6 O ",
"!.!.!.!.OX!.!.!.!.!.!.!.!.!.!.!.!.!.!.!.Q.OXQ.O p s & w l 6 6 6 6 6 6 6 6 6 6 6 6 6 6 z z v 6 6 6 6 6 6 6 6 6 6 6 6 6 6 d s & s s $ } e.>.,.,.,.,.,.,.,.,.,.,.,.,.2.2.2.2.,.,.,.,.,.,.,.,.,.,.,.,.>.7.<.$ w s & w l 6 6 6 6 6 6 6 6 6 6 6 6 6 s z z z 6 6 6 6 6 6 6 6 6 6 6 6 6 s s & s s @ 3.GX9.r.r.r.r.r.r.r.r.r.r.r.t.9X9X9X9Xt.r.r.r.r.r.r.r.r.r.r.r.9.GX} @ s e @ 0.vX6X5X5X5X5X5X5X5X5X5X5X5X5XeXeXrXeX5X5X5X5X5X5X5X5X5X5X5X5X6XLX} $ s s + uXkXuXiXiXiXiXiXiXiXiXiXiXiXiXgXgXgXiXiXiXiXiXiXiXiXiXiXiXiXiXiXBXs & s 6 O ",
"!.!.!.!.!.!.!.!.!.!.!.!.!.!.!.!.!.!.!.!.Q.OXQ.O p s & w l 6 6 6 6 6 6 6 6 6 6 6 6 6 6 6 6 6 6 6 6 6 6 6 6 6 6 6 6 6 6 6 d s & s s $ } e.>.,.,.,.,.,.,.,.,.,.,.,.,.,.,.,.,.,.,.,.,.,.,.,.,.,.,.,.,.>.7.<.@ w s & w l 6 6 6 6 6 6 6 6 6 6 6 6 6 6 6 6 6 6 6 6 6 6 6 6 6 6 6 6 6 6 s s & s s @ 3.GX9.r.r.r.r.r.r.r.r.r.r.r.r.r.t.r.r.r.r.r.r.r.r.r.r.r.r.r.r.9.GX3.@ s e @ 0.vX6X5X5X5X5X5X5X5X5X5X5X5X5X5X5X5X5X5X5X5X5X5X5X5X5X5X5X5X5X6XLX} $ s s + iXkXuXiXiXiXiXiXiXiXiXiXiXiXiXiXiXiXiXiXiXiXiXiXiXiXiXiXiXiXiXiXBXs & s 9 O ",
":X:X:X:X:X:X:X:X:X:X:X:X:X:X:X:X:X:X:X:X:X>XR O p s 6 6 z l l l l l l l l l l l l l l l l l l l l l l l l l l l l l l l z s & s s $ u r.e.e.e.e.e.e.e.e.e.e.e.e.e.e.e.e.e.e.e.e.e.e.e.e.e.e.e.e.e.e.r.<.$ w s 6 6 z l l l l l l l l l l l l l l l l l l l l l l l l l l l l l l z s & s s @ } HXGXGXGXGXGXGXGXGXGXGXGXGXGXGXGXGXGXGXGXGXGXGXGXGXGXGXGXGXGXGXHX} $ s e @ 0.PXvXvXvXvXvXvXvXvXvXvXvXvXvXvXvXvXvXvXvXvXvXvXvXvXvXvXvXvXvXvXLXy $ s s + yXVXBXBXBXBXBXBXBXBXBXBXBXBXBXBXBXBXBXBXBXBXBXBXBXBXBXBXBXBXBXVXBX7 & s 6 O ",
"0 0 0 0 0 0 0 0 0 0 0 0 0 0 0 0 0 0 0 0 0 9 6 6 w s 6 6 6 6 6 6 6 6 6 6 6 6 6 6 6 6 6 6 6 6 6 6 6 6 6 6 6 6 6 6 6 6 6 6 6 6 6 s s 6 6 w e w w w w w w w w w w w w w w w w w w w w w w w w w w w w w w 6 6 6 s 6 6 6 6 6 6 6 6 6 6 6 6 6 6 6 6 6 6 6 6 6 6 6 6 6 6 6 6 6 6 6 6 6 6 6 6 s s 6 6 e e e e e e e e e e e e e e e e e e e e e e e e e e e e e e e e 6 6 s w 6 6 e e e e e e e e e e e e e e e e e e e e e e e e e e e e e e e e 6 6 s 6 6 6 s s s s s s s s s s s s s s s s s s s s s s s s s s s s s s s 7 6 6 s 6 6 ",
"6 6 6 6 6 5 6 6 6 6 6 6 6 6 6 6 6 6 6 6 6 6 6 6 w s 6 6 6 6 6 6 6 6 6 6 6 6 6 6 6 6 6 6 6 6 6 6 6 6 6 6 6 6 6 6 6 6 6 6 6 6 6 s s 6 6 6 6 6 6 6 6 6 6 6 6 6 6 6 6 6 6 6 6 6 6 6 6 6 6 6 6 6 6 6 6 6 6 6 6 6 s 6 6 6 6 6 6 6 6 6 6 6 6 6 6 6 6 6 6 6 6 6 6 6 6 6 6 6 6 6 6 6 6 6 6 6 6 s s 6 6 6 6 6 6 & 6 6 6 6 6 6 6 6 6 6 6 6 6 6 6 & & & & & 6 6 6 6 6 6 6 6 6 s w 6 6 & 6 6 6 & 6 6 & & & & & & & & & & & & & & & & & & & & & & & & 6 6 6 s 6 6 6 & 6 6 & & 6 6 & & & & & & & & & & & & & & & & & 6 & & & & & & 6 6 6 s 6 6 ",
"6 6 6 6 6 6 6 6 6 6 6 6 6 6 6 6 6 6 6 6 6 6 6 6 w s 6 6 6 6 6 6 6 & 6 6 6 6 6 6 6 6 6 6 6 6 6 6 6 6 6 6 6 6 6 6 6 6 6 6 6 6 6 s s 6 6 6 6 & 6 6 & 6 6 6 6 6 6 6 6 6 6 6 6 6 6 6 6 6 6 6 6 6 6 6 6 6 6 6 6 6 s 6 6 6 6 & 6 6 & 6 6 6 6 6 6 6 6 6 6 6 6 6 6 6 6 6 6 6 6 6 6 6 6 6 6 6 6 s s 6 6 6 6 $ $ 6 $ & 6 6 6 6 6 6 6 6 6 6 6 6 6 6 w 6 6 6 6 6 6 6 6 6 6 6 6 s w 6 6 6 6 @ & 6 @ & 6 6 6 6 6 6 6 6 6 6 6 6 6 6 w 6 6 w w 6 6 6 6 6 6 6 6 s 6 6 6 6 6 + 6 6 + 6 6 6 6 6 6 6 6 6 6 6 6 6 6 6 6 6 6 6 6 6 6 6 6 6 6 6 6 s 6 6 ",
"6 6 6 6 6 +.N & 6 6 6 6 6 6 6 6 6 6 6 6 6 6 6 6 w s 6 6 6 6 l N N N s 6 6 6 6 6 6 6 6 6 6 6 6 & v v X.w l X.6 6 6 6 6 6 6 6 6 s s 6 6 6 6 z N N N s 6 6 6 6 6 6 6 6 6 6 6 6 6 N d N z X.s 6 6 6 6 6 6 6 6 6 s 6 6 6 6 z N N N s 6 6 6 6 6 6 6 6 6 6 6 6 w v N N s N s 6 6 6 6 6 6 6 6 s s 6 6 & 6 1.u.u.0.y $ 6 6 6 6 6 6 6 6 6 6 & l O.l +.m +.s 6 6 6 6 6 6 6 6 s w 6 6 & w w.qXqXqXc $ 6 6 6 6 6 6 6 6 6 & z o.o.X.N +.m a.6 6 6 6 6 6 6 6 s 6 6 6 % s J.fXfXJ.s % 6 6 6 6 6 6 6 6 6 6 z +.o.X.+.X.l O.% 6 6 6 6 6 6 6 s 6 6 ",
"6 6 6 & l N X.6 6 6 6 6 6 6 6 6 6 6 6 6 6 6 6 6 w s 6 6 6 N m s & s X.v 6 6 6 6 6 6 6 6 6 6 6 s O.X.l l l z l & 6 6 6 6 6 6 6 s s 6 6 6 N v 6 6 l X.l 6 6 6 6 6 6 6 6 6 6 6 6 z m d O.l z & 6 6 6 6 6 6 6 6 s 6 6 6 +.O.s & s X.v 6 6 6 6 6 6 6 6 6 6 6 & l z v s z s 6 6 6 6 6 6 6 6 s s 6 6 w u.0.u r } 0.3.$ 6 6 6 6 6 6 6 6 6 % O.4.l +.s N p 6 6 6 6 6 6 6 6 s w 6 & k dXw.M y w.dX#.$ 6 6 6 6 6 6 6 6 6 s o.l o.4.a.s X.6 6 6 6 6 6 6 6 s 6 6 % m fXK.z v K.fXX.% 6 6 6 6 6 6 6 6 6 w a.O.4.s.+.4.+.& 6 6 6 6 6 6 6 s 6 6 ",
"6 6 6 6 w +.X.6 6 6 6 6 6 6 6 6 6 6 6 6 6 6 6 6 w s 6 6 l m X   + . # X.s 6 6 6 6 6 6 6 6 6 6 s X.X.N z z X.s 6 6 6 6 6 6 6 6 s s 6 6 N z     X . 6 X.w 6 6 6 6 6 6 6 6 6 6 & z l N m X.d 6 6 6 6 6 6 6 6 6 s 6 & m +.X . X   + X.s 6 6 6 6 6 6 6 6 6 & d o.s v X.X.6 6 6 6 6 6 6 6 6 s s 6 $ 0.0..     . r 0.y & 6 6 6 6 6 6 6 6 & v 4.X.o.a.+.6 6 6 6 6 6 6 6 6 s p 6 & w.w..   + . u u.e 6 6 6 6 6 6 6 6 6 6 X.s +.4.O.o.z & 6 6 6 6 6 6 6 s 6 6 6 fX+.. X + . +.fX6 6 6 6 6 6 6 6 6 6 z +.N 4.O.4.+.4.6 6 6 6 6 6 6 6 s 6 & ",
"6 6 6 6 6 s 6 6 6 6 6 6 6 6 6 6 6 6 6 6 6 6 6 6 w s 6 6 o.&   s l s . s N & 6 6 6 6 6 6 6 6 6 6 6 6 s 6 6 s 6 6 6 6 6 6 6 6 6 s s & s s.+ . 6 l 6 . z v & 6 6 6 6 6 6 6 6 6 6 6 6 s 6 s 6 6 6 6 6 6 6 6 6 6 s 6 6 a.6   & s s . s N & 6 6 6 6 6 6 6 6 6 6 s s s 6 s 6 6 6 6 6 6 6 6 6 s s & e qX# + v s l . 3.1.$ 6 6 6 6 6 6 6 6 6 6 s s s s d 6 6 6 6 6 6 6 6 6 s s # ..dX  # N v # . w.#.$ 6 6 6 6 6 6 6 6 6 6 s s 6 s 6 6 6 6 6 6 6 6 6 6 s w + +.fX. 6 N o.s . fX+.# 6 6 6 6 6 6 6 6 s s s 6 p p % 6 6 6 6 6 6 6 6 6 s 6 O ",
"6 6 6 6 6 % 6 6 6 6 6 6 6 6 6 6 6 6 6 6 6 6 6 6 w s & w X.X X 6 s l + % N 6 6 6 6 6 6 6 6 6 6 6 6 6 6 6 & & 6 6 6 6 6 6 6 6 6 s s % l O.  # 6 d l   w m 6 6 6 6 6 6 6 6 6 6 6 6 6 & 6 & 6 6 6 6 6 6 6 6 6 6 s & s +.+ + s s z + % N 6 6 6 6 6 6 6 6 6 6 6 & & 6 & % 6 6 6 6 6 6 6 6 6 s s $ u u.  6 m v X.+ r 1.& 6 6 6 6 6 6 6 6 6 6 & % & & % % 6 6 6 6 6 6 6 6 s s + 6.w.. s N l z X } 6.$ 6 6 6 6 6 6 6 6 6 & & & 6 % 6 6 6 6 6 6 6 6 6 6 s w + s.K.. l N l 6 . ;.;.# 6 6 6 6 6 6 6 6 % 6 & 6 & & 6 6 6 6 6 6 6 6 6 6 s 6 # ",
"6 6 6 p 6 s 6 s 6 6 6 6 6 6 6 6 6 6 6 6 6 6 6 6 w s & 6 a.#   6 s s   w N 6 6 6 6 6 6 6 6 6 6 6 6 s 6 6 l d 6 6 6 6 6 6 6 6 6 s s & s a.X + s d 6 . l v & 6 6 6 6 6 6 6 6 6 6 w w s 6 s 6 6 6 6 6 6 6 6 6 6 s 6 6 a.%   s d s   6 N 6 6 6 6 6 6 6 6 6 6 6 w s 6 d l w 6 6 6 6 6 6 6 6 s s $ y qXX + v N z   u 1.$ 6 6 6 6 6 6 6 6 6 s 6 d w s s l 6 6 6 6 6 6 6 6 s s # ..dX. & v N l . 6.6.$ 6 6 6 6 6 6 6 6 s s 6 s 6 s 6 s 6 6 6 6 6 6 6 6 s w + a.fX. 6 m m s . ;.%.% 6 6 6 6 6 6 6 s s 6 w s s s w s s 6 6 6 6 6 6 6 s 6 O ",
"6 6 & +.N O.+.+.N & 6 6 6 6 6 6 6 6 6 6 6 6 6 6 w s 6 & o.N . X +   X m l & 6 6 6 6 6 6 6 6 6 6 d m v N O.X.6 6 6 6 6 6 6 6 6 s s 6 6 +.l . X +   + N s 6 6 6 6 6 6 6 6 6 6 w X.s m z v l & 6 6 6 6 6 6 6 6 s 6 & o.N . X +   X m l & 6 6 6 6 6 6 6 6 6 6 m v v o.O.s 6 6 6 6 6 6 6 6 s s 6 6 u.3.. # 6 X X 0.u $ 6 6 6 6 6 6 6 6 d +.X.+.N a.z a.s 6 6 6 6 6 6 6 s s & 6 qX... # 6   # w.y & 6 6 6 6 6 6 6 6 l 4.+.O.4.+.l a.& 6 6 6 6 6 6 6 s 6 % l fXs . % &   7 G.s & 6 6 6 6 6 6 6 d +.l a.o.+.+.+.+.o.6 6 6 6 6 6 6 s 6 % ",
"6 6 % z +.z a.N X.6 6 6 6 6 6 6 6 6 6 6 6 6 6 6 w s 6 6 w s.z X X + v N 6 6 6 6 6 6 6 6 6 6 6 & v s l X.v z & 6 6 6 6 6 6 6 6 s s 6 6 d s.s X X + N v 6 6 6 6 6 6 6 6 6 6 & l X.l v z l s 6 6 6 6 6 6 6 6 6 s 6 6 6 s.z X X + z N 6 6 6 6 6 6 6 6 6 6 6 s v 6 o.z m 6 6 6 6 6 6 6 6 6 s s 6 & y KXu X X + 1.1.& 6 6 6 6 6 6 6 6 6 6 o.s X.a.a.d X.6 6 6 6 6 6 6 6 s w 6 $ ..IXe X X + w.6.$ 6 6 6 6 6 6 6 6 6 6 4.O.a.a.4.a.a.6 6 6 6 6 6 6 6 s 6 6 # s.fX6 X X % yX%.% 6 6 6 6 6 6 6 6 w X.+.s.N +.O.+.O.X.w 6 6 6 6 6 6 s 6 6 ",
"6 6 & l z o.X.+.m & 6 6 6 6 6 6 6 6 6 6 6 6 6 6 w s 6 6 & s s 6 6 6 s 6 6 6 6 6 6 6 6 6 6 6 6 6 s N z d l d 6 6 6 6 6 6 6 6 6 s s 6 6 & d s 6 6 6 s 6 6 6 6 6 6 6 6 6 6 6 6 w m v z N X.w 6 6 6 6 6 6 6 6 6 s 6 6 & s s 6 6 6 s 6 6 6 6 6 6 6 6 6 6 6 6 6 v m l l l 6 6 6 6 6 6 6 6 6 s s 6 6 $ u t 6 6 6 y 6 6 6 6 6 6 6 6 6 6 6 6 N d o.o.o.N z & 6 6 6 6 6 6 6 s w 6 6 % ..e 6 6 6 c 6 6 6 6 6 6 6 6 6 6 6 z O.v o.X.+.m +.6 6 6 6 6 6 6 6 s 6 6 6 & X.w 6 6 6 b & 6 6 6 6 6 6 6 6 % O.+.z +.o.o.o.o.O.X.6 6 6 6 6 6 6 s 6 6 ",
"6 6 6 6 6 6 6 6 6 6 6 6 6 6 6 6 6 6 6 6 6 6 6 6 w s 6 6 6 6 6 6 6 6 6 6 6 6 6 6 6 6 6 6 6 6 6 6 6 6 6 6 6 6 6 6 6 6 6 6 6 6 6 s s 6 6 6 6 6 6 6 6 6 6 6 6 6 6 6 6 6 6 6 6 6 6 6 6 6 6 6 6 6 6 6 6 6 6 6 6 6 s 6 6 6 6 6 6 6 6 6 6 6 6 6 6 6 6 6 6 6 6 6 6 6 6 6 6 6 6 6 6 6 6 6 6 6 6 s s 6 6 6 & & 6 6 6 & 6 6 6 6 6 6 6 6 6 6 6 6 6 6 6 & 6 6 6 6 6 6 6 6 6 6 6 s w 6 6 6 % 6 6 6 6 & 6 6 6 6 6 6 6 6 6 6 6 6 6 6 6 6 6 % & 6 6 6 6 6 6 6 6 s 6 6 6 6 # 6 6 6 6 & 6 6 6 6 6 6 6 6 6 6 6 6 & % 6 6 6 6 6 6 6 6 6 6 6 6 6 s 6 6 ",
"6 6 6 6 6 6 6 6 6 6 6 6 6 6 6 6 6 6 6 6 6 6 6 6 w s 6 6 6 6 6 6 6 6 6 6 6 6 6 6 6 6 6 6 6 6 6 6 6 6 6 6 6 6 6 6 6 6 6 6 6 6 6 s s 6 6 6 6 6 6 6 6 6 6 6 6 6 6 6 6 6 6 6 6 6 6 6 6 6 6 6 6 6 6 6 6 6 6 6 6 6 s 6 6 6 6 6 6 6 6 6 6 6 6 6 6 6 6 6 6 6 6 6 6 6 6 6 6 6 6 6 6 6 6 6 6 6 6 s s 6 6 6 6 6 6 6 6 6 6 6 6 6 6 6 6 6 6 6 6 6 6 6 6 6 6 6 6 6 6 6 6 6 6 6 6 s w 6 6 6 6 6 6 6 6 6 6 6 6 6 6 6 6 6 6 6 6 6 6 6 6 6 6 6 6 6 6 6 6 6 6 6 6 s 6 6 6 6 6 6 6 6 6 6 6 6 6 6 6 6 6 6 6 6 6 6 6 6 6 6 6 6 6 6 6 6 6 6 6 6 6 s 6 6 ",
"O O O O O O O O O O O O O O O O O O O O O O 5 6 6 s 6 6 $ $ $ $ $ $ $ $ $ $ $ $ $ $ $ $ $ $ $ $ $ $ $ $ $ $ $ $ $ $ $ $ $ 6 6 s s 6 6 $ $ $ $ $ $ $ $ $ $ $ $ $ $ $ $ $ $ $ $ $ $ $ $ $ $ $ $ $ $ $ $ & 6 6 s 6 6 $ $ $ $ $ $ $ $ $ $ $ $ $ $ $ $ $ $ $ $ $ $ $ $ $ $ $ $ $ $ $ $ 6 6 p s 6 6 @ @ @ @ @ @ @ @ @ @ @ @ @ @ @ @ @ @ @ @ @ @ @ @ @ @ @ @ @ @ @ @ 6 6 s p 6 & @ @ @ @ @ @ @ @ @ @ @ @ @ @ @ @ @ @ @ @ @ @ @ @ @ @ @ @ @ @ @ @ 6 6 s 6 6 % + + + + + + + + + + + + + + + + + + + + + + + + + + + + + + + + 6 6 s 6 6 ",
"OXOXOXOXOXOXOXOXOXOXOXOXOXOXOXOXOXOXOXOXOX*XJ O p s & r 8.8.8.8.8.8.8.8.8.8.8.8.8.8.8.8.8.8.8.8.8.8.8.8.8.8.8.8.8.8.8.8.8.y $ s s $ y 8.8.8.8.8.8.8.8.8.8.8.8.8.8.8.8.8.8.8.8.8.8.8.8.8.8.8.8.8.8.8.8.} $ w s & r 8.8.8.8.8.8.8.8.8.8.8.8.8.8.8.8.8.8.8.8.8.8.8.8.8.8.8.8.8.8.8.8.u $ s s $ u 0X9X9X9X9X9X9X9X9X9X9X9X9X9X9X9X9X9X9X9X9X9X9X9X9X9X9X9X9X9X9X0Xu $ s e @ | rXeXeXeXeXeXeXeXeXeXeXeXeXeXeXeXeXeXeXeXeXeXeXeXeXeXeXeXeXeXeXeXt & s w + &.kXgXjXjXjXjXjXjXjXjXjXjXjXjXjXjXjXjXjXjXjXjXjXjXjXjXjXjXjXjXjXgX6 6 s 6 # ",
"/./././././././././././././././././././.!.:XQ.O p s $ y r.2.2.2.2.2.2.2.2.2.2.2.2.2.2.7.2.2.2.2.2.2.2.2.2.2.2.2.2.2.2.2.r.} $ s s $ } r.2.2.2.2.2.2.2.2.2.2.2.2.2.7.7.2.2.2.2.2.2.2.2.2.2.2.2.2.2.2.e.<.@ w s $ y r.2.2.2.2.2.2.2.2.2.2.2.2.2.7.7.2.2.2.2.2.2.2.2.2.2.2.2.2.2.2.t.<.$ e s @ 3.HX9X9X9X9X9X9X9X9X9X9X9X9X9X9X9X9X9X9X9X9X9X9X9X9X9X9X9X9X9X9XHX3.@ s e @ 0.LXeXeXeXeXeXeXeXeXeXeXeXeXeXrXrXeXeXeXeXeXeXeXeXeXeXeXeXeXeXeXLXu $ s s + aXBXgXgXgXgXgXgXgXgXgXgXgXgXgXkXgXgXgXgXgXgXgXgXgXgXgXgXgXgXgXgXVXs & s 9 O ",
"Q.Q.Q.!././.*X!.Q.Q.Q.Q.Q.Q.Q.Q.Q.Q.Q.Q.Q.|.Q.O p s $ y e.>.,.,.,.,.,.,.,.,.,.,.,.>.,.7.7.7.,.>.,.,.,.,.,.,.,.,.,.,.,.>.e.} $ s s $ } e.>.,.,.,.,.,.,.,.,.,.,.,.,.2.7.7.7.>.,.,.,.,.,.,.,.,.,.,.,.>.7.<.$ w s $ y e.>.,.,.,.,.,.,.,.,.,.,.>.,.7.7.7.2.>.,.,.,.,.,.,.,.,.,.,.,.>.7.} $ e s @ 3.GX9.t.t.t.t.t.t.t.t.t.t.t.r.9X9XGX9Xt.t.t.t.t.t.t.t.t.t.t.t.9.GX} @ s e @ 0.vX6X5X6X6X6X6X6X6X6X6X6X6X5XrXrXvXeX6X6X6X6X6X6X6X6X6X6X6X6X6XvX} $ s s + uXkXyXiXuXuXuXuXuXuXuXuXuXuXiXjXkXkXiXuXuXuXuXuXuXuXuXuXuXuXuXuXBXs & s 6 O ",
"!.!.!.!././.:X|.Q.!.!.!.!.!.!.!.!.!.!.!.Q.|.Q.O p s $ y e.>.,.,.,.,.,.,.,.,.,.,.,.,.2.7.7.e.7.,.,.,.,.,.,.,.,.,.,.,.,.>.e.} $ s s $ } e.>.,.,.,.,.,.,.,.,.,.,.,.,.7.7.7.e.,.,.,.,.,.,.,.,.,.,.,.,.>.7.<.$ w s $ y e.>.,.,.,.,.,.,.,.,.,.,.,.,.7.7.7.e.,.,.,.,.,.,.,.,.,.,.,.,.>.e.} $ e s @ 3.GXe.r.r.r.r.r.r.r.r.r.r.r.r.0X0XGXGXt.r.r.r.r.r.r.r.r.r.r.r.t.GX} @ s e @ 0.vX6X5X5X5X5X5X5X5X5X5X5X5XeXrXrXvXrX6X5X5X5X5X5X5X5X5X5X5X5X6XLX} $ s s + iXkXuXiXiXiXiXiXiXiXiXiXiXiXgXkXkXVXgXiXiXiXiXiXiXiXiXiXiXiXiXiXBXs & s 6 O ",
"Q.Q.Q.Q.!.!.Q.!.Q.Q.Q.Q.Q.Q.Q.Q.Q.Q.Q.Q.Q./.Q.O p s $ y e.>.>.>.>.>.>.>.>.>.>.>.>.>.>.,.,.,.,.>.>.>.>.>.>.>.>.>.>.>.>.>.7.} $ s s $ } 7.>.>.>.>.>.>.>.>.>.>.>.>.>.,.,.>.,.>.>.>.>.>.>.>.>.>.>.>.>.>.7.<.$ w s $ y e.>.>.>.>.>.>.>.>.>.>.>.>.>.,.,.>.,.>.>.>.>.>.>.>.>.>.>.>.>.>.7.} $ e s @ 3.GX7.t.9.9.9.9.9.9.9.9.9.9.9.r.r.t.t.9.9.9.9.9.9.9.9.9.9.9.t.7.GX} @ s e @ 0.vX7X6X6X6X6X6X6X6X6X6X6X6X6XeX5X6X5X6X6X6X6X6X6X6X6X6X6X6X6X6XvX} $ s s + uXjXyXuXyXyXyXyXyXyXyXyXyXyXyXiXuXiXuXyXyXyXyXyXyXyXyXyXyXyXyXyXBXs & s 6 O ",
"|.|.|.|.|.|.|.|.|.|.|.|.|.|.|.|.|.|.|.|./.>XQ.O p s $ y r.7.7.7.7.7.7.7.7.7.7.7.7.7.7.7.7.7.7.7.7.7.7.7.7.7.7.7.7.7.7.7.r.} $ s s $ } r.7.7.7.7.7.7.7.7.7.7.7.7.7.7.7.7.7.7.7.7.7.7.7.7.7.7.7.7.7.7.r.<.@ w s $ y r.7.7.7.7.7.7.7.7.7.7.7.7.7.7.7.7.7.7.7.7.7.7.7.7.7.7.7.7.7.7.r.<.$ e s @ 3.HX0XGX0X0X0X0X0X0X0X0X0X0XGX0X0X0X0XGX0X0X0X0X0X0X0X0X0X0XGX0XHX3.@ s e @ 0.PXrXvXvXvXvXvXvXvXvXvXvXvXvXrXrXvXvXvXvXvXvXvXvXvXvXvXvXvXvXrXPXu $ s s + aXVXkXkXkXkXkXkXkXkXkXkXkXkXkXkXkXkXkXkXkXkXkXkXkXkXkXkXkXkXkXkXVXs & s 9 O ",
"Q.Q.Q.Q.Q.Q.Q.Q.Q.Q.Q.Q.Q.Q.Q.Q.Q.Q.Q.Q.R Q.H 5 p s & e <.<.<.<.<.<.<.<.<.<.<.<.<.<.<.<.<.<.<.<.<.<.<.<.<.<.<.<.<.<.<.<.<.r & s s & r <.<.<.<.<.<.<.<.<.<.<.<.<.<.<.<.<.>.>.>.>.>.>.>.>.>.>.>.>.>.>.,.i & w s & e <.<.<.<.<.<.<.<.<.<.<.<.<.<.<.<.<.<.<.<.<.<.<.<.<.<.<.<.<.<.<.<.y & s s $ y 9.8.8.8.8.8.8.8.8.8.8.8.8.8.9.9.9.9.8.8.8.8.8.8.8.8.8.8.8.8.8.9.y & s w $ } 7X7X7X7X7X7X7X7X7X7X7X7X7X7X7X7X7X7X7X7X7X7X7X7X7X7X7X7X7X7X7X7Xe & s w # %.uXyXyXyXyXyXyXyXyXyXyXyXyXyXyXyXyXyXyXyXyXyXyXyXyXyXyXyXyXyXyXG.6 6 s 6 % ",
"r r r r 5 O r r r r r r r r r r r r r r r r 6 6 w s 6 6 9 9 9 9 9 9 9 9 9 9 9 9 9 9 9 - $ 9 9 9 9 9 9 9 9 9 9 9 9 9 9 9 9 6 6 s s 6 6 9 9 9 9 9 9 9 9 9 9 9 9 9 9 9 $ : C C C C C C C C C C C C C C C ; 5 6 s 6 6 9 9 9 9 9 9 9 9 9 9 9 9 9 9 9 $ $ 9 9 9 9 9 9 9 9 9 9 9 9 9 9 9 6 6 s s 6 6 9 0 0 0 0 0 0 0 0 0 0 0 0 0 9 @ - 0 0 0 0 0 0 0 0 0 0 0 0 0 0 9 6 6 s p 6 6 - - - - - - - - - - - - - - - @ - - - - - - - - - - - - - - - - 6 6 s 6 6 & & & & & & & & & & & & & & & & + * & & & & & & & & & & & & & & & 6 6 s 6 6 ",
"N N N N X.9 o.N N N N N N N N N N N N N N o.z % w s & w z l l l d l d d l d d l l l l l w z l l l l d s d d d d l l l d z s & s s & s z d l l d l d d l d l l l d v r W./.W.(.(.W.W.W.W.W.W.(.(.(.W./.G O p s & w z l l l d l d d l d d l l d z s s z d l l d s d l l d l l l d z s & s s % d o.m m m m m m m m m m m m m O.s v X.m m m m m m m m m m m m m o.s & s s % l o.m m m m m m m m m m m m m O.w m X.m m m m m m m m m m m m m o.s & s w % v o.m N N m N m m N m N N N N o.6 X.N N N N m m N N N m N N N N o.6 6 s 6 & ",
"s s s d m 6 N s s s l X.X.N v O.+.m s s s z z % w s & w l 6 6 6 l l z l w z l 6 6 6 w d 6 l 6 6 6 s l z d l v v s 6 6 6 s s & s s & s s 6 6 6 l l z l w v s 6 6 6 l r G W.G G G W.W.W.G W.W.W.G G G W.G O 9 s & w l 6 6 6 l l z l w z l 6 6 6 s s s s 6 6 6 l l l s z m l 6 6 6 s s & s s % s m s s s N N o.N l O.m s s s m s z z s s d X.X.N v O.+.N s s s m s & s s % l v s s s X.N O.m z O.z s s s N 6 v l s s z N o.m m O.+.v s s s N s & s 6 & z z s s d X.N o.m z O.l s s s N 6 m d s s z N o.m N +.+.z s s s N 6 6 s 6 & ",
"l d d l N 6 N d d d z s.s.+.o.X.a.N s d s v z % w s & w l 6 w 6 l X.z X.z z v 6 6 6 s d 6 l 6 w 6 s O.o.v z z X.s 6 w 6 d s & s s & s d 6 w 6 z X.z X.z v z 6 w 6 l 5 W.W.G G W.W.(.W.W.W.W.W.G G G W.G O 9 s & w l 6 w 6 l X.z N z z v 6 6 6 d s s s 6 w 6 X.O.m z z m v 6 w 6 s s & s s & s N s d s X.a.X.a.o.O.o.d d s N s z z d d l s.s.+.O.X.a.X.s d s N s & s s % l m s d d o.a.o.a.X.O.X.s d d N 6 v z d d z s.s.+.o.X.a.N s d d N s & s w & z z d d d +.a.O.4.X.O.N s d d N 6 N l d s m s.s.O.o.o.a.v s d d N 6 6 s 6 & ",
"s d d d N 6 N d d d d o.X.X.N z o.N s d s v z % w s & w l 6 6 6 s z z l z z l 6 6 6 w d 6 l 6 6 6 w z l z l s z s 6 6 6 d s & s s & s d 6 6 6 l z z z z v s 6 6 6 l 5 G W.G G G W.W.W.W.G W.W.G G G W.G O 9 s & w l 6 6 6 s z z l z z l 6 6 6 s s s s 6 6 6 l z l z s l z 6 6 6 s s & s s & s m s d s m o.o.X.X.O.m s d s N s z z s d d X.X.N X.z X.N s d s N s & s s % l v s d s N o.o.X.X.O.z s d s N 6 v l d d l o.N X.N z o.m s d s N s & s 6 & z z s d d X.o.o.X.X.O.z d d d N 6 N d d d l O.N o.m z o.v s d d N 6 6 s 6 & ",
"d d d l N 6 N d d d d s s d d d s d d d d v z % w s & w l 6 w 6 6 6 6 6 6 6 6 6 6 6 s d 6 l 6 w 6 6 6 6 6 6 6 6 6 6 w 6 d s & s s & s d 6 w 6 6 6 6 6 6 6 6 6 w 6 l r W.W.G W.W.G G G G G G G W.W.G W.G O 9 s & w l 6 w 6 6 6 6 6 6 6 6 6 w 6 d s s s 6 w 6 6 6 6 6 6 6 6 6 w 6 d s & s s % d N s d d d s s s d s d d d s N s z v d d d s s d d d d d d d s N s & s s % l m s d d d s s s d s d d d d N 6 m z d d d s s d d d s d d d d N s & s w % z v d d d d s d s d s d d d d N 6 N l d d d s s s d d s d d d d N 6 6 s 6 & ",
"N N N N m 6 N N N N N N N N N N N N N N N X.l & w s 6 6 z l l l l l l l l l l l l l l s 6 z l l l l l l l l l l l l l l z w & s s & s z l l l l l l l l l l l l l z 5 G (.W.W.W.W.W.W.W.W.W.W.W.W.W.(.Z 5 9 s 6 6 z l l l l l l l l l l l l l z w s z l l l l l l l l l l l l l z s & s s & s X.N N N N N N N N N N N N N X.w l X.N N N N N N N N N N N N N X.s & s s & d X.N N N N N N N N N N N N N N 6 z N N N N N N N N N N N N N N N 6 6 s 6 & l X.N N N N N N N N N N N N N N 6 m N N N N N N N N N N N N N N N 6 6 s 6 & ",
"6 6 6 6 6 6 6 6 6 6 6 6 6 6 6 6 6 6 6 6 6 6 6 6 w s 6 6 6 6 6 6 6 6 6 6 6 6 6 6 6 6 6 6 6 6 6 6 6 6 6 6 6 6 6 6 6 6 6 6 6 6 6 s s 6 6 6 6 6 6 6 6 6 6 6 6 6 6 6 6 6 6 6 6 6 6 6 6 6 6 6 6 6 6 6 6 6 6 6 6 6 s 6 6 6 6 6 6 6 6 6 6 6 6 6 6 6 6 6 6 6 6 6 6 6 6 6 6 6 6 6 6 6 6 6 6 6 6 s s 6 6 6 6 6 6 6 6 6 6 6 6 6 6 6 6 6 6 6 6 6 6 6 6 6 6 6 6 6 6 6 6 6 6 6 6 s w 6 6 6 6 6 6 6 6 6 6 6 6 6 6 6 6 6 6 6 6 6 6 6 6 6 6 6 6 6 6 6 6 6 6 6 6 s 6 6 6 6 6 6 6 6 6 6 6 6 6 6 6 6 6 6 6 6 6 6 6 6 6 6 6 6 6 6 6 6 6 6 6 6 6 s 6 6 ",
"6 6 6 6 6 5 5 5 6 6 6 6 6 6 6 6 6 6 6 6 6 6 6 6 w s 6 6 6 6 6 6 6 6 6 6 6 6 6 6 6 6 6 6 6 6 6 6 6 6 6 6 6 6 6 6 6 6 6 6 6 6 6 s s 6 6 6 6 6 6 6 6 6 6 6 6 6 6 6 6 6 6 6 6 6 6 6 6 6 6 6 6 6 6 6 6 6 6 6 6 6 s 6 6 6 6 6 6 6 6 6 6 6 6 6 6 6 6 6 6 6 6 6 6 6 6 6 6 6 6 6 6 6 6 6 6 6 6 s s 6 6 6 6 6 & $ 6 6 6 6 6 6 6 6 6 6 6 & $ 6 6 6 6 6 6 6 6 6 6 6 6 6 6 6 6 s w 6 6 6 6 6 & $ & 6 6 6 6 6 6 6 6 6 6 & $ 6 6 6 6 6 6 6 6 6 6 6 6 6 6 6 6 s 6 6 6 6 6 6 % % 6 6 6 6 6 6 6 6 6 6 6 % % 6 6 6 6 6 6 6 6 6 6 6 6 6 6 6 6 s 6 6 ",
"6 6 6 6 5 g h h 6 5 6 6 6 6 6 & 6 6 6 6 6 6 6 6 w s 6 6 6 6 6 s s w 6 6 6 6 6 6 6 6 6 6 w s s 6 6 6 6 6 6 6 6 6 6 6 6 6 6 6 6 s s 6 6 6 6 6 s s 6 6 6 6 6 6 6 6 6 6 6 s s w 6 6 6 6 6 6 6 6 6 6 6 6 6 6 6 6 s 6 6 6 6 6 s s w 6 6 6 6 6 6 6 6 6 6 s s 6 6 6 6 6 6 6 6 6 6 6 6 6 6 6 6 s s 6 6 6 & 6 y u e & 6 6 6 6 6 6 6 & 6 y u e & 6 6 6 6 6 & 6 6 6 6 6 6 6 6 s w 6 6 6 & 6 c M e & 6 6 6 6 6 6 6 & e c c e & 6 6 6 6 6 & 6 6 6 6 6 6 6 6 s 6 6 6 6 % 7 b b 7 % 6 6 6 6 6 6 6 % s  .b 6 % 6 6 6 6 6 & 6 6 6 6 6 6 6 6 s 6 6 ",
"6 6 6 6 P ].T ` R h 5 6 6 6 & l O.s w s s s 6 6 w s 6 6 6 s N X.m o.v 6 6 6 6 6 6 6 6 v o.m o.N w 6 6 6 6 6 l v 6 6 w 6 w 6 6 s s 6 6 6 s N X.N o.z 6 6 6 6 6 6 6 s N X.m o.v 6 6 6 6 6 s m w 6 6 w w 6 6 6 s 6 6 6 s N X.m o.v 6 6 6 6 6 6 6 s N X.N o.z 6 6 6 6 6 l v 6 6 w 6 w 6 6 s s 6 6 & y 0.0.1.0.3.6 6 6 6 6 6 & u 0.0.1.0.} 6 6 6 6 6 N X.w w s w s 6 6 s w 6 6 & ..w.w.w.u.#.6 6 6 6 6 6 & ..w.w.w.u...& 6 6 6 6 X.N 6 w s w s 6 6 s 6 6 6 & %.G.;.G.yX%.& 6 6 6 6 6 6 $.yX;.G.G. .& 6 6 6 6 o.v 6 w s w s 6 6 s 6 6 ",
"6 6 5 R T +   X h &Xh 5 6 6 6 +.l l o.+.o.a.N % w s 6 6 w o.s X   + z X.6 6 6 6 6 6 X.l X   X d O.6 6 6 6 w m s s N m m X.d % s s 6 6 s o.6 X   + N N 6 6 6 6 6 w o.s X   + z X.6 6 6 6 m s s v N v X.z & w s 6 6 6 o.s X   + z o.6 6 6 6 6 s o.6 X   + m N 6 6 6 6 m s s m m v X.l & s s 6 & y u.y X   + 1.0.6 6 6 6 $ u 0.r     # 0.1.$ 6 6 s O.l l +.O.O.a.l % s w 6 & ..u.e     # w.w.$ 6 6 6 $ 6.w.5     5 u.6.$ 6 & z o.l z 4.o.+.4.s % s 6 6 % $.G.6     6 yX$.% 6 6 6 % ;.;.#     0 uX%.% 6 % m N l z a.o.+.+.p 6 s 6 6 ",
"6 5 U T o + d p o h R 6 6 6 6 o.X.a.a.s.+.m X.% w s 6 6 m d . + 6 +   v z & 6 6 & v z   X 6 # . l m & 6 6 6 m v o.o.o.m l z % s s 6 6 N 6 . # 6 X X N d 6 6 6 6 N s . + 6 +   v z & 6 6 v v o.o.o.N l v & w s 6 6 m d . + 6 +   v z & 6 6 6 N 6 . # 6 X X N d & 6 6 m v o.o.o.m l z % s s 6 6 0.y . 6 d #   1.} $ 6 6 e 0.5   w d + + 0.y & 6 s O.O.a.s.a.O.m m # s s & e w.e . w d + X w.c $ 6 & y w.#   s s   % w.e & 6 d o.+.a.s.a.o.N z # s 6 & k G.#   s s   # G.k & 6 %  .G.X X s s   0 G.6 6 & z o.4.a.s.a.X.X.l % s 6 % ",
"6 5 T H o z X.O.6 X R g 5 6 6 w m d z s s s s 6 w s 6 6 o.+ X d l l   6 N 6 6 6 6 X.6   s l z + # X.6 6 6 6 s l s d s s w w 6 s s & s X.X + d z d   d v & 6 6 6 o.+ X d l l   6 N 6 6 6 6 l s d s s w w 6 6 s 6 6 X.# X d l l   6 N 6 6 6 s X.X + d z d   s m & 6 6 w l s d s s w w 6 s s & y 0.X & N o.N   u 1.$ 6 $ u 0.  w N o.m   3.3.$ 6 6 s v d z s s s s & s s $ ..w.  6 X.o.m . 6.6.$ 6 $ #.w.. s N O.z . w...$ 6 6 l z d l s s s w & s w # @.;.. s N o.z . ;.@.# 6 # ;.$.. l N O.s   G.b % 6 6 z z l l s s s 6 6 s 6 # ",
"6 5 T h X z l X.s X T h 5 6 6 6 % & & 6 6 6 6 6 6 s & w N + + p s l X & N 6 6 6 6 N # X s w l + + X.6 6 6 6 6 & 6 6 6 6 6 6 6 s s & s N   % w s d   s m 6 6 6 w N X + p s l X & N 6 6 6 6 & 6 6 6 6 6 6 6 6 s & 6 N + + p s l X % N 6 6 6 s N   # w s d   w m 6 6 6 6 & 6 6 6 6 6 6 6 s s $ y 1.X 6 s m N X y 1.& 6 $ u 1.  6 s N m   u 1.$ 6 6 6 % 6 & 6 6 6 6 6 s s $ ..w.  w s N N   } 6.$ 6 $ 6.6.. 6 d X.z   6.#.$ 6 6 & % & & 6 6 6 6 6 s w # $.$.. 6 s N v   $.$.# 6 % $. .. 6 l X.l   ;.%.% 6 6 & & & & 6 6 6 6 6 s 6 # ",
"6 % T J . # s z X $ ].9 6 6 6 6 6 6 6 6 6 6 6 6 w s 6 6 X.6 . + 6 6 . d N & 6 6 6 N s . + 6 6 . 6 X.6 6 6 6 6 6 6 6 6 6 6 6 6 s s 6 6 o.+   # w # . v z & 6 6 6 X.6 . + 6 & . d m & 6 6 6 6 6 6 6 6 6 6 6 6 s 6 6 X.6 . + 6 6 . d N & 6 6 6 o.+ . # w # . z z & 6 6 6 6 6 6 6 6 6 6 6 s s & e 0.# . w z w . 3.1.$ 6 & y 0.    s z 6 . 1.} $ 6 6 6 6 6 6 6 6 6 6 6 s s % y u.  . s z 6 . w.#.$ 6 # #.qX. # z z #   w.M & 6 6 6 6 6 6 6 6 6 6 6 s 6 %  .G.. X d z % . G. .% 6 + s.J.. % z z + + G.k & 6 6 6 6 6 6 6 6 6 6 6 s 6 + ",
"6 5 g ` h . X   + T J 5 6 6 6 6 6 6 6 6 6 6 6 6 w s 6 6 d X.+ .     6 X.s 6 6 6 6 s o.& .     # X.d 6 6 6 6 6 6 6 6 6 6 6 6 6 s s 6 6 z N X .     s X.6 6 6 6 6 l X.+ .     6 X.s 6 6 6 6 6 6 6 6 6 6 6 6 6 s 6 6 d X.+ .     6 X.s 6 6 6 6 z N X .     p X.6 6 6 6 6 6 6 6 6 6 6 6 6 s s 6 $ 1.u.+   X   y 0.e 6 6 6 $ 0.0.  X X   u 0.6 6 6 6 6 6 6 6 6 6 6 6 6 s p 6 & w.w.X X X   ..w.6 6 6 6 6 qXw.  X X   6.w.6 6 6 6 6 6 6 6 6 6 6 6 6 s 6 6 & J.K.  X X   $.;.6 6 6 6 s fX;.. X X   ;.;.% 6 6 6 6 6 6 6 6 6 6 6 6 s 6 6 ",
"6 6 5 U T 5 % # h T 6 6 6 6 6 e c c k k c c w 6 w s 6 6 6 m l % % & v l 6 6 6 6 6 6 v v & % % z v 6 6 6 6 6 w s s w s s s 6 6 s s 6 6 6 N s % % 6 N s 6 6 6 6 6 6 N l % % & v l 6 6 6 6 6 s s p p s s 6 6 6 s 6 6 6 m l % % & v z 6 6 6 6 6 6 N s % % 6 m d 6 6 6 6 6 s s w p s s 6 6 s s 6 6 6 u.} @ % $ 1.u $ 6 6 6 & t u.y # % 6 0.y & 6 6 6 t c c k c c c 6 6 s w 6 & e qXc # % 6 w.c & 6 6 6 % M qXw # # e w.e & 6 6 6 k c c t c c k 6 6 s 6 6 % v fXs # % 7 G.k & 6 6 6 # @.fX& % # k G.6 6 6 6 6 c c c t c c k 6 6 s 6 6 ",
"6 6 6 5 6 6 6 6 6 6 6 6 6 6 6 e c c k k c c w 6 w s 6 6 6 6 6 6 6 6 6 6 6 6 6 6 6 6 6 6 6 6 6 6 6 6 6 6 6 6 6 s s w p s p 6 6 s s 6 6 6 6 6 6 6 6 6 6 6 6 6 6 6 6 6 6 6 6 6 6 6 6 6 6 6 6 s s w p s s 6 6 6 s 6 6 6 6 6 6 6 6 6 6 6 6 6 6 6 6 6 6 6 6 6 6 6 6 6 6 6 6 s s w p s s 6 6 s s 6 6 6 & 6 6 6 6 6 6 6 6 6 6 6 & 6 6 6 6 6 6 6 6 6 6 6 t c c t k c k 6 6 s w 6 6 & 6 6 6 6 6 6 6 6 6 6 6 6 & 6 6 6 6 6 6 6 6 6 6 6 k c c t c c k 6 6 s 6 6 6 & 6 6 6 6 6 6 & 6 6 6 6 6 & 6 6 6 6 6 6 6 6 6 6 6 k c k t c c t 6 6 s 6 6 ",
"6 6 6 6 6 6 & & 6 & 6 6 6 6 6 e c c k k c c w 6 w s 6 6 6 6 6 6 6 6 6 6 6 6 6 6 6 6 6 6 6 6 6 6 6 6 6 6 6 6 w s s w p s s 6 6 s s 6 6 6 6 6 6 6 6 6 6 6 6 6 6 6 6 6 6 6 6 6 6 6 6 6 6 6 6 s s w p s s 6 6 6 s 6 6 6 6 6 6 6 6 6 6 6 6 6 6 6 6 6 6 6 6 6 6 6 6 6 6 6 6 s s w p s s 6 6 s s 6 6 6 6 6 6 & 6 & 6 6 6 6 6 6 6 6 6 & & 6 & 6 6 6 6 6 k c c k c c c 6 6 s w 6 6 6 6 6 6 & 6 & 6 6 6 6 6 6 6 6 6 & & 6 & 6 6 6 6 6 k c c k c c k 6 6 s 6 6 6 6 & 6 6 & 6 & 6 6 6 6 6 6 6 6 6 & & 6 & 6 6 6 6 6 k c c k c c k 6 6 s 6 6 ",
"6 & z +.6 m X.N X.X.X.6 6 6 6 e c c t t c c 7 6 w s 6 6 v z 6 m l v l m s 6 6 6 6 z v 6 v z v z v l 6 6 6 6 6 s s w p s s 6 6 s s 6 6 m d 6 N l m l m s 6 6 6 6 v z 6 m l v l m s 6 6 6 6 s s w p s s 6 6 6 s 6 6 v z 6 m l v l m s 6 6 6 6 m l 6 N l m l m s 6 6 6 6 s s w p s s 6 6 s s 6 6 O.v 6 O.m O.v +.s 6 6 6 w +.d s +.v O.v +.w 6 6 6 t c c t t c t 6 6 s p 6 6 +.l s +.O.o.v +.s 6 6 6 s +.s d +.v O.z X.& 6 6 6 t c t t t c t 6 6 s 6 6 6 w O.6 s X.l +.6 6 6 6 & l +.6 z O.N X.v N % 6 6 6 t c t t c c t 6 6 s 6 6 ",
"6 6 X.N z N O.4.O.+.N s 6 6 6 s z z l l z z s 6 w s & s v z d z o.z o.z v 6 6 6 6 v z d z X.v X.v v 6 6 6 6 w s s p p s p 6 6 s s % d v z l z O.l O.l z & 6 6 s v z d z o.z o.z v 6 6 6 6 s s p p s s 6 6 6 s & s v z d z o.z o.z v 6 6 & s v z l z O.l O.z z & 6 6 w s s p p s p 6 6 s s % l X.N s a.a.z s.N N % 6 % v X.m v N s.v s.m m % 6 6 l z z l z z z 6 6 s s % v N X.# m a.v s.m m % 6 % N X.v v N s.v o.o.& 6 6 6 l z z l z z l 6 6 s 6 6 6 6 +.6 6 +.N N v % 6 6 & N X.z m X.a.v o.N % 6 6 6 z z z l z z l 6 6 s 6 6 ",
"6 6 N +.N X.+.+.+.+.O.6 6 6 5 A .X! { ! ! .X4 5 p s 6 6 m m l m X.m X.N z 6 6 6 6 v N l v X.m X.N v 6 6 6 6 2 3 3 3 3 3 3 6 6 s s & s N v l m X.m X.m l & 6 6 6 m m l m X.m X.N z 6 6 6 p 3 3 3 3 3 3 p 6 w s 6 6 m m l m X.m X.N z 6 6 6 s N v l m X.m X.N l & 6 6 2 3 3 3 3 3 3 6 6 s s & s +.O.m +.a.O.4.+.m & 6 & l +.X.N +.4.O.4.+.z & 6 5 { .X! { ! ! ! 3 5 s s % d +.O.s o.v +.4.+.z & 6 & z +.X.N +.4.O.z X.6 6 6 6 { .X! { ! ! ! p 6 s 6 6 6 & X.l s X.N 4.l & 6 6 & m +.N X.+.4.O.z N % 6 6 2 ! ! ! { ! .X{ 6 6 s 6 6 ",
"6 6 s z s s d s d s d 6 6 6 # w.lXlXdXdXlXlX..# w s 6 6 s s 6 s w s 6 s 6 6 6 6 6 s s 6 s s s w s s 6 6 6 6 p p p p p p p 6 6 s s 6 6 s s w s 6 d 6 d 6 6 6 6 6 s s 6 s w s 6 s 6 6 6 6 6 p p p p p p 6 6 6 s 6 6 s s 6 s w s 6 s 6 6 6 6 6 s s 6 s 6 s 6 d 6 6 6 6 w p p p p p p 6 6 s s 6 6 l d s l s z w z 6 6 6 6 6 z s s z w z w z 6 6 6 & yXlXlXaXdXlXdXk % s p 6 6 z s s p 6 z w z 6 6 6 6 6 z s s l w z 6 s 6 6 6 6 dXlXdXaXdXlXdXw & s 6 6 6 6 s s w w w z 6 6 6 6 6 6 z s s l s l 6 s 6 6 & s dXlXdXaXlXlXaX6 6 s 6 6 ",
"6 6 6 & 6 6 & 6 & 6 & 6 6 6 @ q.mXmXtXlXmXmX#.@ w s 6 6 6 6 6 6 6 6 6 6 6 6 6 6 6 6 6 6 6 6 6 6 6 6 6 6 6 6 6 s s w s s s 6 6 s s 6 6 6 6 6 & 6 & 6 & 6 6 6 6 6 6 6 6 6 6 6 6 & 6 6 6 6 6 s s w w s s 6 6 6 s 6 6 6 6 6 6 6 6 6 6 6 6 6 6 6 6 6 6 & 6 & 6 & 6 6 6 6 6 s s w p s s 6 6 s s 6 6 & & 6 & 6 & 6 & 6 6 6 6 6 & 6 6 & 6 & 6 & 6 6 6 & tXmXmXtXmXmXmXc % s w 6 6 & 6 6 6 6 & 6 & 6 6 6 6 6 & 6 6 & 6 & 6 6 6 6 6 6 tXmXmXtXmXmXlXe & s 6 6 6 6 6 6 6 6 6 & 6 6 6 6 6 6 & 6 6 & 6 & 6 6 6 6 & t mXmXmXtXmXmXtX6 6 s 6 6 ",
"6 6 6 6 6 6 6 6 6 6 6 6 6 6 @ q.mXmXhXlXmXmX#.@ w s 6 6 6 6 6 6 6 6 6 6 6 6 6 6 6 6 6 6 6 6 6 6 6 6 6 6 6 6 w s s w p s s 6 6 s s 6 6 6 6 6 6 6 6 6 6 6 6 6 6 6 6 6 6 6 6 6 6 6 6 6 6 6 6 s s w p s s 6 6 6 s 6 6 6 6 6 6 6 6 6 6 6 6 6 6 6 6 6 6 6 6 6 6 6 6 6 6 6 6 s s w p s s 6 6 s s 6 6 6 6 6 6 6 6 6 6 6 6 6 6 6 6 6 6 6 6 6 6 6 6 6 6 & tXmXmXtXlXmXmXc % s w 6 6 6 6 6 6 6 6 6 6 6 6 6 6 6 6 6 6 6 6 6 6 6 6 6 6 6 lXmXmXtXmXmXlXe & s 6 6 6 6 6 6 6 6 6 6 6 6 6 6 6 6 6 6 6 6 6 6 6 6 6 6 & t lXmXmXtXmXmXtX6 6 s 6 6 ",
"6 6 6 6 6 5 5 5 6 6 6 6 6 6 @ q.mXmXhXlXmXmX#.@ w s 6 6 6 6 6 6 6 6 6 6 6 6 6 6 6 6 6 6 6 6 6 6 6 6 6 6 6 6 6 s s w p s s 6 6 s s 6 6 6 6 6 6 6 6 6 6 6 6 6 6 6 6 6 6 6 6 6 6 6 6 6 6 6 6 s s w p s s 6 6 6 s 6 6 6 6 6 6 6 6 6 6 6 6 6 6 6 6 6 6 6 6 6 6 6 6 6 6 6 6 s s w p s s 6 6 s s 6 6 6 6 6 & $ & 6 6 6 6 6 6 6 6 6 6 & $ 6 6 6 6 6 6 & tXmXmXtXmXmXmXc % s w 6 6 6 6 6 & $ & 6 6 6 6 6 6 6 6 6 6 $ $ 6 6 6 6 6 6 6 hXmXmXtXmXmXlXe & s 6 6 6 6 6 6 % % 6 6 6 6 6 6 6 6 6 6 & % % 6 6 6 6 6 & t lXmXmXtXmXmXtX6 6 s 6 6 ",
"6 6 6 6 5 g h h 6 5 6 6 6 6 @ q.mXmXlXlXmXmX#.@ w s 6 6 6 6 6 s s p 6 6 6 6 6 6 6 6 6 6 s s s 6 6 6 6 6 6 6 6 s s w p s s 6 6 s s 6 6 6 6 6 s s 6 6 6 6 6 6 6 6 6 6 6 s s w 6 6 6 6 6 6 6 s s w p s s 6 6 6 s 6 6 6 6 6 s s s 6 6 6 6 6 6 6 6 6 6 s s w 6 6 6 6 6 6 6 s s w p s s 6 6 s s 6 6 6 & 6 y u e & 6 6 6 6 6 6 6 & 6 y u e & 6 6 6 6 6 c  . .c  . . .7 & s w 6 6 6 & 6 c  .e & 6 6 6 6 6 6 6 & e M M e $ 6 6 6 6 6 lXmXmXlXmXmXmXe & s 6 6 6 6 % 7 b  .s % 6 6 6 6 6 6 6 % s  .b 6 % 6 6 6 & t lXmXmXtXmXmXtX6 6 s 6 6 ",
"6 6 6 9 P ].T ` R h 5 6 6 6 @ q.mXmXlXlXmXmX#.@ w s 6 6 6 s N X.m o.v 6 6 6 6 6 6 6 6 m o.m o.N p 6 6 6 6 6 w s s w p s s 6 6 s s 6 6 6 s X.X.m o.z 6 6 6 6 6 6 6 s N X.m o.v 6 6 6 6 6 6 s s w p s s 6 6 6 s 6 6 6 s N X.m o.v 6 6 6 6 6 6 6 s N X.m o.z 6 6 6 6 6 6 s s w p s s 6 6 s s 6 6 & y 0.0.1.0.3.6 6 6 6 6 6 & u 0.0.1.0.3.6 6 6 6 6 e c k e k k k 6 6 s w 6 6 & ..w.w.w.u.#.6 6 6 6 6 6 & ..w.w.w.u...& 6 6 6 6 #.w.w.#.w.w.&.6 6 s 6 6 6 & %.G.;.G.yX%.& 6 6 6 6 6 6 $.yX;.G.G. .& 6 6 & t lXmXmXtXmXmXtX6 6 s 6 6 ",
"6 6 6 R T +   X h &Xh 5 6 6 @ q.mXmXlXlXmXmX#.@ w s 6 6 w o.s X   + z X.6 6 6 6 6 6 X.l X   X s O.6 6 6 6 6 w s s w p s s 6 6 s s 6 6 s o.6 X   + N N 6 6 6 6 6 w o.s X   + z X.6 6 6 6 6 s s w p s s 6 6 6 s 6 6 w o.s X   + z o.6 6 6 6 6 s o.6 X   + m N 6 6 6 6 6 s s w p s s 6 6 s s 6 & y u.r     + 1.0.6 6 6 6 $ } 0.5     # 0.1.$ 6 6 6 t c c t c c c 6 6 s w 6 $ ..u.e     # w.w.$ 6 6 6 $ 6.w.%     5 u.6.$ 6 6 6 e e e e e e e 6 6 s 6 6 % $.G.5     5 yX$.% 6 6 6 % ;.;.+     7 uX%.% 6 & t lXmXmXtXmXmXtX6 6 s 6 6 ",
"6 5 U T o + d p o h R 6 6 6 @ q.mXmXlXlXmXmX#.@ w s 6 6 N s . + 6 +   v z & 6 6 & v z . + 6 # . l m & 6 6 6 6 s s w p s s 6 6 s s 6 6 N 6 . # 6 X X N d & 6 6 6 N s . + 6 +   v z & 6 6 6 s s w p s s 6 6 6 s 6 6 m d . + 6 +   v z & 6 6 6 N 6 . # 6 X   N d & 6 6 6 s s w p s s 6 6 s s 6 6 0.y . 6 l #   1.} $ 6 6 e 0.5   w d + X 0.y & 6 6 t c c t k c c 6 6 s s & e w.e . w d + X w.M $ 6 & y w.#   s s   % w.e & 6 6 k c c k c c k 6 6 s 6 & k G.#   s d   # G.k & 6 %  .G.  X s s   7 G.6 6 & t lXmXmXtXmXmXtX6 6 s 6 % ",
"6 5 T H o z X.O.6 X R g 5 6 @ q.mXmXhXlXmXmX#.@ w s 6 6 X.+ X d l l   6 N 6 6 6 6 X.6   s l z + # X.6 6 6 6 6 s s w p s s 6 6 s s & s X.X + d z d   d v & 6 6 6 X.+ X d l l   6 N 6 6 6 6 s s w p s s 6 6 6 s 6 6 X.# X d l l   6 N 6 6 6 s X.X + d z d   s m & 6 6 6 s s w p s s 6 6 s s & y 0.X % N o.N   u 1.$ 6 $ u 0.  w X.o.m   3.3.$ 6 6 t c c t k c k 6 6 s s $ ..w.  6 X.o.m . 6.6.$ 6 $ #.w.. s X.O.z . w...$ 6 6 k c c t c c k 6 6 s w # @.;.. s X.O.z . ;.@.# 6 # ;.$.. l N O.s   G.b & & t mXmXmXtXmXmXtX6 6 s 6 # ",
"6 5 T h X z l X.s X T h 5 6 @ q.mXmXlXlXmXmX#.@ w s & w N + + p s l X & N 6 6 6 6 N # X p w l + + X.6 6 6 6 w s s w p s s 6 6 s s & s N   % w s d   s m 6 6 6 w N X + p s l X & N 6 6 6 6 s s w p s s 6 6 6 s & 6 N + + p s l X % N 6 6 6 s N   # w s d   w m 6 6 6 6 s s w p s s 6 6 s s $ y 1.  6 l v N X y 1.& 6 $ u 1.  s l m m   u 1.$ 6 6 t c c t c c c 6 6 s s $ ..w.  s l m N   ..6.$ 6 $ 6.#.. d l N z   6.#.$ 6 6 k c c t c c k 6 6 s w # $.$.. d l N v   $.$.# 6 % $. .. 6 l X.l   ;.%.% 6 7 ..#...8XMXmXlX6 6 s 6 # ",
"6 % T J . # s l X $ ].9 6 6 @ q.mXmXlXlXmXmX#.@ w s 6 6 X.6 . + 6 & . d N & 6 6 6 N s . + 6 6 . 6 X.6 6 6 6 w s s w p s s 6 6 s s 6 6 o.+ . # w # . v z & 6 6 6 X.6 . + 6 & . l m & 6 6 6 s s w p s s 6 6 6 s 6 6 X.6 . + 6 6 . d N & 6 6 6 o.# . # 6 # . v z & 6 6 6 s s w p s s 6 6 s s & e 0.#   6 l w . 3.1.$ 6 & y 0.X X 6 z 6 . 1.} $ 6 6 t c c t c c c 6 6 s s & t u.X   6 z 6 . w.#.$ 6 $ ..w.. + 6 z #   w.M & 6 6 k c c t c c k 6 6 s 6 %  .G.. + 6 z % . G. .% 6 # $.G.. # l z + + G.k & 6 6 t k e #.8X8Xw.6 6 s 6 # ",
"6 6 g ` h . X   + R J 5 6 6 @ q.mXmXlXlXmXmX#.@ w s 6 6 d X.+ .     6 X.s 6 6 6 6 s o.6 .     # X.d 6 6 6 6 w s s w p s s 6 6 s s 6 6 z N X .     s X.6 6 6 6 6 l X.+ .     6 X.s 6 6 6 6 s s w p s s 6 6 6 s 6 6 d X.# .     6 X.s 6 6 6 6 z N X .     s X.6 6 6 6 6 s s w p s s 6 6 s s 6 & 3.0.X   X   y 0.e 6 6 6 & 1.1.    X   } 0.6 6 6 6 t c c t c c c 6 6 s p 6 & 6.w.    X   ..w.6 6 6 6 6 w.6..   X   6.w.6 6 6 6 k c c t c c k 6 6 s 6 6 6 ;.$..   X   $.;.6 6 6 6 s fX;.. X X X ;.$.% 6 6 6 c c c e e e w 6 6 s 6 6 ",
"6 6 5 U T 5 & # h T 6 6 6 6 @ q.mXmXhXlXmXmX#.@ w s 6 6 6 m l & % & v l 6 6 6 6 6 6 z v & % % z v 6 6 6 6 6 6 s s w p s s 6 6 s s 6 6 6 N s % % 6 N s 6 6 6 6 6 6 m l % % & v l 6 6 6 6 6 s s w p s s 6 6 6 s 6 6 6 m l & % & v l 6 6 6 6 6 6 N s % % 6 m s 6 6 6 6 6 s s w p s s 6 6 s s 6 6 6 0.u $ % $ 1.u $ 6 6 6 6 e 0.t % % 6 0.y & 6 6 6 t c c t k c k 6 6 s w 6 6 e w.k # % 6 w.y & 6 6 6 & y w.w % # e w.e & 6 6 6 k c c t c c k 6 6 s 6 6 & k G.s % % 7 G.k & 6 6 6 # @.fX& % # k ;.6 6 6 6 6 k c c k c c k 6 6 s 6 6 ",
"6 6 6 5 6 6 6 6 6 6 6 6 6 6 @ q.mXmXlXlXmXmX#.@ w s 6 6 6 6 6 6 6 6 6 6 6 6 6 6 6 6 6 6 6 6 6 6 6 6 6 6 6 6 6 s s w p s s 6 6 s s 6 6 6 6 6 6 6 6 6 6 6 6 6 6 6 6 6 6 6 6 6 6 6 6 6 6 6 6 s s w p s s 6 6 6 s 6 6 6 6 6 6 6 6 6 6 6 6 6 6 6 6 6 6 6 6 6 6 6 6 6 6 6 6 s s w p s s 6 6 s s 6 6 6 6 6 6 6 6 6 6 6 6 6 6 6 6 6 6 6 6 6 6 6 6 6 6 6 t c c t k c k 6 6 s w 6 6 6 6 6 6 6 6 6 6 6 6 6 6 6 & 6 6 6 6 6 6 6 6 6 6 6 k c c t c c k 6 6 s 6 6 6 & 6 6 6 6 6 6 6 6 6 6 6 6 & 6 6 6 6 6 6 6 6 6 6 6 k c c t c c t 6 6 s 6 6 ",
"6 6 6 6 6 6 6 & 6 & 6 6 6 6 @ q.mXmXlXlXmXmX#.@ w s 6 6 6 6 6 6 6 6 6 6 6 6 6 6 6 6 6 6 6 6 6 6 6 6 6 6 6 6 w s s w p s s 6 6 s s 6 6 6 6 6 6 6 6 6 6 6 6 6 6 6 6 6 6 6 6 6 6 6 6 6 6 6 6 s s w p s s 6 6 6 s 6 6 6 6 6 6 6 6 6 6 6 6 6 6 6 6 6 6 6 6 6 6 6 6 6 6 6 6 s s w p s s 6 6 s s 6 6 6 6 6 6 & 6 & 6 6 6 6 6 6 6 6 6 6 & 6 & 6 6 6 6 6 t c c t c c c 6 6 s w 6 6 6 6 6 6 & 6 & 6 6 6 6 6 6 6 6 6 6 & 6 & 6 6 6 6 6 k c c t c c k 6 6 s 6 6 6 6 6 6 6 & 6 & 6 6 6 6 6 6 6 & 6 6 6 & 6 6 6 6 6 6 k c c t c c t 6 6 s 6 6 ",
"6 6 s +.s s +.v O.m +.6 6 6 @ q.mXmXlXlXmXmX#.@ w s 6 6 v z 6 m z m l m s 6 6 6 6 s N 6 d m z v z v 6 6 6 6 w s s w p s s 6 6 s s 6 6 N d 6 N l m l N s 6 6 6 6 v z 6 m l m l m s 6 6 6 6 s s w p s s 6 6 6 s 6 6 v z 6 m z v l m d 6 6 6 6 m l 6 N l m l N s 6 6 6 6 s s w p s s 6 6 s s 6 6 O.v 6 +.m O.v +.d 6 6 6 w +.d s +.v O.v +.p 6 6 6 t c c t c c c 6 6 s p 6 w +.l s +.v O.v +.s 6 6 6 s 4.s d +.m O.m O.6 6 6 6 k c c t c c k 6 6 s 6 & s 4.s d +.m O.m O.6 6 6 6 & d o.% z X.N o.6 6 6 6 6 k c c t c c t 6 6 s 6 & ",
"6 % m N v v N s.v s.m v % 6 @ q.mXmXlXlXmXmX#.@ w s & s v z d l o.z o.z v 6 6 6 6 z z l l v o.z o.z s 6 6 6 6 s s w p s s 6 6 s s % d z z l l O.l O.l z & 6 6 s v z d l o.z O.z v 6 6 6 6 s s w p s s 6 6 6 s & s v z d l o.z o.z v 6 6 & s z z l l O.l O.l z & 6 6 6 s s w p s s 6 6 s s % l X.N z m s.v s.m N % 6 % v X.m v N s.v s.m m % 6 6 t c c t k c c 6 6 s s % v X.m v m s.v s.m m % 6 % N N v v N s.m s.m z % 6 6 k c c t c c k 6 6 s w % m N v v N s.v s.m z % 6 6 6 s +.% 6 a.+.N l & 6 6 6 k c c t c c t 6 6 s 6 & ",
"6 & z +.X.N +.4.O.4.+.l & 6 @ q.mXmXhXlXmXmX#.@ w s 6 6 m m l m X.m X.N z 6 6 6 6 l N z z N X.m X.m w 6 6 6 6 s s w p s s 6 6 s s & s N v l m X.m X.N l & 6 6 6 m m l m X.m X.N z 6 6 6 6 s s w p s s 6 6 6 s 6 6 m m l m X.m X.N z 6 6 6 s N v l m X.m X.N l & 6 6 6 s s w p s s 6 6 s s & s +.O.m O.4.O.4.+.m & 6 & l +.o.N +.4.O.4.+.z & 6 6 t c c t k c k 6 6 s s % d +.o.N +.4.O.4.+.z & 6 & z +.X.N +.4.O.4.+.d & 6 6 k c c t c c k 6 6 s w % z +.X.N +.4.O.4.+.d & 6 6 6 6 o.d z 4.+.+.s 6 6 6 6 k c c t c c t 6 6 s 6 & ",
"6 6 6 z s s l w l w z 6 6 6 @ q.mXmXlXlXmXmX#.@ w s 6 6 s s 6 s w s 6 s 6 6 6 6 6 6 s w s s 6 s w s 6 6 6 6 w s s w p s s 6 6 s s 6 6 s s 6 s 6 s 6 d 6 6 6 6 6 s s 6 s 6 s 6 s 6 6 6 6 6 s s w p s s 6 6 6 s 6 6 s s 6 s w s 6 s 6 6 6 6 6 s s 6 s 6 s 6 d 6 6 6 6 6 s s w p s s 6 6 s s 6 6 l s s l w l w z 6 6 6 6 6 l s s l w z 6 z 6 6 6 6 t c c t c c c 6 6 s w 6 6 l s s l w z 6 z 6 6 6 6 6 z s s l w l w l 6 6 6 6 k c c t c c k 6 6 s 6 6 6 z s s l w l w z 6 6 6 6 6 6 s s l d s l 6 6 6 6 6 k c c t c c t 6 6 s 6 6 ",
"6 6 6 & 6 6 & 6 & 6 & 6 6 6 @ q.mXmXlXlXmXmX#.@ w s 6 6 6 6 6 6 6 6 6 6 6 6 6 6 6 6 & 6 6 6 6 6 6 6 6 6 6 6 w s s w p s s 6 6 s s 6 6 6 6 6 6 6 & 6 & 6 6 6 6 6 6 6 6 6 6 6 6 6 6 6 6 6 6 s s w p s s 6 6 6 s 6 6 6 6 6 6 6 6 6 6 6 6 6 6 6 6 6 6 6 6 6 6 & 6 6 6 6 6 s s w p s s 6 6 s s 6 6 & & 6 & 6 & 6 & 6 6 6 6 6 & 6 6 & 6 & 6 & 6 6 6 6 t c c t c c c 6 6 s w 6 6 & 6 6 & 6 & 6 & 6 6 6 6 6 & 6 6 & 6 & 6 & 6 6 6 6 k c c t c c k 6 6 s 6 6 6 & 6 6 & 6 & 6 & 6 6 6 6 6 6 6 6 & & 6 & 6 6 6 6 6 k c c t c c k 6 6 s 6 6 ",
"6 6 6 6 6 6 6 6 6 6 6 6 6 6 @ q.mXmXlXlXmXmX#.@ w s 6 6 6 6 6 6 6 6 6 6 6 6 6 6 6 6 6 6 6 6 6 6 6 6 6 6 6 6 w s s w p s s 6 6 s s 6 6 6 6 6 6 6 6 6 6 6 6 6 6 6 6 6 6 6 6 6 6 6 6 6 6 6 6 s s w p s s 6 6 6 s 6 6 6 6 6 6 6 6 6 6 6 6 6 6 6 6 6 6 6 6 6 6 6 6 6 6 6 6 s s w p s s 6 6 s s 6 6 6 6 6 6 6 6 6 6 6 6 6 6 6 6 6 6 6 6 6 6 6 6 6 6 6 t c c t c c c 6 6 s w 6 6 6 6 6 6 6 6 6 6 6 6 6 6 6 6 6 6 6 6 6 6 6 6 6 6 6 k c c t c c k 6 6 s 6 6 6 6 6 6 6 6 6 6 6 6 6 6 6 6 6 6 6 6 6 6 6 6 6 6 6 6 k c c t c c t 6 6 s 6 6 ",
"6 6 6 6 6 5 # % 6 6 6 6 6 6 @ q.mXmXhXlXmXmX#.@ w s 6 6 6 6 6 6 6 6 6 6 6 6 6 6 6 6 6 6 6 & & 6 6 6 6 6 6 6 6 s s w p s s 6 6 s s 6 6 6 6 6 6 6 6 6 6 6 6 6 6 6 6 6 6 & & 6 6 6 6 6 6 6 6 s s w p s s 6 6 6 s 6 6 6 6 6 6 6 6 6 6 6 6 6 6 6 6 6 6 & & 6 6 6 6 6 6 6 6 s s w p s s 6 6 s s 6 6 6 6 6 & $ & 6 6 6 6 6 6 6 6 6 6 & $ 6 6 6 6 6 6 6 t c c t k c k 6 6 s w 6 6 6 6 6 & $ & 6 6 6 6 6 6 6 6 6 6 $ $ 6 6 6 6 6 6 6 k c c t c c k 6 6 s 6 6 6 6 6 6 % % 6 6 6 6 6 6 6 6 6 6 & % % 6 6 6 6 6 6 6 k c c t c c t 6 6 s 6 6 ",
"6 6 6 6 % h U B 6 % 6 6 6 6 @ q.CXmXlXmXmXMX#.@ w s 6 6 6 6 6 s s s 6 6 6 6 6 6 6 6 6 6 s z d 6 6 6 6 6 6 6 6 s s w p s s 6 6 s s 6 6 6 6 6 s s w 6 6 6 6 6 6 6 6 6 6 d z s 6 6 6 6 6 6 6 s s w p s s 6 6 6 s 6 6 6 6 6 s s s 6 6 6 6 6 6 6 6 & 6 l z s 6 6 6 6 6 6 6 s s w p s s 6 6 s s 6 6 6 & 6 y u r & 6 6 6 6 6 6 6 $ w u u e & 6 6 6 6 6 t c c t k c k 6 6 s w 6 6 6 & 7 c ..e & 6 6 6 6 6 6 6 & e M M e $ 6 6 6 6 6 k c c t c c k 6 6 s 6 6 6 6 % 9  . .s % 6 6 6 6 6 6 6 % s  .b 7 % 6 6 6 6 6 k c c t c c t 6 6 s 6 6 ",
"6 6 6 p f.;Xb.;X%XU % 6 6 6 &  .w.w.#.#.w.w.c & w s 6 6 6 s N X.m o.v 6 6 6 6 6 6 6 s O.a.O.a.+.s 6 6 6 6 6 w s s w p s s 6 6 s s 6 6 6 s X.X.m o.z 6 6 6 6 6 6 & d +.a.O.s.O.w 6 6 6 6 6 s s w p s s 6 6 6 s 6 6 6 s N X.m o.v 6 6 6 6 6 6 & l 4.a.+.a.z 6 6 6 6 6 6 s s w p s s 6 6 s s 6 6 $ y 0.0.1.0.1.w 6 6 6 6 6 $ 1.u.0.1.0.3.6 6 6 6 6 t c c t c c c 6 6 s w 6 6 % ..w.w.w.u.6.6 6 6 6 6 6 6 ..w.w.w.u...& 6 6 6 6 k c c t c c k 6 6 s 6 6 6 % %.G.;.G.yX%.6 6 6 6 6 6 6 $.G.;.G.G. .& 6 6 6 6 k c c t c c t 6 6 s 6 6 ",
"6 6 5 %Xj.X o X h -XB % 6 6 6 7 e e e e e e 6 6 w s 6 6 s +.s X   X z o.6 6 6 6 6 6 a.v X   X z s.s 6 6 6 6 w s s w p s s 6 6 s s 6 & l +.6 X   + m N 6 6 6 6 6 s s.d X   X X.a.6 6 6 6 6 s s w p s s 6 6 6 s 6 6 s +.s X   X z o.6 6 6 6 & l s.p     + m N 6 6 6 6 6 s s w p s s 6 6 s s 6 $ u u.r X   + 1.0.6 6 6 6 $ 1.qXr     # 0.1.$ 6 6 6 t c c t c c c 6 6 s w 6 $ 6.qX7     + w.w.& 6 6 6 $ 6.w.%     5 u.6.$ 6 6 6 k c c t c c k 6 6 s 6 6 # s.G.5     % yX$.% 6 6 6 % ;.;.+     7 uX%.% 6 6 6 k c c t c c t 6 6 s 6 6 ",
"6 # I N.o + d s . B %X5 6 6 6 e c c k k c c e 6 w s 6 6 +.z . + 6 +   v z & 6 6 % o.N . + 6 # . v +.& 6 6 6 6 s s w p s s 6 6 s s 6 6 a.s . # 6 X X N d & 6 6 6 +.z . + 6 + . N z & 6 6 6 s s w p s s 6 6 6 s 6 6 +.z . + 6 +   v z & 6 6 6 4.s . % #   X N l & 6 6 6 s s w p s s 6 6 s s 6 6 u.u . 6 l #   1.} $ 6 & e u.r . + s + X 0.y & 6 6 t c c t k c c 6 6 s s & e qXe . 6 l +   w.M $ 6 & c qX+   s d   # w.t & 6 6 k c c t c c k 6 6 s w % v fX% . s d   # G.k & 6 # +.aX  X d s   7 G.6 6 6 6 k c c t c c t 6 6 s 6 # ",
"6 # %XU o z X.O.6 + %Xh 5 6 6 e c c k k c c w 6 w s & w a.#   6 d l   6 N 6 6 6 6 a.6   s l l + % a.6 6 6 6 6 s s w p s s 6 6 s s % d a.X X 6 l d   d m & 6 6 w a.# X d s 5 . 6 N 6 6 6 6 s s w p s s 6 6 6 s & w a.#   6 d z   6 N 6 6 & d a.X + d 6 s   s m & 6 6 6 s s w p s s 6 6 s s $ y qXX + s X.X.  u 1.$ 6 $ 3.u.  w d N m   3.3.$ 6 6 t c c t k c k 6 6 s s # ..qX  % s o.m . #.6.$ 6 @ w.w.. % z O.z . w...$ 6 6 k c c t c c k 6 6 s w + s.J.. 6 s O.z . ;.@.# 6 + J.K.. 6 z O.s   G.b % 6 6 k c c t c c t 6 6 s 6 + ",
"6 % A.h   v z v s X %XB % 6 6 e c c k k c c w 6 w s & s 4.+ + s s l X & N 6 6 6 6 4.& X s s 6 X + a.w 6 6 6 6 s s w p s s 6 6 s s % l +.  % s s d   s m 6 6 6 s 4.+ + s s s X 6 N 6 6 6 6 s s w p s s 6 6 6 s & s 4.+ + s s l X & N 6 6 & l +.  # s d d   w m 6 6 6 6 s s w p s s 6 6 s s $ u u.  6 v N N X y 1.& 6 $ 1.0.. s m N m   } 1.$ 6 6 t c c t k c k 6 6 s s + #.w.. s v N m   ..6.$ 6 @ w.w.. s z N z   6.#.$ 6 6 k c c t c c k 6 6 s w + s.K.. d v N v   $.$.# 6 # J.+.. l z X.l   ;.%.% 6 6 k c c t c c t 6 6 s 6 # ",
"6 O j.f.. 6 d 6 o & ;Xp 6 6 6 e c c k k c c w 6 w s 6 6 a.6 . 6 s & . d m & 6 6 & 4.l . % p 6 . 6 o.6 6 6 6 w s s w s s s 6 6 s s & s a.+   6 s # . v z & 6 6 6 a.6 . 6 s & . l m & 6 6 6 s s p p s s 6 6 6 s 6 6 a.w . 6 s & . d N & 6 6 w a.# . 6 s # . v z & 6 6 6 s s w p s s 6 6 s s & e qX5   d z w . 3.1.$ 6 $ u qXX X l z & . 1.} $ 6 6 t c c t c c c 6 6 s s % c dXX X l z 6 . w...$ 6 # #.qX. # z z #   w.c & 6 6 k c c t c c k 6 6 s w # @.fX. + l z # . G. .% 6 + K.J.. & z z + + G.k & 6 6 c c c t c c k 6 6 s 6 + ",
"6 5 g ;XU . +   + %Xi.# 6 6 6 e k k t t k k 7 6 w s 6 & z a.#       6 X.s 6 6 6 6 d a.6 .     # X.s 6 6 6 6 6 p w 6 w w w 6 6 s s 6 & X.+.+       s X.6 6 6 6 & v a.#       6 X.s 6 6 6 6 p w 6 w w p 6 6 6 s 6 & z a.%       6 X.s 6 6 6 & N 4.+       s X.6 6 6 6 6 p w 6 w w w 6 6 s s 6 $ 1.u.+   X   y 0.e 6 6 6 $ 0.u.    X   } 0.6 6 6 6 e k k e k k k 6 6 s p 6 % w.qXX   X   ..w.6 6 6 6 6 qXw.  X X   6.w.& 6 6 6 t k k e k k t 6 6 s 6 6 & T.K.  X X   $.;.6 6 6 6 w fXa.. X   X ;.$.% 6 6 6 t k k e k k e 6 6 s 6 6 ",
"6 6 # I k.# & # U k.5 6 6 6 6 6 6 $ % 6 6 % 6 6 6 s 6 6 6 +.v % & & v l 6 6 6 6 6 & X.X.% & % z z 6 6 6 6 6 6 6 6 6 6 6 6 6 6 s s 6 6 6 4.l % % 6 m s 6 6 6 6 6 6 +.v % & & v l 6 6 6 6 6 6 6 6 6 6 6 6 6 6 s 6 6 6 O.m % & & v l 6 6 6 6 6 6 +.l % % 6 m s 6 6 6 6 6 6 6 6 6 6 6 6 6 s s 6 6 6 u.} @ % & 1.u $ 6 6 6 & e u.y # % 6 0.y & 6 6 6 6 6 % & & & % 6 6 s w 6 & e qXc # % 6 w.y & 6 6 6 & c qXe % % e w.e & 6 6 6 6 & % & & & % 6 6 s 6 6 % z fXs # % 7 G.s & 6 6 6 # @.fX6 % # k ;.6 6 6 6 6 6 % & & & % & 6 6 s 6 6 ",
"6 6 6 5 6 6 6 6 6 5 6 6 6 6 6 6 $ ..#.c e w.e & w s 6 6 6 6 6 6 6 6 6 6 6 6 6 6 6 6 6 6 6 6 6 6 6 6 6 6 6 6 6 6 6 6 6 6 6 6 6 s s 6 6 6 6 6 6 6 6 6 6 6 6 6 6 6 6 6 6 6 6 6 6 6 6 6 6 6 6 6 6 6 6 6 6 6 6 6 s 6 6 6 6 6 6 6 6 6 6 6 6 6 6 6 6 6 6 6 6 6 6 6 6 6 6 6 6 6 6 6 6 6 6 6 6 s s 6 6 6 & 6 6 6 6 6 6 6 6 6 6 6 & 6 6 6 6 6 6 6 6 6 6 6 % c &.c #. .#.& 6 s w 6 6 6 & 6 6 6 6 6 6 6 6 6 6 6 & & 6 6 6 6 6 6 6 6 6 6 # ..#.c ..t ..% 6 s 6 6 6 & & 6 6 6 6 6 6 6 6 6 6 6 % 6 6 6 6 6 6 6 6 6 6 6 @ .. .&.k ..t & 6 s 6 6 ",
"6 6 6 6 & 6 6 & 6 6 6 6 6 6 6 e ..8Xw.#.6 &.6 6 w s 6 6 6 6 6 6 6 6 6 6 6 6 6 6 6 6 6 6 6 6 6 6 6 6 6 6 6 6 6 6 6 6 6 6 6 6 6 s s 6 6 6 6 6 6 6 6 6 6 6 6 6 6 6 6 6 6 & 6 6 6 6 6 6 6 6 6 6 6 6 6 6 6 6 6 6 s 6 6 6 6 6 6 6 6 6 6 6 6 6 6 6 6 6 6 6 6 6 6 6 6 6 6 6 6 6 6 6 6 6 6 6 6 s s 6 6 6 6 6 6 & 6 & 6 6 6 6 6 6 6 & 6 6 6 6 6 6 6 6 6 & k c #.k w...w.& 6 s w 6 6 6 6 6 6 & 6 & 6 6 6 6 6 6 6 6 & 6 6 6 6 6 6 6 6 6 t q.w.c w.q.w.@ 6 s 6 6 6 6 6 6 6 & 6 & 6 6 6 6 6 6 6 6 & 6 6 6 6 6 6 6 6 6 k #. .#.e #.c & 6 s 6 6 ",
"6 6 6 & o.l o.m O.z & 6 6 6 6 6 c #.....c c & 6 w s 6 6 v z 6 m z m l m s 6 6 6 6 6 z v N d 6 m l 6 6 6 6 6 6 6 6 6 6 6 6 6 6 s s 6 6 N d 6 N l m l N s 6 6 6 6 6 v m v s 6 N d 6 6 6 6 6 6 6 6 6 6 6 6 6 6 s 6 6 v z 6 m z m z m d 6 6 6 6 6 X.s m z 6 X.s 6 6 6 6 6 6 6 6 6 6 6 6 6 s s 6 6 +.v 6 +.m O.m +.d 6 6 6 6 % N N o.s s 4.s 6 6 6 6 7 c c t #.#...& 6 s p 6 w +.l s +.v O.m +.s 6 6 6 6 s O.N +.s z +.6 6 6 6 6 7 #.#.c #.#...& 6 s 6 & s 4.s d +.m O.m +.6 6 6 6 6 l o.N +.6 m O.6 6 6 6 6 w c c  .7  .e 6 6 s 6 & ",
"6 6 6 & N O.z a.N X.6 6 6 6 6 6 & @ & 6 6 6 6 6 w s & s v z d l o.z o.z v 6 6 6 6 6 X.X.v z s z v 6 6 6 6 6 6 6 6 6 6 6 6 6 6 s s % d z z l l O.l O.l z & 6 6 6 6 s z z s s z v 6 6 6 6 6 6 6 6 6 6 6 6 6 6 s & s v z d l o.z o.z v 6 6 6 6 6 N s l d d z z & 6 6 6 6 6 6 6 6 6 6 6 6 s s % l X.N z m s.v s.m N % 6 6 6 s s.z o.z v N m % 6 6 6 6 6 6 6 & 6 & 6 6 s s % v N m v m s.z s.m N % 6 6 6 % v +.s.s N X.z % 6 6 6 6 % & & & # $ 6 6 s w % N N v v N s.v s.m z % 6 6 6 6 4.4.N z N X.l & 6 6 6 6 & & & 6 & & 6 6 s 6 & ",
"6 6 6 % z N o.4.+.X.& 6 6 6 6 6 & #.w. .e q.e & w s 6 6 m m l m X.m X.N z 6 6 6 6 6 m X.d N l m v 6 6 6 6 6 6 6 6 6 6 6 6 6 6 s s & s N v l m X.m X.N l & 6 6 6 & v w l l l N z 6 6 6 6 6 6 6 6 6 6 6 6 6 6 s 6 6 m m l m X.m X.N z 6 6 6 6 6 l m v s z N l & 6 6 6 6 6 6 6 6 6 6 6 6 s s & s +.O.m O.4.O.4.+.m & 6 6 & l s.+.X.o.N 4.z & 6 6 6 & c w.c #.c #.& 6 s s % d +.o.N +.4.O.4.+.z & 6 6 & z a.N a.N N 4.d & 6 6 6 # #.#.k #.#...& 6 s w % z +.X.N +.4.O.4.+.d & 6 6 6 s +.4.+.N X.+.s 6 6 6 6 # #...&.k &. .& 6 s 6 & ",
"6 6 6 6 w 6 l w l w 6 6 6 6 6 e #.8X&.#.7 #.6 6 w s 6 6 s s 6 s 6 s 6 s 6 6 6 6 6 6 s s s s 6 s w 6 6 6 6 6 6 6 6 6 6 6 6 6 6 s s 6 6 s s 6 s 6 s 6 s 6 6 6 6 6 6 w 6 6 w w s 6 6 6 6 6 6 6 6 6 6 6 6 6 6 6 s 6 6 s s 6 s 6 s 6 s 6 6 6 6 6 6 l 6 6 6 w s 6 6 6 6 6 6 6 6 6 6 6 6 6 6 s s 6 6 l s p l w l 6 l 6 6 6 6 6 & 6 s l s s l 6 6 6 6 & k  .#.t w...#.& 6 s w 6 6 l s s l 6 l 6 z 6 6 6 6 6 s v s l s s l 6 6 6 6 6 k q.w.#.q.q.w.% 6 s 6 6 6 l s s l w l w l 6 6 6 6 6 s l w l s s l 6 6 6 6 6 c ..#.q...&.#.& 6 s 6 6 ",
"6 6 6 6 6 6 & 6 & 6 6 6 6 6 6 6 e ......c k & 6 w s 6 6 6 6 6 6 6 6 6 6 6 6 6 6 6 6 6 6 6 6 6 6 6 6 6 6 6 6 6 6 6 6 6 6 6 6 6 s s 6 6 6 6 6 6 6 6 6 & 6 6 6 6 6 6 6 6 6 6 6 6 6 6 6 6 6 6 6 6 6 6 6 6 6 6 6 s 6 6 6 6 6 6 6 6 6 6 6 6 6 6 6 6 & 6 6 6 6 6 6 6 6 6 6 6 6 6 6 6 6 6 6 6 s s 6 6 & 6 6 & 6 & 6 & 6 6 6 6 6 6 6 6 & 6 6 & 6 6 6 6 6 6 c t t ..#...& 6 s p 6 6 & 6 6 & 6 & 6 & 6 6 6 6 6 6 % 6 & 6 6 & 6 6 6 6 6 6  ...c ....c & 6 s 6 6 6 & 6 6 & 6 & 6 & 6 6 6 6 6 6 & 6 & 6 6 & 6 6 6 6 6 6 t t ..e #.c & 6 s 6 6 ",
"6 6 6 6 6 6 6 6 6 6 6 6 6 6 6 6 & $ & & & & 6 6 w s 6 6 6 6 6 6 6 6 6 6 6 6 6 6 6 6 6 6 6 6 6 6 6 6 6 6 6 6 6 6 6 6 6 6 6 6 6 s s 6 6 6 6 6 6 6 6 6 6 6 6 6 6 6 6 6 6 6 6 6 6 6 6 6 6 6 6 6 6 6 6 6 6 6 6 w s 6 6 6 6 6 6 6 6 6 6 6 6 6 6 6 6 6 6 6 6 6 6 6 6 6 6 6 6 6 6 6 6 6 6 6 6 s s 6 6 6 6 6 6 6 6 6 6 6 6 6 6 6 6 6 6 6 6 6 6 6 6 6 6 6 6 & 6 6 & $ & 6 6 s p 6 6 6 6 6 6 6 6 6 6 6 6 6 6 6 6 6 6 6 6 6 6 6 6 6 6 6 6 & & & & & & 6 6 s 6 6 6 6 6 6 6 6 6 6 6 6 6 6 6 6 6 6 6 6 6 6 6 6 6 6 6 6 6 6 6 & 6 % & 6 6 s 6 6 ",
"6 6 6 6 6 6 6 6 6 6 6 6 6 6 6 6 6 6 6 6 6 6 6 6 6 6 6 6 6 6 6 6 6 6 6 6 6 6 6 6 6 6 6 6 6 6 6 6 6 6 6 6 6 6 6 6 6 6 6 6 6 6 6 6 6 6 6 6 6 6 6 6 6 6 6 6 6 6 6 6 6 6 6 6 6 6 6 6 6 6 6 6 6 6 6 6 6 6 6 6 6 6 6 6 6 6 6 6 6 6 6 6 6 6 6 6 6 6 6 6 6 6 6 6 6 6 6 6 6 6 6 6 6 6 6 6 6 6 6 6 6 6 6 6 6 6 6 6 6 6 6 6 6 6 6 6 6 6 6 6 6 6 6 6 6 6 6 6 6 6 6 6 6 6 6 6 6 6 6 6 6 6 6 6 6 6 6 6 6 6 6 6 6 6 6 6 6 6 6 6 6 6 6 6 6 6 6 6 6 6 6 6 6 6 6 6 6 6 6 6 6 6 6 6 6 6 6 6 6 6 6 6 6 6 6 6 6 6 6 6 6 6 6 6 6 6 6 6 6 6 6 6 6 6 6 6 ",
"v v v v v v v v v v v v v v v v v v v v v v v v v v v v v v v v v v v v v v v v v v v v v v v v v v v v v v v v v v v v v v v v v v v v v v v v v v v v v v v v v v v v v v v v v v v v v v v v v v v v v v v v v v v v v v v v v v v v v v v v v v v v v v v v v v v v v v v v v v v v v v v v v v v v v v v v v v v v v v v v v v v v v v v v v v v v v v v v v v v v v v v v v v v v v v v v v v v v v v v v v v v v v v v v v v v v v v v v v v v v v v v v v v v v v v v v v v v v v v v v v v v v v v v v v v v v v v v v ",
"w w w w w w w w w w w w w w w w w w w w w w w w w w w w w w w w w w w w w w w w w w w w w w w w w w w w w w w w w w w w w w w w w w w w w w w w w w w w w w w w w w w w w w w w w w w w w w w w w w w w w w w w w w w w w w w w w w w w w w w w w w w w w w w w w w w w w w w w w w w w w w w w w w w w w w w w w w w w w w w w w w w w w w w w w w w w w w w w w w w w w w w w w w w w w w w w w w w w w w w w w w w w w w w w w w w w w w w w w w w w w w w w w w w w w w w w w w w w w w w w w w w w w w w w w w w w w w w w ",
"6 6 6 6 6 6 6 6 6 6 & 6 6 6 6 6 6 6 6 6 6 6 6 6 6 6 6 6 6 6 6 6 6 6 6 6 6 6 6 6 6 6 6 6 6 6 6 6 6 6 6 6 6 6 6 6 6 6 6 6 6 6 6 6 6 6 6 6 6 6 6 6 6 6 6 6 6 6 6 6 6 6 6 6 6 6 6 6 6 6 6 6 6 6 6 6 6 6 6 6 6 6 6 6 6 6 6 6 6 6 6 6 6 6 6 6 6 6 6 6 6 6 6 6 6 6 6 6 6 6 6 6 6 6 6 6 6 6 6 6 6 6 6 6 6 6 6 6 6 6 6 6 6 6 6 6 6 6 6 6 6 6 6 6 6 6 6 6 6 6 6 6 6 6 6 6 6 6 6 6 6 6 6 6 6 6 6 6 6 6 6 6 6 6 6 6 6 6 6 6 6 6 6 6 6 6 6 6 6 6 6 6 6 6 6 6 6 6 6 6 6 6 6 6 6 6 6 6 6 6 6 6 6 6 6 6 6 6 6 6 6 6 6 6 6 6 6 6 6 6 6 6 6 6 6 6 ",
"6 6 6 6 6 6 6 z v z v 6 6 6 6 6 6 6 6 6 6 6 6 6 6 6 6 6 6 6 6 6 6 6 6 6 6 6 6 6 6 6 6 6 6 6 6 6 6 6 6 6 6 6 6 6 6 6 6 6 6 6 6 6 6 6 6 6 6 6 6 6 6 6 6 6 6 6 6 6 6 6 6 6 6 6 6 6 6 6 6 6 6 6 6 6 6 6 6 6 6 6 6 6 6 6 6 6 6 6 6 6 6 6 6 6 6 6 6 6 6 6 6 6 6 6 6 6 6 6 6 6 6 6 6 6 6 6 6 6 6 6 6 6 6 6 6 6 6 6 6 6 6 6 6 6 6 6 6 6 6 6 6 6 6 6 6 6 6 6 6 6 6 6 6 6 6 6 6 6 6 6 6 6 6 6 6 6 6 6 6 6 6 6 6 6 6 6 6 6 6 6 6 6 6 6 6 6 6 6 6 6 6 6 6 6 6 6 6 6 6 6 6 6 6 6 6 6 6 6 6 6 6 6 6 6 6 6 6 6 6 6 6 6 6 6 6 6 6 6 6 6 6 6 6 6 ",
"6 6 6 6 6 6 6 X.a.s.+.6 6 6 e } 6 6 6 6 6 6 6 6 6 6 6 6 6 6 6 6 6 6 6 6 6 6 6 6 6 6 6 6 6 6 6 6 6 6 6 6 6 6 6 6 6 6 6 6 6 6 6 6 6 6 6 6 6 6 6 6 6 6 6 6 6 6 6 6 6 6 6 6 6 6 6 6 6 6 6 6 6 6 6 6 6 6 6 6 6 6 6 6 6 6 6 6 6 6 6 6 6 6 6 6 6 6 6 6 6 6 6 6 6 6 6 6 6 6 6 6 6 6 6 6 6 6 6 6 6 6 6 6 6 6 6 6 6 6 6 6 6 6 6 6 6 6 6 6 6 6 6 6 6 6 6 6 6 6 6 6 6 6 6 6 6 6 6 6 6 6 6 6 6 6 6 6 6 6 6 6 6 6 6 6 6 6 6 6 6 6 6 6 6 6 6 6 6 6 6 6 6 6 6 6 6 6 6 6 6 6 6 6 6 6 6 6 6 6 6 6 6 6 6 6 6 6 6 6 6 6 6 6 6 6 6 6 6 6 6 6 6 6 6 6 ",
"1.1.e 6 6 6 w d s a.d 6 6 6 1.u.} $ y 1.1.e 6 6 6 6 6 6 6 6 6 6 6 6 6 6 6 6 6 6 6 6 6 6 6 6 6 6 6 6 6 6 6 6 6 6 6 6 6 6 6 6 6 6 6 6 6 6 6 6 6 6 6 6 6 6 6 6 6 6 6 6 6 6 6 6 6 6 6 6 6 6 6 6 6 6 6 6 6 6 6 6 6 6 6 6 6 6 6 6 6 6 6 6 6 6 6 6 6 6 6 6 6 6 6 6 6 6 6 6 6 6 6 6 6 6 6 6 6 6 6 6 6 6 6 6 6 6 6 6 6 6 6 6 6 6 6 6 6 6 6 6 6 6 6 6 6 6 6 6 6 6 6 6 6 6 6 6 6 6 6 6 6 6 6 6 6 6 6 6 6 6 6 6 6 6 6 6 6 6 6 6 6 6 6 6 6 6 6 6 6 6 6 6 6 6 6 6 6 6 6 6 6 6 6 6 6 6 6 6 6 6 6 6 6 6 6 6 6 6 6 6 6 6 6 6 6 6 6 6 6 6 6 6 6 6 ",
"6 6 6 6 6 6 w l d s.z 6 6 6 e } 6 6 6 6 6 6 6 6 6 6 6 6 6 6 6 6 6 6 6 6 6 6 6 6 6 6 6 6 6 6 6 6 6 6 6 6 6 6 6 6 6 6 6 6 6 6 6 6 6 6 6 6 6 6 6 6 6 6 6 6 6 6 6 6 6 6 6 6 6 6 6 6 6 6 6 6 6 6 6 6 6 6 6 6 6 6 6 6 6 6 6 6 6 6 6 6 6 6 6 6 6 6 6 6 6 6 6 6 6 6 6 6 6 6 6 6 6 6 6 6 6 6 6 6 6 6 6 6 6 6 6 6 6 6 6 6 6 6 6 6 6 6 6 6 6 6 6 6 6 6 6 6 6 6 6 6 6 6 6 6 6 6 6 6 6 6 6 6 6 6 6 6 6 6 6 6 6 6 6 6 6 6 6 6 6 6 6 6 6 6 6 6 6 6 6 6 6 6 6 6 6 6 6 6 6 6 6 6 6 6 6 6 6 6 6 6 6 6 6 6 6 6 6 6 6 6 6 6 6 6 6 6 6 6 6 6 6 6 6 6 ",
"6 6 6 6 6 6 6 d d l s 6 6 6 6 6 6 6 6 6 6 6 6 6 6 6 6 6 6 6 6 6 6 6 6 6 6 6 6 6 6 6 6 6 6 6 6 6 6 6 6 6 6 6 6 6 6 6 6 6 6 6 6 6 6 6 6 6 6 6 6 6 6 6 6 6 6 6 6 6 6 6 6 6 6 6 6 6 6 6 6 6 6 6 6 6 6 6 6 6 6 6 6 6 6 6 6 6 6 6 6 6 6 6 6 6 6 6 6 6 6 6 6 6 6 6 6 6 6 6 6 6 6 6 6 6 6 6 6 6 6 6 6 6 6 6 6 6 6 6 6 6 6 6 6 6 6 6 6 6 6 6 6 6 6 6 6 6 6 6 6 6 6 6 6 6 6 6 6 6 6 6 6 6 6 6 6 6 6 6 6 6 6 6 6 6 6 6 6 6 6 6 6 6 6 6 6 6 6 6 6 6 6 6 6 6 6 6 6 6 6 6 6 6 6 6 6 6 6 6 6 6 6 6 6 6 6 6 6 6 6 6 6 6 6 6 6 6 6 6 6 6 6 6 6 6 ",
"6 6 6 6 6 6 6 6 6 & 6 6 6 6 6 6 6 6 6 6 6 6 6 6 6 6 6 6 6 6 6 6 6 6 6 6 6 6 6 6 6 6 6 6 6 6 6 6 6 6 6 6 6 6 6 6 6 6 6 6 6 6 6 6 6 6 6 6 6 6 6 6 6 6 6 6 6 6 6 6 6 6 6 6 6 6 6 6 6 6 6 6 6 6 6 6 6 6 6 6 6 6 6 6 6 6 6 6 6 6 6 6 6 6 6 6 6 6 6 6 6 6 6 6 6 6 6 6 6 6 6 6 6 6 6 6 6 6 6 6 6 6 6 6 6 6 6 6 6 6 6 6 6 6 6 6 6 6 6 6 6 6 6 6 6 6 6 6 6 6 6 6 6 6 6 6 6 6 6 6 6 6 6 6 6 6 6 6 6 6 6 6 6 6 6 6 6 6 6 6 6 6 6 6 6 6 6 6 6 6 6 6 6 6 6 6 6 6 6 6 6 6 6 6 6 6 6 6 6 6 6 6 6 6 6 6 6 6 6 6 6 6 6 6 6 6 6 6 6 6 6 6 6 6 6 6 ",
"6 6 6 6 6 6 6 6 6 6 6 6 6 6 6 6 6 6 6 6 6 6 6 6 6 6 6 6 6 6 6 6 6 6 6 6 6 6 6 6 6 6 6 6 6 6 6 6 6 6 6 6 6 6 6 6 6 6 6 6 6 6 6 6 6 6 6 6 6 6 6 6 6 6 6 6 6 6 6 6 6 6 6 6 6 6 6 6 6 6 6 6 6 6 6 6 6 6 6 6 6 6 6 6 6 6 6 6 6 6 6 6 6 6 6 6 6 6 6 6 6 6 6 6 6 6 6 6 6 6 6 6 6 6 6 6 6 6 6 6 6 6 6 6 6 6 6 6 6 6 6 6 6 6 6 6 6 6 6 6 6 6 6 6 6 6 6 6 6 6 6 6 6 6 6 6 6 6 6 6 6 6 6 6 6 6 6 6 6 6 6 6 6 6 6 6 6 6 6 6 6 6 6 6 6 6 6 6 6 6 6 6 6 6 6 6 6 6 6 6 6 6 6 6 6 6 6 6 6 6 6 6 6 6 6 6 6 6 6 6 6 6 6 6 6 6 6 6 6 6 6 6 6 6 6 6 "
};
