/* XPM */
static char *mb_ringmod_sc_mono[] = {
/* columns rows colors chars-per-pixel */
"256 256 256 2 ",
"   c #05060A",
".  c #0A0A0D",
"X  c #080608",
"o  c #0D0D11",
"O  c #090816",
"+  c #0C141A",
"@  c #111215",
"#  c #15161B",
"$  c #1B161B",
"%  c #16181E",
"&  c #19191F",
"*  c #1C1215",
"=  c #110D10",
"-  c #2D1A1F",
";  c #321A1E",
":  c #32171E",
">  c #1A251E",
",  c #102C1D",
"<  c #24271E",
"1  c #29381C",
"2  c #34341E",
"3  c #342C1D",
"4  c #0C1623",
"5  c #141423",
"6  c #151A21",
"7  c #1B1C22",
"8  c #191825",
"9  c #11162B",
"0  c #231D22",
"q  c #2C1D23",
"w  c #311F25",
"e  c #211F34",
"r  c #1E2026",
"t  c #16252D",
"y  c #1C232B",
"u  c #192929",
"i  c #0B2631",
"p  c #0A2934",
"a  c #162730",
"s  c #1B2432",
"d  c #162932",
"f  c #192932",
"g  c #1E2F38",
"h  c #15293B",
"j  c #1D313A",
"k  c #16333B",
"l  c #0F2B31",
"z  c #222224",
"x  c #23242B",
"c  c #26282F",
"v  c #2A2926",
"b  c #332124",
"n  c #382929",
"m  c #38332B",
"M  c #212736",
"N  c #262932",
"B  c #2A2C34",
"V  c #212838",
"C  c #2C2E39",
"Z  c #212738",
"A  c #352D32",
"S  c #22323C",
"D  c #2E303A",
"F  c #2C3336",
"G  c #31333D",
"H  c #383534",
"J  c #2B3429",
"K  c #582917",
"L  c #453418",
"P  c #4D2E1C",
"I  c #612C13",
"U  c #6A241A",
"Y  c #64231B",
"T  c #7D3918",
"R  c #773718",
"E  c #6D321A",
"W  c #432B26",
"Q  c #462A2A",
"!  c #562C26",
"~  c #47362B",
"^  c #5A3626",
"/  c #5B3827",
"(  c #5A322C",
")  c #593D2E",
"_  c #54352B",
"`  c #493733",
"'  c #563A32",
"]  c #593E33",
"[  c #5B3F38",
"{  c #563734",
"}  c #472E30",
"|  c #662A23",
" . c #792E26",
".. c #613526",
"X. c #6A3726",
"o. c #633D24",
"O. c #6C3B26",
"+. c #63332B",
"@. c #69362A",
"#. c #633C2C",
"$. c #6D3B2A",
"%. c #723C26",
"&. c #713D2C",
"*. c #78362A",
"=. c #6A3932",
"-. c #653934",
";. c #7E3E35",
":. c #763735",
">. c #682E31",
",. c #3E570D",
"<. c #3A4E14",
"1. c #384331",
"2. c #0D5E10",
"3. c #425C0C",
"4. c #5B4415",
"5. c #4A4D19",
"6. c #6D4801",
"7. c #744D00",
"8. c #784F00",
"9. c #7E5200",
"0. c #694A1B",
"q. c #70510E",
"w. c #537708",
"e. c #48660A",
"r. c #5D462D",
"t. c #464A37",
"y. c #554435",
"u. c #5B4233",
"i. c #5C433A",
"p. c #5B493A",
"a. c #4D563C",
"s. c #654123",
"d. c #6B4423",
"f. c #63432C",
"g. c #6B4129",
"h. c #6B4A27",
"j. c #724324",
"k. c #7D4225",
"l. c #72432B",
"z. c #774926",
"x. c #634B3C",
"c. c #654837",
"v. c #794836",
"b. c #69513B",
"n. c #7A5335",
"m. c #6E6F16",
"M. c #193B44",
"N. c #172842",
"B. c #343641",
"V. c #363844",
"C. c #383A46",
"Z. c #3B3D4A",
"A. c #363B49",
"S. c #28354D",
"D. c #2C3D62",
"F. c #00464F",
"G. c #0B424C",
"H. c #104149",
"J. c #1C424C",
"K. c #004B54",
"L. c #074853",
"P. c #1A4754",
"I. c #00505A",
"U. c #0D525C",
"Y. c #1B525C",
"T. c #3E414D",
"R. c #34404D",
"E. c #2E4851",
"W. c #035E6A",
"Q. c #075864",
"!. c #195A67",
"~. c #005F70",
"^. c #01616B",
"/. c #006677",
"(. c #1C6776",
"). c #0F6B76",
"_. c #206979",
"`. c #2C4B6D",
"'. c #41434E",
"]. c #594944",
"[. c #535447",
"{. c #424553",
"}. c #484B5A",
"|. c #565252",
" X c #654A44",
".X c #694E49",
"XX c #644842",
"oX c #6B5244",
"OX c #665347",
"+X c #705349",
"@X c #545769",
"#X c #545768",
"$X c #5E6175",
"%X c #656A71",
"&X c #666A4B",
"*X c #843B19",
"=X c #822B1F",
"-X c #8A2D21",
";X c #832E25",
":X c #88372A",
">X c #9D3A2C",
",X c #94382A",
"<X c #893634",
"1X c #963636",
"2X c #912E29",
"3X c #AB3A2A",
"4X c #A63A2A",
"5X c #B33C2B",
"6X c #BA3D2A",
"7X c #A4393B",
"8X c #AE362F",
"9X c #C63E2A",
"0X c #D43F2A",
"qX c #845601",
"wX c #9A441B",
"eX c #83491A",
"rX c #A44B1C",
"tX c #966303",
"yX c #8F6009",
"uX c #834424",
"iX c #844137",
"pX c #95462D",
"aX c #AC442E",
"sX c #AC7018",
"dX c #C9412B",
"fX c #D8412A",
"gX c #C34933",
"hX c #E64229",
"jX c #965248",
"kX c #9A5449",
"lX c #8F514E",
"zX c #B64243",
"xX c #8C6A50",
"cX c #C24343",
"vX c #D64949",
"bX c #E34D4C",
"nX c #B63D42",
"mX c #638E14",
"MX c #589745",
"NX c #9FA110",
"BX c #C7CA07",
"VX c #86CB44",
"CX c #006D82",
"ZX c #087A8E",
"AX c #217689",
"SX c #385AA3",
"DX c #6D7188",
"FX c #3D68C4",
"GX c #02829B",
"HX c #008692",
"JX c #03838F",
"KX c #228499",
"LX c #028DA7",
"PX c #2395AC",
"IX c #24A2BB",
"UX c #24ABC5",
/* pixels */
"7 7 7 7 7 7 7 7 7 7 7 7 7 7 7 7 7 7 7 7 7 7 7 7 7 7 7 7 7 7 7 7 7 7 7 7 7 7 7 7 7 7 7 7 7 7 7 7 7 7 7 7 7 7 7 7 7 7 7 7 7 7 7 7 7 7 7 7 7 7 7 7 7 7 7 7 7 7 7 7 7 7 7 7 7 7 7 7 7 7 7 7 7 7 7 7 7 7 7 7 7 7 7 7 7 7 7 7 7 7 7 7 7 7 7 7 7 7 7 7 7 7 7 7 7 7 7 7 7 7 7 7 7 7 7 7 7 7 7 7 7 7 7 7 7 7 7 7 7 7 7 7 7 7 7 7 7 7 7 7 7 7 7 7 7 7 7 7 7 7 7 7 7 7 7 7 7 7 7 7 7 7 7 7 7 7 7 7 7 7 7 7 7 7 7 7 7 7 7 7 7 7 7 7 7 7 7 7 7 7 7 7 7 7 7 7 7 7 7 7 7 7 7 7 7 7 7 7 7 7 7 7 7 7 7 7 7 7 7 7 7 7 7 7 7 7 7 7 7 7 7 7 7 7 7 7 ",
"7 7 7 7 7 7 7 7 & & & 7 7 7 7 7 7 7 7 7 7 7 7 7 7 7 7 7 7 7 7 7 7 7 7 7 7 7 7 7 7 7 7 7 7 7 7 7 7 7 7 7 7 7 7 7 7 7 7 7 7 7 7 7 7 7 7 7 7 7 7 7 7 7 7 7 7 7 7 7 7 7 7 7 7 7 7 7 7 7 7 7 7 7 7 7 7 7 7 7 7 7 7 7 7 7 7 7 7 7 7 7 7 7 7 7 7 7 7 7 7 7 7 7 7 7 7 7 7 7 & & & 7 7 & 7 7 7 7 7 7 7 7 7 & 7 7 7 7 & 7 7 7 7 7 7 7 7 & 7 7 7 7 7 7 7 7 7 7 7 & 7 7 7 7 7 7 7 7 7 7 7 & & 7 & 7 7 & 7 7 7 7 7 7 7 7 & 7 7 7 & 7 7 & 7 7 7 7 7 7 7 7 7 7 7 7 7 7 7 7 7 7 7 & 7 7 7 7 7 7 & 7 7 7 7 7 7 7 7 7 7 7 & 7 7 7 7 7 7 7 7 7 7 & ",
"$ & 7 7 7 7 & & t i a 8 & 7 7 7 7 7 7 7 7 7 7 7 7 7 7 7 7 7 7 7 7 7 7 7 7 7 7 7 7 7 7 7 7 7 7 7 7 7 7 7 7 7 7 7 7 7 7 7 7 7 7 7 7 7 7 7 7 7 7 7 7 7 7 7 7 7 7 7 7 7 7 7 7 7 7 7 7 7 7 7 7 7 7 7 7 7 7 7 7 7 7 7 7 7 7 7 7 7 7 7 7 7 7 7 7 7 7 7 7 7 7 7 7 7 7 7 7 7 c x c x 7 c 7 & 7 7 7 7 7 7 7 N 7 7 7 r c & x r 7 & 7 7 7 N 7 7 7 7 7 7 7 7 x % 7 c & 7 7 7 7 7 7 7 7 7 r c c r N x r x % 7 & 7 x r x 7 N 7 & x B 7 7 x 7 7 7 7 7 7 7 x 7 7 7 7 7 7 7 7 7 7 & x & 7 7 7 7 % x 7 7 7 x 7 7 7 7 7 7 7 y 7 & y y & 7 7 7 7 7 y ",
"g f $ 7 7 & y P.Y.MXMXY.M.y & 7 7 7 7 7 7 7 7 7 7 7 7 7 7 7 7 7 7 7 7 7 7 7 7 7 7 7 7 7 7 7 7 7 7 7 7 7 7 7 7 7 7 7 7 7 7 7 7 7 7 7 7 7 7 7 7 7 7 7 7 7 7 7 7 7 7 7 7 7 7 7 7 7 7 7 7 7 7 7 7 7 7 7 7 7 7 7 7 7 7 7 7 7 7 7 7 7 7 7 7 7 7 7 & c DX% @X}.}.x }.Z.T.% @X%X{.$XG $X$Xx C.@X7 DXN {.{.$X#Xx # }.$XT.$XB.$XB.{.C #X#XB @ {.@X& DXB #X$XC.}.$X}.B }.N }.{.B.@ C.@Xx %X@X}.$XG @X$X{.# c $XT.}.}.Z.$X#Xx $X}.B $X}.}.C C.B.C $X7 $XC %XN }.& B DX# $XV.}.$X{.T.@XD T.'.$X#X7 & G x * P.!.7 AXM.(.!.g (.!.M.AX& (.P.!.Y.",
"IXPX!.& 7 t Y.VXVXmXMXVXVXP.y & 7 7 7 7 7 7 7 7 7 7 7 7 7 7 7 7 7 7 7 7 7 7 7 7 7 7 7 7 7 7 7 7 7 7 7 7 7 7 7 7 7 7 7 7 7 7 7 7 7 7 7 7 7 7 7 7 7 7 7 7 7 7 7 7 7 7 7 7 7 7 7 7 7 7 7 7 7 7 7 7 7 7 7 7 7 7 7 7 7 7 7 7 7 7 7 7 7 7 7 7 7 7 & c DXC.DX}.#X7 #X{.{.. C }.7 #XD $X$Xc @XDXC DX#X}.#XN {.{.o @X$X{.}.C $X$X}.#X{.Z.T.@ {.DXZ.DX}.}.# $X@X7 }.}.}.x #X}.G . @XDX7 {.B.Z.$XC @X% $Xx r $XG C.Z.{.B {.}.$XZ.}.{.X }.$X%XB.}.DXB #XN DX#X#X7 B DXV.DX}.@X. @X#X%X}.}.$Xo @XB.# G x * P.AXJ.AXJ._._.M.(.(.J.AXM.AXP.!.M.",
"KXIXIXg % Y.VXMXr 5 5 < MX_.P.7 7 7 7 7 7 7 7 7 7 7 7 7 7 7 7 7 7 7 7 7 7 7 7 7 7 7 7 7 7 7 7 7 7 7 7 7 7 7 7 7 7 7 7 7 7 7 7 7 7 7 7 7 7 7 7 7 7 7 7 7 7 7 7 7 7 7 7 7 7 7 7 7 7 7 7 7 7 7 7 7 7 7 7 7 7 7 7 7 7 7 7 7 7 7 7 7 7 7 7 7 7 7 % B @X$X$X{.@X{.#XZ.@Xr G #Xc $XB.$X@X}.$X$X$X{.#X%X}.}.@XB.@ @XDXT.@XV.}.T.DXT.#X}.@X. {.$X$X#X{.@XZ.#X@X{.@XB.@X{.}.}.}.D %X$X{.{.C.{.@XN $XT.$X7 7 V.%X#X}.}.}.@XC.$XG {.@Xx }.T.}.}.$X$X@X@XG }.}.DX@ G $X$X@X{.@XV.@X}.Z.DX}.@XV.$XB # G x * P.(._.!.P.!.(.J._.(.J.!._.(.P.f AX",
"7 KXUXj h MXmXO 7 7 y J.5 AX!.f & 7 7 7 7 7 7 7 7 7 7 7 7 7 7 7 7 7 7 7 7 7 7 7 7 7 7 7 7 7 7 7 7 7 7 7 7 7 7 7 7 7 7 7 7 7 7 7 7 7 7 7 7 7 7 7 7 7 7 7 7 7 7 7 7 7 7 7 7 7 7 7 7 7 7 7 7 7 7 7 7 7 7 7 7 7 7 7 7 7 7 7 7 7 7 7 7 7 7 7 7 7 7 x G B.G B B #XN c #XC.x G N }.c }.Z.D B & '.D x Z.D #XV.& 7 B.x Z.}.D G 7 {.7 Z.}.C # C G B.G z C.}.x B.#XG # C.}.r G #X{.B 7 B.C N B #XG T.#XN % x }.B.C.Z.C #XC.% {.}.r {.{.G c N C.D # '.}.B G z {.% c G B.G N C #XB B c G D c #XB.& 7 C r $ j j M.j g Y.J.y j f J.j M.j j P.J.",
"* AXUXj j AXAXJ.7 & g M.* P.AXM.& 7 7 7 7 7 7 7 7 7 7 7 7 7 7 7 7 7 7 7 7 7 7 7 7 7 7 7 7 7 7 7 7 7 7 7 7 7 7 7 7 7 7 7 7 7 7 7 7 7 7 7 7 7 7 7 7 7 7 7 7 7 7 7 7 7 7 7 7 7 7 7 7 7 7 7 7 7 7 7 7 7 7 7 7 7 7 7 7 7 7 7 7 7 7 7 7 7 7 7 7 7 7 7 % % % & & @ & 7 @ % 7 % 7 # 7 # # % & 7 # & 7 # & @ # 7 7 % 7 # # & % 7 # 7 # @ & 7 & % % % 7 # @ 7 % @ % 7 # @ 7 % @ # & 7 % & & & @ & # @ & 7 7 # % % # & @ # 7 # # 7 # # % 7 & # & 7 # # & % 7 # 7 7 % % % 7 & @ & & 7 % & & @ % 7 7 7 7 7 & & $ & & $ $ 7 & & $ & $ & & $ $ ",
"AXPXIXj * M.IXKX$ r 7 & $ J.KXM.& 7 7 7 7 7 7 7 7 7 7 7 7 7 7 7 7 7 7 7 7 7 7 7 7 7 7 7 7 7 7 7 7 7 7 7 7 7 7 7 7 7 7 7 7 7 7 7 7 7 7 7 7 7 7 7 7 7 7 7 7 7 7 7 7 7 7 7 7 7 7 7 7 7 7 7 7 7 7 7 7 7 7 7 7 7 7 7 7 7 7 7 7 7 7 7 7 7 7 7 7 7 7 7 7 7 7 7 7 7 7 7 7 7 7 7 7 7 7 7 7 7 7 7 7 7 7 7 7 7 7 7 7 7 7 7 7 7 7 7 7 7 7 7 7 7 7 7 7 7 7 7 7 7 7 7 7 7 7 7 7 7 7 7 7 7 7 7 7 7 7 7 7 7 7 7 7 7 7 7 7 7 7 7 7 7 7 7 7 7 7 7 7 7 7 7 7 7 7 7 7 7 7 7 7 7 7 $ 7 7 7 7 7 7 7 7 7 7 7 7 7 7 7 7 7 7 7 7 7 7 7 7 7 7 7 7 7 7 7 7 ",
"UXIX_.* P.UXIXPXg * & r * !.(.j & 7 7 7 7 7 7 7 7 7 7 7 7 7 7 7 7 7 7 7 7 7 7 7 7 7 7 7 7 7 7 7 7 7 7 7 7 7 7 7 7 7 7 7 7 7 7 7 7 7 7 7 7 7 7 7 7 7 7 7 7 7 7 7 7 7 7 7 7 7 7 7 7 7 7 7 7 7 7 7 7 7 7 7 7 7 7 7 7 7 7 7 7 7 7 7 7 7 7 7 7 7 7 & 7 7 7 7 7 7 7 7 7 7 7 7 7 7 7 7 7 7 7 7 7 7 7 7 7 & 7 7 7 7 7 7 7 7 & % 7 7 & 7 7 7 7 7 7 7 7 7 & 7 7 7 7 7 7 7 7 7 7 7 7 7 7 7 7 7 7 7 7 7 7 7 7 7 & 7 7 7 7 7 7 7 7 7 7 7 7 7 7 > 7 7 7 7 7 7 7 7 7 7 7 7 t k y 7 7 7 7 7 7 7 7 7 7 7 & & & 7 7 % 7 & & 7 7 % 7 7 & 7 7 7 7 7 ",
"J.M.7 & f J.!.UXPX!.M.* y KX!.y & 7 7 7 7 7 7 7 7 7 7 7 7 7 7 7 7 7 7 7 7 7 7 7 7 7 7 7 7 7 7 7 7 7 7 7 7 7 7 7 7 7 7 7 7 7 7 7 7 7 7 7 7 7 7 7 7 7 7 7 7 7 7 7 7 7 7 7 7 7 7 7 7 7 7 7 7 7 7 7 7 7 7 7 7 7 7 7 7 7 7 7 7 7 7 7 7 7 7 7 7 7 & f y 7 7 7 7 7 7 7 7 7 7 7 7 7 7 7 7 7 7 7 7 7 7 7 & D C.r 7 c B.7 7 7 N B.r 7 x 7 7 z r 7 r x 7 7 G c 7 7 7 7 7 7 7 7 7 7 7 7 7 7 7 7 7 7 7 7 7 7 7 r f & 7 7 7 7 7 7 7 7 7 7 7 8 , 2.7 7 7 7 & $ $ & 7 7 7 $ U.^.Q.& 7 7 7 7 7 7 7 7 7 & M.J.J.j & T.7 G G C.C Z.c B G x C x 7 7 ",
"$ $ 7 7 $ r PXKXPXUXKXg AX!.M.& 7 7 7 7 7 7 7 7 7 7 7 7 7 7 7 7 7 7 7 7 7 7 7 7 7 7 7 7 7 7 7 7 7 7 7 7 7 7 7 7 7 7 7 7 7 7 7 7 7 7 7 7 7 7 7 7 7 7 7 7 7 7 7 7 7 7 7 7 7 7 7 7 7 7 7 7 7 7 7 7 7 7 7 7 7 7 7 7 7 7 7 7 7 7 7 7 7 7 7 7 7 & f J.7 7 7 7 7 7 7 7 7 7 7 7 7 7 7 7 7 7 7 7 7 7 7 7 % Z.G B }.{.Z.{.{.Z.G }.7 C {.V.{.V.{.{.{.C '.{.}.C & 7 7 7 7 7 7 7 7 7 7 7 7 7 7 7 7 7 7 7 7 7 7 7 M.j & 7 7 7 7 7 7 7 7 7 7 8 2.2., 8 7 & M.U.U.).d & 7 $ U.Q.Q.7 7 7 7 7 7 7 7 7 7 & J.!.!.M.$ #XC {.Z.{.B {.{.G '.x V.N & 7 ",
"7 7 7 7 7 y !.y PXAX_._._.M.7 7 7 7 7 7 7 7 7 7 7 7 7 7 7 7 7 7 7 7 7 7 7 7 7 7 7 7 7 7 7 7 7 7 7 7 7 7 7 7 7 7 7 7 7 7 7 7 7 7 7 7 7 7 7 7 7 7 7 7 7 7 7 7 7 7 7 7 7 7 7 7 7 7 7 7 7 7 7 7 7 7 7 7 7 7 7 7 7 7 7 7 7 7 7 7 7 7 7 7 7 7 7 7 y J.7 7 7 7 7 7 7 7 7 7 7 7 7 7 7 7 7 7 7 7 7 7 7 7 7 7 Z.}.T.B.}.{.V.{.7 T.# G B.Z.T.C }.D G {.}.G T.x 7 7 7 7 7 7 7 7 7 7 7 7 7 7 7 7 7 7 7 7 7 7 7 7 M.g & 7 7 7 7 7 7 7 7 7 7 > 2.2.2.8 7 7 f k k L.t 7 7 $ U.Q.Q.7 7 7 7 7 7 7 7 7 7 & J.!.!.M.7 Z.}.{.V.{.c V.V.}.C.B Z.x 7 & ",
"7 7 7 7 7 7 * 7 AXj M.!.g 7 7 7 7 7 7 7 7 7 7 7 7 7 7 7 7 7 7 7 7 7 7 7 7 7 7 7 7 7 7 7 7 7 7 7 7 7 7 7 7 7 7 7 7 7 7 7 7 7 7 7 7 7 7 7 7 7 7 7 7 7 7 7 7 7 7 7 7 7 7 7 7 7 7 7 7 7 7 7 7 7 7 7 7 7 7 7 7 7 7 7 7 7 7 7 7 7 7 7 7 7 7 7 7 7 & y y 7 7 7 7 7 7 7 7 7 7 7 7 7 7 7 7 7 7 7 7 7 7 7 7 C V.c B.B B G B D G B.x C }.B B 7 B.C G G D D C D & 7 7 7 7 7 7 7 7 7 7 7 7 7 7 7 7 7 7 7 7 7 7 r t & 7 7 7 7 7 7 7 7 7 7 7 r > 8 , 7 7 7 & $ $ $ 7 7 7 7 f M.t 7 7 7 7 7 7 7 7 7 7 7 j M.M.g 7 B D B N C.G C 7 V.x C.G 7 7 7 ",
"7 7 7 7 7 7 7 7 $ 7 7 7 & 7 7 7 7 7 7 7 7 7 7 7 7 7 7 7 7 7 7 7 7 7 7 7 7 7 7 7 7 7 7 7 7 7 7 7 7 7 7 7 7 7 7 7 7 7 7 7 7 7 7 7 7 7 7 7 7 7 7 7 7 7 7 7 7 7 7 7 7 7 7 7 7 7 7 7 7 7 7 7 7 7 7 7 7 7 7 7 7 7 7 7 7 7 7 7 7 7 7 7 7 7 7 7 7 7 7 7 7 7 7 7 7 7 7 7 7 7 7 7 7 7 7 7 7 7 7 7 7 7 7 7 7 7 & 7 & 7 & & 7 & 7 7 % C B # 7 7 & 7 7 & & 7 & 7 7 7 7 7 7 7 7 7 7 7 7 7 7 7 7 7 7 7 7 7 7 7 7 7 7 7 7 7 7 7 7 7 7 7 7 7 7 7 7 7 8 7 7 7 7 7 7 7 7 7 7 7 & $ 7 7 7 7 7 7 7 7 7 7 7 7 & $ $ 7 7 7 & 7 7 & 7 7 7 % 7 & & 7 7 7 ",
"& & & & & & & 7 7 7 7 7 7 7 & & & & & & & & & & & & & & & & & & & & & & & & & & & & & & & & & & & & & & & & & & & & & & & & & & & & & & & & & & & & & & & & & & & & & & & & & & & & & & & & & & & & & & & & & & & & & & & & & & & & & & & & & 7 7 & & & & & & & & & & & & & & & & & & & & & & & & 7 7 7 7 7 7 7 7 7 7 7 7 & 7 7 7 7 7 7 7 7 7 7 7 7 & & & & & & & & & & & & & & & & & & & & & & & 7 7 & & & & & & & & & & & & & & & & & & & & & & & & & & & 7 7 7 & & & & & & & & & & & 7 7 7 7 & 7 7 7 7 7 7 7 7 7 7 7 7 & & & ",
"c c c c c c c c c c c c c c c c c c c c c c c c c c c c c c c c c c c c c c c c c c c c c c c c c c c c c c c c c c c c c c c c c c c c c c c c c c c c c c c c c c c c c c c c c c c c c c c c c c c c c c c c c c c c c c c c c c c c c c c c c c c c c c c c c c c c c c c c c c c c c c c c c c c c c c c c c c c c c c c c c c c c c c c c c c c c c c c c c c c c c c c c c c c c c c c c c c c c c c c c c c c c c c c c c c c c c c c c c c c c c c c c c c c c c c c c c c c c c c c c c c c c c c c c c c c c c c c c ",
"B B B B B B B B B B B B B B B B B B B B B B B B B B B B B B B B B B B B B B B B B B B B B B B B B B B B B B B B B B B B B B B B B B B B B B B B B B B B B B B B B B B B B B B B B B B B B B B B B B B B B B B B B B B B B B B B B B B B B B B B B B B B B B B B B B B B B B B B B B B B B B B B B B B B B B B B B B B B B B B B B B B B B B B B B B B B B B B B B B B B B B B B B B B B B B B B B B B B B B B B B B B B B B B B B B B B B B B B B B B B B B B B B B B B B B B B B B N N N N N N N N N N N N N N N N N N N N N N ",
"& 7 7 & & & 7 & & & & & & & & & & & & & & & & & & & & & & & & & & & & & & & & & & & & & & & & & & & & & & & & & & & & & & & & & & & & & & & & & & & & & & & & & & & & & & & & & & & & & & & & & & & & & & & & & & & & & & & & & & & & & & & & & & & & & & & & & & & & & & & & & & & & & & & & & & & & & & & & & & & & & & & & & & & & & & & & & & & & & & & & & & & & & & & & & & & & & & & & & & & & % & % % & & & & & & & & 7 & & & & & & & & & 7 & 7 & & & & & & 7 & & & & & & 7 x x x x x x x x x x x x x x x x x x x x x x ",
"7 & & 7 7 7 % 7 7 7 7 7 7 7 7 7 7 7 7 7 7 7 7 7 7 7 7 7 7 7 7 7 7 7 7 7 7 7 7 7 7 7 7 7 7 7 7 7 7 7 7 7 7 7 7 7 7 7 7 7 7 7 7 7 7 7 7 7 7 7 7 7 7 7 7 7 7 7 7 7 7 7 7 7 7 7 7 7 7 7 7 7 7 7 7 7 7 7 7 7 7 7 7 7 7 7 7 7 7 7 7 7 7 7 7 7 7 7 7 7 7 7 7 7 7 7 7 7 7 7 7 7 7 7 7 7 7 7 7 7 7 7 7 7 7 7 7 7 7 7 7 7 7 7 7 7 7 7 7 7 7 7 7 7 7 7 7 7 7 7 7 7 7 7 7 7 7 7 7 7 7 7 7 7 7 7 7 7 7 7 7 7 7 7 7 x 7 z x 7 7 7 7 7 7 7 7 & 7 7 7 7 7 7 7 7 7 & 7 % 7 7 7 7 7 7 % 7 7 7 7 7 7 c T.Z.Z.Z.T.T.T.T.T.Z.T.Z.Z.Z.T.Z.B B B B B B ",
"N B B 7 N z G c z r z 7 7 7 7 7 7 7 7 7 7 7 7 7 7 7 7 7 7 7 7 7 7 7 7 7 7 7 7 7 7 7 7 7 7 7 7 7 7 7 7 7 7 7 7 7 7 7 7 7 7 7 7 7 7 7 7 7 7 7 7 7 7 7 7 7 7 7 7 7 7 7 7 7 7 7 7 7 7 7 7 7 7 7 7 7 7 7 7 7 7 7 7 7 7 7 7 7 7 7 7 7 7 7 7 7 7 7 7 7 7 7 7 7 7 7 7 7 7 7 7 7 7 7 7 7 7 7 7 7 7 7 7 7 7 7 7 7 7 7 7 7 7 7 7 7 7 7 7 7 7 7 7 7 7 7 7 7 7 7 7 7 7 7 7 7 7 7 7 7 7 7 7 7 7 7 7 7 7 7 7 7 7 & x {.$X}.C.7 7 7 7 7 7 7 7 C 7 & 7 7 7 7 7 7 x C r G x 7 7 7 7 x G r & 7 r 7 & x Z.Z.}.{.Z.C.C.C.C.Z.C.}.Z.Z.Z.V.& & & & & & ",
"N {.T.C {.C {.Z.V.C.B & 7 7 7 7 7 7 7 7 7 7 7 7 7 7 7 7 7 7 7 7 7 7 7 7 7 7 7 7 7 7 7 7 7 7 7 7 7 7 7 7 7 7 7 7 7 7 7 7 7 7 7 7 7 7 7 7 7 7 7 7 7 7 7 7 7 7 7 7 7 7 7 7 7 7 7 7 7 7 7 7 7 7 7 7 7 7 7 7 7 7 7 7 7 7 7 7 7 7 7 7 7 7 7 7 7 7 7 7 7 7 7 7 7 7 7 7 7 7 7 7 7 7 7 7 7 7 7 7 7 7 7 7 7 7 7 7 7 7 7 7 7 7 7 7 7 7 7 7 7 7 7 7 7 7 7 7 7 7 7 7 7 7 7 7 7 7 7 7 7 7 7 7 7 7 7 7 7 7 7 7 7 & x $XC {.{.7 7 7 7 7 7 7 7 C.G Z.x 7 7 7 7 % C.G B.C 7 7 7 7 7 C.B Z.B N {.B % c Z.{.$X{.}.#X#X#X#X{.#X@XZ.Z.Z.V.7 7 7 7 7 7 ",
"Z.{.Z.C.{.{.V.c T.Z.B & 7 7 7 7 7 7 7 7 7 7 7 7 7 7 7 7 7 7 7 7 7 7 7 7 7 7 7 7 7 7 7 7 7 7 7 7 7 7 7 7 7 7 7 7 7 7 7 7 7 7 7 7 7 7 7 7 7 7 7 7 7 7 7 7 7 7 7 7 7 7 7 7 7 7 7 7 7 7 7 7 7 7 7 7 7 7 7 7 7 7 7 7 7 7 7 7 7 7 7 7 7 7 7 7 7 7 7 7 7 7 7 7 7 7 7 7 7 7 7 7 7 7 7 7 7 7 7 7 7 7 7 7 7 7 7 7 7 7 7 7 7 7 7 7 7 7 7 7 7 7 7 7 7 7 7 7 7 7 7 7 7 7 7 7 7 7 7 7 7 7 7 7 7 7 7 7 7 7 7 7 7 & x $XC @X@X& 7 7 7 7 7 7 7 V.C.V.C % 7 7 7 7 z Z.{.x 7 7 7 7 7 Z.z '.V.C.'.x % x Z.Z.}.$X$X#X@X#X#X@X$X@XZ.Z.Z.B.7 7 7 7 7 7 ",
"B.N B G 7 V.r 7 N x x 7 7 7 7 7 7 7 7 7 7 7 7 7 7 7 7 7 7 7 7 7 7 7 7 7 7 7 7 7 7 7 7 7 7 7 7 7 7 7 7 7 7 7 7 7 7 7 7 7 7 7 7 7 7 7 7 7 7 7 7 7 7 7 7 7 7 7 7 7 7 7 7 7 7 7 7 7 7 7 7 7 7 7 7 7 7 7 7 7 7 7 7 7 7 7 7 7 7 7 7 7 7 7 7 7 7 7 7 7 7 7 7 7 7 7 7 7 7 7 7 7 7 7 7 7 7 7 7 7 7 7 7 7 7 7 7 7 7 7 7 7 7 7 7 7 7 7 7 7 7 7 7 7 7 7 7 7 7 7 7 7 7 7 7 7 7 7 7 7 7 7 7 7 7 7 7 7 7 7 7 7 7 & c '.}.DXDX% 7 7 7 7 7 7 7 B.B N x 7 7 7 7 7 N G N C.x 7 7 7 & B Z.x G B.C B % x Z.T.#X}.}.@X@X{.}.#X#X}.Z.Z.T.B 7 7 7 7 7 7 ",
"# % % # & # & & % & % & & & & & & & & & & & & & & & & & & & & & & & & & & & & & & & & & & & & & & & & & & & & & & & & & & & & & & & & & & & & & & & & & & & & & & & & & & & & & & & & & & & & & & & & & & & & & & & & & & & & & & & & & & & & & & & & & & & & & & & & & & & & & & & & & & & & & & & & & & & & & & & & & & & & & & & & & & & & & & & & & & & & & & & & & & & & & & & & 7 7 7 7 7 7 7 7 c r r x 7 7 7 7 7 7 7 7 & 7 7 7 7 7 7 7 7 7 & & & 7 7 7 7 7 & & 7 & & & 7 7 x Z.Z.Z.C.Z.#X{.C.Z.C.C.C.Z.Z.C 7 7 7 7 7 7 7 ",
"B B B B B C B B B B B B B B N B B B B B B B B B B B B B B B B B B B B B B B B B B B B B B B B B B B B B B B B B B B B B B B B B B B B B B B B B B B B B B B B B B B B B B B B B B B B B B B B B B B B B B B B B B B B B B B B B B B B B B B B B B B B B B B B B B B B B B B B B B B B B B B B B B B B B B B B B B B B B B B B B B B B B B B B B B B B B B B B B B B B B B B B B B B N 7 7 7 7 7 7 7 7 7 B B 7 7 7 7 7 7 7 7 7 7 7 7 7 7 7 7 7 7 7 7 7 7 7 7 7 7 7 7 7 7 7 7 7 7 & c C r x x x r z x x x x x x 7 7 7 7 7 7 7 7 7 ",
"c c c c c c c c c x c c x n Q A n c c x A n x c c c x x c c c x c c c x c c x c c x c c c c c c c c x x c c c c c c c x c c c c c c c c c c x c c c c c c c c c c c c c x c c c c c x c x c c c x c c x c c x c c c c c c c c c c c c c c c c c c c c c c c c c c c c x c c c c c c c x c c c c c x c c c c x c c c x c c x c c x c c x c c c c c c c c c c c c c c c c c c x c c c N G r 7 7 7 7 7 7 G c B B & 7 7 7 7 7 0 q 0 0 0 0 q 7 7 7 0 q 0 0 0 q 0 7 7 7 0 0 0 0 0 q 0 & c N % 7 7 7 7 7 7 7 7 7 7 7 7 7 7 7 7 7 7 7 7 ",
"x x x x x x x x x c z x t  .+.x n c x t !  .t x x y 2 m v v z c x x x c x x c x x N z x x x x x x y v 1 z v x x x x x c x x x x x x x x x x c x x x x x x x x z x x x x c z x x x x M.f M M y x c x x c x z N x x x x x x x x x x x x x x x x x x x z x x x x x x x x c x x x x x x x c x x x x x c x x x x c z x x c x x c x z c x z N x x x x x x x x x x x x x x x x x x c z x x r x C 7 7 7 7 7 7 D 7 x B & 7 7 7 7 7 q ; ; ; ; ; ; 0 7 7 ; ; ; ; ; ; ; 7 7 0 ; ; ; ; ; ; q & c B & 7 7 7 7 7 7 7 7 7 7 7 7 7 7 7 7 7 7 7 7 ",
"7 7 7 7 7 7 7 7 7 x 7 7 4  .Q + r r 7 6 !  .t 7 7 6 L L < < & x 7 7 7 x 7 7 x 7 7 x & 7 7 7 7 7 7 8 < 1 > > r 7 7 7 7 x 7 7 7 7 7 7 7 7 7 7 x 7 7 7 7 7 7 r x 7 7 7 7 7 x 7 7 7 r x G.a f y 7 7 x 7 7 x 7 & c 7 7 7 7 7 7 7 7 7 7 7 7 7 7 7 7 7 r x 7 7 7 7 7 7 7 7 7 x 7 7 7 7 7 7 7 x 7 7 7 7 7 x 7 7 7 7 x 7 7 7 x 7 7 x 7 & x 7 & c 7 7 7 7 7 7 7 7 7 7 7 7 7 7 7 7 7 7 x 7 7 7 7 7 D 7 7 7 7 7 7 D 7 x B & 7 7 7 7 7 q ; ; ; ; ; ; 0 7 7 - ; ; ; ; ; - 7 7 7 ; ; ; ; ; ; q & c B & 7 7 7 7 7 7 & * 7 7 7 $ $ 7 7 7 7 7 & * ",
"7 7 7 7 7 7 7 7 r x 7 7 4  .! 4 x r 6 4 Q  .t 0 7 6 L 2 z < & x 7 6 7 c 4 6 x 7 r x 7 7 7 7 7 7 7 8 < 1 r < r 7 7 7 7 x 7 7 7 7 7 7 7 7 7 7 x 7 7 7 7 7 7 z x 7 7 7 7 7 x 7 7 7 z x G.d f y 7 7 x 7 7 x 7 7 c 7 7 7 7 7 7 7 7 7 7 7 7 7 7 7 7 7 z x 7 7 7 7 7 7 7 7 7 x 7 7 7 7 7 7 7 x 7 7 7 7 7 x 7 7 7 r x 7 7 7 x 7 7 x 7 7 x r 7 c 7 7 7 7 7 7 7 7 7 7 7 7 7 7 7 7 7 r x 7 7 7 7 7 D 7 7 7 7 7 7 G D G B & 7 7 7 7 7 q ; ; ; ; ; ; 0 7 7 - ; ; ; ; ; - 7 7 0 ; ; ; ; ; ; q & c B & 7 7 7 7 7 $ y !.AXAXKX!.j $ 7 7 7 $ k ).",
"7 7 7 7 7 7 7 7 7 x 7 7 4  .Q 6 x v W n @. .t 0 7 6 L L < < & x 7 q ,X>X .W c 7 r x 7 7 7 7 7 7 7 8 < 1 r > r 7 7 7 7 x 7 7 7 7 7 7 7 7 7 7 x 7 7 7 7 7 7 z x 7 7 7 7 7 x 7 7 7 z x G.a f y 7 7 x 7 7 x 7 7 c 7 7 7 7 7 7 7 7 7 7 7 7 7 7 7 7 7 z x 7 7 7 7 7 7 7 7 7 x 7 7 7 7 7 7 7 x 7 7 7 7 7 x 7 7 7 r x 7 7 7 x 7 7 x 7 7 x r & c 7 7 7 7 7 7 7 7 7 7 7 7 7 7 7 7 7 r x 7 7 7 7 7 D 7 7 7 7 7 7 D z N B & 7 7 7 7 7 q ; ; ; ; ; ; 0 7 7 - ; ; ; ; ; - 7 7 0 ; ; ; ; ; ; q & c B & 7 7 7 7 * J.AXPXKX!.AXPX(.Y.7 7 7 * H.LX",
"7 7 7 7 7 7 7 7 7 x 7 7 4  .W 4 y n .._ *. .t 0 7 6 L L < < & x 6 W ;Xc | >X_ 6 z x 7 7 7 7 7 7 7 8 < 1 r > r 7 7 7 7 x 7 7 7 7 7 7 7 7 7 7 x 7 7 7 7 7 7 z x 7 7 7 7 7 x 7 7 7 z x G.a f y 7 7 x 7 7 x 7 7 c 7 7 7 7 7 7 7 7 7 7 7 7 7 7 7 7 7 z x 7 7 7 7 7 7 7 7 7 x 7 7 7 7 7 7 7 x 7 7 7 7 7 x 7 7 7 r x 7 7 7 x 7 7 x 7 7 x r & c 7 7 7 7 7 7 7 7 7 7 7 7 7 7 7 7 7 r x 7 7 7 7 7 D 7 7 7 7 7 7 D 7 x B & 7 7 7 7 7 q ; ; ; ; ; ; 0 7 7 - ; ; ; ; ; - 7 7 0 ; ; ; ; ; ; q & c B & 7 7 7 $ J.PXKXa @ . . # P.AX!.7 7 $ H.ZX",
"7 7 7 7 7 7 7 7 7 x 7 7 4  .+.b W _ ^ _ *.;Xt 0 7 6 L L < < & x 4 W  .t 4 ! @.4 z x 7 7 7 7 7 7 7 8 < 1 r > r 7 7 7 7 x 7 7 7 7 7 7 7 7 7 7 x 7 7 7 7 7 7 z x 7 7 7 7 7 x 7 7 7 z x G.a f y 7 7 x 7 7 x 7 7 c 7 7 7 7 7 7 7 7 7 7 7 7 7 7 7 7 7 z x 7 7 7 7 7 7 7 7 7 x 7 7 7 7 7 7 7 x 7 7 7 7 7 x 7 7 7 r x 7 7 7 x 7 7 x 7 7 x r & c 7 7 7 7 7 7 7 7 7 7 7 7 7 7 7 7 7 r x 7 7 7 7 7 D 7 7 7 7 7 7 D 7 x B & 7 7 7 7 7 q ; ; ; ; ; ; 0 7 7 - ; ; ; ; ; - 7 7 0 ; ; ; ; ; ; q & c B & 7 7 & y AXKX6 X 7 N % . . P.(.M.7 $ H.JX",
"7 7 7 7 7 7 7 7 7 x 7 7 4  .*._ #.( ^ _ *.;Xt 0 7 6 L L < < & x Q 2X| y 6 ! *.4 z x 7 6 7 7 7 7 7 8 < 1 r > r 7 7 7 7 x 7 7 7 7 7 7 7 7 7 7 x 7 7 7 7 7 7 z x 7 7 7 7 7 x 7 7 7 z x G.a f y 7 7 x 7 7 x 7 7 c 7 7 7 7 7 7 7 7 7 7 7 7 7 7 7 7 7 z x 7 7 7 7 7 7 7 7 7 x 7 7 7 7 7 7 7 x 7 7 7 7 7 x 7 7 7 r x 7 7 7 x 7 7 x 7 7 x r & c 7 7 7 7 7 7 7 7 7 7 7 7 7 7 7 7 7 r x 7 7 7 7 7 D 7 7 7 7 7 7 D 7 x B & 7 7 7 7 7 q ; ; ; ; ; ; 0 7 7 - ; ; ; ; ; - 7 7 0 ; ; ; ; ; ; q & c B & 7 7 $ J.IXM.X c B.G z G # = (.!.& $ H.ZX",
"7 7 7 7 7 7 7 7 7 x 7 7 4  .*.! ( ( ^ _ $.-Xy z 7 6 L L < < & n 4X! b x 6 b 3X .7 c 7 b 7 7 7 7 7 8 < 1 r > r 7 7 7 7 x 7 7 7 7 7 7 7 7 7 7 x 7 7 7 7 7 7 z x 7 7 7 7 7 x 7 7 7 z x G.a f y 7 7 x 7 7 x 7 7 c 7 7 7 7 7 7 7 7 7 7 7 7 7 7 7 7 7 z x 7 7 7 7 7 7 7 7 7 x 7 7 7 7 7 7 7 x 7 7 7 7 7 x 7 7 7 r x 7 7 7 x 7 7 x 7 7 x r & c 7 7 7 7 7 7 7 7 7 7 7 7 7 7 7 7 7 r x 7 7 7 7 7 D 7 7 7 7 7 7 D 7 x B & 7 7 7 7 7 q ; ; ; ; ; ; 0 7 7 - ; ; ; ; ; - 7 7 0 ; ; ; ; ; ; q & c B & 7 7 $ (.PX6 @ D G B c C.B . Y.(.y * H.LX",
"7 7 7 7 7 7 7 7 7 x 7 7 6 ;X*.! ( ( ^ _ $.;Xi 6 6 8 L L < < & Q ;X4 7 x 7 7 c ,Xb i Q 9X! 6 7 7 7 8 < 1 r > r 7 7 7 7 x 7 7 7 7 7 7 7 7 7 7 x 7 7 7 7 7 7 z x 7 7 7 7 7 x 7 7 7 z x G.a f y 7 7 x 7 7 x 7 7 c 7 7 7 7 7 7 7 7 7 7 7 7 7 7 7 7 7 z x 7 7 7 7 7 7 7 7 7 x 7 7 7 7 7 7 7 x 7 7 7 7 7 x 7 7 7 r x 7 7 7 x 7 7 x 7 7 x r & c 7 7 7 7 7 7 7 7 7 7 7 7 7 7 7 7 7 r x 7 7 7 7 7 D 7 7 7 7 7 7 D 7 x B & 7 7 7 7 7 q ; ; ; ; ; ; 0 7 7 - ; ; ; ; ; - 7 7 0 ; ; ; ; ; ; q & c B & 7 7 $ (.AX. & C C G G B.D . M.(.t $ d ).",
"7 7 7 7 7 7 7 7 7 x 7 7 6 ;X*.! ( ( ^ _ @.3X*. .W 5 L 2 < < % Q  .6 v A 7 7 y ;Xb n 2X .| 4 0 7 7 8 < 1 r > r 7 7 7 7 x 7 7 7 7 7 7 7 7 7 7 x 7 7 7 7 7 7 z x 7 7 7 7 7 x 7 7 7 z x G.a f t 7 7 x 7 7 x 7 7 c 7 7 7 7 7 7 7 7 7 7 7 7 7 7 7 7 7 z x 7 7 7 7 7 7 7 7 7 x 7 7 7 7 7 7 7 x 7 7 7 7 7 x 7 7 7 r x 7 7 7 x 7 7 x 7 7 x r & c 7 7 7 7 7 7 7 7 7 7 7 7 7 7 7 7 7 r x 7 7 7 7 7 D 7 7 7 7 7 7 D 7 x B & 7 7 7 7 7 q ; ; ; ; ; ; 0 7 7 - ; ; ; ; ; - 7 7 0 ; ; ; ; ; ; q & c B & 7 7 $ (.PX% @ C C D D G N . Y.(.y 7 7 * ",
"7 7 7 7 7 7 7 7 7 x 7 7 6 ;X*.! ( ( ! ( ( ! !  .:X4 L L < < b  . .4 ! #.Q n y ;XW 4X! W 2X| 5Xn 4 8 < 1 r > r 7 7 7 7 x 7 7 7 7 7 7 7 7 7 7 x 7 7 7 7 7 7 z x 7 7 7 7 7 x 7 7 7 z x G.a M *.0 7 x 7 7 x 7 7 c 7 7 7 7 7 7 7 7 7 7 7 7 7 7 7 7 7 z x 7 7 7 7 7 7 7 7 7 x 7 7 7 7 7 7 7 x 7 7 7 7 7 x 7 7 7 r x 7 7 7 x 7 7 x 7 7 x r & c 7 7 7 7 7 7 7 7 7 7 7 7 7 7 7 7 7 r x 7 7 7 7 7 D 7 7 7 7 7 7 D 7 x B & 7 7 7 7 7 q ; ; ; ; ; ; 0 7 7 - ; ; ; ; ; - 7 7 0 ; ; ; ; ; ; q & c B & 7 7 $ J.IXj X x C C D C @ = (.!.& 7 7 7 ",
"7 7 7 7 7 7 7 7 7 x 7 7 6 :X$.! ( ( ! ( ^ 0 i b ;X4 L L & ;X,X:XW 6 ! ) ^ ! y  .3X| 4 0  . .W 4Xb 8 < 1 r > r 7 7 7 7 x 7 7 7 7 6 7 7 7 7 7 x 7 7 7 7 7 7 z x 7 7 7 7 7 x 7 7 7 z x G.a N 4Xz 7 x 7 7 x 7 7 c 7 7 7 7 7 7 7 7 7 7 7 7 7 7 7 7 7 z x 7 7 7 7 7 7 7 7 7 x 7 7 7 7 7 7 7 x 7 7 7 7 7 x 7 7 7 r x 7 7 7 x 7 7 x 7 7 x r 7 c 7 7 7 7 7 7 7 7 7 7 7 7 7 7 7 7 7 r x 7 7 7 7 7 D 7 7 7 7 7 7 D 7 x B & 7 7 7 7 7 q ; ; ; ; ; ; 0 7 7 - ; ; ; ; ; - 7 7 0 ; ; ; ; ; ; q & c B & 7 7 & y AXAX6 X % z 7 @ . P.(.M.& 7 7 7 ",
"6 6 6 6 6 6 6 6 7 y 6 7 4 ;X$.! ( ( ^ ( ^ b y b ;X6 L L > ,Xb t 7 7 ! #.^ ^ c 0 Q v 7 7 6 6 4  .| 4 < 1 z < r 7 7 7 7 x 7 7 7 0 b 7 7 7 7 7 x 7 7 7 7 7 7 r x 7 7 7 7 7 x 7 7 7 z x G.a N 5Xz 6 x 7 7 x 7 7 c 7 7 7 7 7 7 7 7 7 7 7 7 7 7 7 7 & 0 z & 7 7 7 7 7 7 7 & x 7 & 7 7 7 7 7 x 7 7 7 & 7 x & 7 & 7 z & 7 7 x & 7 x 7 & x 7 & x 7 & 7 7 7 7 7 7 7 7 7 7 7 7 7 7 & 7 x & 7 7 & 7 D 7 7 7 7 7 7 D 7 x B & 7 7 7 7 7 q ; ; ; ; ; ; 0 7 7 - ; ; ; ; ; - 7 7 0 ; ; ; ; ; ; q & c B & 7 7 7 $ P.PXKX6 o . o = P.AX!.7 7 7 7 7 ",
"b b b b b b b w b n w w 0 2X$.! _ _ ! _ ^ b y b -X6 L L > :Xq t v n ~ _ _ _ A 6 4 t + 4 4 6 4 W | | :X1 r > 6 7 7 7 7 x 8 7 4 ! 3X6 r r r r v z z r r r 7 z x 7 7 8 7 0 x 7 7 7 z y F.d B dXb 6 x 7 & z 7 & c 7 7 r y y y y y y y y y y y y y y s f y y y y y y y y y M y y y y y y y M y y y y y M y y y y M y y y M y y M y y M y y V y y y y y y y y y y y y y y y y y y M y y y y r D 7 7 7 7 7 7 D 7 x B & 7 7 7 7 7 q ; ; ; ; ; ; 0 7 7 - ; ; ; ; ; - 7 7 0 ; ; ; ; ; ; q & c B & 7 7 7 7 * P._.7 r 7 r 7 M.!.& 7 7 7 7 7 ",
"1X1X1X1X1X1X1X2X1X1X2X1X2X6X8X4X7XpX<X=.] A g B :Xa 2 m n >X+.-.1X4X4X3X3X3XaX4X4X>X,X,X,X:X:X>X9X6XaXs.~ ~ } B B N c F J 1 1 %.dX1 1 1 1 1 1.1 1 1 1 1 1 1.1.1 1 J u f f t t y f } ].k H dXA x B N S J.J.J.P.P.P.P.P.P.P.P.P.P.P.P.P.P.P.P.P.P.P.P.P.P.P.P.P.P.P.P.P.P.P.P.P.P.P.P.P.P.P.P.P.P.P.P.P.P.P.P.P.P.P.P.P.P.P.P.P.P.P.P.P.P.P.P.P.P.P.P.P.P.P.P.P.P.P.P.P.P.P.P.P.P.P.P.P.g C 7 7 7 7 7 7 D 7 x B & 7 7 7 7 7 q ; ; ; ; ; ; 0 7 7 - ; ; ; ; ; - 7 7 0 ; ; ; ; ; ; q & c B & 7 7 7 7 7 7 & $ $ $ $ $ $ 7 7 7 7 7 & * ",
"6 6 6 6 6 6 6 6 7 y 8 7 8 ,X$.+.:.;.<X>X7X! n Q 4X .4X5X9XfX3X4XaXaX4X>X,X,X>X:XX.*. .aXwX,X .;X2X2X9XfX6XhX0X5X6X5X5XaXaXaX3X9XfX3X3X3X3X3X3X3X3X3X3X3X3X3X4X4XwXwXwXpX:X| ! W x  .3Xi ! 9Xb i M.M.M.M.k d M.f f f f t t t t t t t t t t t t t f M t t t t t t t t t V f t t t t t t V t t t t f V t t t f V t t f V t t V f t V f t S f t t t t t t t t t t t t t t t t f V t t t t y D 7 7 7 7 7 7 D 7 x B & 7 7 7 7 7 q : : : : : : 0 7 7 - : : : : : - 7 7 0 ; ; ; ; ; ; q & c B & 7 7 7 7 7 $ 7 M.!.(.(.J.t $ 7 7 7 & f U.",
":X:X:X:X:X:X:X:X:X,X2X2X2X6X3X4X3X3X3X6XfXfXdXdX9X2X*XdX5X .< 2 / ^ ^ ) ^ ^ #.W r m W ^ < 3 2 & 4 4 n ,X:X .:X5.L W W _ ! ! | 4X4X..! ! ! ! ..^ ! ! ! ! ! ^ +.| | X. .;X,X>XaX5X6X9XdX:X>X6X{ J.S.f t d a i k i i i i i i i i i i i i i i i i i h h i i i i i i i i i k p i i i i i i k i i i i p k i i i l h i i p k i i k i i h l i k p i i i i i i i i i i i i i i i i l h i i i i t G 7 7 7 7 7 7 D 7 x B & 7 7 7 7 7 v 3 3 3 3 3 3 z 7 7 3 3 3 3 3 3 3 7 7 7 0 0 0 0 0 z 0 & c B & 7 7 7 7 $ j (.PXIXAXPXPX!.M.& 7 7 * H.LX",
"2X2X2X2X2X2X2X2X2X:X;X . .6X4X>X>X>X,X:X*.*.<X5X4X4 L >X% 3 o.^ ......#.....$.^ n #.X...W W O.P 3 8 > wX>X3 uX< > > > u > > v :X,XW , > > > u > > > > , ! :Xu > > > > u u , 1 1 7 :X9X+.3XgXaX5X6X5X5X5X3X4X4X4X>X>X>X>X>X>X>X>X>X>X>X>X>X>X>X>X>X>X>X>X>X>X>X>X>X>X>X4X>X>X>X>X>X>X>X4X>X>X>X>X>X4X>X>X>X>X>X>X>X>X4X>X>X4X>X>X>X>X>X4X>X>X>X>X>X>X>X>X>X>X>X>X>X>X>X>X>X>X>X>X>X>X4X! V 7 7 7 7 7 7 D 7 x B & 7 7 7 7 7 v 2 2 2 2 2 2 z 7 7 3 2 2 2 2 2 2 7 6 2 m.m.m.m.m.m.5.5 c B & 7 7 7 $ j KXPXJ.t @ 6 k !.AXJ.7 7 $ H.ZX",
"7 7 7 7 7 7 0 8 b  . . . .3X+.( ( ( ( ( ( +.#.&.9Xw K ,X3 o.X.#.......#.....#...#.#...........^ L b , wX5X<.,Xv > < < J r > n :XX. .> < < < J r > < < > :XaXv > < < > v v < z 1 1 @.9Xp -.aX} d H A } { _ ( -.( +.+.+.+.+.+.+.+.+.+.+.+.+.+.+.+.-.-.+.+.+.+.+.+.+.+.+.-.+.+.+.+.+.+.+.-.+.+.+.+.+.-.+.+.+.+.-.+.+.+.-.+.+.-.+.+.-.+.+.-.+.+.+.+.+.+.+.+.+.+.+.+.+.+.+.+.+.+.-.+.+.+.+.n C 7 7 7 7 7 7 D 7 x B & 7 7 7 7 7 v 2 2 2 2 2 2 z 7 7 3 2 2 2 2 2 3 7 5 5.BXBXBXBXBXBXNX5 c B & 7 7 7 7 _.PXk X @ 7 @ X # !.(.f 7 $ H.JX",
"w w w w w w w 0  .2XQ ! ! ! @.+.@.@.+.+.+.+.=.( >X9X3XuXL W X.#.......#.....#...#.#...........^ b L 2 5.5.> ,X3 > < < u ....b ,X!  .> < < < v n b > > > :X,XW > < < | v v > < z 1 k.9XG.XX4X} i j a i k l i k i i i i i i i i i i i i i i i i i p h i i i i i i i i i h p i i i i i i k i i i i p k i i i p h i i i k i i k i i h p i k p i i i i i i i i i i i i i i i i p h i i i i t G 7 7 7 7 7 7 D 7 x B & 7 7 7 7 7 v 2 2 2 2 2 2 z 7 7 2 2 2 2 2 2 2 7 7 7 z z z z z z z & c B & 7 7 $ M.PXJ.X r G B.x B = # (.!.& $ H.JX",
"q q q q q q w 0  .| 8 q 0 n @.+.@.@.+.+.+.+.=.@.n ! 3X4.3 P X.#.......#.....#...#.#.............b ! 0.<.1 > :X< > < < l :X6X! :XW >X< < < < u ,X4X> v n :X,XW > > b 6Xv v > < < u *.gXH.:.aX} i S f a S f a S f f f f f f f f f f f f f f f f f g V f f f f f f f f f S f f f f f f f S f f f f f S f f f g V f f f S f f S f t V g t S f f f f f f f f f f f f f f f f f g V f f f f y C 7 7 7 7 7 7 D 7 x B & 7 7 7 7 7 v 2 2 2 2 2 2 z 7 7 z z z z z z z 7 5 2 BXBXBXBXNXBXNX5 c B & 7 7 $ (.PXt = D G B x Z.N . !.(.y * H.HX",
"q q q q q q w 0  .| 0 w q W @.+.@.@.+.+.+.+.=.@.Q 8 ,X*.< ! X.#.......#.....#...#.#.............^ ( 0.5.< < 4X! , > < @.,X..3X:X< :XW > > > v ,X3X> ..4X .:XW > > W 6Xv v < < < u *.gXj :.aX} i S f a g N c S f a f f f f f f f f f f f f f f a g g a f f f f f f f a j f a f f f f f S a f f a f j a f a f g a f f j a a S f a g f t S f a f f f f f f f f f f f f f f a f g a f f d y C 7 7 7 7 7 7 D 7 x B & 7 7 7 7 7 v 2 2 2 2 2 2 z 8 r NXNXNXNXNXNXNXz 5 5.BXBXBXBXBXBXNX5 c B & 7 7 $ (.AXo & D D D G B.D . M.(.t $ k JX",
"q q q q q q w 0  .| 0 w q W @.+.@.@.+.+.+.+.=.@.Q b q.5X......#.......#.....#...#.#.................0.4.2 ~ ^ 4X:XW W aX .> 6X>X>  .X., .. .~ ,X:Xv ,X6X .:X! > > W 9Xv v < < < u v.gX1.:.aX_ i S a a h =.+.k f a f f f f f f f f f f f f f f a g g a f f f f f f f a j f a f f f f f S a f f a f j a f a f g a f f j a a S f a g f t S f a f f f f f f f f f f f f f f a f g a f f d y C 7 7 7 7 7 7 D 7 x B & 7 7 7 7 7 v 2 2 2 2 2 2 z 8 r NXNXNXNXNXNXNXv 5 5.BXBXBXBXBXBXNX5 c B & 7 7 $ _.KX@ # C C D G G B . P.(.y & 7 $ ",
"q q q q q q w 0  .| 7 q 0 W @.+.@.@.+.+.+.+.=.@.Q P P pXpX/ ..#.......#.....#...#.#...............s.h.4.4.o.J W  .;X! &., > ..X.3 W ,X, :X4X( X.*.! ,X5X:X*.! > > W fXv v < z < k +XaX1.v.aX( i g ( A p *.*.k f a f f f f f f f f f f f f a f a g g a f f f f f f f a j f a f f f f f S a f f a f j a f a f g a f f j a a S f a g f t S f a f f f f f f f f f f f f f f a f g a f f d y C 7 7 7 7 7 7 D 7 x B & 7 7 7 7 7 v 2 2 2 2 2 2 z 7 7 z z z z z z z 7 5 5.BXBXBXBXBXBXNX5 c B & 7 7 $ P.IXd X N C C D G % . (.(.7 7 7 7 ",
"q q q q q q w 0 ;X@.n W n ! @.+.@.@.+.+.+.+.=.+...P I j.aX%...#.......#.....#...#.#.............o.d.d.4.4.d.m > > :XX.&.> < > n _ < :X> ;X6X4XW :XX. .5X:X*.^ > > ! fXn v < z < H.v.aX1.iXpX( i j 4X_ p ,X:Xk f a f f f f f f f f f f f a +.m i g g a f f f f f f f a j f a f f f f f S a f f a f j a f a f g a f f j a a S f a g f t S f a f f f f f f f f f f f f f f a f g a f f d y C 7 7 7 7 7 7 D 7 x B & 7 7 7 7 5 NXBXBXBXBXBXBX5.5 7 1 1 1 1 1 1 1 7 5 5.BXBXBXBXBXBXNX5 c B & 7 7 $ j KX_.= . r c c % X k (.J.$ 7 7 7 ",
"q q q q q q w 0 ;X:X+.@.@.+.+.+.@.@.+.+.+.+.=.@.k.X.k.k.,X>X^ #.......#.....#...#.#.............d.s.d.0./ z.W < > :X4X~ r v > ~ / v :X< ;XX.*.v :X:XX.^ ^ *.X.> > ! fXn v < < f H.;.aX` pXpX*.p { hX( p >X:Xk f a f f f f f f f f f f a i :X} i g g a f f f f f f f a j f a f f f f f S a f f a f j a f a f g a f f j a a S f a g f t S f a f f f f f f f f f f f f f f a f g a f f d y C 7 7 7 7 7 7 D 7 x B & 7 7 7 7 5 h.sXsXsXsXsXsX~ 5 0 R eXT T T eXR 0 6 n sXsXsXsXsXsXuX% c B & 7 7 7 * !.IXAX# . . o . M.AX(.7 7 7 7 7 ",
"q q q w w w w 0 :X:X( +.+.+.+.+.@.@.+.+.+.+.-.%.k.@.uXk.%.aXO.#.......#.....#...#.#...........o.d.o.d.0.o.z._ > < v < v v n > ~ #.n ,XW :X> u ~ :X6X! 3 W *. .> > ! dXW x < < J.k <XpX<Xv.n.0XA -.hX+.p 4X,Xk f f f f f f f f f f f a } ( *.} i g g a f f f f f f f a j f a f f f f f S f f f a f j a f a f g a f f S a f S f a g f t S f a f f f f f f f f f f f f f f a f g a f f d y C 7 7 7 7 7 7 D 7 x B & 7 7 7 7 % -.kXlXlXlXlXjXn 6 0 wXrXrXrXrXrXwX0 6 b 8X8X8X8X4X8X .% c B & 7 7 7 7 $ !.KX7 7 7 7 $ P.(.7 7 7 7 7 7 ",
"q q q 0 0 0 0 8 :X:X( +.+.+.+.+.@.@.+.+.+.+.=.k.O.@.uXuXX.>X,X/ ......#.....#.....#.^ ........s.s...d.0.o.d.4.> < > > v n _ > ~ ..m ! 9X .> J ~ :X9XW P W *. .> > ! dXW u < u J.f iXpX3Xy.v.hX( :.hX@.p 4X>Xk f a f f a a a a a f M p :X,X*._ i g g t a a a a a a a t g f t a a a a a j a a a t f g t a t f g t a f g t a j f t g f t S f t a a a a a a a a a a a a a a t f g t a a a y C 7 7 7 7 7 7 D 7 x B & 7 7 7 7 6 -.kXjXjXjXjXkXQ 6 0 *XwXwXwXwXwXwX0 6 n 3X4X3X3X4X5X .% c B & 7 7 7 7 7 7 y $ $ $ $ $ 7 y 7 7 7 7 7 7 ",
"n A ! :X;X;X;X;X3X;.-.=.=.=.=.=.=.=.=.=.=.-.l.k.$.$.uXuX&.&.aX$.#.#.#.=.#.#.=.#.#.=.#.#.#.#.#.h.g.g.h.h.g.g.j.m x v v J ~ #.~ _ #.) m :Xm J J ' :X9X~ _ _ &.:Xu u @.dX_ J v J.J.S iXlXdXt.v.hX;.<XaX:.M.4X4XS.S k <X` j S j S h H ;.` 4X>X<X{ h S S g j j j j j j j g S S g j j j j j S.j j j j S S g S g S S g j S S.g j S.S g S S g S.S g j j j j j j j j j j j j j j g S S g j j j y C 7 7 7 7 7 7 D 7 x B & 7 7 7 7 6 -.kXjXjXjXjXkXQ 6 0 *XwXwXwXwXwXwX0 6 n 3X4X4X4X4X5X .% c B & 7 7 7 7 7 & $ y M.P.P.f 7 $ 7 7 7 7 7 7 ",
"b 0 ;X .Q ! ! ! ! =.+.+.+.+.+.+.=.@.+.+.+.+.k.%.X.@.uXk.%.O.>XpX/ ....#.....#...#.#.........s.d.o.o.d.h.s.s.j.r.n v r _ / / / / / / v , v n m _ %.>X_ _ _ $.,X,Xv ..aX! u u E.m k pX+X3X1.v.fX,X*.{ *.k >X>XS H @.3X} } :Xi f } _ ,X,X3X,X>X{ i V g f f f f f f f f f j g N f f f f f S f f f f f S f f f g j f f f S f f S f f S g a S g f f f f f f f f f f f f f f f f g j f f f f y C 7 7 7 7 7 7 D 7 x B & 7 7 7 7 6 -.kXjXjXjXjXkXQ 6 0 *XwXwXwXwXwXwX0 6 n 3X4X4X3X4X5X .% c B & 7 7 7 7 $ y Y.PXIXKXPXPX!.f & 7 7 7 7 7 ",
"w 0 ;XQ 8 0 0 0 b @.+.+.+.+.+.+.@.@.+.+.+.@.k.X.X.@.uXk.%.O.*.aX/ ....#.....#.....#.........d.o.o.o.d.0.s.s.o.j.o.n > ) / / / / / / n > n ~ ` / _ n / _ ^ ) aX0Xb ..6X^ r k XX;Xl pX[.S 1.v.dXaX*.{ :Xh >X>XD } ,X3X*.+.dXA i ,X@.,X3X3X:X3X( i g g t f a a a a a a t g A :Xa f a a a S a a a a f j t f a f g t a f j a a j f t g f t S f a a a a a a a a a a a a a a a a f g t a a d y C 7 7 7 7 7 7 D 7 x B & 7 7 7 7 6 -.kXjXjXjXjXkXQ 6 0 *XwXwXwXwXwXwX0 6 n 3X3X3X3X4X5X .% c B & 7 7 7 7 y _.PX(.P.t k Y.!.AXj 7 7 7 7 7 ",
"w 0 ;X! q w w q n =.+.+.+.+.+.+.@.@.+.+.+.%.k.@.X.@.uXk.%.%.X.4X*.^ ..#.....#...#.#.......o.d.o.o.o.d.0.s.s.o.d.d.W 3 ) / / / / / / W > n _ ` / ^ _ / _ ^ ) ^  .! ..5X..u G.;.,Xl pX[.k 1.v.aXdX-.-.:Xg >X,XD _ >X5XfX:XaX} i >X:X4X6X3X,X6X_ i g g a d f f f f f f a *.( :Xa f f f f S f f f a f j a f a f g a f f j a a S f a g f t S f a f f f f f f f f f f f f f f a f g a f f d y C 7 7 7 7 7 7 D 7 x B & 7 7 7 7 6 -.kXjXjXjXjXkXQ 6 0 *XwXwXwXwXwXwX0 6 n 3X4X3X3X4X5X .% c B & 7 7 7 $ (.IXY.X X @ . X t (.(.y 7 7 7 7 ",
"w q 2XQ q w w q n =.+.+.+.+.+.+.@.@.+.+.+.k.&.$.X.@.uXk.%.%.X.,X>X^ ..#.....#...#.#.......s.s.o.o.o.d.0.s.s.o.o.j.^ ^ #./ / / / / / ^ < n ^ ) / / / / / ^ #.u ! ..X.aXX.k G.:X4Xl aX[.S t.v.aXr.H =.:XF >X,XG ( 3X6XfX,XaX} i 4X>X3X0X5X:XfX} i g g c f a f f f f f i :X+.,Xa f f f f S a f f a f j a f a f g a f f j a a S f a g f t S f a f f f f f f f f f f f f f f a f g a f f d y C 7 7 7 7 7 7 D 7 x B & 7 7 7 7 6 -.kXjXjXjXjXkXQ 6 0 *XwXwXwXwXwXwX0 6 n 3X4X4X4X4X5X .% c B & 7 7 $ M.PXY.X % D B.x x . t (.Y.$ 7 7 7 ",
"0 0 ,X( Q Q Q Q } @.+.+.+.+.+.+.@.@.+.+.$.%.$.$.X.@.uXk.%.%.O.&.aX....#.....#...#.#.......d.o.o.o.o.d.0.s.s.o.o.j.o.^ #./ / / / / / / n _ / #./ / / / / ^ #.v !  .%.4XX.H.k ,X4Xg aX[.F y.v.:X1.1.&.:XG ,X,XH +.6X5XfX4X4X( i 5X3X9X9XaX{ hX( } V h ,XA a f f f f f a :X@.>Xi f f f f S a f f a f j a f a f g a f f j a a S f a g f t S f a f f f f f f f f f f f f f f a f g a f f d y C 7 7 7 7 7 7 D 7 x B & 7 7 7 7 6 -.kXjXjXjXjXkXQ 6 0 *XwXwXwXwXwXwX0 6 n 3X4X4X4X4X5X .% c B & 7 7 $ !.IXd . C G B z C.x . (.(.7 7 7 7 ",
"2X2X3X( ( ( ( ( ( @.+.+.+.+.+.+.@.@.+.+.%.%.$.$.X.@.uXk.%.%.%.$.aX:X^ #.....#...#.#.....s.s.o.o.o.o.d.0.s.s.o.o.d.d.^ #./ / / / / / / / / / #./ / / / / ^ #.m W  .*.>X&.P.u ,X4XF pX[.1.p.y.` H 1.=.:XH ,X,X` :.9X3XfXdX,X+.a 6X5XdX4XaXH 4X*.>Xg g 3XA i f f f f f a ,X*.4XB f a f f S a f f a f j a f a f g a f f j a a S f a g f t S f a f f f f f f f f f f f f f f a f g a f f d y C 7 7 7 7 7 7 D 7 x B & 7 7 7 7 6 -.kXjXjXjXjXkXQ 6 0 *XwXwXwXwXwXwX0 6 n 3X3X3X3X4X5X .% c B & 7 7 $ _.AXo & D D C C V.C . M.(.y & 7 7 ",
"Q Q Q +.+.+.+.+.@.=.+.+.+.+.+.+.@.@.+.@.k.X.$.$.X.@.uXk.%.%.O.$.:X4X^ #.....#...#.#.....d.s.o.o.o.o.d.0.s.s.o.o.o.j./ ) / / / / / / / / / / #./ / / / / ^ #.~ P :X:X,XXXXX6X4X>XH pX[.t.p.y.y.` t.l.:X` ,X:X` *.fX3X9X,X$.*.} hX6XdX>XaXF _ ,X4Xg g 9X} i f f f f f i ,X:X>X>X_ i f f S a f f a f j a f a f g a f f S a a S f a g f t S f a f f f f f f f f f f f f f f a f g a f f d y C 7 7 7 7 7 7 D 7 x B & 7 7 7 7 6 -.kXjXjXjXjXkXQ 6 0 *XwXwXwXwXwXwX0 6 n 3X3X3X3X4X5X .% c B & 7 7 $ _.AXo & C C G G G B . M.(.t & 7 7 ",
"q 0 b +.+.+.+.+.+.@.+.+.+.+.+.+.@.@.+.%.%.X.&.$.X.@.uXk.%.%.O.&.O.3X$.#.....#...#.#...o.d.o.o.o.o.o.d.0.s.s.o.o.o.j.o.) / / / / / / / / / / #./ / / / / ^ / _ W >X>X*.aXaX9X4X:X~ pX[.y.p.y.y.' y.h.:X` ,X:X` *.fX4X$.N #.*.( fX9XdX,XaXF ( >X5Xd ` 9X} i f f f a f _ 4X9X3X3X+.i a d S f f f f f S a f a f g a f f j f f j f a g f t S f a f f f f f f f f f f f f f f a f g a f f d y C 7 7 7 7 7 7 D 7 x B & 7 7 7 7 6 -.kXjXjXjXjXkXQ 6 0 *XwXwXwXwXwXwX0 6 n 3X4X4X4X4X5X .% c B & 7 7 $ Y.IXt . B C C D G 7 . (.(.7 7 7 7 ",
"q q n +.+.+.+.+.+.=.+.+.+.+.+.+.@.@.+.k.O.X.$.$.X.@.uXk.%.%.O.&...,X,X) ....#...#.#.^ s.s.o.o.o.o.o.d.0.s.s.o.o.o.d.d.) / / / / / / / / / / #./ / / / / / / / W ;XdX) hX9X,X_ :X_ pX[.y.p.y.y.] y.h.:X` <X:X:.*.fX:XH N ' :X+.dXdXdX,XaXH ( 4X6Xd -.>X( i f a a a N 9XdX6X>X9X+.f ( f k a f f a f j a f a M C a f f g B *.j f a g f t S f a f f f f f f f f f f f f f f a f g a f f d y C 7 7 7 7 7 7 D 7 x B & 7 7 7 7 6 -.kXjXjXjXjXkXQ 6 0 *XwXwXwXwXwXwX0 6 n 3X4X4X4X4X5X .% c B & 7 7 $ M.KXY.X @ c B B r X t (.Y.$ 7 7 7 ",
"q q W +.+.+.+.+.+.=.+.+.+.+.+.+.@.+.@.k.X.X.$.$.X.@.uXk.%.%.O.&.O.*.aX#.....#...#.#...d.o.o.o.o.o.o.d.0.s.s.o.o.o.o.j.#./ / / / / / / / / / #./ / / / / / / #.~ ! 6Xy.iX#.J J ,X@.pX[.y.p.u.u.u.u.h.:X{ pX` 5XdXdX:X` m ' :X*.,XfXdX:X4XH +.5X9Xd :.*.*.a f } M a B 9XfX6X>XdX+.A 9X*.` f a f ( f D a f i } :Xi f f g A ,Xj f a g f t S f a f f f f f f f f f f f f f f a f g a f f d y C 7 7 7 7 7 7 D 7 x B & 7 7 7 7 6 -.kXjXjXjXjXkXQ 6 0 *XwXwXwXwXwXwX0 6 n 3X4X3X3X4X5X .% c B & 7 7 7 $ (.IX!.o . @ o . a (.(.r 7 7 7 7 ",
"q q W @.+.+.+.+.+.=.+.+.+.+.+.+.@.+.%.%.X.X.$.$.X.@.uXk.%.%.O.&.$...aX;.^ ..#...#.#.o.d.o.o.o.o.o.o.d.0.s.s.o.o.o.o.d.g./ / / / / / / / / / #./ / / / / / / #._ ! 4X].F j u J :X,X;.[.y.p.u.u.u.u.f.:X( pXF >X>X4X:X` ~ ' *.,X:XdXdX:X4X` &.5X6XV <X+.:Xa f >XB i A fXfX6X4XdX+.B hX:X3XA i } >XA :Xa f i } :Xi f d k A 4Xk d t g f t S f a f f f f f f f f f f f f f f a f g a f f d y C 7 7 7 7 7 7 D 7 x B & 7 7 7 7 6 -.kXjXjXjXjXkXQ 6 0 *XwXwXwXwXwXwX0 6 n 3X3X3X3X4X5X .% c B & 7 7 7 7 y AXPX7 & # % $ Y.AXf 7 7 7 7 7 ",
"b w Q @.+.+.+.+.+.=.+.+.+.+.+.+.@.@.k.O.X.X.$.$.X.@.uXk.%.%.O.&.$...,X,X^ ..#...#.#.s.s.o.o.o.o.o.o.d.0.s.s.o.o.o.o.o.z./ / / / / / / / / / #./ / / / / / / ) / 3 ~ ].m F f J ;.6X#.[.y.p.u.u.u.u.#.,X@.<XH ,X*.>X:X` ' ` +.6X:XdXdX=.-.` &.9X6X5X,X} ,Xa a >XB i } 6XfX6X4XdX@.+.hX,X6X( a 5X4XA >Xa f M +.,Xi N @.k n 3XS A a g f t S f a f f f f f f f f f f f f f f a f g a f f d y C 7 7 7 7 7 7 D 7 x B & 7 7 7 7 6 -.kXjXjXjXjXkXQ 6 0 *XwXwXwXwXwXwX0 6 n 3X4X3X3X4X5X .% c B & 7 7 7 7 $ f j $ 7 7 7 7 y j & 7 7 7 7 7 ",
"! ! ( +.+.+.+.+.+.@.+.+.+.+.+.+.+.$.k.X.X.X.$.O.X.@.uXk.%.%.O.&.$.X.%.aX....#.....#.d.o.o.o.o.o.o.o.d.0.o.s.o.o.o.o.o.z.o.^ / / / / / / / ^ #./ / / / / ^ / / / 3 H p.~ ` m m &.dX' [.y.p.u.u.u.u.] pXk.<XH :X*.:X;.` ' ' ( 9X;.dXdX' H ' &.fX6XhX+.m :X( } 5X*.i *.>XhX5X3XdX:X9XfXdXfX+.f fX3XA 4Xa i ,X,XfXA s 4Xg } 3XH ,Xi V f t S f a a a a a a a a a a a a a a a a f g t a a d y C 7 7 7 7 7 7 D 7 x B & 7 7 7 7 6 -.kXjXjXjXjXkXQ 6 0 *XwXwXwXwXwXwX0 6 n 3X4X4X4X4X5X .% c B & 7 7 7 7 7 & $ 7 7 7 7 7 7 & 7 7 7 7 7 7 ",
"=.=.=.=.=.=.=.=.=.=.=.=.=.=.=.=.=.k.l.&.&.&.l.&.&.=.uXuXl.l.&.l.&.&.$.aX;.#.g.#.=.g.h.g.g.g.g.g.g.g.h.h.g.h.g.g.g.g.f.z.l.) #.#.#.#.#.#.#.#.f.#.#.#.#.#.#.f.f.#.' [.c.y.y.u.y.c.aXy.[.p.p.p.p.i.x.i.aXdXv.` <X<X` [ i.i.i.[ dXv.dXaX-.' i.iX4XpXhX{ ` >X4X<X6X>Xp <X1XhXaXaXaX>XfXdXfX9X:.G fX6X` 5Xj k 3X4XhX-.j 3XM.{ 9X-.>Xj S.S S S.S S S S S S S S S S S S S S S S S S S.S S S S y C 7 7 7 7 7 7 D 7 x B & 7 7 7 7 6 -.kXjXjXjXjXkXQ 6 0 *XwXwXwXwXwXwX0 6 n 3X4X4X4X4X5X .% c B & 7 7 7 7 7 7 7 7 7 7 7 7 7 7 7 7 7 7 7 7 ",
"+.+.+.+.+.+.+.+.@.=.+.+.+.+.+.+.@.k.O.X.X.X.&.$.X.@.uXk.%.%.O.&.$.X...pX>X^ #...+.h.s.o.o.o.o.o.o.o.d.0.s.s.o.o.o.o.o.g.j./ / / / / / / / / #./ / / / / / / ) ^ u.].) ' y.] u.' ` y.[.y.p.u.u.u.u.' aXdX] ` ` { ~ ` ' ' ' { 9X&.6X5X-.` ' ;.,X;.hX} ` 5XfX4X6X6X} *.,XfX5X5X5X4X4X:XhX5X*.A hX6X} 5XA A 3X6XfX6X_ 5XS } hX1X,Xi g g t S f f f f f f f f f f f f f f f f a g g a f f f y C 7 7 7 7 7 7 D 7 x B & 7 7 7 7 6 -.kXjXjXjXjXkXQ 6 0 *XwXwXwXwXwXwX0 6 n 3X3X3X3X4X5X .% c B & 7 7 7 7 7 7 7 7 7 7 7 7 7 7 7 7 7 7 7 7 ",
"+.+.+.+.+.+.+.+.+.@.+.+.+.+.+.+.$.k.X.X.X.X.$.$.X.@.uXk.%.%.O.&.$.X.X.&.3X..#.....h.o.o.o.o.o.o.o.o.d.0.s.s.o.o.o.o.o.g.j.o.^ / / / / / / / #./ / / / / ^ / ) ^ p.y.) ' y.) u.` S y.[.y.p.u.u.u.u.' 5Xf.y.{ H H _ ' ' ' ' { 9X-.} ,X-.' ` ;.,X' 9X{ ` +.9X5XfXfX,X:X,XdX:X5X4X9X( A dX4X4X*.9X6X*.3X*.>X>XfX9X>XdX6XS _ hX<X5X} D d t S f a f f a a a a a a a a a a a f a f g t f a d y C 7 7 7 7 7 7 D 7 x B & 7 7 7 7 6 -.kXjXjXjXjXkXQ 6 0 *XwXwXwXwXwXwX0 6 n 3X3X3X3X4X5X .6 x C % 7 7 7 7 7 7 7 7 7 7 7 7 7 7 7 7 7 7 7 7 ",
"+.+.+.+.+.+.+.+.+.=.+.+.+.+.+.+.%.%.X.X.X.X.$.$.X.@.uXk.%.%.O.&.$.X.$.#.4X*.#...o.h.o.o.o.o.o.o.o.o.d.0.s.s.o.o.o.o.o.f.d.d.^ / / / / / / / #./ / / / / / / / / ].u.) u.u.) u.' H u.[.y.p.u.u.u.u.' 3Xf.r.' ` ` ` ' ' ' ' ] 6X' A ' ' ' ' ' _ H :.] ' ` 6X3XfXfX5X:X,XaX` 6X>X3X} m 9X>X:XhX{ } hX5X:X9X,X>X5X*.fX9XH *.fX1XdX9X{ d t S f a a a f f f f f f f f f f f f a f g a f f d y C 7 7 7 7 7 7 D 7 x B & 7 7 7 7 6 -.kXjXjXjXjXkXQ 6 0 *XwXwXwXwXwXwX0 6 n 3X4X4X4X4X5X .6 7 C N 7 7 7 7 7 7 7 7 7 7 7 7 7 7 7 7 7 7 7 7 ",
"+.+.+.+.+.+.+.+.+.=.+.+.+.+.+.+.k.$.X.X.X.X.$.$.X.@.uXk.%.%.O.&.$.X.O.$.:X>X) ..d.g.o.o.o.o.o.o.o.o.d.0.s.s.o.o.o.o.o.g.o.j./ / / / / / / / #./ / / / / / / / u.].) ] u.u.) ] ) ` u.[.y.p.u.u.u.u.' 4X-.r.] ` ` ' ' ' ' ' ] 4X' } ' ' ' ' ' ` ` F ` ' _ 6X>X3X6XfX,X:XaX` 5X:XA B ` dX;.( hX{ m *.6X9XhX4Xd >X@.hXdXdX9X5XgXdX0X{ p t S f a N } a f f f f f f f f f f f a f g a f f d y C 7 7 7 7 7 7 D 7 x B & 7 7 7 7 6 -.kXjXjXjXjXkXQ 6 0 *XwXwXwXwXwXwX0 6 n 3X4X4X4X4X5X .6 7 7 B C C C C C C C C C C C C C C C C C C C C ",
"+.+.+.+.+.+.+.+.+.=.+.+.+.+.+.X.k.$.X.X.X.X.$.$.X.@.uXk.%.%.O.&.$.X.O.$.O.3X#...h.g.o.o.o.o.o.o.o.o.d.0.s.s.o.o.o.o.o.g.o.j.o./ / / / / / / #./ / / / / / ) / p.y.) ] u.u.) ] ) u.u.[.y.p.u.u.u.u.' 4X-.r.r.[ ' ' ' ' ' ' ' } ' ` ' ' ' ' ' ' ` H ' ' ' 5X:X3X5XhX4X#.iX` 5X;.A ` ' $.H *.6X` ` p <XfX>X4Xf <X( fXfX9X5X-.hX:XfX-.` n j f i N 3Xf a f f f f f f f f f f a f g a f f d y C 7 7 7 7 7 7 D 7 x B & 7 7 7 7 6 -.kXjXjXjXjXkXQ 6 0 *XwXwXwXwXwXwX0 6 n 3X4X3X3X4X5X .6 7 x x c N N N N N N N N N N N N N N N N N N c ",
"+.+.+.+.+.+.+.+.+.=.+.+.+.+.+.%.l.$.X.X.X.X.$.$.X.@.uXk.%.%.O.&.$.X.O.&...4X<X/ h.g.o.o.o.o.o.o.o.o.d.0.s.s.o.o.o.o.o.g.o.d.d.^ / / / / / / #./ / / / / / / ) ].u.] ] u.u.) ] ) u.u.[.y.p.u.u.u.u.] #.u.u.r.[ ' ' ' ' ' ' ' H ' ' ' ' ' ' ' ' ' ` ' ' ' 3X:X4X5X6X&.` [ ' 4X=.m ' ' H H *.:XH ' N -.4XA @.N ' B ,XdX:X4X{ fX*.9X9XfX} k f n +.6XA a a f a f f f f f f f a f g a f f d y C 7 7 7 7 7 7 D 7 x B & 7 7 7 7 6 -.kXjXjXjXjXkXQ 6 0 *XwXwXwXwXwXwX0 6 n 3X3X3X3X4X5X .6 7 7 7 $ $ $ $ $ $ $ $ $ $ $ $ $ $ $ $ $ $ & 7 ",
"+.+.+.+.+.+.+.+.+.=.+.+.+.+.+.k.$.$.X.X.X.X.$.$.X.@.uXk.%.%.O.&.$.X.O.&...:XpXr.d.g.o.o.o.o.o.o.o.o.d.0.s.s.o.o.o.o.o.g.o.o.j./ / / / / / / #./ / / / / / / u.p.) ] ] u.u.) ] ) u.u.[.y.p.u.u.u.u.] ' u.] r.i.' ' ' ' ' ' ' ` ' ' ' ' ' ' ' ' ' ' ] ' ' :X;.>XaX@.N ] [ ] ' ' ` ' ' ` ` &.:X` ' H H f f B H ] B :X,XV ( { fX@.6XfXfX,XS { 9X5X9XA f M a f f f f f f f f a f g a f f d y C 7 7 7 7 7 7 D 7 x B & 7 7 7 7 6 -.kXjXjXjXjXkXQ 6 0 *XwXwXwXwXwXwX0 6 n 3X4X4X4X4X5X .6 7 7 y M.M.M.M.M.M.M.M.M.M.M.M.M.M.M.M.M.M.d 7 ",
"+.+.+.+.+.+.+.+.+.=.+.+.+.+.$.%.$.$.X.X.X.X.$.$.X.@.uXk.%.%.O.&.$.X.O.&.X.$.aXd.o.g.o.o.o.o.o.o.o.o.d.0.s.s.o.o.o.o.o.g.o.o.j.o./ / / / / / #./ / / / / / / ].y.) ] ] u.u.) ] ) u.u.[.y.p.u.u.u.u.] ) u.] r.c.' ' ' ' ' ' ' ' ' ' ' ' ' ' ' ' ' ] ] ' ' ` =.;.4X@.A ] [ ] ` ' ' ' ' ` ' ' _ ' ' ` ` A B m ` [ F *.<Xh f -.9X} 4XdXdXhX{ :.hXdXfXA @.:XN a f f f f f f f a f g a f f d y C 7 7 7 7 7 7 D 7 x B & 7 7 7 7 6 -.kXjXjXjXjXkXQ 6 0 *XwXwXwXwXwXwX0 6 n 3X3X3X3X4X5X .6 7 * P.LXJXHXHXHXHXHXJXJXJXJXHXHXJXHXHXJXHXZX$ ",
"+.+.+.+.+.+.+.+.+.=.+.+.+.+.%.%.$.$.X.X.X.X.$.$.X.@.uXk.%.%.O.&.$.X.O.&.X...pXz.o.g.o.o.o.o.o.o.o.o.d.0.s.s.o.o.o.o.o.g.o.o.d.d.^ / / / / / #./ / / / / ^ ) ].] ] ] ] u.u.) ] ) u.u.[.y.p.u.u.u.u.] ) u.u.u.c.' ' ' ' ' ' ' ' ' ' ' ' ' ' ' ' ' ] ] ' ' ` ' ` { ' ` ' [ ] ' ' ' ' ' ` ] ' ' ' ' ' ` m m ~ ` [ ` *.:XS B =.3XA _ gXdXhX-.*.fX9X9X:X6X9X( i f f f f f f f a f g a f f d y C 7 7 7 7 7 7 D 7 x B & 7 7 7 7 6 ( iXiXiXiXiXiXn 6 0 R *X*X*X*X*XR 0 6 b -X-X-X-X-X2X| 6 7 * U.ZXI.W.W.W.W.W.^.^.^.W.W.W.W.W.W.Q.^.CX7 ",
"+.+.+.+.+.+.+.+.+.=.+.+.+.+.k.X.$.$.X.X.X.X.$.$.X.@.uXk.%.%.O.&.$.X.O.&.X.X.uXpX/ g.o.o.o.o.o.o.o.o.d.0.s.s.o.o.o.o.o.g.o.o.o.j./ / / / / / #./ / / / / ^ u.].) ] ] ] u.u.) ] ) u.u.[.y.p.u.u.u.u.] ) u.u.] c.] ' ' ' ' ' ' ' ' ' ' ' ' ' ' ' ' ] ] ' ' ' ' ' ` ' ' ' [ ' ' ' ' ' ' ' [ ' ' ' ' ] ` m ~ ~ ' [ ' ( { H A =.3X` _ aX3X6X<X:.5X5X6X5XfXdX( i f f f f f f f a f g a f f d y C 7 7 7 7 7 7 D 7 x B & 7 7 7 7 6 ( iX;.;.;.;.iXn 6 7 E *XT T T T R 0 6 b -X-X-X-X-X-X| 6 7 * U.JXW.^.^./.CX/./.CXCXZX/.CXZX^.^.^./.ZX7 ",
"+.+.+.+.+.+.+.+.+.=.+.+.+.$.k.X.$.$.X.X.X.X.$.$.X.@.uXk.%.%.O.&.$.X.O.&.X.O.z.aXo.g.o.o.o.o.o.o.o.o.d.0.s.s.o.o.o.o.o.g.o.o.o.j.o./ / / / / #./ / / / / ^ p.p.) ] ] ] u.u.) ] ) u.u.[.y.p.u.u.u.u.] ) u.u.] c.r.' ' ' ' ' ' ' ' ' ' ' ' ' ' ' ' ] ] ' ' ' ' ' ' ' ' ' [ ' ' ' ' ' ' ' [ ' ' ' ' ] [ ~ ' ` ' [ ' ` ` ` H =.3X` ( aX>X} 1X<X,X3X3X9X9XhX@.i f f f f f f f a f g a f f d y C 7 7 7 7 7 7 D 7 x B & 7 7 7 7 6 ( iX;.;.;.;.iXn 6 7 E *XT T T *XR 0 6 b -X-X-X-X-X-X| 6 7 * U.JXW.^.W.CXHXZXW./././.ZXCXCX^.^.^./.ZX7 ",
"+.+.+.+.+.+.+.+.+.=.+.+.+.%.%.X.$.$.X.X.X.X.$.$.X.@.uXk.%.%.O.&.$.X.O.&.X.d.h.pXuXf.o.o.o.o.o.o.o.o.d.0.s.s.o.o.o.o.o.g.o.o.o.d.d.^ / / / / #./ / / / / / ].u.) ] ] ] u.u.) ] ] u.u.[.y.p.u.u.u.u.] ] u.u.) c.r.' ' ' ' ' ' ' ' ' ' ' ' ' ' ' ' ] [ ' ' ' ' ' ' ' ' ' [ ' ' ' ' ' ' ' [ ' ' ' ' ] [ ~ ' ' ' [ ' ` ' [ ` -.pX` { iX{ A aX,XM :X4X5X} hX*.i f f f f f f f a f g a f f d y C 7 7 7 7 7 7 D 7 x B & 7 7 7 7 6 ( iX;.;.;.;.iXn 6 7 E *XT T T T R 0 6 b -X-X-X-X-X-X| 6 7 * P.ZXW.^.^././.CX/./././././.CX^.^.^./.CX7 ",
"+.+.+.+.+.+.+.+.+.@.+.+.+.k.X.X.$.$.X.X.X.X.$.O.X.X.uXk.%.%.X.&.O.X.X.$.X.d.g.:XpXf.o.o.o.o.o.o.o.o.d.0.o.s.o.o.o.o.o.g.o.o.o.o.j.^ / / / ^ ) / ^ ^ / ^ ] ].u.) ) ) ) u.u.) ] ) u.u.[.y.p.u.u.] u.) ) u.u.) i.r.] ' ' ' ' ' ' ' ' ' ' ' ' ' ' ' ] ] ' ' ' ' ' ' ' ' ' [ ' ' ' ' ' ' ' [ ' ' ' ' ' [ ` ' ' ' ] ' ' ' [ ' ' [ ' ` ` ` F 9X*.d :X>X+.A fX:Xi a a a a a a a t f g t a a a y C 7 7 7 7 7 7 D 7 x B & 7 7 7 7 6 ( iX;.;.;.;.iXn 6 7 E *XT T T T R 0 6 b -X-X-X-X-X-X| 6 7 * U.JXW.^.^.^.^.^.^.^.^.^.^.^.^.^.^.^./.ZX7 ",
"=.=.=.=.=.=.=.@.=.=.@.-.&.k.$.$.&.&.$.$.$.$.&.&.&.$.uXuX&.&.&.&.&.$.&.&.$.z.l.l.aXg.s.g.g.g.g.g.g.#.h.h.g.g.g.g.g.g.g.g.g.g.g.f.z.f.) ) ) ) f.#.) ) ) #.].p.c.u.u.u.u.u.c.u.u.u.i.i.[.p.p.p.u.u.c.u.u.c.u.u.x.c.r.[ [ [ [ [ [ [ [ [ [ [ [ [ [ [ i.i.[ [ [ [ [ [ [ [ [ i.[ [ [ [ [ [ [ i.[ [ [ [ [ i.[ [ [ i.i.[ [ [ i.[ [ i.[ ] i.[ ' -.` H ;.<Xk H fX4Xh -.} k V g g g g S S g j g j y C 7 7 7 7 7 7 D 7 x B & 7 7 7 7 6 ( iX;.;.;.;.iXn 6 7 E *XT T T *XR 0 6 b -X-X-X-X-X-X| 6 7 $ H.LXJXJXJXJXJXJXJXJXJXJXJXJXJXJXJXJXHX).$ ",
"+.+.+.+.+.+.+.+.@.=.+.+.%.%.$.O.&.$.O.$.$.O.&.$.O.@.uXuX%.%.$.&.$.O.$.&.g.j.l.o.pXuX/ o.o.o.o.o.o.o.d.h.s.s.s.o.o.o.o.g.o.o.o.o.d.d./ / / / #./ / / / ) ].u.u.u.u.u.u.u.u.u.u.u.u.u.[.p.p.p.u.u.u.u.u.u.u.u.i.u.r.' ] ] ] ] ] ] ] ] ] ] ] ] ] ' [ [ ' ] ] ] ] ] ] ] ' i.] ' ] ] ] ] ] i.' ] ] ' ] i.' ] ' ] [ ' ' ] i.' ' i.] ' [ ' ] B.H ` ` ` F ` *.>XA :X+.p f f f f f g S f f f f y C 7 7 7 7 7 7 D 7 x B & 7 7 7 7 6 ( iX;.;.;.;.iXn 6 7 E *XT T T *XR 0 6 b -X-X-X-X-X-X| 6 7 7 7 y y y y y y y y y y y y y y y y y y r 7 ",
"+.+.+.+.+.+.+.+.+.@.+.+.k.O.X.X.$.$.X.X.X.X.$.O.X.@.uXk.%.%.O.&.$.X.O.$.d.d.l.o.uXpX/ o.o.o.o.o.o.o.d.0.o.s.o.o.o.o.o.g.o.o.o.o.o.j.^ / / ^ #./ / / ^ u.p.u.u.) ] ] ) u.u.) ] ) u.u.[.y.p.u.u.] u.] ) u.u.) i.] r.] ' ' ' ' ' ' ' ' ' ' ' ' ' ' ] ] ' ' ' ' ' ' ' ' ' [ ' ' ' ' ' ' ' [ ' ' ' ' ' [ ' ' ' ] [ ' ' ' [ ' ' [ ' ' [ ' ' H ` ' ` ` H ` f *.} *.6Xa a a a a t f g t a a a y C 7 7 7 7 7 7 D 7 x B & 7 7 7 7 6 ( iX;.;.;.;.iXn 6 7 E *XT T T T R 0 6 b -X-X-X-X-X-X| 6 7 & & & & & & & & & & & & & & & & & & & & & & ",
"+.+.+.+.+.+.+.+.+.@.+.$.k.X.X.X.$.$.X.X.X.X.$.$.X.@.uXk.%.%.O.&.$.X.X.&.d.O.l.O.%.aXo.o.o.o.o.o.o.o.d.0.s.s.o.o.o.o.o.g.o.o.o.o.o.j.o./ / / #./ / / ^ p.y.u.u.) ] ] ] u.u.) ] ) u.u.[.y.p.u.u.u.u.] ) u.u.) i.] r.r.' ' ' ' ' ' ' ' ' ' ' ' ' ' ] ] ' ' ' ' ' ' ' ' ' [ ' ' ' ' ' ' ' [ ' ' ' ' ' [ ' ' ' ] [ ' ' ' [ ' ' [ ' ' [ ] ' ` ` ' ' ' ` ' A *.( :XdXa N f a f a f g a f f d y C 7 7 7 7 7 7 D 7 x B & 7 7 7 7 6 ( iX;.;.;.;.iXn 6 7 E *XT T T T R 0 6 b -X-X-X-X-X-X| 6 z B B B B B B B B B B B B B B B B B B B B B B ",
"+.+.+.+.+.+.+.+.+.@.+.%.%.X.X.X.$.$.X.X.X.X.$.$.X.@.uXk.%.%.O.&.$.X.X.l.d.O.l.O.O.aX%./ o.o.o.o.o.o.d.0.s.s.o.o.o.o.o.g.o.o.o.o.o.d.d.^ / / #./ / / / ].] u.u.) ] ] ] u.u.) ] ) u.u.[.y.p.u.u.u.u.] ) u.u.) i.] u.r.' ' ' ' ' ' ' ' ' ' ' ' ' ' ] ] ' ' ' ' ' ' ' ' ' [ ' ' ' ' ' ' ' [ ' ' ' ' ' [ ' ' ' ] [ ' ' ' [ ' ' [ ' ' [ ] ' [ ' ' ' ' ' ' ` $.+.:XfXa *.} i f a f g a f f d y C 7 7 7 7 7 7 D 7 x B & 7 7 7 7 6 ( iX;.;.;.;.iXn 6 7 E *XT T T T R 0 6 b -X-X-X-X-X-X| 6 c T.T.Z.Z.Z.Z.Z.Z.Z.Z.T.Z.Z.T.Z.Z.T.T.T.N x x ",
"+.+.+.+.+.+.+.+.+.=.+.k.O.X.X.X.$.$.X.X.X.X.$.$.X.@.uXk.%.%.O.&.$.X.X.z.d.O.l.O.O.pXpX/ o.o.o.o.o.o.d.0.s.s.o.o.o.o.o.g.o.o.o.o.o.o.j./ / / #./ / ^ u.].) u.u.) ] ] ] u.u.) ] ) u.u.[.y.p.u.u.u.u.] ) u.u.) i.u.] r.] ' ' ' ' ' ' ' ' ' ' ' ' ' ] ] ' ' ' ' ' ' ' ' ' [ ' ' ' ' ' ' ' [ ' ' ' ' ' [ ' ' ' ] [ ' ' ' [ ' ' [ ' ' [ ] ' i.] ' ' ' ' ' ` $.*.*.5X4X>X} i f a f g a f f d y C 7 7 7 7 7 7 D 7 x B & 7 7 7 7 6 ( iX;.<X;.;.iXn 6 7 E *XT T T *XR 0 6 b -X-X-X-X-X-X| 6 x Z.C.}.{.Z.Z.Z.Z.}.Z.C.Z.'.T.Z.Z.Z.Z.Z.7 & 7 ",
"+.+.+.+.+.+.+.+.@.-.X.k.X.X.X.X.$.$.X.X.X.X.$.$.X.@.uXk.%.%.O.&.$.X.O.z.O.O.l.O.g.l.aXo.o.o.o.o.o.o.d.0.s.s.o.o.o.o.o.g.o.o.o.o.o.o.j.o./ / #./ / ^ p.p.) u.u.) ] ] ] u.u.) ] ) u.u.[.y.p.u.u.u.u.] ) u.u.) i.u.] r.r.' ' ' ' ' ' ' ' ' ' ' ' ' ] ] ' ' ' ' ' ' ' ' ' [ ' ' ' ' ' ' ' [ ' ' ' ' ' [ ' ' ' ] [ ' ' ' [ ' ' [ ' ' [ ] ' i.] ' ' ' ' ' ' _ ,X:X:XhXfX} a f a f g a f f d y C 7 7 7 7 7 7 D 7 x B & 7 7 7 7 6 ( iX;.;.;.;.iXn 6 7 E *XT T T *XR 0 6 b -X-X-X-X-X-X| 6 x Z.C.$X#X#X@X{.@X@X#X}.@X}.#X@XT.Z.Z.Z.x 7 7 ",
"+.+.+.+.+.+.+.+.@.-.%.%.X.X.X.X.$.$.X.X.X.X.$.$.X.@.uXk.%.%.O.&.$.X.d.z.O.O.l.O.l.g.pXk./ o.o.o.o.o.d.0.s.s.o.o.o.o.o.g.o.o.o.o.o.o.d.d.^ / #./ / / ].u.) u.u.) ] ] ] u.u.) ] ) u.u.[.y.p.u.u.u.u.] ) u.u.) i.u.] u.r.' ' ' ' ' ' ' ' ' ' ' ' ' ] ] ' ' ' ' ' ' ' ' ' [ ' ' ' ' ' ' ' [ ' ' ' ' ' [ ' ' ' ] [ ' ' ' [ ' ' [ ' ' [ ] ' i.] ' ' ' ' ' ' ` >X6X*.hXfX} i f a f g a f f d y C 7 7 7 7 7 7 D 7 x B & 7 7 7 7 6 ( iX;.;.;.;.iXn 6 7 E *XT T T T R 0 6 b -X-X-X-X-X-X| 6 c Z.{.@X$X#X#X@X$X@X#X@X}.$X#X@X}.C.Z.C.7 7 7 ",
"+.+.+.+.+.+.+.+.+.@.k.O.X.X.X.X.$.$.X.X.X.X.$.$.X.@.uXk.%.%.O.&.$.X.j.l.O.O.l.O.l.g.uXpX/ o.o.o.o.o.d.0.s.s.o.o.o.o.o.g.o.o.o.o.o.o.o.j./ / #./ ^ u.].) ] u.u.) ] ] ] u.u.) ] ) u.u.[.y.p.u.u.u.u.] ) u.u.) i.u.] ] r.] ' ' ' ' ' ' ' ' ' ' ' ' ] ] ' ' ' ' ' ' ' ' ' [ ' ' ' ' ' ' ' [ ' ' ' ' ' [ ' ' ' ] [ ' ' ' [ ' ' [ ' ' [ ] ' i.] ' ' ' ' ' ' ' _ >X&.dXfX_ i f a f g a f f d y C 7 7 7 7 7 7 D 7 x B & 7 7 7 7 6 ( iX;.;.;.;.iXn 6 7 E *XT T T T R 0 6 b -X-X-X-X-X-X| 6 x Z.{.Z.{.}.{.}.}.{.#X}.{.}.{.}.'.Z.T.C 7 7 7 ",
"+.+.+.+.+.+.+.+.+.&.%.X.X.X.X.X.$.$.X.X.X.X.$.$.X.@.uXk.%.%.O.&.$.X.h.l.O.O.l.O.g.l.%.aXo.o.o.o.o.o.d.0.s.s.o.o.o.o.o.g.o.o.o.o.o.o.o.j.o.^ #./ ^ p.y.) ] u.u.) ] ] ] u.u.) ] ) u.u.[.y.p.u.u.u.u.] ) u.u.) i.u.] ] r.r.' ' ' ' ' ' ' ' ' ' ' ' ] ] ' ' ' ' ' ' ' ' ' [ ' ' ' ' ' ' ' [ ' ' ' ' ' [ ' ' ' ] [ ' ' ' [ ' ' [ ' ' [ ] ' i.] ' ' ' ' ' ' ] A } ` } fX( i f a f g a f f d y C 7 7 7 7 7 7 D 7 x B & 7 7 7 7 6 ( iX;.;.;.;.iXn 6 7 E *XT T T *XR 0 6 b -X-X-X-X-X-X| 6 x Z.V.C.V.V.V.V.V.V.{.C.V.V.V.V.V.V.B 7 7 7 7 ",
"+.+.+.+.+.+.+.+.+.k.%.X.X.X.X.X.$.$.X.X.X.X.$.$.X.@.uXk.%.%.O.&.$.O.j.l.O.O.l.O.g.l.o.aXk./ o.o.o.o.d.0.s.s.o.o.o.o.o.g.o.o.o.o.o.o.o.d.d.^ #./ / ].u.] ) u.u.) ] ] ] u.u.) ] ) u.u.[.y.p.u.u.u.u.] ) u.u.) i.u.] ] u.r.' ' ' ' ' ' ' ' ' ' ' ' ] ] ' ' ' ' ' ' ' ' ' [ ' ' ' ' ' ' ' [ ' ' ' ' ' [ ' ' ' ] [ ' ' ' [ ' ' [ ' ' [ ] ' i.] ' ' ' ' ' ' ] H ` ` A hX@.i f a f g a f f d y C 7 7 7 7 7 7 D 7 x B & 7 7 7 7 6 ( iX;.;.;.;.iXn 6 7 E *XT T T *XR 0 6 b -X-X-X-X-X-X| % c B 7 7 7 7 7 7 7 7 7 7 7 7 7 7 7 7 7 7 7 7 7 ",
"+.+.+.+.+.+.+.+.+.k.X.X.X.X.X.X.$.$.X.X.X.X.$.$.X.@.uXk.%.%.O.&.$.d.d.l.O.O.l.O.g.l.o.pXpX/ o.o.o.o.d.0.s.s.o.o.o.o.o.g.o.o.o.o.o.o.o.o.j.^ #./ ] ].) ] ) u.u.) ] ] ] u.u.) ] ) u.u.[.y.p.u.u.u.u.] ) u.u.) i.u.] ] ] r.] ' ' ' ' ' ' ' ' ' ' ' ] ] ' ' ' ' ' ' ' ' ' [ ' ' ' ' ' ' ' [ ' ' ' ' ' [ ' ' ' ] [ ' ' ' [ ' ' [ ' ' [ ] ' i.] ' ' ' ' ' ' ' } ` ' ` fX*.i f a f g a f f d y C 7 7 7 7 7 7 D 7 x B & 7 7 7 7 6 ( iX;.;.;.;.iXn 6 7 E *XT T T T R 0 6 b -X-X-X-X-X-X| % c B & 7 7 7 7 7 7 7 7 7 7 7 7 7 7 7 7 7 7 7 7 ",
"+.+.+.+.+.+.+.+.$.k.X.X.X.X.X.X.$.$.X.X.X.X.$.$.X.@.uXk.%.%.O.&.$.d.O.l.O.O.l.O.g.l.O.%.aXo.o.o.o.o.d.0.s.s.o.o.o.o.o.g.o.o.o.o.o.o.o.o.j.o.) ^ p.p.) u.] u.u.) ] ] ] u.u.) ] ] u.u.[.y.p.u.u.u.u.] ] u.u.) i.u.] ] ] r.r.' ' ' ' ' ' ' ' ' ' ' ] [ ' ' ' ' ' ' ' ' ' [ ' ' ' ' ' ' ' [ ' ' ' ' ' [ ' ' ' ] [ ' ' ' [ ' ' [ ' ' [ ] ' i.] ' ' ' ' ' ' ' ` ' ' ' fX,Xa f a f g a f f d y C 7 7 7 7 7 7 D 7 x B & 7 7 7 7 6 ( iX;.;.;.;.iXn 6 7 E *XT T T T R 0 6 b -X-X-X-X-X-X| % c B & 7 & & & & & & 7 & 7 7 7 7 7 7 7 7 7 7 7 ",
"+.+.+.+.+.+.+.+.%.j.X.X.X.X.X.X.$.$.X.X.X.X.$.X.X.X.k.k.%.%.O.$.g.d.O.l.O.O.l.O.O.l.O.o.pX%./ o.o.o.d.0.o.s.o.o.o.o.o.g.o.o.o.o.o.o.o.o.d.o.) / ].u.) ) ) u.u.) ) ) ) u.u.) ) ) u.u.[.y.p.u.u.] u.) ) u.] ) u.] ) ) ) r.r.' ' ' ' ' ' ' ' ' ' ' ] ] ' ' ' ' ' ' ' ' ' [ ' ' ' ' ' ' ' [ ' ' ' ' ' [ ' ' ' ' ] ' ' ' [ ' ' [ ' ' ] ' ' [ ' ' ' ' ' ' ' ' ' ' ' ( 6X9X( i t f g t a t a y C 7 7 7 7 7 7 D 7 x B & 7 7 7 7 6 ( iX;.;.;.;.iXn 6 7 E *XT T T *XR 0 6 b -X-X-X-X-X-X| % c B & 7 c N c N B N 7 N & % 7 7 7 7 7 7 7 7 7 ",
"=.=.=.=.=.=.=.@.k.l.$.$.$.$.$.$.&.&.$.$.$.$.&.&.$.$.uXuX&.&.&.&.z.j.l.l.l.l.l.l.l.l.l.g.pXpXr.g.g.#.h.h.g.g.g.g.g.g.g.g.g.g.g.g.g.g.g.f.g.j.#.u.].u.u.u.u.i.i.u.u.u.u.u.c.u.u.u.i.i.[.p.p.p.u.u.c.u.u.c.u.u.x.u.u.u.u.u.c.u.[ [ [ [ [ [ [ [ [ [ i.i.[ [ [ [ [ [ [ [ [ i.[ [ [ [ [ [ [ i.[ [ [ [ [ i.[ [ [ i.i.[ [ [ i.[ [ i.[ [ i.i.] i.[ [ [ [ [ [ [ [ [ [ [ -.4X=.:.h V S S g g g g y C 7 7 7 7 7 7 D 7 x B & 7 7 7 7 6 ( iX;.<X;.;.iXn 6 7 E *XT T T *XR 0 6 b -X-X-X-X-X-X| % c B & 7 {.C {.B T.G r Z.D B.7 7 7 7 7 7 7 7 7 ",
"@.@.@.@.@.@.-.$.k.&.$.$.$.$.$.$.&.&.$.$.$.$.&.&.$.$.uXuX&.&.&.&.z.l.l.l.l.l.l.l.l.l.l.g.l.aXs.g.g.#.h.h.g.d.g.g.g.g.s.g.g.g.g.g.g.g.g.g.s.z.f.p.p.u.u.u.u.i.i.u.u.u.u.u.i.u.u.u.u.i.[.p.p.p.u.u.c.u.u.c.u.u.c.u.u.u.u.u.c.u.[ [ [ [ [ [ [ [ [ ] i.i.] [ [ [ [ [ [ [ ] i.[ [ [ [ [ [ [ i.[ [ [ [ [ i.] [ [ [ i.] [ [ i.[ [ i.[ ] i.[ ] i.[ [ [ [ [ [ [ [ [ [ [ -.4X=.:.h V S S g g g g y C 7 7 7 7 7 7 D 7 x B & 7 7 7 7 6 ( iX;.;.;.;.iXn 6 7 E *XT T T *XR 0 6 b -X-X-X-X-X-X| % c B & 7 {.B {.x D c 7 V.C.Z.N & 7 7 7 7 7 7 7 ",
"+.+.+.+.+.+.+.%.%.$.X.X.X.X.X.X.$.$.X.X.X.X.$.O.X.X.uXk.%.%.X.l.h.O.O.l.O.O.l.O.O.l.O.O.o.aX%./ o.o.d.0.o.s.o.o.o.o.o.g.o.o.o.o.o.o.o.o.o.d.g.].u.) ) ) ) u.u.) ) ) ) u.u.) ) ) u.u.[.y.p.u.u.] u.) ) u.] ) u.] ) ) ) ) r.r.' ' ' ' ' ' ' ' ' ' ] ] ' ' ' ' ' ' ' ' ' [ ' ' ' ' ' ' ' [ ' ' ' ' ' [ ' ' ' ' ] ' ' ' [ ' ' [ ' ' [ ' ' [ ' ' ' ' ' ' ' ' ' ' ' #.4X-.*.i t f g t a t a y C 7 7 7 7 7 7 D 7 x B & 7 7 7 7 6 ( iX;.;.;.;.iXn 6 7 E *XT T T T R 0 6 b -X-X-X-X-X-X| % c B & 7 D 7 G # C x r Z.B B x & 7 7 7 7 7 7 7 ",
"+.+.+.+.+.+.+.k.%.$.X.X.X.X.X.X.$.$.X.X.X.X.$.$.X.@.uXk.%.%.X.j.d.O.O.l.O.O.l.O.g.l.O.O.o.pXpX/ o.o.d.0.s.s.o.o.o.o.o.g.o.o.o.o.o.o.o.o.o.o.h.].) ] ] ] ] u.u.) ] ] ] u.u.) ] ] u.u.[.y.p.u.u.u.u.] ] u.u.) i.u.] ] ] ] ] r.] ' ' ' ' ' ' ' ' ' ] [ ' ' ' ' ' ' ' ' ' [ ' ' ' ' ' ' ' [ ' ' ' ' ' [ ' ' ' ] [ ' ' ' [ ' ' [ ' ' [ ] ' i.] ' ' ' ' ' ' ' ' ' ' -.>X-.*.i f f g a f f d y C 7 7 7 7 7 7 D 7 x B & 7 7 7 7 6 ( iX;.;.;.;.iXn 6 7 E *XT T T T R 0 6 b -X-X-X-X-X-X| % c B & 7 7 7 7 7 7 7 7 7 7 7 7 7 7 7 7 7 7 7 7 ",
"+.+.+.+.+.+.@.k.$.$.X.X.X.X.X.X.$.$.X.X.X.X.$.$.X.@.uXk.%.%.O.z.g.O.O.l.O.O.l.O.g.l.O.O.O.%.aXo.o.o.d.0.s.s.o.o.o.o.o.g.o.o.o.o.o.o.o.o.o.o.b.p.) ] ] ] ) u.u.) ] ] ] u.u.) ] ) u.u.[.y.p.u.u.u.u.] ) u.u.) i.u.] ] ] ] ] r.r.' ' ' ' ' ' ' ' ' ] ] ' ' ' ' ' ' ' ' ' [ ' ' ' ' ' ' ' [ ' ' ' ' ' [ ' ' ' ] [ ' ' ' [ ' ' [ ' ' [ ] ' i.] ' ' ' ' ' ' ' ' ' ' ' ] ] ,Xa a f g a f f d y C 7 7 7 7 7 7 D 7 x B & 7 7 7 7 6 ( iX;.;.;.;.iXn 6 7 E *XT T T *XR 0 6 b -X-X-X-X-X-X| % c B & 7 7 7 7 7 7 7 7 7 7 7 7 7 7 7 7 7 7 7 7 ",
"+.+.+.+.+.+.%.%.$.$.X.X.X.X.X.X.$.$.X.X.X.X.$.$.X.@.uXk.%.%.O.z.$.O.O.l.O.O.l.O.g.l.O.O.O.O.aX%./ o.d.0.s.s.o.o.o.o.o.g.o.o.o.o.o.o.o.o.o.o.OXf.] ] ] ] ) u.u.) ] ] ] u.u.) ] ) u.u.[.y.p.u.u.u.u.] ) u.u.) i.u.] ] ] ] ] r.r.' ' ' ' ' ' ' ' ' ] ] ' ' ' ' ' ' ' ' ' [ ' ' ' ' ' ' ' [ ' ' ' ' ' [ ' ' ' ] [ ' ' ' [ ' ' [ ' ' [ ] ' i.] ' ' ' ' ' ' ' ' ' ' ' ' ' 6XA a f g a f f d y C 7 7 7 7 7 7 D 7 x B & 7 7 7 7 6 ( iX;.;.;.;.iXn 6 7 E *XT T T *XR 0 6 b -X-X-X-X-X-X| % c B % 7 7 7 7 7 7 7 7 7 7 7 7 7 7 7 7 7 7 7 7 ",
"+.+.+.+.+.+.k.O.$.$.X.X.X.X.X.X.$.$.X.X.X.X.$.$.X.@.uXk.%.%.j.z.$.O.O.l.O.O.l.O.g.l.O.O.O.o.pXpX/ o.d.0.s.s.o.o.o.o.o.g.o.o.o.o.o.o.o.o.o.r.OXh.] ] ] ] ) u.u.) ] ] ] u.u.) ] ) u.u.[.y.p.u.u.u.u.] ) u.u.) i.u.] ] ] ] ] ] r.' ' ' ' ' ' ' ' ' ] ] ' ' ' ' ' ' ' ' ' [ ' ' ' ' ' ' ' [ ' ' ' ' ' [ ' ' ' ] [ ' ' ' [ ' ' [ ' ' [ ] ' i.] ' ' ' ' ' ' ' ' ' ' ' ' ` :X} i f g a f f d y C 7 7 7 7 7 7 D 7 x B & 7 7 7 7 6 ( iX;.;.;.;.iXn 6 7 E *XT T T T R 0 6 b -X-X-X-X-X-X| % c N 7 x x x x x x x x x x x x x x x x x x x x ",
"+.+.+.+.+.@.k.X.$.$.X.X.X.X.X.X.$.$.X.X.X.X.$.$.X.@.uXk.%.%.j.l.O.O.O.l.O.O.l.O.g.l.O.O.O.O.k.aXo.o.d.0.s.s.o.o.o.o.o.g.o.o.o.o.o.o.o.o.o.p.x.h.u.] ] ] ) u.u.) ] ] ] u.u.) ] ) u.u.[.y.p.u.u.u.u.] ) u.u.) i.u.] ] ] ] ] ] r.u.' ' ' ' ' ' ' ' ] ] ' ' ' ' ' ' ' ' ' [ ' ' ' ' ' ' ' [ ' ' ' ' ' [ ' ' ' ] [ ' ' ' [ ' ' [ ' ' [ ] ' i.] ' ' ' ' ' ' ' ' ' ' ' ' ` :X} i g g a f f d y C 7 7 7 7 7 7 D 7 x B & 7 7 7 7 6 ( iX;.;.;.;.iXn 6 7 E *XT T T T R 0 6 b -X-X-X-X-X-X| % c B 7 r 7 7 7 7 7 7 7 7 7 7 7 7 7 7 7 7 7 7 7 ",
"+.+.+.+.+.%.%.X.$.$.X.X.X.X.X.X.$.$.X.X.X.X.$.$.X.@.uXk.%.j.j.l.g.O.O.l.O.O.l.O.g.l.O.O.O.O.O.aX%./ d.0.s.s.o.o.o.o.o.g.o.o.o.o.o.o.o.o.o.].c.h.f.] ] ] ) u.u.) ] ] ] u.u.) ] ) u.u.[.y.p.u.u.u.u.] ) u.u.) i.u.] ] ] ] ] ] r.r.' ' ' ' ' ' ' ' ] ] ' ' ' ' ' ' ' ' ' [ ' ' ' ' ' ' ' [ ' ' ' ' ' [ ' ' ' ] [ ' ' ' [ ' ' [ ' ' [ ] ' i.] ' ' ' ' ' ' ' ' ' ' ' ' ` :X_ i g g a f f d y C 7 7 7 7 7 7 D 7 x B & 7 7 7 7 6 ( iX;.;.;.;.iXn 6 7 E *XT T T *XR 0 6 b -X-X-X-X-X-X| % c B & 7 7 7 7 7 7 7 7 7 7 7 7 7 7 7 7 7 7 7 7 ",
"+.+.+.+.+.k.O.X.$.$.X.X.X.X.X.X.$.$.X.X.X.X.$.$.X.@.uXk.%.j.j.l.g.O.O.l.O.O.l.O.g.l.O.O.O.O.o.pXpX/ d.0.s.s.o.o.o.o.o.g.o.o.o.o.o.o.o.o.f.].c.f.h.] ] ] ) u.u.) ] ] ] u.u.) ] ) u.u.[.y.p.u.u.u.u.] ) u.u.) i.u.] ] ] ] ] ] ] r.' ' ' ' ' ' ' ' ] ] ' ' ' ' ' ' ' ' ' [ ' ' ' ' ' ' ' [ ' ' ' ' ' [ ' ' ' ] [ ' ' ' [ ' ' [ ' ' [ ] ' i.] ' ' ' ' ' ' ' ' ' ' ' ' ` :X+.i g g a f f d y C 7 7 7 7 7 7 D 7 x B & 7 7 7 7 6 ( iX;.<X;.;.iXn 6 7 E *XT T T *XR 0 6 b -X-X-X-X-X-X| % c B & 7 7 7 7 7 7 7 7 7 7 7 7 7 7 7 7 7 7 7 7 ",
"+.+.+.+.@.k.X.X.$.$.X.X.X.X.X.X.$.$.X.X.X.X.$.$.X.@.uXk.%.z.%.l.g.O.O.l.O.O.l.O.g.l.O.O.O.O.O.k.aX/ d.0.s.s.o.o.o.o.o.g.o.o.o.o.o.o.o.o.p.p.f.f.h.u.] ] ) u.u.) ] ] ] u.u.) ] ) u.u.[.y.p.u.u.u.u.] ) u.u.) i.u.] ] ] ] ] ] ] r.u.' ' ' ' ' ' ' ] ] ' ' ' ' ' ' ' ' ' [ ' ' ' ' ' ' ' [ ' ' ' ' ' [ ' ' ' ] [ ' ' ' [ ' ' [ ' ' [ ] ' i.] ' ' ' ' ' ' ' ' ' ' ' ' ` *.@.i g g a f f d y C 7 7 7 7 7 7 D 7 x B & 7 7 7 7 6 ( iX;.;.;.;.iXn 6 7 E *XT T T T R 0 6 b -X-X-X-X-X-X| % c B & 7 & 7 & 7 % & 7 & 7 & & 7 7 7 7 7 7 7 7 ",
"+.+.+.+.%.%.X.X.$.$.X.X.X.X.X.X.$.$.X.X.X.X.$.$.X.@.uXk.%.z.O.l.O.O.O.l.O.O.l.O.g.l.O.O.O.O.O.O.aXO.s.0.s.s.o.o.o.o.o.g.o.o.o.o.o.o.o.o.p.u.c.r.h.f.] ] ) u.u.) ] ] ] u.u.) ] ) u.u.[.y.p.u.u.u.u.] ) u.u.) i.u.] ] ] ] ] ] ] r.r.' ' ' ' ' ' ' ] ] ' ' ' ' ' ' ' ' ' [ ' ' ' ' ' ' ' [ ' ' ' ' ' [ ' ' ' ] [ ' ' ' [ ' ' [ ' ' [ ] ' i.] ' ' ' ' ' ' ' ' ' ' ' ' ' =.5XA d V a f f d y C 7 7 7 7 7 7 D 7 x B & 7 7 7 7 6 ( iX;.;.;.;.iXn 6 7 E *XT T T T R 0 6 b -X-X-X-X-X-X| % c B & 7 G C G C C.G 7 B.c D G 7 7 7 7 7 7 7 7 ",
"+.+.+.+.k.O.X.X.$.$.X.X.X.X.X.X.$.$.X.X.X.X.$.$.X.@.uXk.j.j.O.l.g.O.O.l.O.O.l.O.g.l.O.O.O.O.O.o.pXuXs.0.s.s.o.o.o.o.o.g.o.o.o.o.o.o.o.f.].f.c.f.f.h.] ] ) u.u.) ] ] ] u.u.) ] ) u.u.[.y.p.u.u.u.u.] ) u.u.) i.u.] ] ] ] ] ] ] ] r.' ' ' ' ' ' ' ] ] ' ' ' ' ' ' ' ' ' [ ' ' ' ' ' ' ' [ ' ' ' ' ' [ ' ' ' ] [ ' ' ' [ ' ' [ ' ' [ ] ' i.] ' ' ' ' ' ' ' ' ' ' ' ' ' ' fX@.p V a f f d y C 7 7 7 7 7 7 D 7 x B & 7 7 7 7 6 ( iX;.;.;.;.iXn 6 7 E *XT T T T R 0 6 b -X-X-X-X-X-X| % c B & 7 {.C {.N B.B 7 T.D V.7 7 7 7 7 7 7 7 7 ",
"+.+.+.@.k.X.X.X.$.$.X.X.X.X.X.X.$.$.X.X.X.X.$.O.X.X.uXk.z.j.O.l.O.O.O.l.O.O.l.O.O.l.O.O.O.O.O.O.k.pXs.0.o.s.o.o.o.o.o.g.o.o.o.o.o.o.o.u.p.f.c.f.f.h.u.] ) u.u.) ] ] ) u.u.) ] ) u.u.[.y.p.u.u.] u.] ) u.u.) i.] ) ] ] ] ] ] ) ] r.u.' ' ' ' ' ' ] ] ' ' ' ' ' ' ' ' ' [ ' ' ' ' ' ' ' [ ' ' ' ' ' [ ' ' ' ] [ ' ' ' [ ' ' [ ' ' [ ] ' i.' ' ' ' ' ' ' ' ' ' ' ' ' ' ` +.@.p V t a a a y C 7 7 7 7 7 7 D 7 x B & 7 7 7 7 6 ( iX<XiXiXiXiXn 6 7 R *XT *XT *XR 0 6 b -X-X-X-X-X2X| % c B & 7 T.c T.r G N % D {.V.r 7 7 7 7 7 7 7 7 ",
"+.@.+.%.k.@.$.$.$.&.O.$.$.$.$.O.&.$.$.$.$.$.&.$.$.@.uXuXz.j.%.l.l.O.g.l.O.O.l.O.l.l.O.g.g.g.g.g.g.aXz.h.s.s.s.o.o.o.o.g.o.o.o.o.o.o.o.p.c.f.c.f.f.h.f.u.u.u.u.u.u.u.u.u.u.u.u.u.u.u.[.p.p.p.u.u.i.u.u.u.u.u.c.u.u.u.u.u.u.u.u.u.u.r.' ] ] ] ] ' [ [ ' ] ] ] ] ] ] ] ' i.] ] ] ] ] ] ] i.] ] ] ] ] i.' ] ' [ [ ' ] ] i.' ] i.] ' i.[ ' i.] ' ] ] ] ] ] ] ] ] ] ] ] ] ` { *.h S f f f f y C 7 7 7 7 7 7 D 7 x B & 7 7 7 7 6 _ ;.:.:.:.:.;.n 6 7 E R R R R R E 0 6 w =X=X=X=X .=X| % c B & 7 c 7 c % x r 7 G x B C 7 7 7 7 7 7 7 7 ",
"=.@.-.k.&.$.$.$.&.&.$.$.$.$.$.$.&.&.$.$.$.$.&.&.$.$.uXuXz.l.l.l.l.l.l.l.l.l.l.l.l.l.l.l.l.l.l.l.g.pXpXh.g.g.g.g.g.g.g.g.g.g.g.g.g.g.f.].c.c.c.c.c.c.h.u.u.i.i.u.u.u.u.u.c.u.u.u.i.i.[.p.p.p.u.u.c.u.u.c.u.u.x.u.u.u.u.u.u.u.u.u.u.c.[ [ [ [ [ [ i.i.[ [ [ [ [ [ [ [ [ i.[ [ [ [ [ [ [ i.[ [ [ [ [ i.[ [ [ i.i.[ [ [ i.[ [ i.[ [ i.i.] i.i.[ [ [ [ [ [ [ [ [ [ [ [ [ ' { :.k S g g g j y C 7 7 7 7 7 7 D 7 x B & 7 7 7 7 6 W +.( ( ( ( +.b 6 7 K K K K K K K 0 6 q U Y Y Y Y U P 6 c B & 7 7 7 7 7 7 7 7 % 7 & & 7 7 7 7 7 7 7 7 ",
"+.+.@.k.X.X.X.X.$.$.X.X.X.X.X.X.$.$.X.X.X.X.$.O.X.X.uXz.j.%.O.l.O.O.O.l.O.O.l.O.O.l.O.O.O.O.O.O.O.*.rX0.o.s.o.o.o.o.o.g.o.o.o.o.o.o.u.p.f.f.c.f.f.f.h.) ) u.u.) ) ) ) u.u.) ] ) u.u.[.y.p.u.u.] u.) ) u.u.) u.] ) ) ) ) ) ) ) ) ] r.u.' ' ' ' ' ] ] ' ' ' ' ' ' ' ' ' [ ' ' ' ' ' ' ' [ ' ' ' ' ' [ ' ' ' ' [ ' ' ' [ ' ' [ ' ' [ ' ' [ ' ' ' ' ' ' ' ' ' ' ' ' ' ' ' ( *.d g t a t a y C 7 7 7 7 7 7 D 7 x B & 7 7 7 7 6 Q +.+.+.+.+.+.b 6 7 K I I I I I K 0 6 q U U U U U U K 6 c B & 7 7 7 7 7 7 7 7 7 7 7 7 7 7 7 7 7 7 7 7 ",
"+.+.%.%.X.X.X.X.$.$.X.X.X.X.X.X.$.$.X.X.X.X.$.$.X.@.k.z.j.j.%.l.g.O.O.l.O.O.l.O.g.l.O.O.O.O.O.O.O.O.aXz.s.s.o.o.o.o.o.g.o.o.o.o.o.o.p.c.f.f.c.f.f.r.h.f.] u.u.) ] ] ] u.u.) ] ] u.u.[.y.p.u.u.u.u.] ] u.u.) i.u.] ] ] ] ] ] ] ] ] r.r.' ' ' ' ' ] [ ' ' ' ' ' ' ' ' ' [ ' ' ' ' ' ' ' [ ' ' ' ' ' [ ' ' ' ] [ ' ' ' [ ' ' [ ' ' [ ] ' i.] ' ' ' ' ' ' ' ' ' ' ' ' ' ' ] :Xd V a f f d y C 7 7 7 7 7 7 D 7 x B & 7 7 7 7 6 Q +.+.+.+.+.+.b 6 7 K I I I I I K 0 6 q U U U U U U K 6 c B & 7 7 7 7 7 7 7 7 7 7 7 7 7 7 7 7 7 7 7 7 ",
"+.+.%.%.X.X.X.X.$.$.X.X.X.X.X.X.$.$.X.X.X.X.$.$.X.@.z.z.j.j.%.l.O.O.O.l.O.O.l.O.g.l.O.O.O.O.O.O.O.o.pXuXr.s.o.o.o.o.o.g.o.o.o.o.o.f.].f.f.f.c.f.f.f.f.h.' u.u.) ] ] ] u.u.) ] ) u.u.[.y.p.u.u.u.u.] ) u.u.) i.u.] ] ] ] ] ] ] ] ] u.r.' ' ' ' ' ] ] ' ' ' ' ' ' ' ' ' [ ' ' ' ' ' ' ' [ ' ' ' ' ' [ ' ' ' ] [ ' ' ' [ ' ' [ ' ' [ ] ' i.] ' ' ' ' ' ' ' ' ' ' ' ' ' ' -.,Xd V a f f d y C 7 7 7 7 7 7 D 7 x B & 7 7 7 7 6 Q +.+.+.+.+.+.b 6 7 K I I I I I K 0 6 q U U U U U U K 6 c N 7 c x x x x x x x x x x x x x x x x x x x ",
"+.@.k.X.X.X.X.X.$.$.X.X.X.X.X.X.$.$.X.X.X.X.$.$.X.@.z.z.j.j.%.l.O.O.O.l.O.O.l.O.g.l.O.O.O.O.O.O.O.O.uXaXs.s.o.o.o.o.o.g.o.o.o.o.o.u.p.f.f.f.c.f.f.f.f.h.) u.u.) ] ] ] u.u.) ] ) u.u.[.y.p.u.u.u.u.] ) u.u.) i.u.] ] ] ] ] ] ] ] ] ] r.u.' ' ' ' ] ] ' ' ' ' ' ' ' ' ' [ ' ' ' ' ' ' ' [ ' ' ' ' ' [ ' ' ' ] [ ' ' ' [ ' ' [ ' ' [ ] ' i.] ' ' ' ' ' ' ' ' ' ' ' ' ' ' -.,Xd g a f f f y C 7 7 7 7 7 7 D 7 x B & 7 7 7 7 6 Q +.+.+.+.+.+.b 6 7 K I K I I I K 0 6 q U U U U U U K 6 c B & 7 7 7 7 7 7 7 7 7 7 7 7 7 7 7 7 7 7 7 7 ",
"+.%.%.X.X.X.X.X.$.$.X.X.X.X.X.X.$.$.X.X.X.X.$.$.X.O.eXk.j.j.%.l.O.O.O.l.O.O.l.O.g.l.O.O.O.O.O.O.O.O.j.aXd.s.o.o.o.o.o.g.o.o.o.o.o.p.u.f.f.f.c.f.f.f.r.h.f.u.u.) ] ] ] u.u.) ] ) u.u.[.y.p.u.u.u.u.] ) u.u.) i.u.] ] ] ] ] ] ] ] ] ] r.r.' ' ' ' ] ] ' ' ' ' ' ' ' ' ' [ ' ' ' ' ' ' ' [ ' ' ' ' ' [ ' ' ' ] [ ' ' ' [ ' ' [ ' ' [ ] ' i.] ' ' ' ' ' ' ' ' ' ' ' ' ' ' ' 5X} h a f f d y C 7 7 7 7 7 7 D 7 x B & 7 7 7 7 6 Q +.+.+.+.+.+.b 6 7 K I K I K I K 0 6 q U U U U U U K 6 c B & 7 7 7 7 7 7 7 7 7 7 7 7 7 7 7 7 7 7 7 7 ",
"+.%.%.X.X.X.X.X.$.$.X.X.X.X.X.X.$.$.X.X.X.X.$.$.X.d.eXk.j.j.%.l.O.O.O.l.O.O.l.O.g.l.O.O.O.O.O.O.O.O.d.rXuXr.o.o.o.o.o.g.o.o.o.o.f.].f.f.f.f.c.f.f.f.r.h.h.u.u.) ] ] ] u.u.) ] ) u.u.[.y.p.u.u.u.u.] ) u.u.) i.u.] ] ] ] ] ] ] ] ] ] u.r.' ' ' ' ] ] ' ' ' ' ' ' ' ' ' [ ' ' ' ' ' ' ' [ ' ' ' ' ' [ ' ' ' ] [ ' ' ' [ ' ' [ ' ' [ ] ' i.] ' ' ' ' ' ' ' ' ' ' ' ' ' ' ' dX=.h f i f d t G 7 7 7 7 7 7 D 7 x B & 7 7 7 7 6 Q +.+.+.+.+.+.b 6 7 K I K I I I K 0 6 q U U U U U U K 6 c B & 7 7 7 7 7 7 7 7 7 7 7 7 7 7 7 7 7 7 7 7 ",
"@.k.X.X.X.X.X.X.$.$.X.X.X.X.X.X.$.$.X.X.X.X.$.$.X.d.eXk.j.j.%.l.O.O.O.l.O.O.l.O.g.l.O.O.O.O.O.O.O.O.d.uXpXs.o.o.o.o.o.g.o.o.o.o.u.p.f.f.f.f.c.f.f.f.f.f.h.u.u.) ] ] ] u.u.] u.) u.u.[.y.p.u.u.u.u.] ) u.u.) i.u.] ] ] ] ] ] ] ] ] ] ] r.] ' ' ' ] [ ' ' ' ' ' ' ' ' ' [ ' ' ' ' ' ' ' [ ' ' ' ' ' [ ' ' ' ] [ ' ' ' [ ' ' [ ' ' [ ] ' i.] ' ' ' ' ' ' ' ' ' ' ' ' ' ' ` 5X=.p a } +.>Xy C 7 7 7 7 7 7 D 7 x B & 7 7 7 7 6 Q +.+.+.+.+.+.b 6 7 K I I I I I K 0 6 q U U U U U U K 6 c B & 7 7 x 7 x x z 7 7 z & 7 7 % 7 7 7 7 7 7 ",
"$.%.X.X.X.X.X.X.$.$.X.X.X.X.X.X.$.$.X.X.X.X.$.$.O.h.k.k.j.%.O.l.g.O.O.l.O.O.l.O.g.l.O.O.O.O.O.O.O.O.j.z.aXd.o.o.o.o.o.g.o.o.o.o.p.u.f.f.f.f.c.f.f.f.f.r.h.f.u.) ] ] ] u.u.) ) ) u.u.[.y.p.u.u.u.u.] ) u.u.) u.] ) ] ] ] ] ] ] ] ] ] ] r.r.' ' ' ] ] ' ' ' ' ' ' ' ' ' [ ' ' ' ' ' ' ' [ ' ' ' ' ' [ ' ' ' ] [ ' ' ' [ ' ' [ ' ' [ ] ' i.] ' ' ' ' ' ' ' ' ' ' ' ' ' ' ` +.*.<XA 6X5XfXW C 7 7 7 7 7 7 D 7 x B & 7 7 7 7 6 Q +.+.+.+.+.+.b 6 7 K I I I I I K 0 6 q U U U U U U K 6 c B & 7 Z.C Z.C T.V.7 C.Z.B r x C.r 7 7 7 7 7 ",
"%.%.X.X.X.X.X.X.$.$.&.&.&.X.X.X.$.$.X.X.X.X.$.@.d.d.k.k.l.z.l.l.O.O.O.l.O.O.l.O.g.l.O.O.O.O.O.l.l.l.j.h.pXuX/ o.o.o.o.g.o.o.o.o.p.c.c.f.c.f.c.f.f.f.f.r.h.h.u.) ] ] ) u.x.u.u.) u.u.[.y.p.u.u.u.u.] ) u.u.) x.i.u.u.] ] ] ] ] ] ] ] ] u.r.' ' ' [ x.i.i.' ' ' ' ' ' ' [ ' ' ' ' ' ' ' x.i.i.' ' ' [ ' ' ' ] [ ' ' ' [ ' ' i.i.[ i.' ' i.] ' ' ' ' ' ' ' ' ' ' ' ' ' ' ' } 9XhX3X9X3X*.! V 7 7 7 7 7 7 D 7 x B & 7 7 7 7 6 Q +.+.+.+.+.+.b 6 7 K I K I K I K 0 6 q U U U U U U K 6 c B & 7 {.C {.c D x c B.7 }.C C.{.7 7 7 7 7 7 ",
"k.X.X.X.X.X.X.X.O.v.v.$.v.X.X.X.$.$.X.X.X.X.$.$.d.g.k.k.v.j.l.v.O.O.O.l.O.O.l.O.g.l.O.O.O.O.l.l.g.v.z.j.uXpX/ o.o.o.o.g.o.o.o.u.p.b.f.b.c.r.c.f.f.f.f.f.f.h.u.) ] ] ) x.x.x.x.) u.u.[.y.p.u.u.u.u.] ) u.] u.oXi.oXu.) ] ] ] ] ] ] ] ] ] r.] ' '  Xi.[  X' ' ' ' ' ' ' [ ' ' ' ' ' ' i. X[ .X[ ' ' [ ' ' ' ] [ ' ' ' [ ' '  X[ XX.X' ' i.] ' ' ' ' ' ' ' ' ' ' ' ' ' ' ' } 9X4X4X@.>X( +.V 7 7 7 7 7 7 D 7 x B & 7 7 7 7 6 Q +.+.+.+.+.+.b 6 7 K I K I K I K 0 6 q U U U U U U K 6 c B & 7 V.r V.& G N 7 C.C.G Z.Z.V.z 7 7 7 7 7 ",
"k.X.X.X.X.X.X.X.X.v.v.X.v.O.X.X.$.$.X.X.X.X.$.O.j.O.eXk.v.j.v.v.O.O.O.l.O.O.l.O.g.l.O.O.O.O.l.l.O.v.z.z.j.aXO.o.o.o.o.g.o.o.o.p.c.b.c.oXb.r.c.f.f.f.f.f.r.h.f.] ] ] ) x.x.u. Xu.u.u.[.y.p.u.u.u.u.] ) u.] u.oXi.oXc.) ] ] ] ] ] ] ] ] ] r.r.' '  Xi.i.i.' ' ' ' ' ' ' [ ' ' ' ' ' ' i. Xi..X[ ' ' [ ' ' ' ] [ ' ' ' [ ' '  X] i..X' ' i.] ' ' ' ' ' ' ' ' ' ' ' ' ' ' ' m 5X-.*.( ,X_ | V 7 7 7 7 7 7 D 7 x B & 7 7 7 7 6 Q +.+.+.+.+.+.b 6 7 K I I I I I K 0 6 q U U U U U U K 6 c B & 7 7 7 7 7 7 7 7 7 x & x 7 r 7 7 7 7 7 7 ",
"%.X.X.X.X.X.X.X.$.$.&.$.$.X.X.X.$.$.X.X.X.X.$.d.d.O.eXk.j.z.l.l.O.O.O.l.O.O.l.O.O.l.O.O.O.O.O.l.l.l.j.z.o.pXuX/ o.o.o.g.o.o.o.].f.c.c.f.f.f.c.f.f.f.f.f.r.h.h.' ) ] ) u.x.u.u.) u.u.[.y.p.u.u.] u.] ) u.u.) x.u.u.u.) ] ] ] ] ) ] ] ) ] u.r.' ' [ x.] ' ' ' ' ' ' ' ' [ ' ' ' ' ' ' ' x.[ i.' ' ' [ ' ' ' ] [ ' ' ' [ ' ' i.i.[ i.' ' i.' ' ' ' ' ' ' ' ' ' ' ' ' ' ' ' A ,XH y ( :X}  .V 7 7 7 7 7 7 D 7 x B & 7 7 7 7 6 Q +.+.+.+.+.+.b 6 7 K I I I I I K 0 6 q U U U U U U K 6 c B & 7 7 7 7 7 7 7 7 7 7 7 7 7 7 7 7 7 7 7 7 ",
"$.$.X.$.$.X.$.$.$.&.X.$.O.X.$.O.$.$.$.$.X.X.&.j.d.$.eXk.j.j.%.l.l.g.O.l.O.g.l.O.l.l.O.g.O.O.O.O.g.O.j.z.d.uXpX/ o.o.o.g.o.o.c.p.f.f.f.f.f.f.c.f.f.f.f.f.f.c.h.) u.u.] u.u.u.) ] u.u.[.p.p.p.u.u.i.] u.i.u.u.u.u.] ) u.u.] u.u.u.] ] u.u.] c.] ' [ ] ' ' ' ] ' ' ] ] ' [ ] ] ' ] ] ' ] [ ' ' ' ] ] [ ' ] ] ] [ ] ' ' i.' ' [ ' ' ] [ ' [ ] ' ] ' ' ] ] ] ] ] ] ] ] ] ] [ H V S p { :Xg Q C 7 7 7 7 7 7 D 7 x B & 7 7 7 7 6 Q +.+.+.+.+.+.b 6 7 K I K I K I K 0 6 q U U U U U U K 6 c B % 7 7 7 7 7 7 7 7 7 7 7 7 7 7 7 7 7 7 7 7 ",
"v.v.X.v.v.X.v.v.X.v.l.v.l.X.v.v.X.v.v.v.$.&.v.z.l.v.uXk.v.v.v.O.v.n.O.l.v.v.v.O.v.v.O.v.v.O.v.l.n.l.j.uXl.j.aXv.v.o.g.n.o.g.OXp.c.b.b.b.f.b.b.f.b.b.oXc.f.oXn.r.oXx.] x.x.oXu.u.oXu.[.OXOXOXu.x.oX) x.oX) x.x.oXx.) oXx.) x.x.oXu.u.oXu.u.oXr.] XXx..X' i..X' i. X XXX'  XXX' XX X' XXi..Xi.' .Xi.'  XXX.X' i..X] i..X] [ XXXX X' XX X' x.XX.Xi.' .X X[ ] [ [ [ [ [ ] [ ` g S h } +.h t D 7 7 7 7 7 7 D 7 x B & 7 7 7 7 6 Q +.+.+.+.+.+.b 6 7 K I K I K I K 0 6 q U U U U U U K 6 c N 7 x z z z z x x z 0 0 x x x z z z z z z z ",
"v.v.X.v.v.X.v.v.X.v.l.v.l.X.v.v.X.v.v.v.$.&.n.j.l.n.uXk.v.v.v.O.v.n.O.l.v.n.v.O.v.v.O.v.v.O.v.l.n.l.j.uXl.d.aXiXb.o.g.n.o.g.OXf.c.b.b.b.f.b.b.r.b.b.oXc.f.oXb.f.OXx.] x.x.oXu.u.oXu.[.OXOXOXu.x.oX) x.oX) x.x.oXx.) oXx.) x.x.oXu.u.oXu.u.oXc.] XXx..X' i..X' i. X XXX'  X X' XX X' XXi..Xi.' .Xi.'  XXX.X' i..X] i..X] i.XXXX X' XX X' x.XX.Xi.' .X X] ' ' ' ' ' ' ' ' m d g t a a a y C 7 7 7 7 7 7 D 7 x B & 7 7 7 7 6 Q +.+.+.+.+.+.b 6 7 K I I I I I K 0 6 q U U U U U U K 6 c N 7 x x x x x 0 0 c S V 0 0 x x x x x x x x ",
"v.v.X.v.v.X.v.v.X.v.l.v.l.X.v.v.X.v.v.v.$.&.n.d.l.n.uXk.v.v.v.O.v.n.O.l.v.n.v.O.v.v.O.v.v.O.v.l.n.l.j.uXl.d.pXaXb.o.g.n.o.c.OXf.c.b.b.b.f.b.b.f.b.b.oXc.f.oXc.h.oXx.] x.x.oXu.u.oXu.[.OXOXOXu.x.oX) x.oX) x.x.oXx.) oXx.) x.x.oXu.u.oXu.u.oXc.u.XXx..X' i..X' i. X XXX'  X X' XX X' XXi..Xi.' .Xi.'  XXX.X' i..X] i..X] i.XXXX X' XX X' x.XX.Xi.' .X X] ' ' ' ' ' ' ' ] } d g a f f d y C 7 7 7 7 7 7 D 7 x B & 7 7 7 7 6 Q +.+.+.+.+.+.b 6 7 K I I I I I K 0 6 q U U U U U U K 6 c B % 7 7 7 7 & f (.KXKXKXAXJ.& & 7 7 7 7 7 7 ",
"v.v.X.v.v.X.v.v.X.v.l.v.l.X.v.v.X.v.v.v.$.&.n.g.l.n.uXk.v.v.v.O.v.n.O.l.v.n.v.O.v.v.O.v.v.O.v.l.n.l.j.uXl.j.v.aXv.o.g.n.o.].+Xf.c.b.b.b.f.b.b.r.b.b.oXc.f.oXc.h.oXx.] x.x.oXu.u.oXu.[.OXOXOXu.x.oX) x.oX) x.x.oXx.) oXx.) x.x.oXu.u.oXu.u.oXc.u.XXx..X' i..X' i. X XXX'  XXX' XX X' XXi..Xi.' .Xi.'  XXX.X' i..X] i..X] [ XXXX X' XX X' x.XX.Xi.' .X X] ' ' ' ' ' ' ' ] } d g a f f d y C 7 7 7 7 7 7 D 7 x B & 7 7 7 7 6 Q +.+.+.+.+.+.b 6 7 K I I I I I K 0 6 q U U U U U U K 6 c B & 7 7 7 7 M.KXKXAXP.(.AXKX(.7 7 7 7 7 7 7 ",
"v.v.X.v.v.X.v.v.X.v.l.v.l.X.v.v.X.v.v.v.$.l.n.l.l.n.uXk.v.v.v.O.v.n.O.l.v.n.v.O.v.v.O.v.v.O.v.l.n.l.j.uXl.j.v.aXiX/ g.n.s.[.oXf.c.b.b.b.f.b.b.f.b.b.oXc.f.oXc.h.n.x.u.x.x.oXu.i.oXu.[.OXOXOXu.x.oX] x.oX] x.x.oXx.] oXx.]  Xx.oXu.u.oXu.u.oXc.c.XXx..X' i..X' i. X XXX'  X X' XX X' XXi..Xi.] .Xi.]  XXX.X' i..X] i..X] i.XXXX X' XX X' x.XX.Xi.' .X X] ' ' ' ' ' ' ' ] ~ d g a f f d y C 7 7 7 7 7 7 D 7 x B & 7 7 7 7 6 Q +.+.+.+.+.+.b 6 7 K I K I K I K 0 6 q U U U U U U K 6 c B & 7 7 & f KXKXa X . X = (.IXY.$ 7 7 7 7 & ",
"v.v.v.v.v.v.v.v.v.v.&.v.v.v.v.v.v.v.v.v.v.n.n.v.v.v.uXuXv.v.n.v.n.v.v.n.v.v.v.v.n.v.v.n.v.v.v.l.n.v.n.n.v.v.v.pXaXc.v.v.b.OXb.b.oXc.b.oXb.oXb.b.oXb.oXb.b.oXb.b.n. X X Xc.oXx.oXoXx.|.OXOXOXx.oXoXx.oXoXx.oXc.oX Xx.oX Xx.oXx.oXx. XoXx. XoXx.b.XXx..XXX.X.XXX.XXX X XXX.X XXX.X XXX.Xi..XXXXX.XXXXX XXX.XXX X.XXX X.XXX Xx.XX.XXX.X XXX.XXX.XXXXX.X X] ' ' ' ' ' ' ' ] ` f g a f f d y C 7 7 7 7 7 7 D 7 x B & 7 7 7 7 6 Q +.+.+.+.+.+.b 6 7 K I K I K I K 0 6 q U U U U U U K 6 c B & 7 7 $ (.AXt X r C C # . !.KXf & 7 7 7 7 ",
"v.v.v.v.v.v.v.v.v.v.&.v.v.v.iXv.v.v.v.v.v.n.n.v.n.n.uXpXv.v.n.v.n.n.v.n.v.n.v.v.n.v.v.n.v.v.n.l.n.v.n.uXv.n.v.v.aXv.n.v.OX+XoXb.+Xb.b.oXb.+XoXb.oXb.oXb.oX+Xb.oXn.b.oXoXc.oXx.oXoX X|.OXOXOX XoXoX XoXoX XoXc.oXoX XoXoXoXoXx.oX XoXoX XoXoX Xb.x.x..XXX.X.XXX.X X.X.X X.X X X.X.X X.Xi..X X.X.X X X.X X.XXX.X.XXX.X.XXX.Xx.XX.XXX.X.XXX.XXX.X X X.X X] ' ' ' ' ' ' ' ] ` f g a f f d y C 7 7 7 7 7 7 D 7 x B & 7 7 7 7 6 Q +.+.+.+.+.+.b 6 7 K I I I I I K 0 6 q U U U U U U K 6 c B & 7 7 r AXAXX 7 G G C.B.. M.IXJ.$ 7 7 7 7 ",
"v.v.l.v.v.l.v.v.l.v.$.v.l.l.v.l.v.v.l.v.l.z.v.l.v.v.uXuXz.z.v.l.v.v.l.v.l.v.v.l.v.v.l.v.v.l.v.l.v.l.z.z.l.z.v.l.aXiXc.v.OXb.b.c.b.c.c.b.c.b.b.c.b.c.b.c.c.b.b.c.n.b.x.x.i.x.x.x.x.x.|.]. XXXp.x.x.x.x.x.x.x.c.x.x.x.x.x.x.x.c.x.x.x.x.x.x.x.x.x.b.i.XXi.XXXXi.XXi.x.x.x.XXx.i.XXx.i.XXi.XXi.x.XXi.XXx.i.XXi.XXXXi.XXXXi.XXi.i.XXi.XXx.x.XXi.XXi.i.XXx.] ' ' ' ' ' ' ' ] ` f g a f f d y C 7 7 7 7 7 7 D 7 x B & 7 7 7 7 6 Q +.+.+.+.+.+.b 6 7 K I I I I I K 0 6 q U U U U U U K 6 c B & 7 & y KXY.X c D G c x = 6 KXY.$ 7 7 7 7 ",
"X.X.X.X.X.X.X.X.O.$.X.X.X.X.X.X.$.$.X.X.d.d.l.O.O.O.k.k.j.j.O.l.O.O.O.l.O.O.l.O.O.l.O.O.O.O.O.O.O.O.j.z.d.d.O.o.uXpX^ c.p.f.f.f.f.f.f.f.f.f.c.f.f.f.f.f.f.f.f.r.f.h.) u.u.) ) ) u.u.[.y.p.u.u.) u.) ) u.] ) i.) ) ) ) ) ) ) ) ) ) ) ) ) ) ) ) ) c.] _ ' ' ' ' ' ' ' ' [ ' ' ' ' ' ' ' [ ' ' ' ' ' [ _ ' ' ' ] ' ' ' [ ' ' [ ' ' [ ' ' i.' ' ' ' ' ' ' ' ' ' ' ' ' ' ' ] ` f g t a t d y C 7 7 7 7 7 7 D 7 x B & 7 7 7 7 6 Q +.+.+.+.+.+.b 6 7 K I K I K I K 0 6 q U U U U U U K 6 c B & 7 & y KXAXX r C D B N . a AXJ.$ 7 7 7 7 ",
"$.$.X.X.X.X.X.X.$.$.$.$.$.X.X.X.$.$.X.O.h.O.l.g.g.$.k.k.j.j.%.l.g.O.O.l.O.O.l.O.g.l.$.g.g.g.g.O.O.O.j.z.j.d.g.O.%.aXo.x.p.c.c.f.c.f.f.f.f.f.c.c.f.c.f.c.f.c.c.f.f.h.r.u.u.u.u.u.i.u.[.y.p.u.u.u.u.] ] u.u.] i.u.u.] ) ] ] ] ] ] ] ] ] ] ] ] u.] r.u.[ ' ' ' ' ' ' ' ' [ [ [ ' ' ' ' ' [ ' ' ' ' ' [ [ ] ' ] [ ' ' ' [ ' ' [ ' ' [ ] ' i.[ ' [ ] ' ' ' ' ' ' ' ' ' ' ' ' ` f S g f g d y D 7 7 7 7 7 7 D 7 x B & 7 7 7 7 6 Q +.+.+.+.+.+.b 6 7 K I K I K I K 0 6 q U U U U U U K 6 c B & 7 7 $ AXKX@ . x B C 7 X M.(.f & 7 7 7 7 ",
".X X=.X.X.X.X.X.$.$.c..X X=.X.X.$.$.X.O.d.O.j.c..Xx.n.k.j.j.%.l.O.O.O.l.O.O.l.O.g.l.x.x. X.Xx.O.O.O.j.z.j.d.d.O.o.pXk.].c.OXOXOXOXc.f.f.f.f.c.x.OX XOX Xf.f.c.f.r.h.f.] p.|.].].|.].[.y.p.u.u.u.u.] ) u.u.] u.].].].u.] ] ] ] ] ] ] ] ] ] ] ] ] u.c.].|.[ ' ' ' ' ' ' ] i.|.].] ' ' ' [ ' ' ' ' ' i.|.].].] [ ' ' ' [ ' ' [ ' ' [ ] ' [ ].].].|.].' ' ' ' ' ' ' ' ' ' ' ` f g B.R.A.A.y C 7 7 7 7 7 7 D 7 x B & 7 7 7 7 6 Q +.+.+.+.+.+.b 6 7 K I I I I I K 0 6 q U U U U U U K 6 c B & 7 7 $ M.KXAX# . @ o . M.(.P.7 7 7 7 7 7 ",
" XXXc.X.X.X.X.X.$.$.=..XXXc.X.X.$.$.X.d.d.O.l.g. X.Xv.z.j.j.%.l.O.O.O.l.O.O.l.O.g.l.c. Xx..Xx.g.O.O.j.z.j.d.d.O.o.uXpX[.c.OX XOX Xx.f.f.f.f.c.c.|. XOX Xc.f.c.f.f.f.h.u.u.].|.].|.].[.y.p.u.u.u.u.] ) u.u.] u.i.].|.u.) ] ] ] ] ] ] ] ] ] ] ] ] u.c.].|.].' ' ' ' ' ' [ [ |.|.[ ' ' ' [ ' ' ' ' ' [ ].|.|.' [ ' ' ' [ ' ' [ ' ' [ ] ' [ [ ].].|.|.' ' ' ' ' ' ' ' ' ' ' ' M j A.A.A.}.N C 7 7 7 7 7 7 D 7 x B & 7 7 7 7 6 Q +.+.+.+.+.+.b 6 7 K I I I I I K 0 6 q U U U U U U K 6 c B & 7 7 7 & !.IXP.* % % 7 (.(.t & 7 7 7 7 7 ",
"c.c.@.X.X.X.X.X.$.$.c.c.c.@.X.X.$.$.X.d.O.O.l.g.c.c.n.k.j.j.O.l.O.O.O.l.O.O.l.O.$.l.g.g.c.c.c.O.O.O.j.z.d.d.O.O.O.%.jXp.x. Xx.x.XXf.f.f.f.f.c.x.x.XXx.x.r.f.f.r.f.r.h.u.i.p.p.p.].i.[.y.p.y.y.] u.] ) u.u.) u.u.i.i.u.) ] ] ] ] ] ] ] ] ] ] ] ] ] x.].i.i.' ' ' ' ' ' [ i.].i.[ ' ' ' [ ' ' ' ' ' [ ].].i.] ] ' ' ' [ ' ' [ ' ' [ ' ' [ [ [ ].].i.' ' ' ' ' ' ' ' ' ' ' ' B S.A.S B.S N C 7 7 7 7 7 7 D 7 x B & 7 7 7 7 6 Q +.+.+.+.+.+.b 6 7 K I I I I I K 0 6 q U U U U U U K 6 c B & 7 7 7 7 & J.r & & 7 & j f $ 7 7 7 7 7 7 ",
"%.%.%.%.%.%.%.%.%.&.%.%.%.%.%.%.&.&.j.z.%.j.l.j.%.%.eXuXj.k.j.l.j.%.j.l.j.j.l.j.l.l.%.%.%.%.%.j.j.%.z.z.j.j.j.j.j.g.lXn.f.f.f.f.f.f.f.f.f.f.c.f.f.f.f.f.f.c.c.f.f.f.h.h.u.r.r.) u.f.[.p.p.p.u.u.c.u.u.c.u.u.c.u.u.r.u.u.u.u.u.u.u.u.u.u.u.u.u.u.u.c.f.' ] ] ] ] ] ] ] i.] ' ' ] ] ] ] i.] ] ] ] ] i.' ' ' ] i.] ] ] i.] ] i.] ' i.] ' c.] ' ' ' ' ] ] ] ] ] ] ] ] ] ] ] ' H g t a t t y C 7 7 7 7 7 7 D 7 x B & 7 7 7 7 6 Q +.+.+.+.+.+.b 6 7 K I K I K I K 0 6 q U U U U U U K 6 c B & 7 7 7 7 7 * $ y j f 7 $ & 7 7 7 7 7 7 7 ",
"W W W W W W W W W W W W W W W W W W W W W W W W W W W W W W W W W W W W W W W W W W W W W W W W W W W W W W W W W m ` ~ m m m m m m m m m m m m m m m m m m m m m m m W m m m m m m m m m m m n m n n m n n m n n m n n n n n n n n n n n n n n m m m n n n n n n n n n n n n n n n n n n n n n n n n n n n n n n n n n n n n n n n n n n n n n n n n n n n n n n n n n n c y y y y y G x 7 7 7 7 7 7 G 7 c B & 7 7 7 7 6 Q +.+.+.+.+.+.b 6 7 K I K I I I K 0 6 q U U U U U U K 6 c B & 7 7 7 7 7 g _.KXKXPXKXP.7 & 7 7 7 7 7 7 ",
"C C C C C C C C C C C C C C C C C C C C C C C C C C C C C C C C C C C C C C C C C C C C C C C C C C C C C C C C C C B B C C C C C C C C C C C C C C C C C C C C C C C C C C C C C C C C C C C C C C C C C C C C C C C C C C C C C C C C C C C C C C C C C C C C C C C C C C C C C C C C C C C C C C C C C C C C C C C C C C C C C C C C C C C C C C C C C C C C C C C C C C C C C C C x 7 7 7 7 7 7 7 x G G z 7 7 7 7 7 6 Q +.+.+.+.+.+.b 6 7 K I I I I I K 0 6 q U U U U U U K 6 c B & 7 7 7 7 M.PXAXAXM.!.AXPX_.7 7 7 7 7 7 7 ",
"7 7 7 7 7 7 7 7 7 7 7 7 7 7 7 7 7 7 7 7 7 7 7 7 7 7 7 7 7 7 7 7 7 7 7 7 7 7 7 7 7 7 7 7 7 7 7 7 7 7 7 7 7 7 7 7 7 7 7 7 7 7 7 7 7 7 7 7 7 7 7 7 7 7 7 7 7 7 7 7 7 7 7 7 7 7 7 7 7 7 7 7 7 7 7 7 7 7 7 7 7 7 7 7 7 7 7 7 7 7 7 7 7 7 7 7 7 7 7 7 7 7 7 7 7 7 7 7 7 7 7 7 7 7 7 7 7 7 7 7 7 7 7 7 7 7 7 7 7 7 7 7 7 7 7 7 7 7 7 7 7 7 7 7 7 7 7 7 7 7 7 7 7 7 7 7 7 7 7 7 7 7 7 7 7 7 7 7 7 7 7 7 7 7 % 7 7 7 & & 7 7 7 7 6 Q +.+.+.+.+.+.b 6 7 K I I I I I K 0 6 q U U U U U U K 6 c B & 7 7 & g KXKXt X . X . !.KXJ.& 7 7 7 7 7 ",
"7 7 7 7 7 7 7 7 7 7 7 7 7 7 7 7 7 7 7 7 7 7 7 7 7 7 7 7 7 7 7 7 7 7 7 7 7 7 7 7 7 7 7 7 7 7 7 7 7 7 7 7 7 7 7 7 7 7 7 7 7 7 7 7 7 7 7 7 7 7 7 7 7 7 7 7 7 7 7 7 7 7 7 7 7 7 7 7 7 7 7 7 & & & & & & & & & & & & & & & 7 7 7 & & & & & & & & 7 7 7 7 7 7 7 7 7 7 7 7 7 7 7 x 7 7 7 7 7 7 7 7 7 7 7 7 7 7 7 7 7 7 7 7 7 7 7 7 7 7 7 7 7 7 7 7 7 7 7 7 7 7 7 7 7 7 7 7 7 7 7 7 7 7 7 7 7 7 7 7 7 7 7 x G 7 x C x C 7 7 7 7 6 Q +.+.+.+.+.+.b 6 7 K I K I K I K 0 6 q U U U U U U K 6 c B & 7 7 $ (.AXr X x D D o X P.(.y & 7 7 7 7 ",
"7 7 7 7 7 7 7 7 7 7 7 7 7 7 7 7 7 7 7 7 7 7 7 7 7 7 7 7 7 7 7 7 7 7 7 7 7 7 7 7 7 7 7 7 7 7 7 7 7 7 7 7 7 7 7 7 7 7 7 7 7 7 7 7 7 7 7 7 7 7 7 7 7 7 7 7 7 7 7 7 7 7 7 7 7 7 7 7 7 7 7 7 N N N N N N B N N N N N N N N N 7 x B N N N N N N N N 7 7 7 7 7 7 7 7 7 7 7 7 7 7 x 7 7 N G D D D D D D D D D D D D D D D D D D G D G G D G G G D D D D D D D D D D D D D D D D D D D D D D G r 7 7 7 7 & G Z.N G Z.{.V.c & 7 7 6 Q +.+.+.+.+.+.b 6 7 K I K I K I K 0 6 q U U U U U U K 6 c B & 7 7 y KXAXX 7 G G c x = k AXM.$ 7 7 7 7 ",
"c c c c c c c c c c c c c x c x x x 7 7 7 7 7 & 7 7 7 7 7 7 7 7 7 r c x x x c c x x x c x c c c c x x c z x 7 7 7 7 7 % & 7 7 7 7 7 7 7 7 x x c c c c c c c c c c c x x x x x 7 7 7 7 x V.C B C B C B C C C C B C C C V.7 G D C C C B C C C B.7 7 7 7 7 7 7 7 7 7 7 7 7 7 x 7 & D C N N N N N N N N N N N N N N N N N N c N c c N c N c N N N N N N N N N N N N N N N N N N N N N c G x 7 7 7 7 & G B.G G V.{.G N & 7 7 6 Q +.+.+.+.+.+.b 6 7 K I K I K I K 0 6 q U U U U U U K 6 c B & 7 & y KXP.X c D D N B.# % (.J.$ 7 7 7 7 ",
"B c x c c c c c c c c c c x x {.{.x 7 7 7 7 c D G 7 7 & 7 & 7 7 7 x N B B B c x D C D c N x x x x x x B #XB z 7 7 7 7 C.D & 7 7 7 7 7 7 z G C x x c x x x x x x x N D z B #XB z 7 7 7 x D x C c C N C c N c N B N c x G 7 D c N c N B N c x G 7 7 7 7 7 7 7 7 7 7 7 7 7 7 x 7 & C B x c c c c c c c c c c c c c c c x N D N V.B.B D C G B x c c c c c c c c c c c c c c c c c c c x G x 7 7 7 7 7 c V.B C B.B V.7 7 7 7 6 Q @.+.+.+.+.+.b 6 7 K I I I I I K 0 6 q U U U U U U K 6 c B & 7 7 y KXAXX r D C G D = d AXM.$ 7 7 7 7 ",
"G G C.c c c c c c c c c c x c @X#Xc 7 7 7 % C.G G B.V.G Z.C Z.G & z B.{.{.'.x C.}.{.{.B.C.C.D G {.Z.7 C.$XZ.7 7 7 7 & V.V.C B.Z.G V.C.& x }.B.G C.{.G V.V.G Z.D G Z.Z.7 Z.$XC.7 7 7 7 x D B }.T.{.T.{.x {.C.{.Z.{.Z.x G 7 G x {.C.{.Z.{.Z.x G 7 7 7 7 7 7 7 7 7 7 7 7 7 7 x 7 & C B x c c c c c c c c c c c c c c c x B T.N T.}.{.V.}.{.x x x c c c c c c c c c c c c c c c c c c x G x 7 7 7 7 7 7 & 7 % # # & 7 7 7 7 6 W ( ! ! ( ! ( b 6 7 P K K K K K K 7 6 q Y Y K Y K Y P % c B & 7 7 $ AXKX# . x B B & X J.(.f & 7 7 7 7 ",
"{.}.C x c c c c c c c c c x B }.{.N 7 7 7 7 z Z.{.Z.G {.B.{.}.G & c }.}.{.T.D {.T.{.{.T.T.Z.}.Z.C.V.7 C.}.V.r 7 7 7 % B.N {.C.V.Z.}.Z.7 x }.C }.'.Z.}.}.{.B.{.T.T.#XC.7 C.}.V.r 7 7 7 x D B {.G }.T.Z.D {.}.{.C.{.T.x G 7 G c Z.}.'.C.{.T.x G 7 7 7 7 7 7 7 7 7 7 7 7 7 7 x 7 & C B x c c c c c c c c c c c c c c c x B {.B {.C.}.{.}.{.B C C c c c c c c c c c c c c c c c c c c x G x 7 7 7 7 7 7 7 7 N N N 7 7 7 7 7 7 7 6 5 6 5 6 5 7 7 7 7 5 6 6 5 5 5 7 7 7 7 5 6 5 5 5 6 & c B & 7 7 & M.KXAX% . @ o . M.AXP.7 7 7 7 7 7 ",
"T.C.C.x c c c c c c c c c x x @X#Xx 7 7 7 7 N G N B D G {.x D c & x B.{.T.Z.N '.T.T.{.T.C {.V.Z.Z.C.7 G DXB.r 7 7 7 7 N z Z.B {.c B B & x {.V.Z.C.Z.T.Z.B.D G C.{.{.B.7 B.DXG r 7 7 7 x D N B c D G V.N C B.D V.G D c G 7 D c C B.D C.G D c G 7 7 7 7 7 7 7 7 7 7 7 7 7 7 x 7 & C B c c c c c c c c c c c c c c c c c c Z.C.C.D C V.C G V.G B.N c c c c c c c c c c c c c c c c c x G x 7 7 7 7 7 7 7 C.T.Z.'.z 7 7 7 7 7 5 z 5.z 5.2 5.5 7 7 5 5.2 z 5.5.5.5 7 7 5 5.2 2 5.5.v 5 c N & 7 7 7 & Y.IXJ.* % % 7 (.!.y & 7 7 7 7 7 ",
"x c N c c c c c c c c c c x x N N x 7 7 7 7 7 & & 7 # x 7 & & 7 7 z x x N c c c c c N x c N x c N c x c N c z 7 7 7 7 % x B 7 x % 7 7 7 7 N B x c c c N c c c c c c x x c N c z 7 7 7 x G c N N c c c N c c c c c c N B.7 G B c c c c c c N G 7 7 7 7 7 7 7 7 7 7 7 7 7 7 x 7 & C N x x x x x x x x x x x x x x x x x x x x x x x x x x x x x x x x x x x x x x x x x x x x x x x x G x 7 7 7 7 7 % C C.C.T.'.x 7 7 7 7 7 z m.m.v m.5.5.5 7 7 v m.5.5.m.m.m.5 7 r 3 5.5.5.m.NX2 5 x C % 7 7 7 7 & M.7 7 7 7 & f f $ 7 7 7 7 7 7 ",
"r r r r r r r r r r r r r 7 r r r 7 7 7 7 7 7 7 7 7 7 7 7 7 7 7 7 7 r z r r r r r r r r r r r r r r 7 r r r 7 7 7 7 7 7 7 & 7 7 7 7 7 7 7 7 r r r r r r r r r r r r r 7 r r r 7 7 7 7 x G D G G G G G G G G G G G G G D 7 C G G G G G G G G D 7 7 7 7 7 7 7 7 7 7 7 7 7 7 x 7 & C B.G G G G G G G G G G G G G G G G G G G G G G G G G G G G G G G G G G G G G G G G G G G G G G G G V.x 7 7 7 7 7 7 x Z.B.V.C.z 7 7 7 7 7 z 2 m.2 5.2 2 8 7 7 v 5.5.2 m.m.5.6 7 7 3 m.2 5.5.m.2 6 7 D c 7 7 7 7 7 $ 7 7 7 & 7 $ & 7 7 7 7 7 7 7 ",
"7 7 7 7 7 7 7 7 7 7 7 7 7 7 7 7 7 7 7 7 7 7 7 7 7 7 7 7 7 7 7 7 7 7 7 7 7 7 7 7 7 7 7 7 7 7 7 7 7 7 7 7 7 7 7 7 7 7 7 7 7 7 7 7 7 7 7 7 7 7 7 7 7 7 7 7 7 7 7 7 7 7 7 7 7 7 7 7 7 7 7 7 7 7 7 7 7 7 7 7 7 7 7 7 7 7 7 7 7 7 7 7 7 7 7 7 7 7 7 7 7 7 7 7 7 7 7 7 7 7 7 7 7 x 7 7 7 z z z z z z z z z z z z z z z z z z z z z z z z z z z z z z z z z z z z z z z z z z z z z z z z z r 7 7 7 7 7 7 7 7 7 7 7 7 7 7 7 7 7 7 7 6 6 7 7 8 7 7 7 7 6 7 8 7 6 6 8 7 7 7 6 7 7 7 6 8 7 7 7 7 C D C C C C D C C C C C D D C C C C C C C ",
"7 7 7 7 7 7 7 7 7 7 7 7 7 7 7 7 7 7 7 7 7 7 7 7 7 7 7 7 7 7 7 7 7 7 7 7 7 7 7 7 7 7 7 7 7 7 7 7 7 7 7 7 7 7 7 7 7 7 7 7 7 7 7 7 7 7 7 7 7 7 7 7 7 7 7 7 7 7 7 7 7 7 7 7 7 7 7 7 7 7 7 7 7 7 7 7 7 7 7 7 7 7 7 7 7 7 7 7 7 7 7 7 7 7 7 7 7 7 7 7 7 7 7 7 7 7 7 7 7 7 7 7 7 7 7 7 7 7 7 7 7 7 7 7 7 7 7 7 7 7 7 7 7 7 7 7 7 7 7 7 7 7 7 7 7 7 7 7 7 7 7 7 7 7 7 7 7 7 7 7 7 7 7 7 7 7 7 7 7 7 7 7 7 7 7 7 7 7 7 7 7 7 7 7 7 7 7 7 7 7 7 7 7 7 7 7 7 7 7 7 7 7 7 7 7 7 7 7 7 7 7 7 7 7 7 7 r z z z z z z r r z z z z z z z z z z z ",
"7 % + + + + + + + + + + + + + + + + + + + + + + + + + + + + + 7 7 x 7 7 6 4 4 4 4 4 4 4 4 4 4 4 4 4 4 4 4 4 4 4 4 4 4 4 4 4 4 4 4 4 8 7 r r 7 8 5 5 5 5 5 5 5 5 5 5 5 5 5 5 5 5 5 5 5 5 5 5 5 5 5 5 5 5 5 8 7 7 x 7 7 7 7 7 7 7 7 7 7 7 7 7 7 7 7 7 7 7 7 7 7 7 7 7 7 7 7 7 7 7 7 7 7 x 7 7 $ * * * * * * * * * * * * * * * * * * * * * * * * * * * * * 7 7 x 7 7 7 7 7 7 7 7 7 7 7 7 7 7 7 7 7 7 7 7 7 7 7 7 7 7 7 7 7 7 7 7 7 7 r r 7 7 7 7 7 7 7 7 7 7 7 7 7 7 7 7 7 7 7 7 7 7 7 7 7 & & & & & 7 7 7 r 7 7 & & & & & & & & & ",
"6 ( :.:.:.:.:.:.:.:.:.:.:.:.:.:.:.:.:.:.:.:.:.:.:.:.:.:.:.:.:.0 6 x 7 6 2 0.0.0.0.0.0.0.0.0.0.0.0.0.0.0.0.0.0.0.0.0.0.0.0.0.0.0.0.0.< 6 x x 6 < ,.<.<.<.<.<.<.<.<.<.<.<.<.<.<.<.<.<.<.<.<.<.<.<.<.<.<.<.3.1 8 r x 7 7 x x x x x x x x x x x x x x x x x x x x x x x x x x x x x x 7 7 c 7 & P.!.!.!.!.!.!.!.!.!.!.!.!.!.!.!.!.!.!.!.!.!.!.!.!.!.!.!.!.!.7 7 x 7 7 r x x x x x x x x x x x x x x x x x x x x x x x x x x x x x 7 7 x x 7 7 x x x x x x x x x x x x x x x x x x x x x x x x x x x x r 7 7 x 7 7 x x x x x x x x x ",
"6 cXcXcXcXcXcXcXcXcXcXcXcXcXzXcXzXzXcXcXcXcXcXcXcXcXcXcXcXcXbXb % x z 4 q.sXtXtXtXtXtXtXtXtXtXtXtXtXtXtXtXtXtXtXtXtXtXtXtXtXtXtXtXsXL 4 x x 5 <.mXw.w.w.w.w.w.w.w.w.w.w.w.w.w.w.w.w.w.w.w.w.w.w.w.w.w.w.mXe.5 r x 7 7 B x x x x x x x x x x x x x x x x x x x x x x x x x x x c N 7 7 x 7 $ LXLXGXGXGXGXGXGXGXGXGXGXGXGXGXGXGXGXGXGXGXGXGXGXGXGXGXGXGXLXt & x 7 & N N x x x x x x x x x x x x x x x x x x x x x x x x x x x B x & x x & x B x x x x x x x x x x x x x x x x x x x x x x x x x x N c & 7 x 7 7 B x x x x x x x x ",
"6 zX1X<X<X<X<X<X<X<X<X<X<X<X1X7X7X1X<X<X<X<X<X<X<X<X<X<X<X<XcXb % x z 4 q.qX6.6.6.6.6.6.6.6.6.6.6.6.qX9.9.6.6.6.6.6.6.6.6.6.6.6.6.tXL 4 x x 5 <.w.<.,.,.,.,.,.,.,.,.,.,.,.e.e.e.,.,.,.,.,.,.,.,.,.,.,.,.e.3.5 r x 7 7 N 7 7 7 7 7 7 7 7 7 7 7 7 N N N x 7 7 7 7 7 7 7 7 7 7 7 7 N 7 7 x 7 & ZX/.W.~.~.~.~.~.~.~.~.~.W./.CXCX/.W.~.~.~.~.~.~.~.~.~.~.W.GXf & x 7 7 c x 7 7 7 7 7 7 7 7 7 7 7 7 C B x 7 7 7 7 7 7 7 7 7 7 7 7 c x & x x & x x 7 7 7 7 7 7 7 7 7 7 7 r C B B 7 7 7 7 7 7 7 7 7 7 7 x c & 7 x 7 7 N 7 7 7 7 7 7 7 7 ",
"6 zX7X1X1X1X1X1X1X1X1X1X1X1XnXvX7X7X1X1X1X1X1X1X1X1X1X1X1X1XcXb % x z 4 q.tX7.8.8.8.8.8.8.8.8.8.7.9.tXqXqX7.8.8.8.8.8.8.8.8.8.8.6.tXL 4 x x 5 <.w.,.3.3.3.3.3.3.3.3.3.3.3.mXw.w.3.3.3.3.3.3.3.3.3.3.3.,.w.3.5 r x 7 7 N 7 7 7 7 7 7 7 7 7 7 r 7 B.A.V.x 7 7 7 7 7 7 7 7 7 7 7 r N 7 7 x 7 & GXCX/././././././././././.ZXLXZXCX/./././././././././././.LXf & x 7 7 c x 7 7 7 7 7 7 7 7 7 r 7 x Z.V.C 7 r 7 7 7 7 7 7 7 7 7 7 N x & x x & x c 7 7 7 7 7 7 7 7 7 r 7 N Z.N N 7 r 7 7 7 7 7 7 7 7 7 x c & 7 x 7 7 N 7 7 7 7 7 7 7 7 ",
"6 zX1X<X1X1X1X1X1X1X1X1X1X1X1X1X1X1X1X1X1X1X1X1X1X1X1X1X1X<XcXb % x z 4 q.qX6.7.7.7.7.7.7.7.7.7.7.7.9.qXqX7.7.7.7.7.7.7.7.7.7.7.6.tXL 4 x x 5 <.w.,.3.3.3.3.3.3.3.3.3.3.3.e.e.e.3.3.3.3.3.3.3.3.3.3.3.,.w.3.5 r x 7 7 N 7 7 7 7 7 7 7 7 7 7 7 7 x x N x 7 7 7 7 7 7 7 7 7 7 7 r N 7 7 x 7 & ZX/./././././././././././././.CX/././././././././././././.LXf & x 7 7 c x 7 7 7 7 7 7 7 7 7 7 7 r c x N 7 7 7 7 7 7 7 7 7 7 7 7 c x & x x & x x 7 7 7 7 7 7 7 7 7 7 7 r c x r 7 7 7 7 7 7 7 7 7 7 7 x c & 7 x 7 7 N 7 7 7 7 7 7 7 7 ",
"6 zXnX7X7X7X7X7X7X7X7X7X7X7X7X7X7X7X7X7X7X7X7X7X7X7X7X7X7X7XvXb % x z 4 q.tX8.qXqXqXqXqXqXqXqXqXqX9.9.9.9.qXqXqXqXqXqXqXqXqXqXqX8.tXL 4 x x 5 <.mX3.e.e.e.e.e.e.e.e.e.e.e.e.e.e.e.e.e.e.e.e.e.e.e.e.e.3.w.3.5 r x 7 7 N 7 r r r r r r r r r r r 7 7 7 r r r r r r r r r r r r x N 7 7 x 7 & GXZXCXCXCXCXCXCXCXCXCXCXCXCXCXCXCXCXCXCXCXCXCXCXCXCXCXCXCXLXf & x 7 & c x 7 r r r r r r r r r r r 7 7 7 r r r r r r r r r r r 7 N x & x x & x N 7 r r r r r r r r r r r 7 7 r r r r r r r r r r r 7 x c & 7 x 7 7 N 7 r r r r r r r ",
"6 1XzXzXzXzXzXzXzXzXzXzXzXzXzXzXzXzXzXzXzXzXzXzXzXzXzXzXzXzXzX0 6 x z 5 4.tXqXyXyXyXyXyXyXyXyXyXyXyXyXyXyXyXyXyXyXyXyXyXyXyXyXyXqXtX3 5 x x 5 1 w.w.w.w.w.w.w.w.w.w.w.w.w.w.w.w.w.w.w.w.w.w.w.w.w.w.w.w.w.<.5 r x 7 7 N N N N N N N N N N N N N N N N N N N N N N N N N N N N N c 7 7 x 7 $ CXGXZXZXZXZXZXZXZXZXZXZXZXZXZXZXZXZXZXZXZXZXZXZXZXZXZXZXZXZXy & x 7 7 x N N N N N N N N N N N N N N N N N N N N N N N N N N N N N r 7 x x 7 r N N N N N N N N N N N N N N N N N N N N N N N N N N N N x 7 7 x 7 7 N N N N N N N N N ",
"7 6 6 6 6 6 6 6 6 6 6 6 6 6 6 6 6 6 6 6 6 6 6 6 6 6 6 6 6 6 6 7 7 x 7 7 6 6 6 6 6 6 6 6 6 6 6 6 6 6 6 6 6 6 6 6 6 6 6 6 6 6 6 6 6 5 7 7 x x 7 7 8 8 8 8 8 8 8 8 8 8 8 8 8 8 8 8 8 8 8 8 8 8 8 8 8 8 8 8 8 8 7 7 x 7 7 7 7 7 7 7 7 7 7 7 7 7 7 7 7 7 7 7 7 7 7 7 7 7 7 7 7 7 7 7 7 7 7 x 7 7 $ $ $ $ $ $ $ $ $ $ $ $ $ $ $ $ $ $ $ $ $ $ $ $ $ $ $ $ $ $ 7 7 x 7 7 7 7 7 7 7 7 7 7 7 7 7 7 7 7 7 7 7 7 7 7 7 7 7 7 7 7 7 7 7 7 7 7 x z 7 7 7 7 7 7 7 7 7 7 7 7 7 7 7 7 7 7 7 7 7 7 7 7 7 7 7 7 7 7 7 7 7 x 7 7 7 7 7 7 7 7 7 7 7 ",
"7 7 7 7 7 7 7 7 7 7 7 7 7 7 7 7 7 7 7 7 7 7 7 7 7 7 7 7 7 7 7 7 7 x 7 7 7 7 7 7 7 7 7 7 7 7 7 7 7 7 7 7 7 7 7 & & & 7 & & 7 7 7 7 7 7 7 x x 7 7 7 7 7 7 7 7 7 7 7 7 7 7 7 7 7 7 7 7 7 7 7 7 7 7 7 7 7 7 7 7 7 7 x 7 7 7 7 7 7 7 7 7 7 7 7 7 7 7 7 7 7 7 7 7 7 7 7 7 7 7 7 7 7 7 7 7 7 x 7 7 7 7 7 7 7 7 7 7 7 7 7 7 7 7 7 7 7 7 7 7 7 7 7 7 7 7 7 7 7 7 7 7 x 7 7 7 7 7 7 7 7 7 7 7 7 7 7 7 7 7 7 7 7 7 7 7 7 7 7 7 7 7 7 7 7 7 7 x z 7 7 7 7 7 7 7 7 7 7 7 7 7 7 7 7 7 7 7 7 7 7 7 7 7 7 7 7 7 7 7 7 7 x 7 7 7 7 7 7 7 7 7 7 7 ",
"7 7 7 7 7 7 7 7 7 7 7 7 7 7 7 7 x 7 7 7 7 7 7 7 7 7 7 7 7 7 7 7 7 x 7 7 7 7 6 6 z z 6 6 7 7 7 7 7 7 7 7 7 7 7 x x c 7 x c 7 7 7 7 7 7 7 x x 7 7 7 7 6 7 z 7 6 7 7 7 7 7 7 7 7 7 7 7 7 r 7 7 7 7 7 7 7 7 7 7 7 7 x 7 7 7 7 & 7 7 7 7 7 7 7 7 7 7 7 7 7 7 7 7 x 7 x r x 7 7 7 7 7 7 7 7 x 7 7 7 7 $ & y r $ 7 7 7 7 7 7 7 7 7 7 7 7 r x x 7 x 7 7 7 7 7 7 7 7 x 7 7 7 7 7 & 7 7 & 7 7 7 7 7 7 7 7 7 7 7 7 7 r r 7 7 x r 7 7 7 7 7 7 x z 7 7 7 7 & 7 7 & 7 7 7 7 7 7 7 7 7 7 7 x 7 x 7 z 7 7 7 7 7 7 7 7 7 x 7 7 7 7 & 7 r 7 & 7 7 ",
"7 7 7 7 7 7 7 7 7 7 7 7 7 7 7 B.T.z 7 7 7 7 7 7 7 7 7 7 7 7 7 7 7 x 7 7 7 6 v p.x.x.x.v 6 7 7 7 7 7 7 7 7 # C.Z.x {.c x {.x 7 7 7 7 7 7 x x 7 7 6 r t.a.a.a.J 6 7 7 7 7 7 7 7 7 7 % D C.7 {.x {.7 7 7 7 7 7 7 7 x 7 7 7 7 G V.G V.B 7 7 7 7 7 7 7 7 7 7 7 r C V.G x B.x 7 7 7 7 7 7 7 x 7 7 7 $ J.AX_._.P.y & 7 7 7 7 7 7 7 7 7 z {.N C.G V.D % 7 7 7 7 7 7 x 7 7 7 & c T.{.{.T.x 7 7 7 7 7 7 7 7 7 & D B B.N B.D B G & 7 7 7 7 7 x z 7 7 & N {.{.{.Z.x & 7 7 7 7 7 7 7 7 7 D B.D D V.x B.x 7 7 7 7 7 7 x 7 7 & x Z.{.{.{.B & 7 ",
"7 7 7 7 7 7 7 7 7 7 7 7 7 7 7 B.G B % 7 7 7 7 7 7 7 7 7 7 7 7 7 7 x 7 7 6 m b.n $ $ n b.m 6 7 7 7 7 7 7 7 7 x C.N B.7 7 V.7 7 7 7 7 7 7 x x 7 6 v &XH & @ v a.t.6 7 7 7 7 7 7 7 7 7 x V.V.}.T.{.7 7 7 7 7 7 7 7 x 7 7 7 T.V.7 @ 7 C B.7 7 7 7 7 7 7 7 7 7 7 B x C x B 7 7 7 7 7 7 7 7 x 7 7 $ !._.d # t M.(.f & 7 7 7 7 7 7 7 % C {.D G G B N & 7 7 7 7 7 7 x 7 7 & B {.N # # N }.B & 7 7 7 7 7 7 7 & c B x G V.C c N & 7 7 7 7 7 x z 7 & C {.c # % B }.B & 7 7 7 7 7 7 7 7 C B.D C.B.B.A.x 7 7 7 7 7 7 x 7 7 x {.C & # x {.B.& ",
"7 7 7 7 7 7 7 7 7 7 7 7 7 7 & G T.7 7 7 7 7 7 7 7 7 7 7 7 7 7 7 7 x 7 7 z p.v   % &   z b.z 7 7 7 7 7 7 7 7 c V.G B c G B & 7 7 7 7 7 7 x x 7 6 [.t.  @ 7 o @ a.J 6 7 7 7 7 7 7 7 7 z G N {.G T.7 7 7 7 7 7 7 7 x 7 & G C..   @ o . D B & 7 7 7 7 7 7 7 & N V.x C B.B.7 7 7 7 7 7 7 7 x 7 $ M.(.# X # . X M.Y.& 7 7 7 7 7 7 7 7 x Z.V.B.Z.{.x 7 7 7 7 7 7 7 x 7 7 r T.z X @ @   7 B.7 7 7 7 7 7 7 7 7 x N N D D C C 7 7 7 7 7 7 7 x x & x {.7 X @ @ X c {.7 7 7 7 7 7 7 7 z D B C C G B G x 7 7 7 7 7 7 x 7 7 Z.B X o @ X # {.c ",
"7 7 7 7 7 7 7 7 7 7 7 7 7 7 7 7 7 7 7 7 7 7 7 7 7 7 7 7 7 7 7 7 7 x 7 % ~ x.  & G V.c   y.~ 6 7 7 7 7 7 7 7 7 r 7 7 7 7 7 7 7 7 7 7 7 7 x x % J &X@ o r B.G   m t.% 7 7 7 7 7 7 7 7 7 7 & & % 7 7 7 7 7 7 7 7 7 x 7 7 {.7 . 7 7 N . 7 B.7 7 7 7 7 7 7 7 7 7 7 r 7 7 r 7 7 7 7 7 7 7 7 x 7 $ (.P.X N N N 7 o !.f & 7 7 7 7 7 7 7 7 7 7 z 7 z 7 7 7 7 7 7 7 7 x 7 % D Z.X # N r @ X G N & 7 7 7 7 7 7 7 7 7 r 7 7 7 7 7 7 7 7 7 7 7 x x # B.C.X & N N # X {.B & 7 7 7 7 7 7 7 7 7 7 7 7 & & 7 7 7 7 7 7 7 x % N {.o @ c B x X G V.",
"7 7 7 7 7 7 7 7 7 7 7 7 7 & 7 % & 7 % 7 7 7 7 7 7 7 7 7 7 7 7 7 7 x r # p.y.  7 c B.D o ~ ` 6 7 7 7 7 7 7 7 7 & 7 7 & 7 7 7 7 7 7 7 7 7 x x # H [.. r B D B.@ z t.7 7 7 7 7 7 7 7 7 7 & 7 7 7 & 7 7 7 7 7 7 7 7 x & r T.# @ x x N # @ G 7 7 7 7 7 7 7 7 7 7 & & 7 7 & 7 7 7 7 7 7 7 7 x 7 & (.k . C C B.N . P.j $ 7 7 7 7 7 7 % 7 7 7 % 7 % 7 & 7 7 7 7 7 7 x 7 % G D X 7 x z x . N B & 7 7 7 7 7 7 7 7 7 % 7 7 7 7 7 7 7 7 7 7 7 x x % V.B X 7 x 7 #   C B & 7 7 7 7 7 7 7 7 & & 7 & 7 7 7 7 7 7 7 7 7 x % B C.. & c z x . x C.",
"7 7 7 7 7 7 7 7 7 7 7 7 7 B c D x x D x 7 7 7 7 7 7 7 7 7 7 7 7 7 x r # y.+X  7 C D z   y.~ 6 7 7 7 7 7 7 7 7 x z 7 x 7 x 7 7 7 7 7 7 7 x x % v &X@ @ C D c   m t.6 7 7 7 7 7 7 7 7 7 c c c N N 7 7 7 7 7 7 7 7 x 7 7 {.7 X 7 x x . 7 B.7 7 7 7 7 7 7 7 7 7 N x r B N 7 7 7 7 7 7 7 7 x 7 $ (.P.X x D D # @ !.f & 7 7 7 7 7 7 C r r x B r B r B 7 7 7 7 7 7 x 7 % D Z.X # x c % . G N & 7 7 7 7 7 7 7 7 r N 7 N B x 7 7 7 7 7 7 7 x x # B.C.X # x x # . G x 7 7 7 7 7 7 7 7 7 c x 7 B N 7 7 7 7 7 7 7 7 x % c {.. o x z @   B.V.",
"7 7 7 7 7 7 7 7 7 7 7 & B }.x C.G & Z.C % 7 7 7 7 7 7 7 7 7 7 7 7 x 7 6 z +Xm   @ #   v x.z 7 7 7 7 7 7 7 7 % C.C C C.D Z.# 7 7 7 7 7 7 x x 7 6 [.t.  @ # . # a.J 6 7 7 7 7 7 7 7 % C.C.N {.N Z.7 7 7 7 7 7 7 7 x 7 & G Z.o . @ . o D B 7 7 7 7 7 7 7 7 & N C C B.V.B.7 7 7 7 7 7 7 7 x 7 $ k _.6 . # @ . M.Y.& 7 7 7 7 7 7 7 G B.B.{.V.{.C.'.Z.C & 7 7 7 7 x 7 7 r T.x X o o X 7 B.7 7 7 7 7 7 7 7 7 7 D B D B.A.c & 7 7 7 7 7 7 x x & x {.7 X o o X x G 7 7 7 7 7 7 7 7 & N C B B.V.V.7 7 7 7 7 7 7 7 x 7 7 Z.C X . @ X # C.c ",
"7 7 7 7 7 7 7 7 7 7 7 7 7 G G G x 7 V.7 7 7 7 7 7 7 7 7 7 7 7 7 7 x 7 7 % ` xX7 @ @ & b.m 6 7 7 7 7 7 7 7 7 & N B.{.}.{.T.% 7 7 7 7 7 7 x x 7 6 v &XJ o @ # t.1.6 7 7 7 7 7 7 7 7 7 Z.Z.B Z.C G 7 7 7 7 7 7 7 7 x 7 7 7 {.B.@ @ @ B G 7 7 7 7 7 7 7 7 7 & C x N G B B & 7 7 7 7 7 7 7 x 7 7 $ !.(.* @ @ f !.y 7 7 7 7 7 7 7 7 C B.{.}.B }.C }.D G % 7 7 7 7 x 7 7 & C }.7 @ @ 7 V.x 7 7 7 7 7 7 7 7 7 r D 7 B.B C r 7 7 7 7 7 7 7 x z 7 & G {.& @ @ 7 V.x 7 7 7 7 7 7 7 7 & B x N B.B C 7 7 7 7 7 7 7 7 x 7 7 x }.x @ @ # G B & ",
"7 7 7 7 7 7 7 7 7 7 7 7 x V.C B x C C & 7 7 7 7 7 7 7 7 7 7 7 7 7 x 7 7 7 6 v 7 7 7 7 v 6 7 7 7 7 7 7 7 7 7 & c B N B.B G & 7 7 7 7 7 7 x x 7 7 6 x z 7 7 7 z 7 7 7 7 7 7 7 7 7 7 & B V.G B.T.B.7 7 7 7 7 7 7 7 x 7 7 7 7 z 7 7 7 7 7 7 7 7 7 7 7 7 7 7 7 r G B x N x 7 7 7 7 7 7 7 7 x 7 7 7 7 f 7 7 7 r y & 7 7 7 7 7 7 7 x {.B C G C.C C.C Z.x 7 7 7 7 7 x 7 7 7 7 x 7 7 7 7 r 7 7 7 7 7 7 7 7 7 7 7 N G x c N 7 7 7 7 7 7 7 7 x z 7 7 7 x 7 7 7 7 r 7 7 7 7 7 7 7 7 7 7 7 D B x N c 7 7 7 7 7 7 7 7 x 7 7 & x 7 7 7 7 r 7 7 ",
"7 7 7 7 7 7 7 7 7 7 7 7 7 7 7 7 7 7 7 7 7 7 7 7 7 7 7 7 7 7 7 7 7 x 7 7 7 7 6 7 7 7 7 6 7 7 7 7 7 7 7 7 7 7 7 7 7 & % & & 7 7 7 7 7 7 7 x x 7 7 7 7 7 7 7 7 7 7 7 7 7 7 7 7 7 7 7 7 7 7 7 7 & 7 7 7 7 7 7 7 7 7 x 7 7 7 7 7 7 7 7 7 7 7 7 7 7 7 7 7 7 7 7 7 7 7 7 7 7 7 7 7 7 7 7 7 7 x 7 7 7 7 & 7 7 7 7 7 7 7 7 7 7 7 7 7 7 7 7 % & 7 & 7 & 7 7 7 7 7 7 7 x 7 7 7 7 7 7 7 7 7 7 7 7 7 7 7 7 7 7 7 7 7 7 7 7 7 7 7 7 7 7 7 7 7 7 x z 7 7 7 7 7 7 7 7 7 7 7 7 7 7 7 7 7 7 7 7 7 7 7 7 7 7 7 7 7 7 7 7 7 x 7 7 7 7 7 7 7 7 7 7 7 ",
"7 7 7 7 7 7 7 7 7 7 7 7 7 7 7 7 7 7 7 7 7 7 7 7 7 7 7 7 7 7 7 7 7 x 7 7 7 7 7 7 7 7 7 7 7 7 7 7 7 7 7 7 7 7 7 7 7 7 7 7 7 7 7 7 7 7 7 7 x x 7 7 7 7 7 7 7 7 7 7 7 7 7 7 7 7 7 7 7 7 7 7 7 7 7 7 7 7 7 7 7 7 7 7 x 7 7 7 7 7 7 7 7 7 7 7 7 7 7 7 7 7 7 7 7 7 7 7 7 7 7 7 7 7 7 7 7 7 7 x 7 7 7 7 7 7 7 7 7 7 7 7 7 7 7 7 7 7 7 7 7 7 7 7 7 7 7 7 7 7 7 7 7 7 x 7 7 7 7 7 7 7 7 7 7 7 7 7 7 7 7 7 7 7 7 7 7 7 7 7 7 7 7 7 7 7 7 7 7 x z 7 7 7 7 7 7 7 7 7 7 7 7 7 7 7 7 7 7 7 7 7 7 7 7 7 7 7 7 7 7 7 7 7 x 7 7 7 7 7 7 7 7 7 7 7 ",
"7 6 6 6 6 6 6 6 6 6 6 6 6 6 6 6 6 6 6 6 6 6 6 6 6 6 6 6 6 6 6 7 7 x 7 7 6 6 6 6 6 6 6 6 6 6 6 6 6 6 6 6 6 6 6 6 6 6 6 6 6 6 6 6 6 6 7 7 x x 7 7 8 8 8 8 8 8 8 8 8 8 8 8 8 8 8 8 8 8 8 8 8 8 8 8 8 8 8 8 8 8 7 7 x 7 7 & 7 7 7 7 7 7 7 7 7 7 7 7 7 7 7 7 7 7 7 7 7 7 7 7 7 7 7 & & 7 7 x 7 7 $ $ & & & & & & & & & & & & & & & & & & & & & & & & & & & $ 7 7 x 7 7 7 & 7 7 7 7 7 7 7 7 7 7 7 7 7 7 7 7 7 7 7 7 7 7 7 7 7 7 7 & 7 7 x z 7 7 & 7 7 7 7 7 7 7 7 7 7 7 7 7 7 7 7 7 7 7 7 7 7 7 7 7 7 & 7 7 7 x 7 7 & 7 7 7 7 7 7 7 7 ",
"6 1XzXzXzXzXzXzXzXzXzXzXzXzXzXzXzXzXzXzXzXzXzXzXzXzXzXzXzXzXzX0 6 x z 5 4.tXyXyXyXyXyXyXyXyXyXyXyXyXyXyXyXyXyXyXyXyXyXyXyXyXyXyXyXtX2 5 x x 5 1 w.w.w.w.w.w.w.w.w.w.w.w.w.w.w.w.w.w.w.w.w.w.w.w.w.w.w.w.w.<.5 r x & y W.W.W.W.W.W.W.W.W.W.W.W.W.W.W.W.W.W.W.W.W.W.W.W.W.W.W.W.^.U.& 7 x 7 $ CXGXZXGXGXGXGXGXGXGXGXGXGXZXZXZXZXGXGXGXGXGXGXGXGXGXGXZXGXZXy & x 7 $ H.^.W.W.W.W.W.W.W.W.W.W.W.W.W.W.W.W.W.W.W.W.W.W.W.W.W.W.W.^.d $ x x $ k ^.W.W.W.W.W.W.W.W.W.W.W.W.W.W.W.W.W.W.W.W.W.W.W.W.W.Q.^.H.$ r x & y W.W.W.W.W.W.W.W.W.",
"6 zX7X1X1X1X1X1X1X1X1X1X1X1X7X7X7X7X1X1X1X1X1X1X1X1X1X1X1X1XvXb % x z 4 q.tX8.9.9.9.9.9.9.9.9.9.9.qXqXqXqX9.9.9.9.9.9.9.9.9.9.9.7.tXL 4 x x 5 <.mX3.e.e.e.e.e.e.e.e.e.e.e.e.e.e.e.e.e.e.e.e.e.e.e.e.e.3.w.3.5 r x & t /.K.I.I.I.I.I.I.I.I.I.I.I.I.I.I.I.I.I.I.I.I.I.I.I.I.I.K.Q.W.$ 7 x 7 & GXCX/.CXCXCXCXCXCXCXCXCX/.CXCXCXCXCXCXCXCXCXCXCXCXCXCXCX/.LXf & x r $ U.W.K.I.I.I.I.I.I.I.I.I.I.I.Q.I.I.I.I.I.I.I.I.I.I.I.I.I.K./.k $ x x $ M./.K.I.I.I.I.I.I.I.I.I.I.I.I.I.I.I.I.I.I.I.I.I.I.I.I.K.^.U.$ r x & t /.K.I.I.I.I.I.I.I.",
"6 zX1X<X1X1X1X1X1X1X1X1X1X1X7X7XcXaX<X1X1X1X1X1X1X1X1X1X1X<XcXb % x z 4 q.qX6.7.7.7.7.7.7.7.7.7.7.qXqXtXtX8.7.7.7.7.7.7.7.7.7.7.6.tXL 4 x x 5 <.w.,.3.3.3.3.3.3.3.3.3.3.e.e.w.w.e.3.3.3.3.3.3.3.3.3.3.,.w.3.5 r x & t ^.K.K.K.K.K.K.K.K.K.K.K.K.Q.Q.^.I.K.K.K.K.K.K.K.K.K.K.K.I.Q.& 7 x 7 & ZX/./././././././././././.ZXZXGXZX/./././././././././././.LXf & x r $ U.Q.F.K.K.K.K.K.K.K.K.K.K.I.Q.W.W.K.K.K.K.K.K.K.K.K.K.K.F.^.k $ x x $ M.^.F.K.K.K.K.K.K.K.K.K.K.Q.Q.^.Q.K.K.K.K.K.K.K.K.K.K.F.Q.L.$ r x & t ^.K.K.K.K.K.K.K.K.",
"6 zX7X1X1X1X1X1X1X1X1X1X1X1X7X7XaXcX1X1X1X1X1X1X1X1X1X1X1X1XcXb % x z 4 q.tX7.8.8.8.8.8.8.8.8.8.7.qXqXqXtX9.7.8.8.8.8.8.8.8.8.8.6.tXL 4 x x 5 <.w.,.3.3.3.3.3.3.3.3.3.3.e.w.e.w.e.3.3.3.3.3.3.3.3.3.3.,.w.3.5 r x & t ^.K.K.K.K.K.K.K.K.K.K.K.K.Q.Q.W.W.K.K.K.K.K.K.K.K.K.K.K.I.Q.& 7 x 7 & GXCX/././././././././././.ZXZXZXLX/./././././././././././.LXf & x r $ U.Q.K.K.K.K.K.K.K.K.K.K.K.I.Q.Q.^.I.K.K.K.K.K.K.K.K.K.K.F.^.k $ x x $ M.^.F.K.K.K.K.K.K.K.K.K.K.Q.Q.W.^.K.K.K.K.K.K.K.K.K.K.K.W.L.$ r x & t ^.K.K.K.K.K.K.K.K.",
"6 zX1X<X<X<X<X<X<X<X<X<X<X<X<X1X<X<X<X<X<X<X<X<X<X<X<X<X<X:XcXb % x z 4 q.qX6.6.6.6.6.6.6.6.6.6.6.6.8.6.7.6.6.6.6.6.6.6.6.6.6.6.6.tXL 4 x x 5 <.w.<.,.,.,.,.,.,.,.,.,.,.,.3.3.,.,.,.,.,.,.,.,.,.,.,.,.,.e.3.5 r x & t ^.F.F.F.F.F.F.F.F.F.F.F.F.K.K.F.K.F.F.F.F.F.F.F.F.F.F.F.K.Q.& 7 x 7 & ZX/.W.~.~.~.~.~.~.~.~.~.W././.~./.~.~.~.~.~.~.~.~.~.~.~.W.GXf & x r $ U.I.F.F.F.F.F.F.F.F.F.F.F.K.K.F.K.K.F.F.F.F.F.F.F.F.F.F.F.^.k $ x x $ M.W.F.F.F.F.F.F.F.F.F.F.F.K.K.F.K.F.F.F.F.F.F.F.F.F.F.F.Q.L.$ r x & t ^.F.F.F.F.F.F.F.F.",
"6 cXcXzXcXcXcXcXcXcXcXcXcXcXcXaXcXcXcXcXcXcXcXcXcXcXcXcXcXcXbXb % x z 4 q.sXtXtXtXtXtXtXtXtXtXtXtXtXtXtXtXtXtXtXtXtXtXtXtXtXtXtXtXsXL 4 x x 5 <.mXw.w.w.w.w.w.w.w.w.w.w.w.w.w.w.w.w.w.w.w.w.w.w.w.w.w.w.mXe.5 r x & t /.W.^.W.W.W.W.W.W.W.W.W.^.W.W.W.W.^.W.W.W.W.W.W.W.W.^.W./.^.$ 7 x 7 $ LXLXGXGXGXGXGXGXGXGXGXGXGXGXGXGXGXGXGXGXGXGXGXGXGXGXGXGXGXLXt & x r $ U./.W.^.W.W.W.W.W.W.W.W.^.W.W.W.W.W.^.W.W.W.W.W.W.W.W.^.W./.k $ x x $ M./.W.^.W.W.W.W.W.W.W.W.^.W.W.W.W.W.W.W.W.W.W.W.W.W.^.W./.U.$ r x & t /.W.^.W.W.W.W.W.W.",
"6 ! :.>.:.:.:.:.:.:.:.:.:.:.:.:.:.:.:.:.:.:.:.:.:.:.:.:.>.:.>.0 7 x 7 6 3 0.4.4.4.4.4.4.4.4.4.4.4.4.4.4.4.4.4.4.4.4.4.4.4.4.4.4.4.4.< 6 x x 6 < <.<.<.<.<.<.<.<.<.<.<.<.<.<.<.<.<.<.<.<.<.<.<.<.<.<.<.<.<.1 8 r x 7 7 M.H.H.H.H.H.H.H.H.H.H.H.H.H.H.H.H.H.H.H.H.H.H.H.H.H.H.M.H.k 7 7 x 7 & H.Q.Q.Q.Q.Q.Q.Q.Q.Q.Q.Q.Q.Q.!.Q.Q.Q.Q.Q.Q.Q.Q.Q.Q.Q.Q.Q.Q.U.7 7 x 7 & d H.M.H.H.H.H.H.H.H.H.H.H.H.H.H.H.H.H.H.H.H.H.H.H.H.H.H.H.H.y & x x & t H.M.H.H.H.H.H.H.H.H.H.H.H.H.H.H.H.H.H.H.H.H.H.H.H.H.M.H.d & 7 x 7 7 M.H.H.H.H.H.H.H.H.",
"7 y t t t t t t t t t t t t t + 6 t t t t t t t t t t t t t t 7 7 x 7 7 8 s s s s s s s s s s s s s 9 5 s s s s s s s s s s s s s s 7 7 x x 7 7 e e e e e e e e e e e e M 8 5 e e e e e e e e e e e e e e 8 7 7 x 7 7 0 0 0 0 0 0 0 0 0 0 0 0 0 0 $ 0 0 0 0 0 0 0 0 0 0 0 0 0 0 0 7 7 x 7 7 0 q q q q q q q q q q q q q * - q q q q q q q q q q q q q q 7 7 x 7 7 7 0 0 0 0 0 0 0 0 0 0 0 0 0 $ $ 0 0 0 0 0 0 0 0 0 0 0 0 0 0 7 7 x z 7 7 0 0 0 0 0 0 0 0 0 0 0 0 0 $ $ 0 0 0 0 0 0 0 0 0 0 0 0 0 7 7 7 x 7 7 0 0 0 0 0 0 0 0 0 ",
"7 G G G G G G G G G G G G D C.x D G G G G D D G G G G G G G V.r 7 x 7 % C G D G D G G D D G D G D V.N c V.D G D D D D G G G G G D V.c % x x % c V.F D F D D F D D D D D G G r V.D D D F F F D D D D D F G C % 7 x 7 7 B x c x c c x x x x c c c B 7 B N c c x x x x c c c c x N B 7 7 x 7 7 B.D D D D D D D D D D D D C.y D B.D D D D D D D D D D D D V.7 7 x 7 & N N x c x c x x x c x N x B x x B x N x x x x x c c c c x B x & x x & x B x c x c c x x c x c x B x x B x c x x x x c c c c x N N & 7 x 7 7 B x c x c c x x x ",
"7 D c x B V.B.C.C D Z.c x x G z B B x x G B.C.C V.Z.C.c x x G r & x 7 & B B x x V.G C.G B Z.B x x C N x D x x D B.C.D G Z.Z.B x x D c & x x % c D x x B.G C.G B C.G x x N C 7 G x x B B.C.G D Z.Z.D x x B B & 7 x 7 7 N 7 7 c B B B x N B 7 7 7 N 7 N 7 7 7 B B B x C D N 7 7 7 N 7 7 x 7 7 G c x B V.B.C.C D C.c x x G r B N x x B.B.C.C V.Z.C.c x x G 7 7 x 7 7 c x 7 7 B N C N x C x 7 7 x x x x 7 7 c N C x N D C x 7 7 c x & x x & x x 7 7 N N C N x C N 7 7 x x x x 7 7 B B B x B D B 7 7 x c & 7 x 7 7 N 7 7 c B B B x N ",
"7 G N c N '.Z.Z.Z.V.C.D x x G z B B c x Z.}.{.C.B.C.T.c c c G r 7 x 7 & B B x c C.{.V.'.V.C.B.x c D N x D x x G }.{.C.V.V.{.B c x G c & x x % c D x x G {.B.{.V.C.C.c c B C 7 G c c B }.}.Z.C.B.{.G x c C B & 7 x 7 7 N 7 7 x B.B D C B C x 7 7 N 7 N r 7 7 B.A.D C N D C 7 7 r N 7 7 x 7 7 G N c N {.Z.Z.Z.V.C.D x x G r B B c x Z.}.{.C.B.Z.T.c c c G 7 7 x 7 7 c x 7 7 C B.B D B C N 7 7 x x x c 7 7 N A.B.C B B B.x 7 7 N x & x x & x c 7 7 N B.B B.B C B 7 7 c x x x 7 7 B.A.D C N D C 7 7 x c & 7 x 7 7 N 7 7 x B.B D C B ",
"7 G N x N B.V.B.B.G V.c c x G z B B x x C V.D V.B D V.N c x G r 7 x 7 & B B x c G B.B.G G C.B x x C N x D x c B V.D V.C C V.B x x D c & x x % c D x x D B.V.G B.V.D x x B C 7 G x c c B.G B.G B B.D x x B B & 7 x 7 7 N 7 7 x B B N B B N 7 7 7 N 7 N 7 7 7 N N N B x N N 7 7 r N 7 7 x 7 7 G N x N B.V.B.B.G V.c c x G r B B x x C V.D V.B D V.c c x G 7 7 x 7 7 c x 7 7 N B B N N C x 7 7 x x x x 7 7 x B c B x x B x 7 7 c x & x x & x c 7 7 c B B N N B x 7 7 c x x x 7 7 N B N B x N B 7 7 x c & 7 x 7 7 N 7 7 x B B N B B ",
"7 G N c N c x c c c x c N c G z C C c N c x c x c c c c N c G r & x 7 & C C c N c x c c c x c N c D N x G c N c x c x c c c c N c G c % x x % c G c N c x x c c x c N c B D 7 G c N c x c c c c c c N c C C & 7 x 7 7 N 7 r r 7 7 7 7 7 7 r r r N 7 N r r r 7 7 7 7 7 7 7 r 7 r N 7 7 x 7 7 G N c N c x c c c x c N c G z C C c N c x c x c c c N N c G 7 7 x 7 & c x 7 r 7 7 7 7 7 7 7 r 7 c x x c 7 r 7 7 7 7 7 7 7 7 r 7 N x & x x & x N 7 r 7 7 7 7 7 7 7 r 7 N x x x 7 r 7 7 7 7 7 7 7 r 7 x c & 7 x 7 7 N 7 r r 7 7 7 7 7 ",
"7 C G G G G G G G G G G G G G 7 N G G G G G G G G G G G G G G 7 7 x 7 & N G G G G G G G G G G G G B.x x B.G G G G G G G G G G G G G x & x x & x G G G G G G G G G G G G G B 7 G G G G G G G G G G G G G G N & 7 x 7 7 N N N N N N N N N N N N N N 7 N N N N N N N N N N N N N N c 7 7 x 7 7 C G G G G G G G G G G G G G 7 N G G G G G G G G G G G G G G 7 7 x 7 7 x N N N N N N N N N N N N B r r B N N N N N N N N N N N N B r & x x & r B N N N N N N N N N N N B 7 x B N N N N N N N N N N N B x 7 7 x 7 7 N N N N N N N N N ",
"7 7 7 7 7 7 7 7 7 7 7 7 7 7 7 7 7 7 7 7 7 7 7 7 7 7 7 7 7 7 7 7 7 x 7 7 7 7 7 7 7 7 7 7 7 7 7 7 7 7 7 7 7 7 7 7 7 7 7 7 7 7 7 7 7 7 7 7 x x 7 7 7 7 7 7 7 7 7 7 7 7 7 7 7 7 7 7 7 7 7 7 7 7 7 7 7 7 7 7 7 7 7 7 x 7 7 7 7 7 7 7 7 7 7 7 7 7 7 7 7 7 7 7 7 7 7 7 7 7 7 7 7 7 7 7 7 7 7 x 7 7 7 7 7 7 7 7 7 7 7 7 7 7 7 7 7 7 7 7 7 7 7 7 7 7 7 7 7 7 7 7 7 7 x 7 7 7 7 7 7 7 7 7 7 7 7 7 7 7 7 7 7 7 7 7 7 7 7 7 7 7 7 7 7 7 7 7 7 x z 7 7 7 7 7 7 7 7 7 7 7 7 7 7 7 7 7 7 7 7 7 7 7 7 7 7 7 7 7 7 7 7 7 x 7 7 7 7 7 7 7 7 7 7 7 ",
"7 7 7 7 6 6 6 7 7 7 7 7 7 7 7 7 6 6 6 7 7 7 7 7 7 7 7 7 7 7 7 7 7 x 7 7 7 7 7 7 6 6 7 7 7 7 7 7 7 7 7 7 6 6 7 7 7 7 7 7 7 7 7 7 7 7 7 7 x x 7 7 7 7 7 6 6 7 7 7 7 7 7 7 7 7 7 6 6 7 7 7 7 7 7 7 7 7 7 7 7 7 7 7 x 7 7 7 7 7 7 7 7 7 7 7 7 7 7 7 7 7 7 7 7 7 7 7 7 7 7 7 7 7 7 7 7 7 7 x 7 7 7 7 7 7 $ & 7 7 7 7 7 7 7 7 7 7 $ & 7 7 7 7 7 7 7 7 7 7 7 7 7 7 x 7 7 7 7 7 7 7 7 7 7 7 7 7 7 7 7 7 7 7 7 7 7 7 7 7 7 7 7 7 7 7 7 7 7 x z 7 7 7 7 7 7 7 7 7 7 7 7 7 7 7 7 7 7 7 7 7 7 7 7 7 7 7 7 7 7 7 7 7 x 7 7 7 7 7 7 7 7 7 7 7 ",
"7 7 7 6 v n n 7 6 7 7 7 7 7 7 6 v W n 7 6 7 7 7 7 7 7 7 7 7 & 7 7 x 7 7 7 7 6 z n m z 6 7 7 7 7 7 7 6 z n n z 6 7 7 7 7 & 7 7 7 7 7 7 7 x x 7 7 7 6 7 v J z 6 7 7 7 7 7 7 6 7 J J z 6 7 7 7 7 & 7 7 7 7 7 7 7 7 x 7 7 7 7 7 x c x 7 7 7 7 7 7 7 7 7 x c x 7 7 7 7 7 7 7 7 7 7 7 7 7 7 x 7 7 7 7 & y k g 7 & 7 7 7 7 7 7 & t k g 7 & 7 7 7 7 7 7 7 7 7 & 7 7 x 7 7 7 7 7 7 x x 7 7 7 7 7 7 7 7 7 7 x x 7 7 7 7 7 7 7 7 7 7 7 7 7 7 x z 7 7 7 7 7 x x 7 7 7 7 7 7 7 7 7 7 x x 7 7 7 7 7 7 7 7 7 7 7 7 7 7 x 7 7 7 7 7 x x r 7 7 7 ",
"7 7 7 ( iX-.;.;.n 6 7 7 7 7 0 ( iX-.v.;.n 6 7 7 c C.c r z x x r 7 x 7 7 7 6 ~ b.p.p.b.~ 7 7 7 7 7 7 ~ b.p.p.b.~ 7 7 7 7 C.B 7 r x z x & x x 7 7 6 J a.a.t.[.1.r 7 7 7 7 6 J a.a.t.[.1.7 7 7 7 B.G 7 z x z x 7 7 x 7 7 7 r D V.D V.G z 7 7 7 7 7 z G B.D V.D r 7 7 7 N C 7 7 r r r 7 7 x 7 7 7 7 P.!.P.!.!.j & 7 7 7 7 r P.!.P.!.!.g & 7 & c C.x r z x x r 7 x 7 7 7 7 N B.G G V.N 7 7 7 7 7 7 N B.G G B.N 7 7 7 7 D c 7 7 r 7 r 7 x z 7 7 7 B V.G B.B.N 7 7 7 7 7 7 B V.G B.B.c 7 7 7 c D r 7 r r r 7 7 x 7 7 7 x B.B.D V.B 7 7 ",
"7 6 =.-.@ . o q jXQ 6 7 7 7 :.-.@ . o b jXn 6 & C.B N G '.V.T.V.& x 7 7 6 ` b.$ o o # b.y.6 7 7 6 ` x.# o o $ b.` 6 % G D N C {.V.Z.Z.7 z x 7 6 J [.z o . @ t.a.7 7 7 6 J a.z o . @ t.a.7 & B V.N B T.C.C.'.c 7 x 7 7 7 V.c o . o c C.7 7 7 7 7 V.x o . o N V.7 7 7 D x x D G C B.N & c 7 7 7 Y.P.@ . . t (.j & 7 7 7 Y.P.@ . o a (.g & 7 C.B N G T.V.T.V.& x 7 7 7 B B.# . . # B.B 7 7 7 7 B B.# . . % V.B 7 & B N x N B.C G G 7 x x 7 7 C G # . . % V.B 7 7 7 7 C G # . . & V.N & 7 D x x C G C B.B 7 x 7 7 x V.7 . . @ G G 7 ",
"6 } =.. @ c x   q ;.7 7 6 } -.  @ c x   b ;.7 & B.B.{.{.}.T.D V.7 x 7 6 v x.# . x c o @ b.v 6 6 v x.@ o x c o # b.v # C V.{.{.}.{.G B.x r x 7 7 a.v   7 c # . t.H 6 7 7 a.z   7 c # o t.H # x C.Z.{.}.{.V.G C 7 x 7 7 C N X @ 7 # X N D & 7 7 D N X @ 7 # X B C & 7 D C V.V.V.G N B & c 7 $ M.Y.. @ c x X t !.7 7 $ M.P.. @ c z X d !.7 & B.B.{.{.}.T.D V.7 x 7 7 x B.@ . & 7 . @ B.z 7 7 x B.@ . & 7 . # B.r & N C B.V.A.B.B C r z x & x G @ . 7 7 . # B.7 7 7 x G @ . 7 7 . % B.7 7 C C V.V.V.G N C 7 x 7 7 B.7 X # 7 o o G c ",
"6 =.Q   B B.C.x o ;.n 6 6 =.Q . B B.C.z o ;.b 6 7 C c N c x x x 7 x 7 % ~ y.  x G V.B   y.~ 6 6 ` y.  x B.C.B   y.~ 6 7 B N N N x x x 7 z x % v a.o & G V.G o J t.6 6 v a.o 7 G V.G o J t.6 7 N B c N x x x 7 7 x 7 7 B.% . x N B @ # B.7 7 7 B.# . x N B o % B.7 7 r N x c x x r r 7 x 7 $ Y.k . B B.C.x o !.f & & Y.k . B G C.r o !.f & 7 C c B c x x x 7 x 7 & B C X 7 N B z X C N 7 & B C X 7 N B r . D N & 7 N x x x x r r 7 x x % C B X 7 N B 7 . G c 7 & C B X 7 N B 7 . G c & 7 N x c x x r 7 7 x & x B.. # N B c . c D ",
"6 =.b o x N B.c . -.n 6 6 =.b o z N B.x o =.n 6 7 % & & & 7 7 7 7 x 7 % ~ ~   7 x G C . ~ ` 6 6 ` ~   c N G C . ~ ` 6 7 & & & & 7 7 7 7 x x % J t.. 7 N C G @ v t.7 6 J t.. r N C G o v t.6 7 & % 7 & 7 7 7 7 7 x 7 7 G @ @ z r N @ @ B.7 7 7 G @ @ z r N @ # B.7 7 7 & 7 7 7 7 7 7 7 x 7 & Y.d . x N B.x . Y.j & 7 Y.a . 7 N B.x . Y.g & 7 % & & 7 7 7 7 7 x 7 & B N X 7 7 c x . N B 7 7 B N X 7 7 c z . B B & 7 & 7 7 7 7 7 7 7 x x % C c . 7 7 N r . B N 7 7 C x . 7 7 c 7 . C N & 7 & 7 7 7 7 7 7 7 x & c D . & r x c . z D ",
"% -.(   # N B o @ iXv 7 6 -.(   % B B o # iXz 7 7 7 7 7 7 7 7 7 7 x 7 6 m x.  o c B &   p.m 6 6 m x.  @ 7 B %   x.m 6 7 7 7 7 7 7 7 7 7 x x 6 z a.# . 7 N z   1.t.6 7 z a.@ . 7 N r   1.1.% 7 7 7 7 7 7 7 7 7 7 x 7 7 B.r X @ 7 7 X 7 B.7 7 7 B.7 X @ 7 7 X z B.7 7 7 7 7 7 7 7 7 7 7 x 7 $ P.J.X # B B = # !.y 7 $ !.Y.X 7 B N = # !.y 7 7 7 7 7 7 7 7 7 7 x 7 & c B.. . % z @ . B.c 7 7 N G . o % z @ . B.x 7 7 7 7 7 7 7 7 7 7 x x % N G X . 7 z o o B.x 7 & B D X o % z o o B.x 7 7 7 7 7 7 7 7 7 7 x & z V.@ . # r # X C B ",
"7 z lX`   @ . o -.( 6 7 6 v xX}   @ . o =.( 6 7 7 7 7 7 7 7 7 7 7 x 7 7 6 oXp.. o o . ~ p.7 7 7 7 p.~   . o . ~ p.7 7 7 7 7 7 7 7 7 7 7 x x 7 6 1.a.o . @ . v a.z 7 7 6 1.t.o . @ . v a.z 7 7 7 7 7 7 7 7 7 7 7 x 7 7 x B.%   . . # B.c 7 7 7 c B.#   . . % B.x 7 7 7 7 7 7 7 7 7 7 7 x 7 7 y AXM.. @ . o Y.J.& 7 & f AXk X o . @ Y.J.$ 7 7 7 7 7 7 7 7 7 7 x 7 7 7 G B . . . . N G 7 7 7 7 G N   . . . B G 7 7 7 7 7 7 7 7 7 7 7 x x 7 7 G N . . . . B D 7 7 7 7 B.c   . . . C D 7 7 7 7 7 7 7 7 7 7 7 x 7 7 C G o   . . x B.7 ",
"7 % [ lX% & # n :.7 7 7 7 % ].+X# & # n :.7 7 7 y V V V V V V y & x 7 7 6 A xXz # % 7 c.v 6 7 7 6 v x.r % # z c.v 6 7 7 Z V V V V V M 7 x x 7 7 7 a.J # % 6 t.m 6 7 7 7 7 a.v # % 6 t.J 6 7 7 M V V V V V Z 7 7 x 7 7 7 C B & % % B C 7 7 7 7 7 D B & % % B B 7 7 7 7 x x x x x x 7 7 x 7 7 $ P.(.$ % $ g Y.7 7 7 7 $ P.(.$ % $ j Y.7 7 7 y V V V V V V y & x 7 7 7 x B.7 % % 7 G r 7 7 7 7 x B.7 % % 7 G r 7 7 7 x x x x x x r 7 x z 7 7 c T.7 % % r G 7 7 7 7 7 x G 7 % % z G 7 7 7 7 x x x x x x 7 7 x 7 7 7 B.x % % 7 G x 7 ",
"7 7 6 7 7 7 7 7 7 7 7 7 7 7 6 7 7 7 7 7 7 7 7 7 r Z M Z Z M V y & x 7 7 7 6 7 7 7 7 7 7 7 7 7 7 7 7 7 7 7 7 7 7 7 7 7 7 M Z Z Z M Z s 7 x x 7 7 7 7 7 7 7 7 7 7 7 7 7 7 7 7 7 7 7 7 7 7 7 7 7 M Z M Z Z Z M 7 7 x 7 7 7 7 7 7 7 7 7 7 7 7 7 7 7 7 7 7 7 7 7 7 7 7 7 7 x z z z z z 7 7 x 7 7 7 & 7 7 7 7 7 7 7 7 7 7 7 & 7 7 7 7 7 7 7 7 7 y Z M Z Z M V y & x 7 7 7 7 7 7 7 7 7 7 7 7 7 7 7 7 7 7 7 7 7 7 7 7 7 7 z z z z z z r 7 x z 7 7 7 7 7 7 7 7 7 7 7 7 7 7 7 7 7 7 7 7 7 7 7 7 7 x z z z z x 7 7 x 7 7 7 7 7 7 7 7 7 7 7 ",
"7 7 7 & 7 & & & & 7 7 7 7 7 & 7 7 & & & & 7 7 7 r V Z Z Z Z V y & x 7 7 7 7 % 7 7 & & & 7 7 7 7 7 & 7 7 & & & & & 7 7 7 M Z Z Z Z V M 7 x x 7 7 & 7 7 & & & & & 7 7 7 7 & 7 7 & & & & & 7 7 7 M V Z Z Z Z M 7 7 x 7 7 7 7 7 7 7 7 7 7 7 7 7 7 7 7 7 7 7 7 7 7 7 7 7 7 x z z z z z 7 7 x 7 7 7 7 & 7 & & & & 7 7 7 7 7 7 7 7 & & 7 & 7 7 7 y V Z Z Z Z V y & x 7 7 7 7 7 7 7 7 7 7 7 7 7 7 7 7 7 7 7 7 7 7 7 7 7 7 z z z z z x r 7 x z 7 7 7 7 7 & 7 7 7 7 7 7 7 7 7 7 7 7 7 7 7 7 7 7 7 x z z z z x 7 7 x 7 7 7 7 7 7 7 7 7 7 7 ",
"7 & N B.# D B.G V.7 7 7 & B Z.7 D B.G B.G B.7 7 r V Z Z Z Z V y & x 7 7 7 r C.7 c C.C Z.7 7 7 7 x Z.z c C.C V.C C.7 7 7 M Z Z Z Z V M 7 x x 7 7 C.B 7 Z.C C.C Z.x 7 7 7 Z.B 7 Z.C C.C Z.x 7 7 M V Z Z Z Z M 7 7 x 7 7 B C 7 C B C N C N 7 7 7 C B 7 C B C N C N 7 7 7 x z z z z z 7 7 x 7 7 & N B.# G B.G B.7 7 7 & C C.7 D B.G G D C & 7 y V Z Z Z Z V y & x 7 7 x G r x D N D N D 7 7 7 x G 7 x D N C N D 7 7 7 z z z z z x r 7 x x & x G r & B C B N D 7 7 7 x G 7 x D N C N C 7 7 7 x z z z z x 7 7 x 7 7 G x 7 D N D N D z ",
"7 7 c Z.% B.V.{.G c & 7 7 B.B.B G C.T.V.T.G x & r V M M M M V y & x 7 7 7 7 T.7 G G }.D C % 7 % G B.C D G }.D }.D C % 7 M V M M M V M 7 x x % B B.G B G }.C }.G G & & B B.G B G }.C }.D G % 7 M V M M M V M 7 7 x & r C B x B B.C B.C C 7 7 r C B x B B.C B.C C 7 7 7 x z z z z z 7 7 x 7 7 & c C.% B.C.'.G c & 7 7 B.B.B G C.'.D C.G % 7 r V M M M M V y & x 7 & B C N N B A.N A.B N 7 7 B C N N B A.N A.B N & 7 z z z z z z r 7 x x & B C N x C.C D D B x 7 7 B C N B C V.B V.B x & 7 x z z z z x 7 7 x % N C B N B A.N A.B B ",
"7 7 7 V.x V.Z.T.C.x 7 7 7 G Z.G B.Z.Z.Z.T.C.r & 8 N.h h h h N.s & x 7 7 7 & V.c B.C.'.C.B & 7 & C Z.B.G Z.{.C.'.C.N & 7 h h h h h h s 7 x x & x Z.V.D C.{.V.{.Z.G & 7 c Z.V.D C.{.V.{.Z.D & 7 s N.h h h h h 7 7 x 7 7 D D N C B.D B.G C 7 7 7 D D N C B.D B.G C 7 7 7 x r r r r r 7 7 x 7 7 7 r V.x C.Z.T.C.x 7 7 7 B.Z.G B.Z.T.V.C G % 7 8 N.h h h h N.s & x 7 & N G C B D B.D B.D x 7 7 N G B B D B.D B.D x 7 7 r r r r r x 7 7 x x & N G B C Z.N C B.D x 7 7 N G B B D B.D B.D x 7 7 x r r r r x 7 7 x & x G C B D B.C B.D N ",
"7 7 7 x x c N x B 7 7 7 7 x B x c N x N x N & 8 3 7.6.6.6.6.7.L 5 x 7 7 7 7 x x x B z B 7 7 7 7 7 B x x B z B z B 7 8 < q.q.q.q.q.q.4.6 x x 7 7 B c x B z B z B 7 7 7 7 B c x B z B r B 7 7 7 4.7.6.6.6.6.6.< 7 x 7 7 x x r x x x x x x 7 7 7 x x r x x x z x z 7 7 z v v v v v v 7 7 x 7 7 7 7 x x c N x N 7 7 7 7 x B x c N x N 7 x 7 8 2 7.6.6.6.6.7.L 5 x 7 7 7 N x z c 7 c 7 N 7 7 7 7 N x x c r c r c 7 7 7 v v v v v v z 7 x x 7 7 c x 7 7 x x r c 7 7 7 7 N z x c r c r c 7 7 z v v v v v v r 7 x 7 7 c x r c 7 c 7 N 7 ",
"7 7 7 7 7 & & 7 & 7 7 7 7 7 & 7 & & 7 & 7 & 7 % H %X%X%X%X%X%X'.# x 7 7 7 7 7 7 7 & 7 % 7 7 7 7 7 % 7 7 & 7 & 7 % 7 7 z 5.4.4.4.4.4.5.6 x x 7 7 & & 7 & 7 & 7 % 7 7 7 7 & & 7 & 7 & 7 % 7 7 7 |.%X%X%X%X%X&Xz 7 x 7 7 7 7 7 7 7 7 7 7 7 7 7 7 7 7 7 7 7 7 7 7 7 7 7 z v v v v v v 7 7 x 7 7 7 7 7 7 & & 7 & 7 7 7 7 7 & 7 & & 7 & 7 7 7 % H %X%X%X%X%X%X'.# x 7 7 7 & 7 7 & 7 & 7 & 7 7 7 7 & 7 7 & 7 & 7 & 7 7 7 v v v v v v z 7 x z 7 7 & 7 7 7 7 7 7 & 7 7 7 7 & 7 7 & 7 7 7 & 7 7 z v v v v v v 7 7 x 7 7 & 7 7 & 7 & 7 & 7 ",
"7 7 7 7 7 7 7 7 7 7 7 7 7 7 7 7 7 7 7 7 7 7 7 $ D.FXFXFXFXFXFX`.* x 7 7 7 7 7 7 7 7 7 7 7 7 7 7 7 7 7 7 7 7 7 7 7 7 7 7 h h h h h h s 7 x x 7 7 7 7 7 7 7 7 7 7 7 7 7 7 7 7 7 7 7 7 7 7 7 7 7 SXFXFXFXFXFXFXy 7 x 7 7 7 7 7 7 7 7 7 7 7 7 7 7 7 7 7 7 7 7 7 7 7 7 7 7 x r r r r x 7 7 x 7 7 7 7 7 7 7 7 7 7 7 7 7 7 7 7 7 7 7 7 7 7 7 7 $ D.FXFXFXFXFXFX`.* c 7 7 7 7 7 7 7 7 7 7 7 7 7 7 7 7 7 7 7 7 7 7 7 7 7 7 r r r r r x 7 7 x z 7 7 7 7 7 7 7 7 7 7 7 7 7 7 7 7 7 7 7 7 7 7 7 7 7 x r r r r x 7 7 x 7 7 7 7 7 7 7 7 7 7 7 ",
"7 7 7 7 7 6 6 7 7 7 7 7 7 7 7 7 7 6 6 7 7 7 7 7 7 x x x x x x r 7 x 7 7 7 7 7 7 6 6 7 7 7 7 7 7 7 7 7 7 6 6 7 7 7 7 7 7 M V M M M V M 7 x x 7 7 7 7 7 6 6 7 7 7 7 7 7 7 7 7 7 6 6 7 7 7 7 7 7 y x x x x x x 7 7 x 7 7 7 7 7 7 7 7 7 7 7 7 7 7 7 7 7 7 7 7 7 7 7 7 7 7 x z z z z z 7 7 x 7 7 7 7 7 7 & & 7 7 7 7 7 7 7 7 7 7 & & 7 7 7 7 7 7 x x x x x x r 7 x 7 7 7 7 7 7 7 7 7 7 7 7 7 7 7 7 7 7 7 7 7 7 7 7 7 7 z z z z z z r 7 x z 7 7 7 7 7 7 7 7 7 7 7 7 7 7 7 7 7 7 7 7 7 7 7 7 7 x z z z z z 7 7 x 7 7 7 7 7 7 7 7 7 7 7 ",
"7 7 7 6 0 n b 7 6 7 7 7 7 7 7 6 0 n b 7 6 7 7 7 y V V V V V V y & x 7 7 7 7 6 7 v v 7 6 7 7 7 7 7 7 6 7 v v 7 6 7 7 7 7 M Z Z Z Z V M 7 x x 7 7 7 6 7 v v z 6 7 7 7 7 7 7 6 7 v v z 6 7 7 7 7 M V V V V V Z 7 7 x 7 7 7 7 7 r x r 7 7 7 7 7 7 7 7 7 r x r 7 7 7 7 7 7 x z z z z z 7 7 x 7 7 7 7 & y g f 7 & 7 7 7 7 7 7 & y g f 7 & 7 7 7 y V V V V V V y & x 7 7 7 7 7 7 x x 7 7 7 7 7 7 7 7 7 7 x x 7 7 7 7 7 7 z z z z z x r 7 x z 7 7 7 7 7 x x 7 7 7 7 7 7 7 7 7 7 x x 7 7 7 7 7 7 x z z z z x 7 7 x 7 7 7 7 7 x x 7 7 7 7 ",
"7 7 7 _ iX=.v.:.n 6 7 7 7 7 7 ( iX=.iX:.b 6 7 7 r V Z Z Z Z V y & x 7 7 7 6 m b.p.x.b.m 6 7 7 7 7 6 m b.p.x.b.m 6 7 7 7 M Z Z Z Z V M 7 x x 7 7 6 v a.a.t.[.1.7 7 7 7 7 6 v a.a.t.[.H 7 7 7 7 M V Z Z Z V M 7 7 x 7 7 7 7 C V.G V.C 7 7 7 7 7 7 7 D V.G V.C 7 7 7 7 7 x z z z z z 7 7 x 7 7 7 7 J.!.Y.!.Y.f & 7 7 7 7 7 J.!.Y.!.Y.f & 7 7 y V Z Z Z Z V y & x 7 7 7 7 c B.G B.B.c 7 7 7 7 7 7 N B.G B.B.c 7 7 7 7 z z z z z x r 7 x z 7 7 7 N B.G B.B.x 7 7 7 7 7 7 N V.G B.B.x 7 7 7 7 x z z z z x 7 7 x 7 7 7 x G B.G V.B 7 7 ",
"7 6 =.=.$ o @ b jXn 6 7 7 6 =.-.# o @ b jXn 6 7 r V Z Z Z Z V y & x 7 7 6 ~ b.- o o & b.` 6 7 7 6 ~ b.& o o - b.` 6 7 7 M Z Z Z Z V M 7 x x 7 6 v [.v @ o # t.a.7 7 7 6 J [.v o o # t.a.6 7 7 M V Z Z Z Z M 7 7 x 7 7 7 B.N @ . @ N V.7 7 7 7 7 V.N @ . @ B V.7 7 7 7 x z z z z z 7 7 x 7 7 & Y.Y.# . @ d (.g & 7 7 7 Y.P.# . @ d (.f & 7 y V Z Z Z Z V y & x 7 7 7 B B.7 o o 7 V.B 7 7 7 7 B B.& o o 7 V.N 7 7 7 z z z z z x r 7 x z 7 7 B B.% o o 7 C.N 7 7 7 7 C G % o o 7 C.N 7 7 7 x z z z z x 7 7 x 7 7 x V.7 o o # G G 7 ",
"6 Q =.o @ x 7   b ;.7 7 6 Q =.o o x 7   n :.7 7 r V Z Z Z Z V y & x 7 6 v x.$ . r x o # b.v 6 6 v x.$ . r x o $ b.v 6 7 M Z Z Z Z V s 7 x x 7 7 a.v   7 x @ o t.m 6 7 7 a.v   7 x @ o a.J 6 7 M V Z Z Z Z M 7 7 x 7 7 C B . o 7 @ . B C & 7 7 C N X @ 7 @ . B C & 7 7 x z z z z z 7 7 x 7 $ k Y.= = x 7 X d !.7 7 $ M.Y.. @ x 7 X k Y.7 7 y V Z Z Z Z V y & x 7 7 z B.# X # & . # B.r 7 7 x B.# X % & . % B.7 7 7 z z z z z x r 7 x x & x B.@ . % % X & B.7 7 7 x G @ . % % X 7 B.7 7 7 x z z z z x 7 7 x 7 7 G 7 X # 7 . o G x ",
"% +X}   z G C.z o ;.n 6 6 =.Q   B B.C.7 o ;.b 6 r V Z Z Z Z V y & x 7 % ~ y.  x B.V.B   y.~ 6 6 ~ y.  x B.C.B   y.~ % 7 M Z Z Z Z V s 7 x x % v a.o % G V.G o J t.6 6 v a.o & G V.G . J t.6 7 M V Z Z Z Z M 7 7 x 7 7 B.& . x N B o % B.7 7 7 V.% . x B N o & B.7 7 7 x z z z z z 7 7 x 7 $ Y.k X B B.C.r o !.f & & Y.k . B B.C.7 o !.f & y V Z Z Z Z V y & x 7 & B D X & N B r X D N 7 & B C X 7 N B 7 . D N & 7 z z z z z x r 7 x x % C C X 7 N B 7 . G c 7 & C B X 7 N B 7 . G x & 7 x z z z z x 7 7 x & x B.. @ c B x X N C ",
"% +Xm   z B B.c . -.n 6 6 =.b o B N B.x o =.n % r V Z Z Z Z V y & x 7 % ~ ~ . 7 x G C o ~ ` 6 6 ` ~ . c N G C . ~ ` % 7 M Z Z Z Z V M 7 x x % J t.. # x G G @ z t.7 6 J t.. z B C G o v t.6 7 M V Z Z Z Z M 7 7 x 7 7 G @ o 7 x N # @ G 7 7 7 G @ @ x z N @ # G 7 7 7 x z z z z z 7 7 x 7 & Y.d = B N B.c . Y.j & 7 Y.t = B N B.x . Y.g $ y V Z Z Z Z V y & x 7 & B N X 7 r c x . N B 7 7 B N X 7 r c x . B B & 7 z z z z z x r 7 x x & C x   % 7 N z . B N 7 7 C x . 7 r c r . C N & 7 x z z z z x 7 7 x & c D . & r x c . r D ",
"+ +X X  z C B @ @ iXv 7 6 -.(   % x B @ @ iXz 6 r V Z Z Z Z V y & x 7 % m x.  @ N C 7   p.m 6 6 m p.  @ 7 B &   x.m 6 7 M Z Z Z Z V M 7 x x & z &X@ . c C x   H t.6 7 z a.@ o 7 B x   1.t.% 7 M V Z Z Z Z M 7 7 x 7 7 B.7   # x 7 X 7 B.7 7 7 B.7 X # 7 7 X r B.7 7 7 x z z z z z 7 7 x 7 $ P.J.X % x B @ @ !.y 7 $ Y.M.X % x B = # !.y & y V Z Z Z Z V y & x 7 & N G . o % x @ . G c 7 7 N G X o % x @ . B.x 7 7 z z z z z x r 7 x x % C V.  @ z x @ . B.x 7 & B D X @ 6 x @ o B.x 7 7 x z z z z x 7 7 x & x V.o . # z % X C C ",
"6 v xXn   @ o o -.-.6 7 6 b v.b   @ o o -.( 6 7 r V Z Z Z Z V y & x 7 7 7 +Xy.. @ @ . m c.7 7 7 7 p.m   o @ . m p.7 7 7 M Z Z Z Z V M 7 x x 7 6 a.[.o o @ . z a.v 7 7 6 1.t.. . @ . z a.z 7 7 M V Z Z Z Z M 7 7 x 7 7 N T.# . o . @ B.N 7 7 7 c B.@   o . # B.c 7 7 7 x z z z z z 7 7 x 7 7 t !.a X @ o . P.P.& 7 & f !.t X @ o o P.J.& 7 y V Z Z Z Z V y & x 7 7 7 G N   . . . c G 7 7 7 7 G c   . . . N G 7 7 7 z z z z z x r 7 x x 7 7 {.B . . . . N G 7 7 7 7 B.x   . . . B D 7 7 7 x z z z z x 7 7 x 7 7 C C .   o X 7 B.7 ",
"7 # ].lX# # # n ;.0 7 7 7 6 ( :.% # # n :.7 7 7 r V Z Z Z Z V y & x 7 7 6 m xXz # # 7 x.v 6 7 7 6 n b.7 # # 0 b.v 6 7 7 M Z Z Z Z V s 7 x x 7 7 z &XH @ # % t.H 6 7 7 7 z a.v # # % t.H 6 7 7 M V Z Z Z Z M 7 7 x 7 7 7 Z.B.# # # B C 7 7 7 7 7 G B % # # B C 7 7 7 7 x z z z z z 7 7 x 7 7 $ J.Y.$ # # g !.7 7 7 7 $ J.Y.$ # # j Y.7 7 7 y V Z Z Z Z V y & x 7 7 7 x B.7 # # 7 B.x 7 7 7 7 x B.7 # # 7 B.z 7 7 7 z z z z z x r 7 x z 7 & B {.7 # # 7 B.r 7 7 7 7 c B.7 # # r B.7 7 7 7 x z z z z x 7 7 x 7 7 7 B.x # # & G c 7 ",
"7 7 6 0 7 7 7 7 7 6 7 7 7 7 7 7 7 7 7 7 7 7 7 7 r V Z Z Z Z V y & x 7 7 7 6 7 7 7 7 7 7 6 7 7 7 7 7 7 7 7 7 7 7 7 7 7 7 M Z Z Z Z V M 7 x x 7 7 6 7 7 7 7 7 7 7 7 7 7 7 7 7 7 7 7 7 7 7 7 7 7 M V Z Z Z Z M 7 7 x 7 7 7 7 7 7 7 7 7 7 7 7 7 7 7 7 7 7 7 7 7 7 7 7 7 7 x z z z z z 7 7 x 7 7 7 7 7 7 7 7 7 7 7 7 7 7 7 7 7 7 7 7 7 7 7 7 7 y V Z Z Z Z V y & x 7 7 7 7 7 7 7 7 7 7 7 7 7 7 7 7 7 7 7 7 7 7 7 7 7 7 z z z z z x r 7 x z 7 7 7 7 7 7 7 7 7 7 7 7 7 7 7 7 7 7 7 7 7 7 7 7 7 x z z z z x 7 7 x 7 7 7 7 7 7 7 7 7 7 7 ",
"7 7 7 % 7 7 & % 7 7 7 7 7 7 & 7 7 % & & & & 7 7 r V Z Z Z Z V y & x 7 7 7 7 % 7 7 % 7 6 7 7 7 7 7 & & 7 % & & & & 7 7 7 M Z Z Z Z V M 7 x x 7 7 7 % 7 7 & 7 & 7 7 7 7 7 & & 7 & & & & & 7 7 7 M V Z Z Z Z M 7 7 x 7 7 7 & 7 7 & 7 & 7 7 7 7 7 7 & 7 7 & 7 & 7 7 7 7 7 x z z z z z 7 7 x 7 7 7 & 7 & & & & & & 7 7 7 7 % 7 7 % & & & & 7 7 y V Z Z Z Z V y & x 7 7 7 & 7 7 & 7 & 7 7 7 7 7 7 & 7 7 & 7 & 7 7 7 7 7 z z z z z x r 7 x z 7 7 7 & 7 7 & 7 & 7 7 7 7 7 & 7 7 & 7 & 7 7 7 7 7 x z z z z x 7 7 x 7 7 & 7 7 & 7 & 7 & 7 ",
"7 7 B V.7 B G B.C 7 7 7 7 r C.x x C.B V.B C.7 7 r V Z Z Z Z V y & x 7 7 7 r V.7 x G B V.7 7 7 7 7 V.B 7 C.B V.B V.x & 7 M Z Z Z Z V M 7 x x 7 7 7 B.z x C.N C.r 7 7 7 & D G & G D G C B.C & 7 M V Z Z Z Z M 7 7 x 7 7 7 N c & C N C N 7 7 7 7 x D 7 c C N B N C 7 7 7 x z z z z z 7 7 x 7 & B C.7 C G C G D G 7 7 7 z Z.x x C.B V.B C.7 7 y V Z Z Z Z V y & x 7 7 r D 7 x C c C c C 7 7 7 7 C c 7 D c C c C x 7 7 z z z z z x r 7 x z 7 7 r C 7 7 B N C 7 7 7 7 x D 7 x C N C N C 7 7 7 x z z z z x 7 7 x 7 7 D x 7 D c C c D r ",
"7 7 7 C.z x T.Z.B.7 7 7 % D V.C C G }.D }.G C % y V Z Z Z Z V y & x 7 7 7 7 T.7 r Z.D Z.r 7 7 & N V.G B G {.G }.G B.& 7 M Z Z Z Z V s 7 x x 7 7 & Z.x r T.G T.c 7 7 7 r V.B.N G T.C.T.C.B.7 7 M V Z Z Z Z M 7 7 x 7 7 & B B 7 C B.D C 7 7 7 7 C C c B C B.C B.B x 7 7 x z z z z z 7 7 x 7 7 B.B.N G C.'.V.T.B.x 7 % D V.C C G }.D }.G C % y V Z Z Z Z V y & x 7 & B C N N C A.B A.B N & 7 x C B c B A.B A.B B & 7 z z z z z x r 7 x z 7 7 r B.& x A.D C c & 7 7 B C c B C V.B V.B x & 7 x z z z z x 7 7 x % N C B N B A.N A.B B ",
"7 & D C.x N '.N Z.x 7 7 & B Z.B.G C.{.B.{.C.B % y V Z Z Z Z V y & x 7 7 7 & B.N 7 V.7 C.B % 7 7 x C.V.D V.{.V.{.C.G & 7 M Z Z Z Z V s 7 x x 7 7 % G C x C C.C V.% 7 7 7 V.C.D B.T.Z.T.Z.V.7 7 M V Z Z Z Z M 7 7 x 7 7 & x B x C B.D C 7 7 7 7 B D B B D B.D B.D r 7 7 x z z z z z 7 7 x 7 7 G Z.G B.Z.T.Z.T.C.x 7 & B Z.B.G C.{.V.{.C.B % y V Z Z Z Z V y & x 7 & N D B B D B.C B.D x 7 7 x D C N C B.C B.D B & 7 z z z z z x r 7 x z 7 7 7 C z D Z.B.D x 7 7 7 B D B B D B.C B.D x 7 7 x z z z z x 7 7 x & x D C B C V.C V.D N ",
"7 7 C G N B B B B 7 7 7 7 7 D c x C x C x D 7 7 r V Z Z Z Z V y & x 7 7 7 7 x c x x c C 7 7 7 7 7 C B x C x C x D z 7 7 M Z Z Z Z V M 7 x x 7 7 7 x x N C c D 7 7 7 7 & N C x B N B c B c 7 7 M V Z Z Z Z M 7 7 x 7 7 7 7 x x N x c x 7 7 7 7 r N x x N x c x N 7 7 7 x z z z z z 7 7 x 7 7 x C x N B c B c B 7 7 7 7 D c x C x C x D 7 7 y V Z Z Z Z V y & x 7 7 7 N x x N z N z N 7 7 7 7 N x z N z N r N 7 7 7 z z z z z x r 7 x z 7 7 7 x x 7 r x N 7 7 7 7 7 N x x N x N x N 7 7 7 x z z z z x 7 7 x 7 7 N x x N r N r N 7 ",
"7 7 & % & & & & & 7 7 7 7 7 % & 7 % 7 % 7 % 7 7 r V Z Z Z Z V y & x 7 7 7 7 7 7 7 7 7 % 7 7 7 7 7 & & 7 % 7 % 7 % 7 7 7 M Z Z Z Z V M 7 x x 7 7 7 7 7 & % 7 % 7 7 7 7 7 & & 7 & & & & & & 7 7 M V Z Z Z Z M 7 7 x 7 7 7 7 7 7 & 7 & 7 7 7 7 7 7 & 7 7 & 7 & 7 & 7 7 7 x z z z z z 7 7 x 7 7 7 % 7 & & 7 & & & 7 7 7 7 % & 7 % 7 % 7 % 7 7 y V Z Z Z Z V y & x 7 7 7 & 7 7 & 7 & 7 & 7 7 7 7 & 7 7 & 7 & 7 & 7 7 7 z z z z z x r 7 x z 7 7 7 7 7 7 7 7 & 7 7 7 7 7 & 7 7 & 7 & 7 & 7 7 7 x z z z z x 7 7 x 7 7 & 7 7 & 7 & 7 & 7 ",
"7 7 7 7 7 7 7 7 7 7 7 7 7 7 7 7 7 7 7 7 7 7 7 7 r V Z Z Z Z V y & x 7 7 7 7 7 7 7 7 7 7 7 7 7 7 7 7 7 7 7 7 7 7 7 7 7 7 M Z Z Z Z V s 7 x x 7 7 7 7 7 7 7 7 7 7 7 7 7 7 7 7 7 7 7 7 7 7 7 7 7 M V Z Z Z Z M 7 7 x 7 7 7 7 7 7 7 7 7 7 7 7 7 7 7 7 7 7 7 7 7 7 7 7 7 7 x z z z z z 7 7 x 7 7 7 7 7 7 7 7 7 7 7 7 7 7 7 7 7 7 7 7 7 7 7 7 7 y V Z Z Z Z V y & x 7 7 7 7 7 7 7 7 7 7 7 7 7 7 7 7 7 7 7 7 7 7 7 7 7 7 z z z z z x r 7 x z 7 7 7 7 7 7 7 7 7 7 7 7 7 7 7 7 7 7 7 7 7 7 7 7 7 x z z z z x 7 7 x 7 7 7 7 7 7 7 7 7 7 7 ",
"7 7 7 7 7 7 7 7 7 7 7 7 7 7 7 7 % % 6 6 7 7 7 7 r V Z Z Z Z V y & x 7 7 7 7 7 7 7 7 7 7 7 7 7 7 7 7 7 6 6 6 6 7 7 7 7 7 M Z Z Z Z V s 7 x x 7 7 7 7 7 7 7 7 7 7 7 7 7 7 7 7 7 6 6 6 7 7 7 7 7 M V Z Z Z Z M 7 7 x 7 7 7 7 7 7 7 7 7 7 7 7 7 7 7 7 7 & & & 7 7 7 7 7 7 x z z z z z 7 7 x 7 7 7 7 7 7 7 7 7 7 7 7 7 7 7 7 7 $ $ $ 7 7 7 7 7 y V Z Z Z Z V y & x 7 7 7 7 7 7 7 7 7 7 7 7 7 7 7 7 7 7 & & 7 7 7 7 7 7 z z z z z x r 7 x z 7 7 7 7 7 7 7 7 7 7 7 7 7 7 7 7 7 & & 7 7 7 7 7 7 x z z z z x 7 7 x 7 7 7 7 7 7 7 7 7 7 7 ",
"7 7 7 7 7 7 7 7 7 7 7 7 7 7 6 7 ` { } v 6 7 7 7 r V Z Z Z Z V y & x 7 7 7 7 7 7 7 7 7 7 7 7 7 7 7 7 6 v ~ ~ v 6 7 7 7 7 M Z Z Z Z V M 7 x x 7 7 7 7 7 7 7 7 7 7 7 7 7 7 7 6 z H H J 7 7 7 7 7 M V Z Z Z Z M 7 7 x 7 7 7 7 7 7 7 7 7 7 7 7 7 7 7 7 7 c B c 7 7 7 7 7 7 x z z z z z 7 7 x 7 7 7 7 7 7 7 7 7 7 7 7 7 7 7 7 7 k J.M.y $ 7 7 7 y V Z Z Z Z V y & x 7 7 7 7 7 7 7 7 7 7 7 7 7 7 7 7 7 x N N x 7 7 7 7 7 z z z z z x r 7 x z 7 7 7 7 7 7 7 7 7 7 7 7 7 7 7 7 x B N x 7 7 7 7 7 x z z z z x 7 7 x 7 7 7 7 7 7 7 7 7 7 7 ",
"7 7 7 7 7 7 7 7 7 7 7 7 7 6 v +XlX{ =.;.} 6 7 7 r V Z Z Z Z V y & x 7 7 7 7 7 7 7 7 7 7 7 7 7 7 7 7 y.b.y.y.b.y.7 7 7 7 M Z Z Z Z V M 7 x x 7 7 7 7 7 7 7 7 7 7 7 7 7 7 6 H a.t.1.a.t.z 7 7 7 M V Z Z Z Z M 7 7 x 7 7 7 7 7 7 7 7 7 7 7 7 7 7 7 x G G B B.G x 7 7 7 7 x z z z z z 7 7 x 7 7 7 7 7 7 7 7 7 7 7 7 7 7 & t Y.!.J.Y.!.M.& 7 7 y V Z Z Z Z V y & x 7 7 7 7 7 7 7 7 7 7 7 7 7 7 7 7 C B.C C B.C 7 7 7 7 z z z z z x r 7 x z 7 7 7 7 7 7 7 7 7 7 7 7 7 7 7 C B.B D B.B 7 7 7 7 x z z z z x 7 7 x 7 7 7 7 7 7 7 7 7 7 7 ",
"7 7 7 7 7 7 7 7 7 7 7 7 7 7 xX].      $ iX} 6 7 r V Z Z Z Z V y & x 7 7 7 7 7 7 7 7 7 7 7 7 7 7 6 x.p.o . . o c.y.6 7 7 M Z Z Z Z V M 7 x x 7 7 7 7 7 7 7 7 7 7 7 7 7 % 1.[.# . . O 1.a.7 7 7 M V Z Z Z Z M 7 7 x 7 7 7 7 7 7 7 7 7 7 7 7 7 7 x Z.7 . . . z C.r 7 7 7 x z z z z z 7 7 x 7 7 7 7 7 7 7 7 7 7 7 7 7 7 r (.M.. . . 6 (.k & 7 y V Z Z Z Z V y & x 7 7 7 7 7 7 7 7 7 7 7 7 7 7 7 V.G o . . @ G C 7 7 7 z z z z z x r 7 x z 7 7 7 7 7 7 7 7 7 7 7 7 7 7 C.C o . . @ B.B 7 7 7 x z z z z x 7 7 x 7 7 7 7 7 7 7 7 7 7 7 ",
"7 7 7 7 7 7 7 7 7 7 7 7 # XX+X  % 7 c o - v.7 7 r V Z Z Z Z V y & x 7 7 7 7 7 7 7 7 7 7 7 7 7 % m +Xo . c B @ o b.v 6 7 M Z Z Z Z V s 7 x x 7 7 7 7 7 7 7 7 7 7 7 7 7 z &Xr   r C 7   t.H % 7 M V Z Z Z Z M 7 7 x 7 7 7 7 7 7 7 7 7 7 7 7 7 & Z.B   @ x & X c G & 7 7 x z z z z z 7 7 x 7 7 7 7 7 7 7 7 7 7 7 7 7 $ !.!.X @ B N . t !.7 7 y V Z Z Z Z V y & x 7 7 7 7 7 7 7 7 7 7 7 7 7 & N {.o   7 z o @ B.x 7 7 z z z z z x r 7 x z 7 7 7 7 7 7 7 7 7 7 7 7 & C Z..   7 r . @ B.r 7 7 x z z z z x 7 7 x 7 7 7 7 7 7 7 7 7 7 7 ",
"7 7 7 7 7 7 7 7 7 7 7 7 % lX}   C c B.x o :.n % r V Z Z Z Z V y & x 7 7 7 7 7 7 7 7 7 7 7 7 7 # p.x.  7 x V.C   y.~ % 7 M Z Z Z Z V s 7 x x 7 7 7 7 7 7 7 7 7 7 7 7 % H &Xo & x G B.o J t.6 7 M V Z Z Z Z M 7 7 x 7 7 7 7 7 7 7 7 7 7 7 7 7 7 {.# o 7 x B @ # B.7 7 7 x z z z z z 7 7 x 7 7 7 7 7 7 7 7 7 7 7 7 7 $ (.k . r N C.x o Y.f & y V Z Z Z Z V y & x 7 7 7 7 7 7 7 7 7 7 7 7 7 % B.B.X % 7 B z . C N & 7 z z z z z x r 7 x z 7 7 7 7 7 7 7 7 7 7 7 7 % V.D X % 7 B 7 . D c & 7 x z z z z x 7 7 x 7 7 7 7 7 7 7 7 7 7 7 ",
"7 7 7 7 7 7 7 7 7 7 7 7 % +X} . B G B.x o :.n % r V Z Z Z Z V y & x 7 7 7 7 7 7 7 7 7 7 7 7 7 # p.p.  c D G B . ` ` % 7 M Z Z Z Z V M 7 x x 7 7 7 7 7 7 7 7 7 7 7 7 % H &X. 7 D G G o v t.6 7 M V Z Z Z Z M 7 7 x 7 7 7 7 7 7 7 7 7 7 7 7 7 7 {.# o x x N @ # B.7 7 7 x z z z z z 7 7 x 7 7 7 7 7 7 7 7 7 7 7 7 7 $ (.k . B D B.z o Y.g $ y V Z Z Z Z V y & x 7 7 7 7 7 7 7 7 7 7 7 7 7 % B.G X 7 x c r . B B & 7 z z z z z x r 7 x z 7 7 7 7 7 7 7 7 7 7 7 7 % V.C X 7 x c 7 . C N & 7 x z z z z x 7 7 x 7 7 7 7 7 7 7 7 7 7 7 ",
"7 7 7 7 7 7 7 7 7 7 7 7 + .X.X  & c x . $ v.0 7 r V Z Z Z Z V y & x 7 7 7 7 7 7 7 7 7 7 7 7 7 % ~ +X  @ c c @ o x.n 6 7 M Z Z Z Z V M 7 x x 7 7 7 7 7 7 7 7 7 7 7 7 7 z &X% . x N &   t.1.% 7 M V Z Z Z Z M 7 7 x 7 7 7 7 7 7 7 7 7 7 7 7 7 7 {.c X # 7 % X x G 7 7 7 x z z z z z 7 7 x 7 7 7 7 7 7 7 7 7 7 7 7 7 * !.!.X % N x . 6 !.r 7 y V Z Z Z Z V y & x 7 7 7 7 7 7 7 7 7 7 7 7 7 & B T.. . 7 7 . o B.x 7 7 z z z z z x r 7 x z 7 7 7 7 7 7 7 7 7 7 7 7 % C Z.X o 7 7 . @ B.z 7 7 x z z z z x 7 7 x 7 7 7 7 7 7 7 7 7 7 7 ",
"7 7 7 7 7 7 7 7 7 7 7 7 7 z xX[   o . # ;.} 6 7 r V Z Z Z Z V y & x 7 7 7 7 7 7 7 7 7 7 7 7 7 7 6 +XoXo . . o y.y.6 7 7 M Z Z Z Z V s 7 x x 7 7 7 7 7 7 7 7 7 7 7 7 7 % t.&X# . o . m a.7 7 7 M V Z Z Z Z M 7 7 x 7 7 7 7 7 7 7 7 7 7 7 7 7 7 N }.r . . . 7 V.x 7 7 7 x z z z z z 7 7 x 7 7 7 7 7 7 7 7 7 7 7 7 7 7 y AXJ.X o . # !.M.& 7 y V Z Z Z Z V y & x 7 7 7 7 7 7 7 7 7 7 7 7 7 7 7 Z.C.o . . o D C 7 7 7 z z z z z x r 7 x z 7 7 7 7 7 7 7 7 7 7 7 7 7 7 T.B.. . . @ G C 7 7 7 x z z z z x 7 7 x 7 7 7 7 7 7 7 7 7 7 7 ",
"7 7 7 7 7 7 7 7 7 7 7 7 7 % ` +X6 7 6 n ( 6 7 7 r Z M Z Z M V y & x 7 7 7 7 7 7 7 7 7 7 7 7 7 7 6 v oXz 7 7 z y.z 7 7 7 M Z Z Z M Z s 7 x x 7 7 7 7 7 7 7 7 7 7 7 7 7 7 7 [.J 6 7 7 t.v 6 7 7 M Z M Z M Z M 7 7 x 7 7 7 7 7 7 7 7 7 7 7 7 7 7 & B.D & 7 7 B N 7 7 7 7 x z z z z z 7 7 x 7 7 7 7 7 7 7 7 7 7 7 7 7 7 $ M.!.$ 7 & j P.& 7 7 y Z M Z Z M V y & x 7 7 7 7 7 7 7 7 7 7 7 7 7 7 7 x Z.7 7 7 r C 7 7 7 7 z z z z z z r 7 x z 7 7 7 7 7 7 7 7 7 7 7 7 7 7 x C.7 7 7 x C 7 7 7 7 x z z z z z 7 7 x 7 7 7 7 7 7 7 7 7 7 7 ",
"7 7 7 7 7 7 7 7 7 7 7 7 7 7 6 # 7 7 & % # 7 7 7 y V V V V V V y & x 7 7 7 7 7 7 7 7 7 7 7 7 7 7 7 # % 7 & 7 % % % 7 7 7 V V V V V V M 7 x x 7 7 7 7 7 7 7 7 7 7 7 7 7 7 % # 7 % 7 % % # 7 7 7 M V V V V V Z 7 7 x 7 7 7 7 7 7 7 7 7 7 7 7 7 7 & % 7 & 7 & & & 7 7 7 r x x x x x x 7 7 x 7 7 7 7 7 7 7 7 7 7 7 7 7 7 7 # $ & & & % $ & 7 7 y V V V V V V y & x 7 7 7 7 7 7 7 7 7 7 7 7 7 7 7 % & 7 & 7 & & & 7 7 7 x x x x x x r 7 x z 7 7 7 7 7 7 7 7 7 7 7 7 7 7 % & 7 7 7 & & & 7 7 7 x x x x x x 7 7 x 7 7 7 7 7 7 7 7 7 7 7 ",
"7 7 7 7 7 7 7 7 7 7 7 7 7 7 7 G 7 B C B G 7 7 7 7 y y y y y y 7 7 x 7 7 7 7 7 7 7 7 7 7 7 7 7 7 z V.7 x B.c G N B.7 7 7 y y y y y y y 7 x x 7 7 7 7 7 7 7 7 7 7 7 7 7 7 B.c 7 B.c G c B.z 7 7 y y y y y y y 7 7 x 7 7 7 7 7 7 7 7 7 7 7 7 7 7 N N & B x B x B x 7 7 7 7 7 7 7 7 7 7 7 x 7 7 7 7 7 7 7 7 7 7 7 7 7 & N B.6 B D B C C D 7 7 7 y y y y y y 7 7 x 7 7 7 7 7 7 7 7 7 7 7 7 7 7 7 C 7 z B x B x B 7 7 7 7 7 7 7 7 7 7 7 x z 7 7 7 7 7 7 7 7 7 7 7 7 7 z C 7 x B x B x B 7 7 7 7 7 7 7 7 7 7 7 x 7 7 7 7 7 7 7 7 7 7 7 ",
"7 7 7 7 7 7 7 7 7 7 7 7 7 7 N }.7 C.{.T.B.x 7 7 7 7 7 & 7 7 7 7 7 x 7 7 7 7 7 7 7 7 7 7 7 7 7 % D C.B C V.{.G {.B.B & 7 7 & 7 & 7 7 7 7 x x 7 7 7 7 7 7 7 7 7 7 7 7 & N C.G B B.{.G {.B.G % 7 7 7 7 & & 7 7 7 7 x 7 7 7 7 7 7 7 7 7 7 7 7 7 r C C x C B.C B.D C 7 7 7 7 7 7 7 7 7 7 7 x 7 7 7 7 7 7 7 7 7 7 7 7 7 7 B.V.N G Z.T.C.T.B.x 7 7 7 7 & 7 & 7 7 7 x 7 7 7 7 7 7 7 7 7 7 7 7 7 & B D c N C V.B V.C x & 7 7 7 7 7 7 7 7 7 x z 7 7 7 7 7 7 7 7 7 7 7 7 7 B D x B C V.C V.C x 7 7 7 7 7 7 7 7 7 7 x 7 7 7 7 7 7 7 7 7 7 7 ",
"7 7 7 7 7 7 7 7 7 7 7 7 7 7 C.}.B B }.Z.V.x 7 7 7 & D.V D.S.D.M & x 7 7 7 7 7 7 7 7 7 7 7 7 7 & D C.G G V.{.B.{.B.B & 7 $ D.s N.S.S.S.# x x 7 7 7 7 7 7 7 7 7 7 7 7 & N V.B.D B.{.G {.B.G % 7 & V D.y D.S.D.$ r x 7 7 7 7 7 7 7 7 7 7 7 7 7 7 C C N B B.C B.D C 7 7 7 7 7 7 7 7 7 7 7 x 7 7 7 7 7 7 7 7 7 7 7 7 7 7 B.C.G G Z.T.Z.T.V.x 7 7 7 D.Z D.D.D.7 7 x 7 7 7 7 7 7 7 7 7 7 7 7 7 & N D B B C V.C V.C x & 7 7 7 7 7 7 7 7 7 x z 7 7 7 7 7 7 7 7 7 7 7 7 7 B D B B D B.C B.C x 7 7 7 7 7 7 7 7 7 7 x 7 7 7 7 7 7 7 7 7 7 7 ",
"7 7 7 7 7 7 7 7 7 7 7 7 7 7 7 B B B N B D 7 7 7 y N.D.M `.`.D.y & x 7 7 7 7 7 7 7 7 7 7 7 7 7 7 r G N N G c G c G 7 7 7 V S.Z V S.S.V % x x 7 7 7 7 7 7 7 7 7 7 7 7 7 7 G B c G c G c B.z 7 7 Z S.D.7 D.S.`.$ 7 x 7 7 7 7 7 7 7 7 7 7 7 7 7 7 N N x N x N x B x 7 7 7 7 7 7 7 7 7 7 7 x 7 7 7 7 7 7 7 7 7 7 7 7 7 & N G c B C B C B C 7 7 y V D.S.D.SX`.M & x 7 7 7 7 7 7 7 7 7 7 7 7 7 7 7 B x x B x B x B 7 7 7 7 7 7 7 7 7 7 7 x z 7 7 7 7 7 7 7 7 7 7 7 7 7 r B x x B x B x B 7 7 7 7 7 7 7 7 7 7 7 x 7 7 7 7 7 7 7 7 7 7 7 ",
"7 7 7 7 7 7 7 7 7 7 7 7 7 7 7 & & 7 7 & & 7 7 7 7 y D.s N.S.D.7 7 x 7 7 7 7 7 7 7 7 7 7 7 7 7 7 7 % & & % 7 % 7 % 7 7 7 7 s s s s V 7 7 x x 7 7 7 7 7 7 7 7 7 7 7 7 7 7 % & 7 % 7 % 7 % 7 7 7 & S.S.y M S.N.& 7 x 7 7 7 7 7 7 7 7 7 7 7 7 7 7 7 & 7 & 7 & 7 & 7 7 7 7 7 7 7 7 7 7 7 7 x 7 7 7 7 7 7 7 7 7 7 7 7 7 7 7 % 7 & & & & & & 7 7 7 y S.s S.M S.y & x 7 7 7 7 7 7 7 7 7 7 7 7 7 7 7 & 7 7 & 7 & 7 & 7 7 7 7 7 7 7 7 7 7 7 x z 7 7 7 7 7 7 7 7 7 7 7 7 7 7 & 7 7 & 7 & 7 & 7 7 7 7 7 7 7 7 7 7 7 x 7 7 7 7 7 7 7 7 7 7 7 ",
"7 7 7 7 7 7 7 7 7 7 7 7 7 7 7 7 7 7 7 7 7 7 7 7 7 7 $ 7 & & $ 7 7 x 7 7 7 7 7 7 7 7 7 7 7 7 7 7 7 7 7 7 7 7 7 7 7 7 7 7 7 & 7 7 & & 7 7 x x 7 7 7 7 7 7 7 7 7 7 7 7 7 7 7 7 7 7 7 7 7 7 7 7 7 7 $ & 7 & & & 7 7 x 7 7 7 7 7 7 7 7 7 7 7 7 7 7 7 7 7 7 7 7 7 7 7 7 7 7 7 7 7 7 7 7 7 7 x 7 7 7 7 7 7 7 7 7 7 7 7 7 7 7 7 7 7 7 7 7 7 7 7 7 7 7 & & & & $ 7 7 x 7 7 7 7 7 7 7 7 7 7 7 7 7 7 7 7 7 7 7 7 7 7 7 7 7 7 7 7 7 7 7 7 7 7 x z 7 7 7 7 7 7 7 7 7 7 7 7 7 7 7 7 7 7 7 7 7 7 7 7 7 7 7 7 7 7 7 7 7 x 7 7 7 7 7 7 7 7 7 7 7 ",
"7 7 7 7 7 7 7 7 7 7 7 7 7 7 7 7 7 7 7 7 7 7 7 7 7 7 7 7 7 7 7 7 7 7 7 7 7 7 7 7 7 7 7 7 7 7 7 7 7 7 7 7 7 7 7 7 7 7 7 7 7 7 7 7 7 7 7 7 7 7 7 7 7 7 7 7 7 7 7 7 7 7 7 7 7 7 7 7 7 7 7 7 7 7 7 7 7 7 7 7 7 7 7 7 7 7 7 7 7 7 7 7 7 7 7 7 7 7 7 7 7 7 7 7 7 7 7 7 7 7 7 7 7 7 7 7 7 7 7 7 7 7 7 7 7 7 7 7 7 7 7 7 7 7 7 7 7 7 7 7 7 7 7 7 7 7 7 7 7 7 7 7 7 7 7 7 7 7 7 7 7 7 7 7 7 7 7 7 7 7 7 7 7 7 7 7 7 7 7 7 7 7 7 7 7 7 7 7 7 7 7 7 7 7 7 7 7 7 7 7 7 7 7 7 7 7 7 7 7 7 7 7 7 7 7 7 7 7 7 7 7 7 7 7 7 7 7 7 7 7 7 7 7 7 7 7 ",
"D D D D D D D D D D D D D D D D D D D D D D D D D D D D D D D D D D D D D D D D D D D D D D D D D D D D D D D D D D D D D D D D D D D D D D D D D D D D D D D D D D D D D D D D D D D D D D D D D D D D D D D D D D D D D D D D D D D D D D D D D D D D D D D D D D D D D D D D D D D D D D D D D D D D D D D D D D D D D D D D D D D D D D D D D D D D D D D D D D D D D D D D D D D D D D D D D D D D D D D D D D D D D D D D D D D D D D D D D D D D D D D D D D D D D D D D D D D D D D D D D D D D D D D D D D D D D D D D ",
"r r r r 7 7 7 7 7 7 7 7 7 7 7 7 7 7 7 7 7 7 7 7 7 7 7 7 7 7 7 7 7 7 7 7 7 7 7 7 7 7 7 7 7 7 7 7 7 7 7 7 7 7 7 7 7 7 7 7 7 7 7 7 7 7 7 7 7 7 7 7 7 7 7 7 7 7 7 7 7 7 7 7 7 7 7 7 7 7 7 7 7 7 7 7 7 7 7 7 7 7 7 7 7 7 7 7 7 7 7 7 7 7 7 7 7 7 7 7 7 7 7 7 7 7 7 7 7 7 7 7 7 7 7 7 7 7 7 7 7 7 7 7 7 7 7 7 7 7 7 7 7 7 7 7 7 7 7 7 7 7 7 7 7 7 7 7 7 7 7 7 7 7 7 7 7 7 7 7 7 7 7 7 7 7 7 7 7 7 7 7 7 7 7 7 7 7 7 7 7 7 7 7 7 7 7 7 7 7 7 7 7 7 7 7 7 7 7 7 7 7 7 7 7 7 7 7 7 7 7 7 7 7 7 7 7 7 7 7 7 7 7 7 7 7 7 r 7 7 r r r r 7 7 ",
"& & 7 & 7 7 7 7 7 7 7 7 7 7 7 7 7 7 7 7 7 7 7 7 7 7 7 7 7 7 7 7 7 7 7 7 7 7 7 7 7 7 7 7 7 7 7 7 7 7 7 7 7 7 7 7 7 7 7 7 7 7 7 7 7 7 7 7 7 7 7 7 7 7 7 7 7 7 7 7 7 7 7 7 7 7 7 7 7 7 7 7 7 7 7 7 7 7 7 7 7 7 7 7 7 7 7 7 7 7 7 7 7 7 7 7 7 7 7 7 7 7 7 7 7 7 7 7 7 7 7 7 7 7 7 7 7 7 7 7 7 7 7 7 7 7 7 7 7 7 7 7 7 7 7 7 7 7 7 7 7 7 7 7 7 7 7 7 7 7 7 7 7 7 7 7 7 7 7 7 7 7 7 7 7 7 7 7 7 7 7 7 7 7 7 7 7 7 7 7 7 7 7 7 7 7 7 7 7 7 7 7 7 7 7 7 7 7 7 7 7 7 7 7 7 7 7 7 7 7 7 7 7 7 7 7 7 7 7 7 7 7 7 7 7 7 7 7 7 7 & 7 7 7 7 7 ",
"B.Z.B.C.x 7 7 7 7 7 7 7 7 7 7 7 7 7 7 N C B G x 7 7 7 7 7 7 7 7 7 7 7 7 7 7 7 7 7 7 7 7 7 7 7 7 7 7 7 7 7 7 7 7 7 7 7 7 7 7 7 7 7 7 7 7 7 7 7 7 7 7 7 7 7 7 7 7 7 7 7 7 7 7 7 7 7 7 7 7 7 7 7 7 7 7 7 7 7 7 7 7 7 7 7 7 7 7 7 7 7 7 7 7 7 7 7 7 7 7 7 7 7 7 7 7 7 7 7 7 7 7 7 7 7 7 7 7 7 7 7 7 7 7 7 7 7 7 7 7 7 7 7 7 7 7 7 7 7 7 7 7 7 7 7 7 7 7 7 7 7 7 7 7 7 7 7 7 7 7 7 7 7 7 7 7 7 7 7 7 7 7 7 7 7 7 7 7 7 7 7 7 7 7 7 7 7 7 7 7 7 7 7 7 7 7 7 7 7 7 7 7 7 7 7 7 7 7 7 7 7 7 7 7 7 7 7 7 7 7 7 7 7 7 7 7 7 7 c 7 7 7 7 7 ",
"T.G Z.'.x & 7 7 M.y 7 7 7 7 7 7 7 7 7 C T.{.{.N & 7 & M.f & 7 7 7 7 7 7 7 7 7 7 7 7 7 7 7 7 7 7 7 7 7 7 7 7 7 7 7 7 7 7 7 7 7 7 7 7 7 7 7 7 7 7 7 7 7 7 7 7 7 7 7 7 7 7 7 7 7 7 7 7 7 7 7 7 7 7 7 7 7 7 7 7 7 7 7 7 7 7 7 7 7 7 7 7 7 7 7 7 7 7 7 7 7 7 7 7 7 7 7 7 7 7 7 7 7 7 7 7 7 7 7 7 7 7 7 7 7 7 7 7 7 7 7 7 7 7 7 7 7 7 7 7 7 7 7 7 7 7 7 7 7 7 7 7 7 7 7 7 7 7 7 7 7 7 7 7 7 7 7 7 7 7 7 7 7 7 7 7 7 7 7 7 7 7 7 7 7 7 7 7 7 7 7 7 7 7 7 7 7 7 7 7 7 7 7 7 7 7 7 7 7 7 7 7 7 7 7 7 7 7 7 7 7 7 7 x B D N C N D G c r 8 ",
"V.C.V.D x 7 & j (.Y.7 r P.Y.j & 7 7 7 N & T.D x 7 & j (.Y.7 7 P.Y.j & 7 7 7 7 7 7 7 7 7 7 7 7 7 7 7 7 7 7 7 7 7 7 7 7 7 7 7 7 7 7 7 7 7 7 7 7 7 7 7 7 7 7 7 7 7 7 7 7 7 7 7 7 7 7 7 7 7 7 7 7 7 7 7 7 7 7 7 7 7 7 7 7 7 7 7 7 7 7 7 7 7 7 7 7 7 7 7 7 7 7 7 7 7 7 7 7 7 7 7 7 7 7 7 7 7 7 7 7 7 7 7 7 7 7 7 7 7 7 7 7 7 7 7 7 7 7 7 7 7 7 7 7 7 7 7 7 7 7 7 7 7 7 7 7 7 7 7 7 7 7 7 7 7 7 7 7 7 7 7 7 7 7 7 7 7 7 7 7 7 7 7 7 7 7 7 7 7 7 7 7 7 7 7 7 7 7 7 7 7 7 7 7 7 7 7 7 7 7 7 7 7 7 7 7 7 7 7 7 7 7 x D V.B.D # G C.7 r 8 ",
"Z.T.B x x 7 7 & M.y 7 7 7 7 7 7 7 7 7 B 7 {.B.x 7 7 & M.f & 7 7 7 7 7 7 7 7 7 7 7 7 7 7 7 7 7 7 7 7 7 7 7 7 7 7 7 7 7 7 7 7 7 7 7 7 7 7 7 7 7 7 7 7 7 7 7 7 7 7 7 7 7 7 7 7 7 7 7 7 7 7 7 7 7 7 7 7 7 7 7 7 7 7 7 7 7 7 7 7 7 7 7 7 7 7 7 7 7 7 7 7 7 7 7 7 7 7 7 7 7 7 7 7 7 7 7 7 7 7 7 7 7 7 7 7 7 7 7 7 7 7 7 7 7 7 7 7 7 7 7 7 7 7 7 7 7 7 7 7 7 7 7 7 7 7 7 7 7 7 7 7 7 7 7 7 7 7 7 7 7 7 7 7 7 7 7 7 7 7 7 7 7 7 7 7 7 7 7 7 7 7 7 7 7 7 7 7 7 7 7 7 7 7 7 7 7 7 7 7 7 7 7 7 7 7 7 7 7 7 7 7 7 7 7 z B.x N D B N N C r 8 ",
"x N c c 7 7 7 7 7 7 7 7 7 7 7 7 7 7 7 x c N N 7 7 7 7 7 7 7 7 7 7 7 7 7 7 7 7 7 7 7 7 7 7 7 7 7 7 7 7 7 7 7 7 7 7 7 7 7 7 7 7 7 7 7 7 7 7 7 7 7 7 7 7 7 7 7 7 7 7 7 7 7 7 7 7 7 7 7 7 7 7 7 7 7 7 7 7 7 7 7 7 7 7 7 7 7 7 7 7 7 7 7 7 7 7 7 7 7 7 7 7 7 7 7 7 7 7 7 7 7 7 7 7 7 7 7 7 7 7 7 7 7 7 7 7 7 7 7 7 7 7 7 7 7 7 7 7 7 7 7 7 7 7 7 7 7 7 7 7 7 7 7 7 7 7 7 7 7 7 7 7 7 7 7 7 7 7 7 7 7 7 7 7 7 7 7 7 7 7 7 7 7 7 7 7 7 7 7 7 7 7 7 7 7 7 7 7 7 7 7 7 7 7 7 7 7 7 7 7 7 7 7 7 7 7 7 7 7 7 7 7 7 7 N c & 7 7 7 7 7 7 7 7 ",
"7 & 7 7 7 7 7 7 7 7 7 7 7 7 7 7 7 7 7 7 7 & 7 7 7 7 7 7 7 7 7 7 7 7 7 7 7 7 7 7 7 7 7 7 7 7 7 7 7 7 7 7 7 7 7 7 7 7 7 7 7 7 7 7 7 7 7 7 7 7 7 7 7 7 7 7 7 7 7 7 7 7 7 7 7 7 7 7 7 7 7 7 7 7 7 7 7 7 7 7 7 7 7 7 7 7 7 7 7 7 7 7 7 7 7 7 7 7 7 7 7 7 7 7 7 7 7 7 7 7 7 7 7 7 7 7 7 7 7 7 7 7 7 7 7 7 7 7 7 7 7 7 7 7 7 7 7 7 7 7 7 7 7 7 7 7 7 7 7 7 7 7 7 7 7 7 7 7 7 7 7 7 7 7 7 7 7 7 7 7 7 7 7 7 7 7 7 7 7 7 7 7 7 7 7 7 7 7 7 7 7 7 7 7 7 7 7 7 7 7 7 7 7 7 7 7 7 7 7 7 7 7 7 7 7 7 7 7 7 7 7 7 7 7 7 7 7 7 7 7 7 7 7 7 7 7 ",
"7 7 7 7 7 7 7 7 7 7 7 7 7 7 7 7 7 7 7 7 7 7 7 7 7 7 7 7 7 7 7 7 7 7 7 7 7 7 7 7 7 7 7 7 7 7 7 7 7 7 7 7 7 7 7 7 7 7 7 7 7 7 7 7 7 7 7 7 7 7 7 7 7 7 7 7 7 7 7 7 7 7 7 7 7 7 7 7 7 7 7 7 7 7 7 7 7 7 7 7 7 7 7 7 7 7 7 7 7 7 7 7 7 7 7 7 7 7 7 7 7 7 7 7 7 7 7 7 7 7 7 7 7 7 7 7 7 7 7 7 7 7 7 7 7 7 7 7 7 7 7 7 7 7 7 7 7 7 7 7 7 7 7 7 7 7 7 7 7 7 7 7 7 7 7 7 7 7 7 7 7 7 7 7 7 7 7 7 7 7 7 7 7 7 7 7 7 7 7 7 7 7 7 7 7 7 7 7 7 7 7 7 7 7 7 7 7 7 7 7 7 7 7 7 7 7 7 7 7 7 7 7 7 7 7 7 7 7 7 7 7 7 7 7 7 7 7 7 7 7 7 7 7 7 7 7 "
};
