/* XPM */
static char *mb_ringmod_sc_mono[] = {
/* columns rows colors chars-per-pixel */
"256 256 256 2 ",
"   c #2A2B36",
".  c #272833",
"X  c #31302F",
"o  c #3D5806",
"O  c #3D6000",
"+  c #435E0D",
"@  c #425A11",
"#  c #734C01",
"$  c #7C4C01",
"%  c #724B02",
"&  c #456803",
"*  c #517408",
"=  c #605735",
"-  c #2F3040",
";  c #393A45",
":  c #085B68",
">  c #016477",
",  c #026A74",
"<  c #34696F",
"1  c #2B4D58",
"2  c #43434D",
"3  c #4C4D59",
"4  c #555658",
"5  c #695D45",
"6  c #706B54",
"7  c #5B5C67",
"8  c #5D5F70",
"9  c #7B7866",
"0  c #777779",
"q  c #67676D",
"w  c #536C66",
"e  c #943539",
"r  c #8F3233",
"t  c #AE3335",
"y  c #865400",
"u  c #915A01",
"i  c #8E593D",
"p  c #8C5234",
"a  c #AE6F21",
"s  c #D55139",
"d  c #945B45",
"f  c #995E53",
"g  c #8B5850",
"h  c #916057",
"j  c #9B6355",
"k  c #8C735A",
"l  c #AD6743",
"z  c #B57056",
"x  c #827D6B",
"c  c #927369",
"v  c #AE6E61",
"b  c #A06A63",
"n  c #AE766A",
"m  c #AC5D4C",
"M  c #D75C48",
"N  c #D55651",
"B  c #CB7346",
"V  c #C56C5C",
"C  c #CE7055",
"Z  c #CC7767",
"A  c #C67E72",
"S  c #CC7465",
"D  c #E3645F",
"F  c #BC3639",
"G  c #779C25",
"H  c #699014",
"J  c #75936C",
"K  c #B38A23",
"L  c #A09022",
"P  c #F7F832",
"I  c #AE8C5B",
"U  c #B7875A",
"Y  c #888677",
"T  c #97937C",
"R  c #918971",
"E  c #BB8A69",
"W  c #AC937A",
"Q  c #B69779",
"!  c #AE8C6E",
"~  c #ACB071",
"^  c #9AA063",
"/  c #C58766",
"(  c #C68675",
")  c #D1887A",
"_  c #C49374",
"`  c #CC9C7D",
"'  c #C99777",
"]  c #D39779",
"[  c #C8916C",
"{  c #C6A17B",
"}  c #D4B271",
"|  c #CD9356",
" . c #ADCA76",
".. c #EEEE5B",
"X. c #CB8B31",
"o. c #00748B",
"O. c #6B7C83",
"+. c #1198B0",
"@. c #2891A8",
"#. c #2590A8",
"$. c #3496AB",
"%. c #259AB1",
"&. c #26A5BE",
"*. c #118396",
"=. c #53A9B6",
"-. c #6FACB5",
";. c #639398",
":. c #6EACD6",
">. c #6FC3CF",
",. c #5FC0D0",
"<. c #1EA5C2",
"1. c #878685",
"2. c #918E84",
"3. c #96948C",
"4. c #98968E",
"5. c #9A9786",
"6. c #979591",
"7. c #989691",
"8. c #9E9C95",
"9. c #9E9C98",
"0. c #8A9587",
"q. c #A59C89",
"w. c #B59A83",
"e. c #B89B88",
"r. c #A09E97",
"t. c #A19F98",
"y. c #AA9E92",
"u. c #B1938B",
"i. c #A6A28C",
"p. c #BAA28A",
"a. c #A4A29C",
"s. c #AAA698",
"d. c #B9A997",
"f. c #B1B696",
"g. c #86B6BD",
"h. c #94ADB0",
"j. c #ACABA5",
"k. c #A8A7A2",
"l. c #B2AEA5",
"z. c #B8B6A8",
"x. c #A8AAB9",
"c. c #B9BAB7",
"v. c #AAB7B5",
"b. c #94A0A1",
"n. c #CB9984",
"m. c #D49D85",
"M. c #D49988",
"N. c #D0978C",
"B. c #CCA584",
"V. c #C4A68B",
"C. c #C9A68A",
"Z. c #D2A284",
"A. c #D6A28A",
"S. c #D9A48D",
"D. c #D2AB8C",
"F. c #D7A588",
"G. c #C2A692",
"H. c #C5AB94",
"J. c #C9AD96",
"K. c #CAAE9C",
"L. c #C7A999",
"P. c #DBA690",
"I. c #D4AC93",
"U. c #DCAA94",
"Y. c #DDAD9D",
"T. c #D5A698",
"R. c #CAB19A",
"E. c #D6B29A",
"W. c #DAB39B",
"Q. c #C4B887",
"!. c #CCAFA0",
"~. c #C3AEA5",
"^. c #CDB1A1",
"/. c #CAB8AB",
"(. c #D1B4A5",
"). c #D3B6AA",
"_. c #D4BAAB",
"`. c #DBB7A5",
"'. c #C3BEB5",
"]. c #D6BCB3",
"[. c #D6ADA3",
"{. c #E1B5A5",
"}. c #E9B0AA",
"|. c #EA9992",
" X c #B6C4B6",
".X c #A5C7A2",
"XX c #C6C4BA",
"oX c #C9C6BB",
"OX c #CBC9BF",
"+X c #C5C2B5",
"@X c #DDC3BC",
"#X c #D6C5B9",
"$X c #DCDBBC",
"%X c #D0C9AE",
"&X c #E4C9B6",
"*X c #DED99A",
"=X c #BABBC2",
"-X c #A8BCE5",
";X c #8FBAC8",
":X c #8DC7CE",
">X c #AAC7C9",
",X c #BACBC9",
"<X c #B4CFD5",
"1X c #B5D2E3",
"2X c #CECCC3",
"3X c #C8C9C7",
"4X c #D1CDC4",
"5X c #D6CCC6",
"6X c #C8D1CC",
"7X c #D5D3CC",
"8X c #D9D6CE",
"9X c #D9D7C9",
"0X c #CDD1D5",
"qX c #CEDCDA",
"wX c #C9D7D6",
"eX c #D5D5D1",
"rX c #D9D7D0",
"tX c #DBD9D2",
"yX c #D3DFDB",
"uX c #DEDED9",
"iX c #D4DAD5",
"pX c #C7CDD7",
"aX c #E4D5CD",
"sX c #E2DDD5",
"dX c #E0DFD8",
"fX c #EEDDD9",
"gX c #EBDBD3",
"hX c #EAD0C9",
"jX c #D4E1DC",
"kX c #DDE3D7",
"lX c #D1E2D6",
"zX c #E4E3DC",
"xX c #E7E5DA",
"cX c #EEE5DD",
"vX c #DBDEE0",
"bX c #C8DFE0",
"nX c #E2DCE1",
"mX c #D5E4E2",
"MX c #D8E7E5",
"NX c #D9E8E7",
"BX c #DBECEB",
"VX c #D4EBEA",
"CX c #D9F3F2",
"ZX c #D2E9E8",
"AX c #E6E6E0",
"SX c #E8E7E1",
"DX c #E6E9E4",
"FX c #EAEAE4",
"GX c #EEEEE9",
"HX c #E1EEEC",
"JX c #F0EFEA",
"KX c #F2EAE4",
"LX c #F2F1EC",
"PX c #FAF4ED",
"IX c #F8F7F3",
"UX c #E5F4EF",
/* pixels */
"rXrXrXrXrXrXrXrXrXtXsXsXsXsXrXrXrXrXrXrXrXrXrXrXrXrXrXrXrXrXrXrXrXrXrXrXrXrXrXrXrXrXrXrXrXrXrXrXrXrXrXrXrXrXrXrXrXrXrXrXrXrXrXrXrXrXrXrXrXrXrXrXrXrXrXrXrXrXrXrXrXrXrXrXrXrXrXrXrXrXrXrXrXrXrXrXrXrXrXrXrXrXrXrXrXrXrXrXrXrXrXrXrXrXtXtXrXtXtXtXtXtXtXrXtXtXtXtXtXtXtXtXrXtXtXrXtXrXtXtXtXtXrXrXtXtXtXtXtXtXtXrXtXrXtXtXtXrXtXtXrXtXrXtXtXrXtXuXtXrXtXrXtXtXtXrXrXtXtXtXtXtXtXuXtXtXtXrXrXrXtXtXtXtXtXtXtXrXtXuXtXrXtXtXtXrXtXrXtXtXtXtXtXtXrXtXrXtXtXrXtXtXrXtXtXrXtXrXtXrXtXtXrXrXtXtXrXrXtXtXrXtXtXsXsXrXsXsXrXtXtXtXtXrXsXtX",
"sXsXsXtXrXrXrXrXsXeX<X<X<XpXtXtXrXrXrXrXrXrXrXrXrXrXrXrXrXrXrXrXrXrXrXrXrXrXrXrXrXrXrXrXrXrXrXrXrXrXrXrXrXrXrXrXrXrXrXrXrXrXrXrXrXrXrXrXrXrXrXrXrXrXrXrXrXrXrXrXrXrXrXrXrXrXrXrXrXrXrXrXrXrXrXrXrXrXrXrXrXrXrXrXrXrXrXrXrXrXrXrXrXtX7XrXrX7X7X7X7X7X7XrX7X3X3X3X3X8X3X7XtXrX7XtX7XtX7X8X3X3XtXrXrX3X7X7X3X7X7XtX7XtX6X3XrXtX7X7XtX6XrX8X3XrX8X3X7XtX7XrX7X7X7XtXtX7XrX3X3X3X7X3X7X3X3XtXtXtX7X3X7X3XrX3X3XtX7X3X6XtX3X7X7XtX7XrX7X7X7X3X7X7XtX7XtXrX6XtX7X7XtX3X7XtX7XtX7XtX7X3XtXtX8Xc.tXtX6X7XtX6X7X,X3XtX,X,XtX6XrX8X6XtX,X6X",
">X>X>X6XsXrXrXsX<Xg..X . ..X:X6XsXrXrXrXrXrXrXrXrXrXrXrXrXrXrXrXrXrXrXrXrXrXrXrXrXrXrXrXrXrXrXrXrXrXrXrXrXrXrXrXrXrXrXrXrXrXrXrXrXrXrXrXrXrXrXrXrXrXrXrXrXrXrXrXrXrXrXrXrXrXrXrXrXrXrXrXrXrXrXrXrXrXrXrXrXrXrXrXrXrXrXrXrXrXrXrXrXsXh.=X3Xh.=X3X3X=Xx.6X7Xx.x.=Xx.3Xx.x.7X3Xh.tXb.3Xc.=Xx.x.=XxX3Xx.x.=Xx.3Xb.6Xv.3Xx.c.7XxXc.x.tXb.3Xx.x.v.=Xx.x.3Xx.7Xv.3Xx.tXtXx.=X6Xb.=Xx.x.3Xx.x.x.tX7Xh.=X3Xx.3Xx.x.3X=Xx.3Xv.x.3Xx.7Xx.rXv.x.7Xx.6Xb.6Xx.rX7Xb.rXx.x.=Xx.x.3Xb.3Xc.3Xx.x.c.sX7Xj.rXgX-.g.7X;.>X-.-.,X-.-.v.;.,Xv.-.h.-.6X",
"+.+.+.%.>XsXtX<X.X . .*X*X . .>X6XtXrXrXrXrXrXrXrXrXrXrXrXrXrXrXrXrXrXrXrXrXrXrXrXrXrXrXrXrXrXrXrXrXrXrXrXrXrXrXrXrXrXrXrXrXrXrXrXrXrXrXrXrXrXrXrXrXrXrXrXrXrXrXrXrXrXrXrXrXrXrXrXrXrXrXrXrXrXrXrXrXrXrXrXrXrXrXrXrXrXrXrXrXrXrXrXtXx.x.v.x.c.3X3X=Xv.7XxX=X3X7X=X3Xx.x.7Xx.b.3Xx.x.x.=X3XrXx.xX3Xx.x.3Xc.6Xx.x.c.x.3X=X3XxX=Xx.=Xx.=Xv.cXx.x.6X3Xx.x.tXv.3Xx.xX7Xb.x.xXx.rXx.x.3Xx.xXx.7XtXc.=X3X=X3X=XrXx.=Xx.3Xx.xXxXx.x.h.7Xx.h.6Xc.7Xx.x.x.rX7Xh.=Xx.c.x.xX3Xx.x.x.v.x.3XxXx.tX7Xl.rXsXg.-.h.-.>X-.-.,X-.-.>X-.g.-.-.,X-.,X",
"=.-.=.+.=.sXpX.X .%XuXuXdXsX.X=.:XeXtXrXrXrXrXrXrXrXrXrXrXrXrXrXrXrXrXrXrXrXrXrXrXrXrXrXrXrXrXrXrXrXrXrXrXrXrXrXrXrXrXrXrXrXrXrXrXrXrXrXrXrXrXrXrXrXrXrXrXrXrXrXrXrXrXrXrXrXrXrXrXrXrXrXrXrXrXrXrXrXrXrXrXrXrXrXrXrXrXrXrXrXrXtXrXtXx.x.x.v.=Xx.x.3Xx.c.rX=X=X3Xx.3Xx.x.=Xx.x.x.c.3Xb.=Xx.x.c.xX3Xx.x.=Xx.3X=Xv.x.=Xx.x.=XxX=Xx.x.x.=Xx.=Xx.c.x.x.3Xv.=Xx.3Xx.3Xx.x.x.3Xx.7Xx.c.6Xx.=Xx.tX8X3Xx.c.x.3Xx.x.=Xc.x.7Xx.=X3Xx.8Xx.=Xx.x.x.x.3Xc.=Xb.uX6Xx.x.x.=Xv.=Xx.=Xc.=Xb.3Xx.=Xx.uX7Xj.rXsXg.-.-.g.h.-.-.v.-.-.v.g.-.-.g.6X-.-.",
"gXgX,X+.=.sX:X .*XnX8XtX6X:XdX=.-.,XtXrXrXrXrXrXrXrXrXrXrXrXrXrXrXrXrXrXrXrXrXrXrXrXrXrXrXrXrXrXrXrXrXrXrXrXrXrXrXrXrXrXrXrXrXrXrXrXrXrXrXrXrXrXrXrXrXrXrXrXrXrXrXrXrXrXrXrXrXrXrXrXrXrXrXrXrXrXrXrXrXrXrXrXrXrXrXrXrXrXrXrXrXrXrXrX3X3X3X3XrX=X=XtX3Xc.4X4X7X3X=X7Xc.3X6X4XtX3X3XrX3X7X=X=XrXtX7X7X7X=X=X7X3X8X3XtX=X=X7XtX3X3X3X3X7X3Xc.7X7Xc.3XtX7X=X3XtX=X=X3XtX7X3X3X8X3Xc.3X3X=X7XtX8X=X3X3X=X7X=X=XtX3Xc.3X7Xc.3X3XrX3X3X7XtX=X=X7X3XrX3XtX7X3X3X3X3XrX=X3XrX3XrX3XtX3X=X8XtX7Xc.rXtX,X3X,X,X6Xh.v.8X,X7X>X3X,X,X3X,Xh.7X",
"gXgX,X+.=.sX:X=.-.>XtXtX,X,XgX>X=.>XtXrXrXrXrXrXrXrXrXrXrXrXrXrXrXrXrXrXrXrXrXrXrXrXrXrXrXrXrXrXrXrXrXrXrXrXrXrXrXrXrXrXrXrXrXrXrXrXrXrXrXrXrXrXrXrXrXrXrXrXrXrXrXrXrXrXrXrXrXrXrXrXrXrXrXrXrXrXrXrXrXrXrXrXrXrXrXrXrXrXtXrXtXtXtXtXdXdXdXdXtXzXzXtXdXxXuXuXuXdXzXuXxXdXuXuXtXdXdXtXdXuXzXzXtXtXuXuXuXzXzXuXuXuXdXtXzXzXuXtXuXuXdXdXuXdXxXuXuXxXdXtXuXxXdXtXzXzXdXtXuXuXdXtXdXxXuXzXxXuXtXuXzXdXuXzXuXzXzXtXdXxXdXuXxXdXuXtXtXuXtXtXsXsXtXuXtXsXtXtXuXuXtXtXtXzXsXtXuXtXsXtXsXzXtXtXtXdXtXtXsXsXsXsXsXxXxXuXsXuXsXsXsXsXsXsXxXuX",
"-.-.=.+.=.sXsX:X+.-.gXeXtXtXsX>X=.>XtXrXrXrXrXrXrXrXrXrXrXrXrXrXrXrXrXrXrXrXrXrXrXrXrXrXrXrXrXrXrXrXrXrXrXrXrXrXrXrXrXrXrXrXrXrXrXrXrXrXrXrXrXrXrXrXrXrXrXrXrXrXrXrXrXrXrXrXrXrXrXrXrXrXrXrXrXrXrXrXrXrXrXrXrXrXrXrXrXtXrXtXzXzXzXzXzXzXzXzXzXzXzXzXzXzXzXzXzXzXzXzXzXzXzXzXzXzXzXzXzXzXzXzXzXzXzXzXzXzXzXzXzXzXzXzXzXzXzXzXzXzXzXzXzXzXzXzXzXzXzXzXzXzXzXzXzXzXzXzXzXzXzXzXzXzXzXzXzXzXzXzXzXzXzXzXzXzXzXzXzXzXzXzXzXzXdXdXdXdXuXdXuXuXdXdXdXuXdXdXdXuXzXxXzXuXdXdXdXdXuXdXdXuXdXzXzXzXzXzXzXzXzXzXzXzXzXzXzXzXzXzXzXzXzXzXzXzX",
"+.+.+.%.>XgX-.+.%.=.rXgXtXeXgX:X-.>XtXrXrXrXrXrXrXrXrXrXrXrXrXrXrXrXrXrXrXrXrXrXrXrXrXrXrXrXrXrXrXrXrXrXrXrXrXrXrXrXrXrXrXrXrXrXrXrXrXrXrXrXrXrXrXrXrXrXrXrXrXrXrXrXrXrXrXrXrXrXrXrXrXrXrXrXrXrXrXrXrXrXrXrXrXrXrXrXtXrXtXzXzXzXzXzXcXzXzXzXzXzXzXzXzXzXzXzXzXzXzXzXzXzXzXzXzXzXzXzXzXzXAXSXzXzXzXzXzXAXzXzXSXSXzXzXAXzXzXzXzXzXzXzXzXzXSXSXzXzXzXzXzXzXzXzXzXzXzXzXzXzXzXzXzXzXzXzXzXzXzXzXzXcXzXzXzXzXzXzXzXzXzXzXdXdXdXzXtXrXzXuXdXdXuXuXuXuXuXdXuXzXiX,XwXzXuXdXdXdXdXdXdXdXzXzXzXcXcXcXxXzXFXzXSXSXSXzXFXSXzXSXAXzXAXzXzXzX",
">X:X:X,XsXtX>X>X-.+.=.>X,XsXeX$.>.6XtXrXrXrXrXrXrXrXrXrXrXrXrXrXrXrXrXrXrXrXrXrXrXrXrXrXrXrXrXrXrXrXrXrXrXrXrXrXrXrXrXrXrXrXrXrXrXrXrXrXrXrXrXrXrXrXrXrXrXrXrXrXrXrXrXrXrXrXrXrXrXrXrXrXrXrXrXrXrXrXrXrXrXrXrXrXrXtXrXtXzXzXzXzXxXkXwXzXzXzXzXzXzXzXzXzXzXzXzXzXzXzXzXzXzXzXzXzXzXzXzXAX7Xs.2XzXzXz.rXdXFXuX2X+XzXzXtXzXzXuXdXzXzXtXzXzXOX2XAXzXzXzXzXzXzXzXzXzXzXzXzXzXzXzXzXzXzXzXzXzXzXzXkXwXcXzXzXzXzXzXzXzXzXzXdXdXuXKXJ J KXuXdXuXxXcXcXxXzXuXuXcX:X=.=.iXzXuXdXdXdXdXdXzXzXzXzX>X>X:XwXxXs.zX'.'.l.'.z.2X7X'.4X8XoXSXzXzX",
"gXsXgXsXrXrXgX,X+.$.%.+.=.eX=.>.>XtXrXrXrXrXrXrXrXrXrXrXrXrXrXrXrXrXrXrXrXrXrXrXrXrXrXrXrXrXrXrXrXrXrXrXrXrXrXrXrXrXrXrXrXrXrXrXrXrXrXrXrXrXrXrXrXrXrXrXrXrXrXrXrXrXrXrXrXrXrXrXrXrXrXrXrXrXrXrXrXrXrXrXrXrXrXrXtXrXtXzXzXzXzXzXzX:XwXxXzXzXzXzXzXzXzXzXzXzXzXzXzXzXzXzXzXzXzXzXzXzXzXFX'.i.dXi.q.s.f.5.f.l.s.5.GXl.i.z.i.z.q.i.q.XXf.q.T l.FXzXzXzXzXzXzXzXzXzXzXzXzXzXzXzXzXzXzXzXzXzXzXzXxX<X<XcXzXzXzXzXzXzXzXdXdXdXdXdXG G rXzXuXzX>Xg.:X=.,XxXuXcX:X-.=.wXzXuXdXdXdXdXzXzXzXzXzX>.>.>.<XcXY 2X5.s.q.oXs.5.+Xs.+X2Xl.FXzXkX",
"tXeXrXrXrXrXsX>X-.6X%.=.-.-.=.>XeXtXrXrXrXrXrXrXrXrXrXrXrXrXrXrXrXrXrXrXrXrXrXrXrXrXrXrXrXrXrXrXrXrXrXrXrXrXrXrXrXrXrXrXrXrXrXrXrXrXrXrXrXrXrXrXrXrXrXrXrXrXrXrXrXrXrXrXrXrXrXrXrXrXrXrXrXrXrXrXrXrXrXrXrXrXrXtXrXtXzXzXzXzXzXzXkX:XyXxXzXzXzXzXzXzXzXzXzXzXzXzXzXzXzXzXzXzXzXzXzXzXzXzXAX'.5.T z.s.R l.5.2X4Xz.IXs.OXi.f.+XT z.z.s.T z.s.4XFXzXzXzXzXzXzXzXzXzXzXzXzXzXzXzXzXzXzXzXzXzXzXzXcX<X>XcXzXzXzXzXzXzXdXdXdXuXSX.XJ J .XFXuXzX<X:X>X-.6XxXuXcX:X-.-.<XxXuXdXdXdXzXzXzXzXzXzXg.>.>.<XsXs.q.i.z.i.7Xz.z.T l.'.OXz.FXzXkX",
"tXrXtXtXtXtXrXtXgX6X&.,X:X>.,XeXtXrXtXrXtXtXtXtXtXtXtXtXtXtXtXtXtXtXtXtXtXtXtXtXtXtXtXtXtXtXtXtXtXtXtXtXtXtXtXtXtXtXtXtXtXtXtXtXtXtXtXtXtXtXtXtXtXtXtXtXtXtXtXtXtXtXtXtXtXtXtXtXtXtXtXtXtXtXtXtXtXtXtXtXtXtXtXrXtXzXzXzXzXzXzXzXcXuXwXxXzXzXzXzXzXzXzXzXzXzXzXzXzXzXzXzXzXzXzXzXzXzXzXAX4Xs.+Xz.c.+Xz.l.4Xs.+Xs.SXs.5.+X+XtXs.oXz.l.z.z.+Xl.SXzXzXzXzXzXzXzXzXzXzXzXzXzXzXzXzXzXzXzXzXzXzXzXkX<XcXzXzXzXzXzXzXdXdXdXdXuXzX XrXuX XzXuXuXxXcXcXcXzXuXuXzXwXg.>XzXdXdXdXdXzXzXzXzXzXzXzX:X:X:XwXsX+Xl.'.XXs.z.z.uXs.2Xz.s.8XAXzXzX",
"rXrXrXrXrXrXrXrXeXrXrXrXrX7XtXtXrXrXrXrXrXrXrXrXrXrXrXrXrXrXrXrXrXrXrXrXrXrXrXrXrXrXrXrXrXrXrXrXrXrXrXrXrXrXrXrXrXrXrXrXrXrXrXrXrXrXrXrXrXrXrXrXrXrXrXrXrXrXrXrXrXrXrXrXrXrXrXrXrXrXrXrXrXrXrXrXrXrXrXrXrXrXrXtXzXzXzXzXzXzXzXzXzXzXcXzXzXzXzXzXzXzXzXzXzXzXzXzXzXzXzXzXzXzXzXzXzXzXzXzXzXzXSXAXzXAXSXzXzXzXzXzXFXl.7XFXzXzXzXzXzXSXSXzXAXzXzXzXzXzXzXzXzXzXzXzXzXzXzXzXzXzXzXzXzXzXzXzXzXzXzXcXzXzXzXzXzXdXdXdXdXdXdXdXuXzXdXdXAXuXdXdXuXuXuXuXuXdXdXuXzXcXcXdXdXdXdXzXzXzXzXzXzXzXzXcXcXcXzXzXAXSXAXAXzXdXAXzXFXAXAXzXAXzXzXzX",
"tXtXtXtXtXtXtXtXtXtXtXtXtXuXtXtXtXtXtXtXtXtXtXtXtXtXtXtXtXtXtXtXtXtXtXtXtXtXtXtXtXtXtXtXtXtXtXtXtXtXtXtXtXtXtXtXtXtXtXtXtXtXtXtXtXtXtXtXtXtXtXtXtXtXtXtXtXtXtXtXtXtXtXtXtXtXtXtXtXtXtXtXtXtXtXtXtXtXtXtXtXtXuXzXzXzXzXzXzXzXzXzXzXzXzXzXzXzXzXzXzXzXzXzXzXzXzXzXzXzXzXzXzXzXzXzXzXzXzXzXzXzXzXzXzXzXzXzXzXzXzXzXzXuXzXzXzXzXzXzXzXzXzXzXzXzXzXzXzXzXzXzXzXzXzXzXzXzXzXzXzXzXzXzXzXzXzXzXzXzXzXzXzXzXzXzXzXzXzXzXzXzXzXzXzXzXzXzXkXzXzXzXzXzXzXzXzXzXzXzXzXuXuXzXzXzXzXzXzXzXzXzXzXzXzXzXzXzXzXzXzXzXzXzXzXzXzXzXzXzXzXzXzXzXzXzX",
"zXzXzXzXzXzXzXzXzXzXzXzXzXzXzXzXzXzXzXzXzXzXzXzXzXzXzXzXzXzXzXzXzXzXzXzXzXzXzXzXzXzXzXzXzXzXzXzXzXzXzXzXzXzXzXzXzXzXzXzXzXzXzXzXzXzXzXzXzXzXzXzXzXzXzXzXzXzXzXzXzXzXzXzXzXzXzXzXzXzXzXzXzXzXzXzXzXzXzXzXzXzXzXzXzXzXzXzXzXzXzXzXzXzXzXzXzXzXzXzXzXzXzXzXzXzXzXzXzXzXzXzXzXzXzXzXzXzXzXzXzXzXzXzXzXzXzXzXzXzXzXzXzXzXzXzXzXzXzXzXzXzXzXzXzXzXzXzXzXzXzXzXzXzXzXzXzXzXzXzXzXzXzXzXzXzXzXzXzXzXzXzXzXzXzXzXzXzXzXzXzXzXzXzXzXzXzXzXzXzXzXzXzXzXzXzXzXzXzXzXzXzXzXzXzXzXzXzXzXzXzXzXzXzXzXzXzXzXzXzXzXzXzXzXzXzXzXzXzXzXzXzXzXzXzXzX",
"OXOX2X2X2X2XOXOXOX2XOXOXOXOXOXOXOXOXOXOXOXOXOXOXOXOXOXOXOXOXOXOXOXOXOXOXOXOXOXOXOXOXOXOXOXOXOXOXOXOXOXOXOXOXOXOXOXOXOXOXOXOXOXOXOXOXOXOXOXOXOXOXOXOXOXOXOXOXOXOXOXOXOXOXOXOXOXOXOXOXOXOXOXOXOXOXOXOXOXOXOXOXOXOXOXOXOXOXOXOXOXOXOXOXOXOXOXOXOXOXOXOXOXOXOXOXOXOXOXOXOXOXOXOXOXOXOXOXOXOXOXOXOXOXOXOXOXOXOXOXOXOXOXOXOXOXOXOXOXOXOXOXOXOXOXOXOXOXOXOXOXOXOXOXOXOXOXOXOXOXOXOXOXOXOXOXOXOXOXOXOXOXOXOXOXzXdXtXtXtXtXtXuXuXtXtXtXtXtXtXzXtXtXtXtXrXrXtXtXtXzXuXtXtXuXtXtXtXtXtXzXuXrXuXtXtXtXtXrXtXzX7XoXOX2X2XOXOXOXOXOXOXOX2XOXOX",
"XXOX'.+X+X+XoXXXoX'.oXXXXXXXXXXXXXXXXXXXXXXXXXXXXXXXXXXXXXXXXXXXXXXXXXXXXXXXXXXXXXXXXXXXXXXXXXXXXXXXXXXXXXXXXXXXXXXXXXXXXXXXXXXXXXXXXXXXXXXXXXXXXXXXXXXXXXXXXXXXXXXXXXXXXXXXXXXXXXXXXXXXXXXXXXXXXXXXXXXXXXXXXXXXXXXXXXXXXXXXXXXXXXXXXXXXXXXXXXXXXXXXXXXXXXXXXXXXXXXXXXXXXXXXXXXXXXXXXXXXXXXXXXXXXXXXXXXXXXXXXXXXXXXXXXXXXXXXXXXXXXXXXXXXXXXXXXXXXXXXXXXXXXXXXXXXXXXXXXXXXXXXXXXXXXXXXXXXXXXXXXXXXXXXXXzXuX8XrXrX8XOX+X'.oX7XtXrXrXtXzXtXrX8X7XuXuXrXrXtXzXtXrXtX2XtX7X7XtXrXzXtXtX4X7XuXtXuXdXrXzX7X+XoX'.'.XX2XoXOXOXoX2Xc.XXoX",
"XXl.q.z.q.q.z.q.z.T i.s.z.s.2XoXoXoXoXoXoXoXoXoXoXoXoXoXoXoXoXoXoXoXoXoXoXoXoXoXoXoXoXoXoXoXoXoXoXoXoXoXoXoXoXoXoXoXoXoXoXoXoXoXoXoXoXoXoXoXoXoXoXoXoXoXoXoXoXoXoXoXoXoXoXoXoXoXoXoXoXoXoXoXoXoXoXoXoXoXoXoXoXoXoXoXoXoXoXoXoXoXoXoXoXoXoXoXoXoXoXoXoXoXoXoXoXoXoXoXoXoXoXoXoXoXoXoXoXoXoXoXoXoXoXoXoXoXoXoXoXoXoXoXoXoXoXoXoXoXoXoXoXoXoXoXoXoXoXoXoXoXoXoXoXoXoXoXoXoXoXoXoXoXoXoXoXoXoXoXoXoXoXoXoXzXdXrXtXtXrXz.l.l.z.4XtXrXrXtXzXtXuX'.q.XXc.tXrXtXzXtXdXs.i.'.5.'.tXrXzXzX+X5.i.OX7X'.i.rXzX7XOXf.q.z.'.l.c.z.z.'.z.i.+XOX",
"+Xq.z.s.T q.s.R s.T s.T T i.2XXXoXoXoXoXoXoXoXoXoXoXoXoXoXoXoXoXoXoXoXoXoXoXoXoXoXoXoXoXoXoXoXoXoXoXoXoXoXoXoXoXoXoXoXoXoXoXoXoXoXoXoXoXoXoXoXoXoXoXoXoXoXoXoXoXoXoXoXoXoXoXoXoXoXoXoXoXoXoXoXoXoXoXoXoXoXoXoXoXoXoXoXoXoXoXoXoXoXoXoXoXoXoXoXoXoXoXoXoXoXoXoXoXoXoXoXoXoXoXoXoXoXoXoXoXoXoXoXoXoXoXoXoXoXoXoXoXoXoXoXoXoXoXoXoXoXoXoXoXoXoXoXoXoXoXoXoXoXoXoXoXoXoXoXoXoXoXoXoXoXoXoXoXoXoXoXoXoXoXoXzXuXrXrXrXtXs.2X8Xf.7XtXrXrXtXzXtXuXOXs.5.5.2XtXtXzXtXuXz.s.5.4XzX8XtXzXAX5.7Xz.R '.5.5.tXzX7XoXz.i.s.5.i.5.q.q.l.T 5.+XoX",
"+Xs.i.T i.i.5.s.T f.2Xi.z.s.2XoXoXoXoXoXoXoXoXoXoXoXoXoXoXoXoXoXoXoXoXoXoXoXoXoXoXoXoXoXoXoXoXoXoXoXoXoXoXoXoXoXoXoXoXoXoXoXoXoXoXoXoXoXoXoXoXoXoXoXoXoXoXoXoXoXoXoXoXoXoXoXoXoXoXoXoXoXoXoXoXoXoXoXoXoXoXoXoXoXoXoXoXoXoXoXoXoXoXoXoXoXoXoXoXoXoXoXoXoXoXoXoXoXoXoXoXoXoXoXoXoXoXoXoXoXoXoXoXoXoXoXoXoXoXoXoXoXoXoXoXoXoXoXoXoXoXoXoXoXoXoXoXoXoXoXoXoXoXoXoXoXoXoXoXoXoXoXoXoXoXoXoXoXoXoXoXoXoXoXoXzXuXrXrXtX8Xz.z.s.T 2XtXrXrXtXzXtXuX'.T l.s.XXuXtXzXtXtX2X5.5.i.OXtXrXzXzXz.q.i.s.T 5.i.8XzX7XXX+Xi.T i.i.T f.s.T T T +XoX",
"XXoXz.c.+X+Xc.2Xc.+XXX+XXX+XoXXXXXXXXXXXXXXXXXXXXXoXXXXXoXXXXXXXXXXXXXXXXXXXXXXXXXXXXXXXXXXXXXXXXXXXXXXXXXXXXXXXXXXXXXXXXXXXXXXXXXXXXXXXXXXXXXXXXXXXXXXXXXXXXXXXXXXXXXXXXXXXXXXXXXXXXXXXXXXXXXXXXXXXXXXXXXXXXXXXXXXXXXXXXXXXXXXXXXXXXXXXXXXXXXXXXXXXXXXXXXXXXXXXXXXXXXXXXXXXXXXXXXXXXXXXXXXXXXXXXXXXXXXXXXXXXXXXXXXXXXXXXXXXXXXXXXXXXXXXXXXXXXXXXXXXXXXXXXXXXXXXXXXXXXXXXXXXXXXXXXXXXXXXXXXXXXXXXXXXXXzXuXrXtXtX8XXXXX+Xs.4XtXrXrXtXzXtXtX7XoX7X7X8XtXtXzXtXtXOXXXuX'.2XtXrXzXuXtX+X2XtX'.7XOX7XzX7XXX'.z.XX'.T i.XX+Xc.z.+XXXXX",
"2X2X4X4X2X2X4X2X4X4X2X2X2X2X2X2X2X2X2X2X2X2X2X2X2X/.2X2X/.2X2X2X2X2X2X2X2X2X2X2X2X2X2X2X2X2X2X2X2X2X2X2X2X4X2X2X2X2X2X2X2X2X2X2X2X2X2X2X2X2X2X2X2X2X2X2X2X2X2X2X2X2X2X2X2X2X2X2X2X2X2X2X2X2X4X2X2X2X2X2X2X2X2X2X2X2X2X2X2X2X2X2X2X2X2X2X2X2X2X2X2X2X2X2X2X2X2X2X2X2X2X2X2X2X2X2X2X2X2X2X2X2X2X2X2X2X2X2X2X2X2X2X2X2X2X2X2X2X2X2X2X2X2X2X2X2X2X2X2X2X2X2X2X2X2X2X2X2X2X2X2X2X2X2X2X2X2X2X2X2X2X2X2X2X2XzXuXrXtXrXtXtXtXtXuXtXrXtXrXtXzXtXrXtXuXtXtXtXrXtXzXtX8XtXuXrXdXtXrXtXzXuX8XdXtXrXdXtXtXtXzX7XOX2X2X2XoXz.OX2X2X2X2X2X2X2X",
"zXzXzXzXzXzXzXzXzXuXzXzXzXzXzXzXzXdXzXzXzXzXzXdXzXM.zX#X/ 9XsXsXdXdXzXzXdXzXAXzXuXFX3X4XFXzXzXzXzXzXzXFX4Xf.tXrXuXzXzXzXzXzXdXzXzXzXzXzXzXzXzXzXzXuXzXzXzXzXzXzXzXdXzXzXzXzXzXuXzXzXzXzXxX<X:XyXwXyXzXzXuXzXzXuXzXFXc.uXSXzXzXzXzXzXzXzXzXzXzXzXzXzXzXzXzXdXzXzXzXzXzXzXzXzXzXzXdXzXzXzXzXzXzXzXdXzXzXzXzXzXzXzXzXzXzXzXzXzXzXzXuXzXzXuXzXAXzXdXFX7XoXFXzXzXzXzXzXzXzXzXzXzXzXzXzXzXzXzXzXdXzXzXzXAXzXdXdXrXtXrXrXtXzXzXuXrXtXrXrXtXzXtXtXtXtXtXtXtXtXtXzXtXtXtXtXtXtXtXtXtXzXuXtXtXtXtXtXtXtXtXzXuXrXtXrXtXtXuXtXtXtXtXtXtXtXtX",
"LXLXLXLXLXLXLXLXLXzXGXLXLXLXLXLXLXzXGXLXLXLXLXzXfXS.IX#XZ sXxXcXSXzXLXLXAXFXLXGXzXIX2X7XIXIXLXLXLXLXLXIX9Xf.xXxXxXFXLXLXLXFXSXLXLXLXLXLXLXLXLXLXLXzXLXLXLXLXLXLXFXzXLXLXLXLXLXzXLXLXLXLXKX<X>.NXwXNXGXGXzXLXLXzXGXIXc.AXLXLXLXLXLXLXLXLXLXLXLXLXLXLXLXLXLXzXFXLXLXLXLXLXLXLXLXLXAXFXLXLXLXLXLXLXSXFXLXLXLXLXSXSXLXLXLXSXSXLXLXJXzXLXLXzXGXLXFXzXIXrX3XIXJXLXLXLXLXLXLXLXLXLXLXLXLXLXLXLXGXzXLXLXLXLXAXuXdXrXtXrXrXtXzXzXuXrXtXrXrXtXzXtX5X5X5X5X5X5X5XrXzXtX5X5X5X5X5X5X5X8XzXuX5X5X5X5X5X5X5X8XzXuXrXrXrXrXrX8XrXrXrXrXrXrXrXrX",
"JXJXJXJXJXJXJXGXLXzXGXJXJXJXJXGXLXzXFXJXLXFXM.M.M.Y.IX#XZ aXxXcXcXzXLXLXzXFXLXFXzXIX2XiXhXS.cXLXGXJXGXIX9Xf.xXzXxXFXGXGXLXSXAXLXGXJXJXJXJXJXJXJXGXzXJXJXJXJXGXLXFXzXLXGXJXGXJXzXGXJXGXGXcX<X>.MXwXMXGXGXzXLXLXzXFXIXc.zXLXGXJXJXJXJXJXJXJXJXJXJXJXJXJXGXLXzXFXLXGXJXJXJXJXJXGXLXzXFXLXGXJXJXGXLXAXSXLXGXGXLXSXSXLXGXLXSXSXLXJXGXzXJXLXzXFXLXSXzXIXrX3XIXGXJXJXJXJXJXJXJXJXJXJXJXJXJXJXLXFXzXLXGXGXLXzXuXdXrXtXtXrXtXcXSXdXrXtXrXrXtXzXtX@X@X@X@X@X@X@X8XzXtX@X@X@X@X@X@X@X8XzXuX@X@X@X@X@X@X@X8XzXuXrXtXrXrXsXsXsXtXsXsXrXrXtXrX",
"JXJXJXJXJXJXJXJXLXzXGXLXJXJXJXJXLXzXFXJXLXgXP.DXFXLXIX#XS aXxXcXcXzXLXLXzXFXLXFXzXIX2XiX}.) hXIXJXJXGXIX9Xf.xXzXxXFXGXJXLXSXAXLXJXJXJXJXJXJXJXJXJXzXJXJXJXJXJXLXFXzXLXJXJXJXLXzXGXJXJXGXcX<X>.MXwXMXGXGXzXLXLXzXFXIXc.zXLXJXJXJXJXJXJXJXJXJXJXJXJXJXJXJXLXzXFXLXJXJXJXJXJXJXJXLXzXFXLXJXJXJXJXLXAXSXLXJXJXLXSXSXLXGXLXSXSXLXJXGXzXLXLXzXFXLXFXzXIXrX3XIXGXJXJXJXJXJXJXJXJXJXJXJXJXJXJXLXFXzXLXJXJXLXzXuXdXrXtXrXtXeXpX<XwXtXrXrXrXtXzXtX@X@X@X@X@X@X@X8XzXtX@X@X@X@X@X@X@X8XzXuX5X@X@X@X@X@X@X8XzXuXrXrXrXsX,X-.=.$.=.v.sXtXrXrX",
"JXJXJXJXJXJXJXJXLXzXGXLXJXJXJXJXLXzXFXJXLXgXU.DXFXJXIX#XV gXcXcXcXzXLXLXzXFXIXGXzXIX2XyX}.Y.@XIXJXJXGXIX9Xf.xXzXxXFXGXJXLXSXAXLXJXJXJXJXJXJXJXJXJXzXJXJXJXJXJXLXFXzXLXJXJXJXLXzXGXJXJXGXcX<X>.MXwXMXGXGXzXLXLXzXFXIXc.zXLXJXJXJXJXJXJXJXJXJXJXJXJXJXJXJXLXzXFXLXJXJXJXJXJXJXJXLXzXFXLXJXJXJXJXLXAXSXLXJXJXLXSXSXLXGXLXSXSXLXJXGXzXLXLXzXFXLXFXzXIXrX3XIXGXJXJXJXJXJXJXJXJXJXJXJXJXJXJXLXFXzXLXJXJXLXzXuXdXrXtXrXsX,X@.#.g.gXrXrXrXtXzXtX@X@X@X@X@X@X@X8XzXtX@X@X@X@X@X@X@X8XzXuX5X@X@X@X@X@X@X8XzXuXrXrXsXg.@.=.-.;X-.: O.8XtXrX",
"JXJXJXJXJXJXJXJXLXzXGXLXJXJXJXJXLXzXFXJXLXgXU.DXFXFXKX%XV Y.&XcXcXzXJXJXzXSXcXFXAXIX2XL.P.{.].IXJXJXGXIX9Xf.xXzXxXFXGXJXLXSXAXLXJXJXJXJXJXJXJXJXJXzXJXJXJXJXJXLXFXzXLXJXJXJXLXzXGXJXJXGXcX<X>.MXwXMXGXGXzXLXLXzXFXIXc.zXLXJXJXJXJXJXJXJXJXJXJXJXJXJXJXJXLXzXFXLXJXJXJXJXJXJXJXLXzXFXLXJXJXJXJXLXAXSXLXJXJXLXSXSXLXGXLXSXSXLXJXGXzXLXLXzXFXLXFXzXIXrX3XIXGXJXJXJXJXJXJXJXJXJXJXJXJXJXJXLXFXzXLXJXJXLXzXuXdXrXtXrXsX,X$.@.g.sXrXrXrXtXzXtX@X@X@X@X@X@X@X8XzXtX@X@X@X@X@X@X@X8XzXuX5X@X@X@X@X@X@X8XzXuX8XsXg.#.:XcXKXaX%X,X: O.sXrX",
"JXJXJXJXJXJXJXJXLXzXGXLXJXJXJXJXLXzXFXJXLXgXU.DXGXgX{.Z.' `.) hXFXAXIXIXGXY.M.M.aXIX5X) fX@X{.IXGXJXGXIX9Xf.xXzXxXFXGXJXLXSXAXLXJXJXJXJXJXJXJXJXJXzXJXJXJXJXJXLXFXzXLXJXJXJXLXzXGXJXJXGXcX<X>.MXwXMXGXGXzXLXLXzXFXIXc.zXLXJXJXJXJXJXJXJXJXJXJXJXJXJXJXJXLXzXFXLXJXJXJXJXJXJXJXLXzXFXLXJXJXJXJXLXAXSXLXJXJXLXSXSXLXGXLXSXSXLXJXGXzXLXLXzXFXLXFXzXIXrX3XIXGXJXJXJXJXJXJXJXJXJXJXJXJXJXJXLXFXzXLXJXJXLXzXuXdXrXtXrXsX,X$.@.g.sXrXrXrXtXzXtX@X@X@X@X@X@X@X8XzXtX@X@X@X@X@X@X@X8XzXuX5X@X@X@X@X@X@X8XzXuXtX6X$.;XKXzXGXT x IX,X: h.dX",
"JXJXJXJXJXJXJXJXLXzXGXLXJXJXJXJXLXzXFXJXLXaXY.DXGXaX{.Z.C.FXY.&XGXaX&X{.M.M.LX@X) &XhX{.IX@X{.IXGXJXGXIX9Xf.xXzXxXFXGXJXLXSXAXLXJXJXJXJXJXJXJXJXJXzXJXJXJXJXJXLXFXzXLXJXLXcXJXzXGXJXJXGXcX<X>.MXwXMXGXGXzXLXLXzXFXIXc.zXLXJXJXJXJXJXJXJXJXJXJXJXJXJXJXJXLXzXFXLXJXJXJXJXJXJXJXLXzXFXLXJXJXJXJXLXAXSXLXJXJXLXSXSXLXGXLXSXSXLXJXGXzXLXLXzXFXLXFXzXIXrX3XIXGXJXJXJXJXJXJXJXJXJXJXJXJXJXJXLXFXzXLXJXJXLXzXuXdXrXtXrXsX,X$.@.g.sXrXrXrXtXzXtX@X@X@X@X@X@X@X8XzXtX@X@X@X@X@X@X@X8XzXuX5X@X@X@X@X@X@X8XzXuXsX;X$.uXzXzXzX6 +XDXFXO.O.zX",
"JXJXJXJXJXJXJXJXLXzXGXLXJXJXJXJXLXzXFXJXLXaXY.DXGXhX{.Z.B.xXY.&XLXN.Y.&XaXxXLXLX5X{.@X{.IXhXM.@XJXJXGXIX9Xf.xXzXxXFXGXJXLXSXAXLXJXJXJXJXJXJXJXJXJXzXJXJXJXJXJXLXFXzXLXGXLXgXGXzXGXJXJXGXcX<X>.MXwXMXGXGXzXLXLXzXFXIXc.zXLXJXJXJXJXJXJXJXJXJXJXJXJXJXJXJXLXzXFXLXJXJXJXJXJXJXJXLXzXFXLXJXJXJXJXLXAXSXLXJXJXLXSXSXLXGXLXSXSXLXJXGXzXLXLXzXFXLXFXzXIXrX3XIXGXJXJXJXJXJXJXJXJXJXJXJXJXJXJXLXFXzXLXJXJXLXzXuXdXrXtXrXsX,X$.@.g.sXrXrXrXtXzXtX@X@X@X@X@X@X@X8XzXtX@X@X@X@X@X@X@X8XzXuX5X@X@X@X@X@X@X8XzXtXgX-.=.cXzXzXzX7XzXzXKX;.< sX",
"JXJXJXJXJXJXJXJXLXzXGXLXJXJXJXJXLXzXFXJXLXgXM.#X].{.{.m.B.xX[.].LXN.KXIXDXFXLXGXaXY.].@XGX&XhXM.FXLXGXIX9Xf.xXzXxXFXGXJXLXSXAXLXJXJXJXJXJXJXJXJXJXzXJXJXJXJXJXLXFXzXLXGXLXgXGXzXGXJXJXGXcX<X>.MXwXMXGXGXzXLXLXzXFXIXc.zXLXJXJXJXJXJXJXJXJXJXJXJXJXJXJXJXLXzXFXLXJXJXJXJXJXJXJXLXzXFXLXJXJXJXJXLXAXSXLXJXJXLXSXSXLXGXLXSXSXLXJXGXzXLXLXzXFXLXFXzXIXrX3XIXGXJXJXJXJXJXJXJXJXJXJXJXJXJXJXLXFXzXLXJXJXLXzXuXdXrXtXrXsX,X$.@.g.sXrXrXrXtXzXtX@X@X@X@X@X@X@X8XzXtX@X@X@X@X@X@X@X8XzXuX5X@X@X@X@X@X@X8XzXtXgX-.=.zXzXzXzXSXzXzXKX;.< sX",
"JXJXJXJXJXJXJXJXLXzXGXLXJXJXJXJXLXzXFXJXLXaXM.`.`.{.].m.` xX`.Y.gXM.FXLXzXSXLXFXzXM.) aXcX{.IXY.{.LXGXIX9Xf.xXzXxXFXGXJXLXSXAXLXJXJXJXJXJXJXJXJXJXzXJXJXJXJXJXLXFXzXLXGXLXaXFXzXGXJXJXGXcX<X>.MXwXMXGXGXzXLXLXzXFXIXc.zXLXJXJXJXJXJXJXJXJXJXJXJXJXJXJXJXLXzXFXLXJXJXJXJXJXJXJXLXzXFXLXJXJXJXJXLXAXSXLXJXJXLXSXSXLXGXLXSXSXLXJXGXzXLXLXzXFXLXFXzXIXrX3XIXGXJXJXJXJXJXJXJXJXJXJXJXJXJXJXLXFXzXLXJXJXLXzXuXdXrXtXrXsX,X$.@.g.sXrXrXrXtXzXtX@X@X@X@X@X@X@X8XzXtX@X@X@X@X@X@X@X8XzXuX5X@X@X@X@X@X@X8XzXuXsX>X@.wXcXzXzXzXzXzXcX< ;.xX",
"JXJXJXJXJXJXJXJXLXzXGXLXJXJXJXJXLXzXFXJXLXaXM.`.`.{.].m.` xXhXS.S.[.LXLXzXFXIXGXzXKX/.rXgX`.JXfX) hXLXPX9Xf.xXzXDXFXGXJXLXSXAXLXJXJXJXJXJXJXJXJXJXzXJXJXJXJXJXLXFXzXLXGXLXaXGXzXGXJXJXGXcX<X>.MXwXMXGXGXzXLXLXzXFXIXc.zXLXJXJXJXJXJXJXJXJXJXJXJXJXJXJXJXLXzXFXLXJXJXJXJXJXJXJXLXzXFXLXJXJXJXJXLXAXSXLXJXJXLXSXSXLXGXLXSXSXLXJXGXzXLXLXzXFXLXFXzXIXrX3XIXGXJXJXJXJXJXJXJXJXJXJXJXJXJXJXLXFXzXLXJXJXLXzXuXdXrXtXrXsX,X$.@.g.sXrXrXrXtXzXtX@X@X@X@X@X@X@X8XzXtX@X@X@X@X@X@X@X8XzXuX5X@X@X@X@X@X@X8XzXuXrXtX$.=.cXzXzXzXzXKXb.:  XsX",
"JXGXGXGXGXGXGXGXJXzXFXJXGXJXJXGXJXzXFXGXLXhXM.`.`.`.{.m.' @XaXFXSXAXJXJXAXxXhXgXAXIX3X/.&X`.cXIX@X{.IXLX9Xf.xX#XM.SXGXGXJXSXzXLXGXGXGXGXGXGXGXGXGXzXJXGXGXGXGXJXFXzXLXGXLXY.gXAXGXGXGXGXcX<X>.MXwXMXFXFXzXJXJXzXFXIXc.zXLXGXGXGXGXGXGXGXGXGXGXGXGXGXGXGXLXzXFXGXGXGXGXGXGXGXGXLXzXSXGXGXGXGXGXLXzXSXGXGXGXLXAXAXGXGXGXAXAXLXGXGXzXGXGXzXFXLXSXzXIX8X3XIXGXGXGXGXGXGXGXGXGXGXGXGXGXGXGXGXFXzXLXGXGXLXzXuXdXrXtXrXsX,X$.@.g.sXrXrXrXtXzXtX@X@X@X@X@X@X@X8XzXtX@X@X@X@X@X@X@X8XzXuX5X@X@X@X@X@X@X8XzXuXrXsX,X@.-.xXzXzXFXh.: b.sXrX",
"IXIXIXIXIXIXIXIXIXHXIXIXIXIXIXIXIXDXLXPXIXhXM.`.{.{.&XF._ Y.{.KXGXFXIXIXSXaX{.].@XIX4XL.&X{.KXIXfXM.cXIXtXf.GXT.) cXIXIXIXGXGXIXIXIXIXIXIXIXIXIXIXFXLXIXIXIXIXIXLXFXIXIXIX) hXGXPXIXIXIXKX1X>.HXqXHXLXLXFXIXIXFXLXIXXXKXIXPXPXPXPXPXPXPXPXPXPXPXPXPXPXPXIXKXPXIXPXPXPXPXPXPXPXIXKXJXIXPXPXPXPXIXKXJXIXPXPXIXKXKXIXPXIXKXKXIXPXPXFXIXIXFXPXIXJXKXIXsX4XIXPXPXPXPXPXPXPXPXPXPXPXPXPXPXPXIXPXKXIXPXPXIXFXuXdXrXtXrXsX,X$.@.g.sXrXrXrXtXzXtX@X@X@X@X@X@X@X8XzXtX@X@X@X@X@X@X@X8XzXuX5X@X@X@X@X@X@X8XzXuXrXrXsX>X;XsXtXtXsXv.b.sXrXrX",
"|.|.|.|.|.|.|.|.|.|.|.|.|.|.}.}.hX].5X7XjX].) V.C.C.T._ E n.H.OX2XoX5X#XL.L.K.C.n.5Xz.e.E.L.5X7XeXN.!.iXz.i.(.A n.].7X7XeX4X2X7X4XOXoX+X+X+X+X X X.XA./. X+X+X+X+X+X4X4X7XZ ).3X4X7X7X7X4X>X-.,Xc.3X6X4X2X8X7X3X6XwXh.,X<X<X<X>X>X>X>X>X>X>X>X>X>X>X>X>X>X>X>X>X>X>X>X>X>X>X>X>X>X>X>X>X>X>X>X>X>X>X>X>X>X>X>X>X>X>X>X>X>X>X>X>X>X>X>X>X>X>X>X>X<Xh.h.<X>X>X>X>X>X>X>X>X>X>X>X>X>X>X>X>X>X>X>X>X>X>X,XzXuXrXtXrXsX,X$.@.g.sXrXrXrXtXzXtX@X@X@X@X@X@X@X8XzXtX@X@X@X@X@X@X@X8XzXuX5X@X@X@X@X@X@X8XzXuXrXtXrXsXsXrXrXrXrXsXsXrXrXrX",
"}.}.}.}.}.}.}.}.}.}.}.}.}.}.|.|.|.A V V N.L.n.H.L.K.^.' E V.H.OX3X~.n._ E U E E U ' ! z / _ n./.qX!.^.mX Xi.N.'.L./.iXOXz.i.i.f.f.f.f.f..X.X X X Xf.S E  X X.X.Xf.f.f.f.i.V e.z.4X4X2X2XoXv.-.,Xv.,X3X4Xc.v.h.h.g.>X-.;X>X>X>X>X>X>X>X>X>X>X>X>X>X>X>X>X>X>X>X>X>X>X>X>X>X>X>X>X>X>X>X>X>X>X>X>X>X>X>X>X>X>X>X>X>X>X>X>X>X>X>X>Xv.>X>X>X>X>X>X>X<Xv.h.<X>X>X>X>X>X>X>X>X>X>X>X>X>X>X>X>X>X>X>X>X>X>X,XzXuXrXtXrXsX,X$.@.g.sXrXrXrXtXzXtX@X@X@X@X@X@X@X8XzXtX@X@X@X@X@X@X@X8XzXuX5X@X@X@X@X@X@X8XzXuXrXtXrXrXrXrXrXrXrXrXrXrXrXrX",
"hXhXhXhXhXhXhXhXhX@XhXhXhXhXhXhX&X}.}.|.D N S ] ) ) Z C M M M D D M M s s s s M s M M s s s s M D M D |.) [ ) {.P.|.$X%X$X9XtXcXFXGXGXGXGXGXGXFXUX_.T.T.FXUXxXY.xXkXGXGXxXZ E. X$XLXIXIXPXbX>.UXbXUXUXbX1XbXCXVXCXUX XNXUXUXUXUXUXUXUXUXUXUXUXUXUXUXUXUXUXNXHXUXUXUXUXUXUXUXUXUXNXBXUXUXUXUXUXUXBXBXUXUXUXUXBXBXUXUXUXBXBXUXUXUXMXUXUXMXHXUXBXNXUXqX,XUXUXUXUXUXUXUXUXUXUXUXUXUXUXUXUXUXHXNXUXUXUXUXNXdXdXrXtXrXsX,X$.@.g.sXrXrXrXtXzXtX@X@X@X@X@X@X@X8XzXtX@X@X@X@X@X@X@X8XzXuX5X@X@X@X@X@X@X8XzXuXrXtXrXrXrXtXtXtXtX8XrXrXrXrX",
"M M M M M M M M M s M M M M M M M M M M D M s s s C S C C ) ] A.] m.m.S.m.m.S.A.m.S._ ` S.m.m.] / Z ) |.) s M M s s s M M M M M M M M M M M M M M s M s M M M s M M M M M s M M s s M M M M M M M M M N M M M M M M M M M M M M M M M M M M M M M M M M M M M M M M M M M M M M M M M M M M M M M M M M M M M M M M M M M M M M M M M M M M M M M M M M M M M M M M M M M M M M M M M M M M M M M M Z zXdXrXtXrXsX,X$.@.g.sXrXrXrXtXzXtX@X@X@X@X@X@X@X8XzXtX@X@X@X@X@X@X@X8XzXuX5X@X@X@X@X@X@X8XzXuXrXtXrXrXsXtX6X6XrXxXtXrXtXrX",
"fXfXfXfXfXfXfXfXfXaXgXfXfXfXfXfXcXaXfXfXKX].M.[.Z ) hXD._ `.D.` E.E.W.W.I.E.W.W.I.{.n.C.`.W.W.W.&XW.Y.IXlXI aX$X.Xm.].aX@X_.`.Y.].`.`.`.`.`.`.`.Y.) `.) Y.`.Y.C Y.E.`.`.Y.C ] `.{.{.C.C.}.z.9.].k.j.].].(.].].(.].@Xe.).].].].].].].].].].].].].].].].].].)._.].].].].].].].].].).).].].].].].].).).].].].].).).].].].).).].].].(.].].(._.].).).].!.d.].].].].].].].].].].].].].].].].]._.).].].].].].zXdXrXtXrXsX,X$.@.g.sXrXrXrXtXzXtX@X@X@X@X@X@X@X8XzXtX@X@X@X@X@X@X@X8XzXuX@X@X@X@X@X@X@X8XzXuXrXrXtXtX;X$.$.@.$.;.4XsXrXrX",
"fXfXfXfXfXfXfXfXfXaXgXfXfXfXfXfXfXaXgXfXSX}.M.Y.`.D ) D._ m.' U.U.I.W.W.I.I.W.U.I.{.n.C.W.W.W.U.W.`.] m.M.' %Xf.$XT.#XDXxXkX9X) ].HXxXDXxX) tXUXtXT.HXS.sXHXtXZ 9XlXxXDXkXZ `.lXkXxXDXOX$Xl.:X1X:XZXVXVXbXCXCXZX2XBX>XZXCXCXCXCXCXCXCXCXCXCXCXCXCXCXCXCXCXZXVXCXCXCXCXCXCXCXCXCXZXVXCXCXCXCXCXCXZXZXCXCXCXCXZXZXCXCXCXZXZXCXCXCXbXCXCXZXVXCXZXZXCXwX,XCXCXCXCXCXCXCXCXCXCXCXCXCXCXCXCXCXVXZXCXCXCXCXmXdXdXrXtXrXsX,X$.@.g.sXrXrXrXtXzXtX$X$X$X$X$X$X$XtXzXtX$X$X$X$X$X$X$X8XzXuX9X9X9X9X9X9X9XrXzXuXrXtXeX=.@.-.>X<X:X< < 3XsXeX",
"fXfXfXfXfXfXfXfXfXaXgXfXfXfXfXfXfXaXgXfXcX}.M.Y.Y.`.D Z [ [ I.U.I.I.W.W.I.I.W.U.I.{.n.C.W.W.W.W.W.m.P.M.R.f..X%X%XE.M.xXxXkX#XM.M.xXsXxX`.S `.xX$XM.kXM.9XxX$XS #X9XxXxX9XZ T.9XsXxXxXxXf.z g.:X<XqXmXmXqXMXMXqX) @X XqXNXMXMXMXMXMXMXMXMXMXMXMXMXMXMXmXMXqXjXMXMXMXMXMXMXMXmXMXyXjXMXMXMXMXmXMXyXyXMXmXmXMXyXyXMXmXMXyXyXMXMXmXwXMXMXqXjXNXyXqXBX6X XBXmXMXMXMXMXMXMXMXMXMXMXMXMXMXMXMXjXqXMXmXmXMXyXdXdXrXtXrXsX,X$.@.g.sXrXrXrXtXzXtX$X$X$X$X$X$X$XtXzXtX$X$X$X$X$X$X$X8XzXuX..P P P P P P *XAXuXrXsX-.$.wXKXJX#Xd.AX< < 8XtX",
"fXfXfXfXfXfXfXfXfXaXgXfXfXfXfXfXfXaXfXKXJX].M.Y.U.[.Y.M B F.D.U.I.I.W.W.I.I.W.U.I.{.n.C.W.W.W.W.W.P.Z Y.Q.^ %XE.E.tXM.5XxXkXN.T.T.tXxX9X) 5XM.xX$XA.9XM.5XxX`.S #XtXxXxX5XZ T.9XkXxXkXxX9XZ b.1X<XqXmXmXqXNXMXbX) ]. XqXNXMXMXMXMXMXMXMXMXMXMXMXMXMXMXMXNXqXmXNXMXMXMXMXMXMXMXNXqXjXNXMXMXMXMXNXyXjXNXMXMXNXyXjXNXMXNXjXyXNXMXmXqXNXNXqXmXNXjXqXBX6X XBXmXMXMXMXMXMXMXMXMXMXMXMXMXMXMXNXmXqXNXMXMXNXyXdXdXrXtXrXsX,X$.@.g.sXrXrXrXtXzXtX$X$X$X$X$X$X$XtXzXtX$X$X$X$X$X$X$X8XzXuX..............$XAXuXsX,X@.>XKXuXGXR R IXeX: b.xX",
"fXfXfXfXfXfXfXfXfXaXgXfXfXfXfXfXfXaX].Y.{.M.M.Y.Y.Y.{./ M I.S.U.I.I.W.W.I.I.W.U.I.{.n.C.W.W.W.W.W.W.&XfXQ.^ #XC.E.kXT.#XUX9X) 5XM.9XtXE.`.DXM.xX@XM.%X) @XHXT.) #XtXxXxX@XA T.9XkXxXxXxX9XZ r.bX<XqXmXmXqXMXMXbX) ]. XqXNXMXMXMXMXMXMXMXMXMXMXMXMXMXMXMXNXqXmXNXMXMXMXMXMXMXMXNXqXjXNXMXMXMXMXNXyXjXNXMXMXNXyXjXNXMXNXjXyXNXMXmXqXNXNXqXmXNXjXqXBX6X XBXmXMXMXMXMXMXMXMXMXMXMXMXMXMXMXNXmXqXNXMXMXNXyXdXdXrXtXrXsX,X$.@.g.sXrXrXrXtXzXtX$X$X$X$X$X$X$XtXzXtX$X$X$X$X$X$X$X8XzXuX9X$X$X$X$X$X$X9XzXuXsXg.$.zXzXzXzXR 4XAXKX;.w dX",
"fXfXfXfXfXfXfXfXfXaXgXfXfXfXfXfXfXaXM.{.].].{.T.Y.`.U./ s ) I.U.I.I.W.W.I.I.W.U.I.{.n.C.W.W.W.W.W.W.xXxX~ ^ R.J.I.9X#X) M.M.E.tXM.M.) ) #XDXM.#X9XM.%X) @X9XM.) _.lXxXxX#X( S.lXkXxXkXxXOXS T >X<XqXVXmXqXT.rXmX( ].>XqXNXMXMXMXMXMXMXMXMXMXMXMXMXMXMXMXNXqXmXNXMXMXMXMXMXMXMXNXqXjXNXMXMXMXMXNXyXjXNXMXMXNXyXjXNXMXNXjXyXNXMXmXqXNXNXqXmXNXjXqXBX6X XBXmXMXMXMXMXMXMXMXMXMXMXMXMXMXMXNXmXqXNXMXMXNXyXdXdXrXtXrXsX,X$.@.g.sXrXrXrXtXzXtX$X$X$X$X$X$X$XtXzXtX$X$X$X$X$X$X$X8XzXuX..P P P P P P *XAXtXgX-.=.cXzXzXzXzXzXzXKX;.< sX",
"fXfXfXfXfXfXfXfXfXaXgXfXfXfXfXfXfXaXM.fXKXcX{.T.Y.Y.] [ S M D.U.I.I.W.W.I.I.W.U.I.{.n.C.W.W.W.W.W.W.gX%Xf.~ ' C.D._.xX#X`.Z T.9X_.Z E.Z #XDX@X) T.m.`.] #X) Z ] ).lXxXxX#X) M.#XsXxXkXxXv.S s..X<XbXiXmXqXA 7XZXA ].>XqXNXBX].].BXMXMXMXMXMXMXMXMXMXMXMXNXqXmXNXMXMXMXMXMXMXMXNXqXjXNXMXMXMXMXNXyXjXNXMXMXNXyXjXNXMXNXjXyXNXMXmXqXNXNXqXmXNXjXqXBX6X XBXmXMXMXMXMXMXMXMXMXMXMXMXMXMXMXNXmXqXNXMXMXNXyXdXdXrXtXrXsX,X$.@.g.sXrXrXrXtXzXtX$X$X$X$X$X$X$XtXzXtX$X$X$X$X$X$X$X8XzXtX..P P P P P P *XAXtXsXg.$.zXzXzXzXzXzXzXKX;.< sX",
"fXfXfXfXfXfXfXfXfXaXgXfXfXfXfXfXfXaXM.gXfXgX{.T.Y.S.] ] / C ) W.U.I.W.W.I.I.W.U.I.{.n.C.W.W.W.W.W.W.$Xf.%X^ ' ' I.`.xXxXDX(.#X5X#XS _.S #XxX9XV ) n.`.] `.) ( ] (.lXxXxX].) A Z tXkXxXwXh.Z d..X.XZXN.eXwXS 5XZXZ ).>XqXNXCX[.[.CXMXMXMXMXMXMXMXMXMXMXMXNXqXmXNXMXMXMXMXMXMXMXNXqXjXNXMXMXMXMXNXyXjXNXMXMXNXyXjXNXMXNXjXyXNXMXmXqXNXNXqXmXNXjXqXBX6X XBXmXMXMXMXMXMXMXMXMXMXMXMXMXMXMXNXmXqXNXMXMXNXyXdXdXrXtXrXsX,X$.@.g.sXrXrXrXtXzXtX9X$X$X$X$X$X$XtXzXtX9X$X$X$X$X$X$XrXzXtX..P P P P P P *XAXtXsX,X@.<XKXzXzXzXzXFXuX< ;.xX",
"fXfXfXfXfXfXfXfXfXaXgXfXfXfXfXfXfXhXM.fXfXgX{.T.Y.] S.] / ] M U.I.I.W.W.I.I.W.U.I.{.n.C.W.W.W.W.W.Y.Q.R.{ I B.[ D.`.xXxXxXkX#X_.#XM.@XZ `.%XkX`.Z ` `.M.T.M.) ] (.lXxXxX_.] ) ) $XxXxX>Xc.Z d.>X.XbX) eX6XS #XmXZ ).>XqXNXCXT.[.CXMXMXMXMXMXMXMXMXMXMXMXNXqXmXNXMXMXMXMXMXMXMXNXqXjXNXMXMXMXMXNXyXjXNXMXMXNXyXjXNXMXNXjXyXNXMXmXqXNXNXqXmXNXjXqXBX6X XBXmXMXMXMXMXMXMXMXMXMXMXMXMXMXMXNXmXqXNXMXMXNXyXdXdXrXtXrXsX,X$.@.g.sXrXrXrXtXzXtX$X$X$X$X$X$X$X8XzXtX$X$X$X$X$X$X$X9XzXtX..P P P P P P *XAXuXrXsX=.$.iXzXzXzXzXzX;.< 6XtX",
"fXfXfXfXfXfXfXfXfXaXfXcXcXcXcXfXfX5XM.fXfXgX{.T.A.] Y.[ / A.C ) E.I.W.W.I.I.W.U.I.{.n.C.W.W.W.W.W.I.~ W.' I B.' ` E.9XxXxX9X#XE.#XxX9XZ `.`.9XkXV n.`.m.M.S.) ] E.lX9XxX`.] ] N._.xX6X>X+XZ e.<X.X,X) 7X6XS ].bXS [.>XqXMXCXT.T.CXmXMXMXMXMXMXMXMXMXMXMXNXqXmXNXMXMXMXMXMXMXMXNXqXjXNXMXMXMXMXNXyXjXNXMXMXNXyXyXNXMXNXyXyXNXMXmXqXMXNXqXmXNXjXqXBX6X XBXmXMXMXMXMXMXMXMXMXMXMXMXMXMXMXMXmXqXNXMXMXNXyXdXdXrXtXrXsX,X$.@.g.sXrXrXrXtXAX9XP P P P P P P $XAXtXP P P P P P P *XAXtXN.) ) ) ) ) ) #XAXuXrXtX7X$.=.xXzXzXFXb.: v.sXrX",
"fXfXfXKXKXKXKXKXKXY.S.P.P.S.].KXKXhXM.KXcXfX{.T.] F.Y.] / A.] C U.I.W.W.I.U.W.W.I.{.n.C.{.W.W.W.`.{ { I.{ I B.B.[ I.%XxXxXtX#XW.#XxX9X#X`.E.$XxXM.I.W.m.) S.) m.T._.A xX`.] M.K.E.FX>XbX/.Z e.<X X.XZ 5X6XZ ].jXS `.>XyXNXBXN.T.CXMXNXNXNXNXNXNXNXNXNXNXBXyXmXNXNXNXNXNXNXNXNXBXyXmXNXNXNXNXNXBXjXjXBXNXNXBXjXjXBXNXBXjXjXBXNXMXqXNXNXqXmXBXmXyXHX6X,XHXMXNXNXNXNXNXNXNXNXNXNXNXNXNXNXNXmXqXBXNXNXBXjXdXdXrXtXrXsX,X$.@.g.sXrXrXrXtXAX9X] [ [ [ [ [ [ #XDX8X| X.| | | | X.%XDXtXN.) ) ) ) ) ) ].AXuXrXrXsX6X,XtXrXrXtX3Xc.sXrXrX",
"aXaXhXY.Y.Y.Y.Y.P.) ].].].].) `.].T.) ].].].Y.m.[ A.S.[ / ] m.C ) I.I.I.D.D.I.I.A.U.' n.U.I.I.I.D.Q B.D._ I ` { [ ` E.9X9X4X%XI.(.9X%X%XI.J.E.9X9XR.I.J.S T.R.D.n.n.) $XE.] (.%XM.6X:X6X~.n u.>X Xf.V ].3XZ ).wXS T.v.6XyXbXn.T.ZXqXqXqXqXqXqXqXqXqXqXqXqXwXwXqXqXqXqXqXqXqXqXqXwXwXqXqXqXqXqXqXwXwXqXqXqXqXwXwXqXqXqXwXwXqXqXqX6XqXqX6XwXyXwXwXmX,Xv.mXqXqXqXqXqXqXqXqXqXqXqXqXqXqXqXqXwX6XqXqXqXqXiXdXuXrXtXrXsX,X$.@.g.sXrXrXrXtXzX8X( A A A A A A 5XDX8XC B B B B B B _.DXtXN.) ) ) ) ) ) #XAXuXrXtXrXtXsXrXrXrXrXtXsXrXrXrX",
"gXfX].M.&X].].].].5XfXfXfXcX].P.U.T.Y.U.U.U.Y.] ] P.P.[ / m.A.) C I.U.Y.I.I.W.I.D.W.n.n.W.U.U.W.B.{ D.D.' I B.B.{ [ E.%X%X%X#XE.E.9X(.`.E.I.E.9XkXR.I.%X) E.$XI.M.n.M.#X(.n._.OXS. X<XlXK.! W >X>X XV #X2XZ ).qXS [. XwXMX].) T.VXjXmXmXmXmXmXmXmXmXmXmXmXqXyXmXmXmXmXmXmXmXmXmXqXyXmXmXmXmXmXmXqXqXmXmXmXmXqXqXmXmXmXqXqXmXmXmXwXmXmXwXjXmXyXqXNX,X XBXjXmXmXmXmXmXmXmXmXmXmXmXmXmXmXmXjXwXmXmXmXmXyXdXdXrXtXrXsX,X$.@.g.sXrXrXrXtXzX8X( ( ( ( ( ( ( #XDX8X/ B B B B B B #XDXtXN.) ) ) ) ) ) #XAXuXrXtXrXrXeXrXtXtXtX8XrXtXrXrX",
"cXKX}.{.JXcXKXSXKXaXgXfXfXfXcXKXKXsX&XY.[.[.Y.[ S.P.U.] / m.m.S.C m.W.W.I.U.W.U.I.{.n.C.W.W.W.W.Q D.D.I.{ I B.B.D.' D.E.E._.%XW.E.$XE.`.E.E.`.$XsXE.I.`.#X_.%XE.M.n.M.#X[.m.`.#XN.v.lXlXK.! W ,X>X,XV #XoX) ).qXS [.>XqXBXN.S T.CXMXNXMXMXNXNXNXMXNXNXMXNXqXmXNXNXNXNXNXNXNXMXNXyXmXNXNXNXNXNXNXyXjXNXNXNXNXjXjXNXMXNXjXjXNXNXMXqXNXNXqXmXBXjXyXHX6X,XHXMXNXNXNXNXNXNXNXNXNXNXNXNXNXNXNXmXqXNXMXNXNXjXdXdXrXtXrXsX,X$.@.g.sXrXrXrXtXzX8X( ( ( ( ( ( ( 5XDX8XC B B B B B B _.DXtXN.) ) ) ) ) ) #XAXuXrXtXrXrXsXtX7X6XtXxXtXrXtXrX",
"hXgXP.{.SXfXfXfXfXaXgXfXfXfXfXfXfXaX@XY.Y.`.F.] P.S.U.] / m.m.P.Z ) `.W.I.I.W.U.I.{.n.C.W.W.W.D.Q D.D.I.{ I B.B.B.{ ` E.E.I.I.E.E.#XE.E.E.E.E.`.9XE.I.E.xX_.`.E.n.) ] `.T.m.E._.N.c.lXlXL.W W ,X X XV ].oX) ).qXZ [. XqXjX) S T.CXmXMXNXNXMXMXMXNXNXMXMXNXqXmXNXMXMXMXMXMXMXMXNXqXjXNXMXMXMXMXNXyXjXNXMXMXNXyXjXNXMXNXjXyXNXMXmXqXMXNXqXmXNXjXqXBX6X XBXmXMXMXMXMXMXMXMXMXMXMXMXMXMXMXNXmXqXNXMXMXNXyXdXdXrXtXrXsX,X$.@.g.sXrXrXrXtXzX8X( A ( ( ( ( ( 5XDX8XC B B B B B B _.DXtXN.) ) ) ) ) ) ].AXuXrXrXtXsX>X=.$.$.$.;.7XsXrXtX",
"S.S.M.hXcXfXfXfXfXaXgXfXfXfXfXfXfXaX@XY.Y.Y.] m.S.S.U.] / m.m.S.m.C W.W.I.I.W.U.I.{.n.C.W.W.W.{ B.D.D.I.{ I B.B.B.D.' I.E.I.I.E.E.E.E.E.E.E.E.E.$XE.E.E.tX`.E.`.) ( A.S.M.A.E.R.n.+XbXlXT.W R  Xn.~.Z d./.) ).0XZ [. XqXuXA V T.CXmXBX7X5XBXMXmXT.iXNXMXNXqXmXNXMXMXMXNXNXMXNXNXqXjXNXMXMXMXMXNXyXyXNXMXMXNXyXjXNXMXNXjXyXNXMXmXqXNXNXqXmXNXjXqXBX6X XBXmXMXMXMXMXMXMXMXMXMXMXMXMXMXMXNXmXqXNXMXMXNXyXdXdXrXtXrXsX,X$.@.g.sXrXrXrXtXzX8X( A ( ( ( ( ( 5XDX8XC B B B B B B _.DXtXN.) ) ) ) ) ) ].AXuXrXtXrX-.#.-.>X<Xg.: < 3XsXrX",
"cXcXcXcXfXfXfXfXfXaXfXcXfXcXfXfXfXaX].Y.`.P.] A.S.P.U.] / m.m.A.P.C M.`.I.I.W.U.I.{.n.C.W.W.I.Q D.D.D.I.{ I B.B.B.D.` B.W.I.I.E.E.E.E.E.E.E.E.E.%XJ.E.E.9XE.E.`.) Z _.M.) I.W.H.u.K.^.lXT.W c  X( n.A i.d.M.(.6XZ [.v.qXuXZ C T.BXmXCX).T.CXMXmXZ 5XBXMXNXqXmXMXMXMXMXmXmXMXiXNXqXjXNXMXMXMXMXCX).].BXMXMXNXyXjXNXMXNXyXyXNXMXmXqXNXNXqXmXNXjXqXBX6X XBXmXMXMXMXMXMXMXMXMXMXMXMXMXMXMXNXmXqXNXMXMXNXyXdXdXrXtXrXsX,X$.@.g.sXrXrXrXtXzX8X( ( ( ( ( ( ( 5XDX8XC B B B B B B _.DXtXN.) ) ) ) ) ) #XAXuXrXsX-.@.<XKXKX5XR.uX< < rXtX",
"fXfXfXgXgXgXgXgXfX@X{.].].{.hXgXgXaX{.Y.`.] m.A.S.P.U.] / m.m.A.S.) S `.I.I.W.U.I.{.n.C.W.W.B.{ I.D.D.I.{ I B.B.B.D.Z.' E.I.I.E.E.E.E.E.E.E.E.E.`.J.E.E.#XE.I.`.) ) %XE.V E.W.s.e.n.S oXT.q.c c.( V ( p.W M.[.3XZ [.v.qXuXZ C T.CXMXCX).T.CXMXmXZ 5XBXMXNXqXmXBXMXMXBXT.5XiX) mXyXjXNXMXMXNXjXjX[.).CXMXMXBXjXyXNXMXMXmXjXNXMXmXqXNXNXqXmXNXjXqXBX6X XBXmXMXMXMXMXMXMXMXMXMXMXMXMXMXMXNXmXqXNXMXMXNXyXdXdXrXtXrXsX,X$.@.g.sXrXrXrXtXzX8X( ( ( ( ( ( ( 5XDX8XC B B B B B B _.DXtXN.) ) ) ) ) ) #XAXtXtX6X@.>XKXuXGXR R IX6X: b.xX",
"fXfXfX&X&X&X&X&X&XY.U.Y.Y.U.{.{.{.`.[.Y.Y.] P.A.S.P.U.] / m.m.A.A.A.C P.I.I.W.U.I.{.n.C.W.W.{ B.D.D.D.I.{ I B.B.B.D.D.' I.E.I.E.E.E.E.E.E.E.E.E.E.J.E.E.%XE.E.`.) M.`.#XM.E.E.i.L.A n./.T.q.R ~.n. XV.S Z M.[.2XZ [.v.qXtXS C T.eX5XCX[.T.CXMXjXS #XBXmXNXqXiX7XNXMXBXM.5XyXS uXjXjXMXNXMXBX5XT.[.[.CXmXNXuXiXjXNXMXCX).7XBXMXmXqXNXNXqXmXNXjXqXBX6X XBXmXMXMXMXMXMXMXMXMXMXMXMXMXMXMXNXmXqXNXMXMXNXyXdXdXrXtXrXsX,X$.@.g.sXrXrXrXtXzX8X( A ( ( ( ( ( 5XDX8XC B B B B B B _.DXtXN.) ) ) ) ) ) ].AXtXsX;X$.kXzXzXzXx OXSXKXO.O.sX",
"fXfXfX{.{.{.{.{.{.T.Y.Y.Y.Y.Y.Y.Y.T.Y.{.F.] U.A.S.P.U.] / m.m.A.A.I.Z ) E.I.W.U.I.{.n.C.{.D.Q D.D.D.D.I.{ I B.B.B.D.D.{ { E.I.E.E.E.E.E.E.E.E.E.E.J.E.E.E.E.E.`.) A.E.9X#XW.L.q.^.Z N.K.A.q.R N.e.<XV.C V n.) L.( [.v.mXuXS C [.T.T.CXT.N.CXMXjXS ].BXmXMXZX].T.BXmXNX) ) _.S 7XmXjXCX).#XCX].N.T.T.CXmXBXN.K.ZXNXNX5Xn.5XBXMXNXqXMXNXqXmXNXjXqXBX6X XBXmXMXMXMXMXMXMXMXMXMXMXMXMXMXMXNXmXqXNXMXMXNXyXdXdXrXtXrXsX,X$.@.g.sXrXrXrXtXzX8X( A ( ( ( ( ( 5XDX8XC B B B B B B _.DXtXN.) ) ) ) ) ) ].AXtXgX-.=.cXzXzXzXzXzXzXKX;.< sX",
"fXcXgX`.Y.Y.Y.Y.Y.T.Y.Y.Y.Y.Y.Y.Y.T.Y.`.] A.U.A.S.P.U.] / m.m.A.A.A.M.C E.I.W.U.I.{.n.C.{.{ { D.D.D.D.I.{ I B.B.B.D.D.D.' I.I.E.E.E.E.E.E.E.E.E.E.J.E.E.E.E.E.E.).(.E.#X_.W.s.p.^.^.^.L.A.q.0.) w.,XV.V S Q Z S ) S.v.2X).Z V T.N.T.CXN.N.NXMXjXS ].BXmXjXZX(.T.T.5XNXZ C Z Z 5XmXiXyX) [.CX[.N.T.T.CXmXBX) L.VX7XBXN.Z 7XBXNXeX2XBXNXqXmXNXjXqXBX6X XBXmXMXMXMXMXMXMXMXMXMXMXMXMXMXMXNXmXqXNXMXMXNXyXdXdXrXtXrXsX,X$.@.g.sXrXrXrXtXzX8X( ( ( ( ( ( ( 5XDX8XC B B B B B B _.DXtXN.) ) ) ) ) ) #XAXtXsXg.$.zXzXzXzXzXzXzXKX;.< sX",
"&XhX&XY.Y.Y.Y.Y.Y.T.Y.Y.Y.Y.Y.Y.Y.T.Y.U.] P.P.A.S.P.U.] / m.m.A.A.m.U.C m.E.W.U.I.{.n.C.W.Q D.D.D.D.D.I.{ I B.B.B.D.D.D.` B.I.E.E.E.E.E.E.E.E.E.E.J.E.E.E.E.E.I.#X%XE.%X`.R.s.V.R.2XoXN.M.q.0.) E  Xn.Z ) Q Z C N.M.j./.N.) S T.) T.CXN.N.[.5XmXS ).CX].[.VXT.N.) #XMXS ) ) A #XZXOXT.) T.CXN.N.N.T.BXmXNXM.A N.N.BXN.S 5XBXCXT.T.CXMXqXmXNXjXqXBX6X XBXmXMXMXMXMXMXMXMXMXMXMXMXMXMXMXNXmXqXNXMXMXNXyXdXdXrXtXrXsX,X$.@.g.sXrXrXrXtXzX8X( ( ( ( ( ( ( 5XDX8XC B B B B B B _.DXtXN.) ) ) ) ) ) #XAXtXsX>X@.<XKXzXzXzXzXSXzX< ;.xX",
"`.[.Y.Y.Y.Y.Y.Y.Y.T.Y.Y.Y.Y.Y.Y.Y.T.Y.A.] U.P.A.S.P.U.] / m.m.A.A.m.U.) Z W.W.U.I.{.n.C.I.Q D.D.D.D.D.I.{ I B.B.B.D.D.D.Z.' E.E.E.E.E.E.E.E.E.E.E.J.E.E.E.E.E.E._.E.E.`.W.d.d.V.R.+X+XA Z q.b.Z E  Xn.Z /.p.Z S N.M.j.^.) ) Z n.Z T.CXM.N.N.5XmXS [.CXN.T.CXT.M.) ].jXZ N.N.) ].VX].N.) T.CXN.N.T.V #XCXjXN.].S ) NXM.C 5XjXNXN.Z #X5XL.VXNXjXqXBX6X XBXmXMXMXMXMXMXMXMXMXMXMXMXMXMXMXNXmXqXNXMXMXNXyXdXdXrXtXrXsX,X$.@.g.sXrXrXrXtXzX8X( A ( ( ( ( ( 5XDX8XC B B B B B B _.DXtXN.) ) ) ) ) ) ].AXuXrXtX=.=.uXzXzXzXzXzX;.: 3XtX",
"Y.Y.Y.Y.Y.Y.Y.Y.Y.T.Y.Y.Y.Y.Y.Y.Y.T.Y.] A.P.P.A.S.S.U.' / m.m.A.A.m.U.m.C E.W.U.I.{.n.C.{ { D.D.D.D.D.I.{ I B.B.B.D.D.D.D.[ I.E.E.E.E.E.E.E.E.E.E.J.E.E.E.E.E.E.(.E.E.E.W.s.d.V.J.+X^.Z ) i.0.A E z.n.A /.H.( T.^.M.k.!.A ) ( Z N.T.CX) N.N.5XjXZ [.CXN.N._.) M.) T.T.) N.N.) Z 0X].) ) T.NXM.N.N.M [.iX[.) VX) S eX) C 5XT.#XN.C ).#Xn.VXMXjXqXCX6X XBXmXMXMXMXMXMXMXMXMXMXMXMXMXMXMXMXmXqXNXMXMXNXyXdXdXrXtXrXsX,X$.@.g.sXrXrXrXtXzX8X( A ( ( ( ( ( 5XDX8XC B B B B B B _.DXtXN.) ) ) ) ) ) ].AXuXrXtX6X$.=.xXzXzXFXb.: v.sXrX",
"{.{.{.{.{.{.{.{.{.U.Y.{.{.{.{.{.{.Y.U.] U.P.U.S.P.P.Y.] / m.A.S.S.A.U.U.C m.`.W.I.{.n.C.{ D.D.D.D.D.D.I.{ I B.B.D.D.D.D.I.' B.`.W.W.W.W.W.W.W.W.W.I.W.W.W.W.W.W.`.E.W.W.E.s.R.G.R.+X/.) C.s.0.) Q z.n.( /.R.p.OX#XM.s.!.S n.) ) T.T.CXN.A Z [.tXZ [.CXM.) ) C M.) M.) ) T.N.M.M.T.].Z M.T.T.) T.n.C M.S S @XVXN.C Z S C #XN.T.T.S [.#Xn.CXBXMXeXkXwX,XUXNXBXBXBXBXBXBXBXBXBXBXBXBXBXBXBXNXjXBXBXBXBXjXdXdXrXtXrXsX,X$.@.g.sXrXrXrXtXzX8X( ( ( ( ( ( ( 5XDX8XC B B B B B B _.DXtXN.) ) ) ) ) ) #XAXuXrXrXsX6X>XtXrXrXtX,Xv.sXrXrX",
"T.T.T.T.T.T.T.T.T.N.A.T.T.T.T.T.T.N.' ' m.m.m.n.n.m.m.[ U ' ` n.n.n.m.A.Z S I.C.n.I._ Q Q B.B.B.B.B.B.B.Q I ' ' ` ` B.B.B.' [ J.C.C.C.C.C.C.C.C.C.V.C.C.C.C.C.C.H.V.C.D.p.q.V.e.p.z.d.e.d.q.0.( E d.e.( d.G.p.s.~.) q.G.C ) G.A n.G.2X) V C V !.A N.bX) Z G.S ) ( ) Z ( n.) N.'.S T.S n.N.A n.N.( V Z ( n.6X6XG.Z V n.V A V ) ~.S L.).( qX0XwX~.T.,Xv.qXwXwXwXwXwXwXwXwXwXwXwXwXwXwXwXwX6X,XwXwXwXwXwXzXuXrXtXrXsX,X$.@.g.sXrXrXrXtXzX8X( ( ( ( ( ( ( 5XDX8XC B B B B B B _.DXtXN.) ) ) ) ) ) #XAXuXrXtXrXtXsXrXrXrXrXtXsXrXrXrX",
"n.n.n.n.n.n.n.n.n._ n.n.n.n.n.n.n._ E _ _ _ _ ( _ _ _ E z ( ( _ _ ( _ _ ( M ' ' Q n.! I Q Q Q Q Q Q Q Q ! I E E E Q Q Q Q Q U Q w.Q Q Q Q Q Q Q Q Q Q Q Q Q Q Q w.Q w.Q 5.w.Q W Q i.w.i.i.T J e.W q.Q ( q.Q w.T e.( R e.C ( d.G.e.E ( S S S A e.A n.>X( S u.Z Z ( S C ( n.( w.l.S ( S ( ( S n.( A S c.n.n.v.j.d.d.3X~.V ( G.Z z.S ( Z n E l.>Xn n.v.b.,Xv.c.c.c.c.c.c.c.c.c.c.c.c.c.c. Xv.v. Xc.c.v.3XzXuXrXtXrXsX,X$.@.g.sXrXrXrXtXzX8X( A ( ( ( ( ( 5XDX8XC B B B B B B _.DXtXN.) ) ) ) ) ) ].AXuXrXtXtXrXrXtXtXtXtXrXrXtXtXtX",
"{.{.{.{.{.{.{.{.{.Y.{.{.{.{.{.{.{.P.] U.U.U.U.S.P.U.Y.] / A.F.S.S.S.U.U.U.C m.`.U.{.n.! I.I.I.I.I.I.D.W.{ I B.B.D.D.I.I.I.D.` D.`.W.W.W.W.W.W.W.W.I.W.W.W.W.W.W.W.E.`.E.s.R.R.H.R./.R./.(.i.0. Xd.H.C.) /.R.%Xf.R.[.( M.Z M.].8X#XZ S ( Z [.5XM.) T.uX) Z N.) Z M.n.C T.#X) A.tXN.Z V M.) M.#X) Z N.BXT.T.kX#XiXNXCX#XZ yXMXiXkXN.Z C S S 8X@XC T.qX,XUXBXBXBXBXBXBXBXBXBXBXBXBXBXBXBXHXBXmXHXBXBXHXjXdXdXrXtXrXsX,X$.@.g.sXrXrXrXtXzX8X( A ( ( ( ( ( 5XDX8XC B B B B B B _.DXtXN.) ) ) ) ) ) ].AXtX8XrXrXrXrXrXrXrXrXrXrXrXrXrX",
"Y.Y.Y.Y.Y.Y.Y.Y.Y.T.Y.Y.Y.Y.Y.Y.`.] ] P.S.S.P.m.S.S.U.[ / m.m.A.A.m.P.S.S.) Z W.D.{.Q E I.D.D.D.D.D.D.D.` I B.B.B.D.D.D.D.C.{ ` E.E.E.E.E.E.E.E.E.J.E.E.E.E.E.E.I.J.W.d.d.J.J.V.J.R.J./.R.q.0.z.d.d.H.J.R.H./.f.p.#Xy.V ).(.(.].]._.V ) ( (.iXZ ) T.n.n.Z G.#XZ n.iXZ N.#XA.T.iXiXS C N.Z ).iXZ ( 7XmXA.T.7XK.2XrXmX_.( yXNXBX4XoXZ Z Z C 5XT.M T.wX XBXVXVXMXmXmXmXmXmXmXmXmXmXmXmXmXMXmXqXMXmXmXMXyXdXdXrXtXrXsX,X$.@.g.sXrXrXrXtXzX8X( ( ( ( ( ( ( 5XDX8XC B B B B B B _.DXtXN.) ) ) ) ) ) #XAXzXdXzXzXzXzXzXzXzXzXzXzXzXzXzX",
"Y.Y.Y.Y.Y.Y.Y.Y.Y.T.Y.Y.Y.Y.Y.Y.Y.' A.P.P.P.P.A.S.P.U.] / m.m.A.A.A.P.P.A.m.C U.I.{.E ' I.D.D.D.D.D.D.I.{ I B.B.B.D.D.D.D.B.B.' I.E.E.E.E.E.E.E.E.J.E.E.E.E.E.E.I.I.W.s.H.J.J.G.J.J.J.^.J.i.0.z.d.d.J./.H.J./.~.Q ).j.( #X#X(._.).5XV ) ) T.7XZ ) ) V N.Z C.].).^.eXT.T._._.).5X7XZ S N.A #X4XN.].4XiXT.T.#XK.#X5XeX].n.iXmXmX].oXS N.A N #XT.C ) ~.,XBXT.T.yXNXMXMXMXMXMXMXMXMXMXMXMXNXmXqXNXMXMXNXyXdXdXrXtXrXsX,X$.@.g.sXrXrXrXtXzX8X( ( ( ( ( ( ( 5XDX8XC B B B B B B _.DXtXN.) ) ) ) ) ) #XAXzXzXzXzXzXzXzXzXzXzXzXzXzXzXzX",
"Y.Y.Y.Y.Y.Y.Y.Y.Y.T.Y.Y.Y.Y.Y.Y.U.[ P.P.P.P.P.A.S.P.U.] / m.m.A.A.A.P.P.m.U.S ] E.W.I ` D.D.D.D.D.D.D.I.{ I B.B.B.D.D.D.D.B.D.{ B.E.E.E.E.E.E.E.E.J.E.E.E.E.E.E.I.I.K.s.J.J.J.G.J.J.J.R.J.i.0.z.d.d.H.R.H.J.^./.Q R.s.OX#X].(.).(.#XN.) T.(.4X( n.) ) N.A n./.4X_.].iX].(.(.(.#X2XA S N.T.5X#X4X4X#X5XT.T._.K./.].4X4XoX4XrX8X).'.S N._.N.].N.C S e.u.`.V C 5XBXMXMXMXMXMXMXMXMXMXMXMXNXmXqXNXMXMXNXyXdXdXrXtXrXsX,X$.@.g.sXrXrXrXtXzX8X( A ( ( ( ( ( 5XDX8XC B B B B B B _.DXtXN.) ) ) ) ) ) ].AXtX8XeXiXiXiXiXiXiXiXiXiXiXiXiX",
"Y.Y.Y.Y.Y.Y.Y.Y.Y.T.Y.Y.Y.Y.Y.`.Z.] P.P.P.P.P.A.S.P.U.] / m.m.A.A.A.P.P.A.P.) S E.D.I n.D.D.D.D.D.D.D.I.{ I B.B.B.D.D.D.D.B.C.Z.' E.E.E.E.E.E.E.E.J.E.E.E.E.E.E.I.I.d.d.J.J.J.G.J.J.J.R.J.i.0.d.d.d.H.J.G.J.R.R.p.V.y.2X#X_.(.(.(.4X].) 7X#X#X( n.M.#X(.) N./.].)._.4X_.(.(.(._.'.( S N.4X7X_.].#X#X]._._.(.K.^._.#X#X].oX#X4X(./.T.N.qX7XN.N.Z C e.n ) S C #XBXMXNXMXMXMXMXMXMXMXMXMXNXmXqXNXMXMXNXyXdXdXrXtXrXsX,X$.@.g.sXrXrXrXtXzX8X( A ( ( ( ( ( 5XDX8XC B B B B B B _.DXtXN.) ) ) ) ) ) ].AXtXgX>.+.+.+.+.+.+.+.+.+.+.+.+.",
"Y.Y.Y.Y.Y.Y.Y.Y.Y.T.Y.Y.Y.Y.Y.Y.] m.S.P.P.P.P.A.S.P.U.] / m.m.A.A.A.P.P.A.S.S.C P.{ E n.D.D.D.D.D.D.D.I.{ I B.B.B.D.D.D.D.B.B.D.' I.E.E.E.E.E.E.E.J.E.E.E.E.E.E.I.I.s.H.J.J.J.G.J.J.J.J.H.i.0.d.p.d.H.J.G.J.R.H.H.p.e.oX_.).(.(.(.#X).n.#X_.].) N.#XyX_.).^.^.).(.(.#X).(.(.(.).^.N.M.N.#X#X)._./.(._.(.(.(.K.^._.)._.]./.).#X(.^.#X[.OXjXT.( n.N w.n C S C #XCXmXeXmXMXMXMXMXMXMXMXMXNXmXqXNXMXMXNXyXdXdXrXtXrXsX,X$.@.g.sXrXrXrXtXzX8X( ( ( ( ( ( ( 5XDX8XC B B B B B B _.DXtXN.) ) ) ) ) ) #XAXtXgX=.> : : : : : : : : : : : ",
"Y.Y.Y.Y.Y.Y.Y.Y.Y.T.Y.Y.Y.Y.[.S.] A.S.P.P.P.P.A.S.P.U.] / m.m.A.A.A.P.P.A.A.U.S ) { Q ` D.D.D.D.D.D.D.I.{ I B.B.B.D.D.D.D.B.B.I.{ B.E.E.E.E.E.E.E.J.E.E.E.E.E.E.E.G.s.J.J.J.J.G.J.J.J.J.H.i.0.d.p.d.H.J.G.J.R.G.J.p.W ].(.(.(.(.(.#X#X]._._._.n.T.4X4X(.].^.^.(.(.(.].(.(.(.(.(.^.#X#X(.].#X(.).^.!.).(.(.(.K.!.(.(.)././.)._.(.K.7X5X+XiX].n.!.S ( n C Z ) T.5XNXN.iXNXMXMXMXMXMXMXMXNXmXqXNXMXMXNXyXdXdXrXtXrXsX,X$.@.g.sXrXrXrXtXzX8X( A ( ( ( ( ( 5XDX8XC B B B B B B _.DXtXN.) ) ) ) ) ) ].AXtXgX-., : , , , , o.o.o., , o.",
"Y.Y.Y.Y.Y.Y.Y.Y.Y.T.Y.Y.Y.Y.`.] m.A.S.P.P.P.P.A.S.P.U.] / m.m.A.A.A.P.P.A.S.U.) C B._ ` D.D.D.D.D.D.D.I.{ I B.B.B.D.D.D.D.B.B.D.Z.' E.E.E.E.E.E.E.J.E.E.E.E.E.E.E.p.d.J.J.J.J.G.J.J.J.J.H.i.0.d.p.d.H.J.G.J.J.V.J.V.! /.(.(.(.(.(.].#X#X(.(.(.).(._.#X(._.^.^.(.(.(.).(.(.(.(.(.!.].].(.(.).(.(.^.^.(.(.(.(.K.!.(.(.)././.).(.(.K.#X#X/.#XiX4XOX) ( ( S Z _.C A mXn.eXBXNXMXMXMXMXMXMXNXmXqXNXMXMXNXyXdXdXrXtXrXsX,X$.@.g.sXrXrXrXtXzX8X( ( ( ( ( ( ( 5XDX8X/ B B B B B B _.DXtXN.) ) ) ) ) ) #XAXtXgX=., : *.o., : , , o.o.o.o.",
"Y.Y.Y.Y.Y.Y.Y.Y.Y.T.Y.Y.Y.Y.Y.] S.A.S.P.P.P.P.A.S.P.U.] / m.m.A.A.A.P.P.A.S.P.S.l B.' ` D.D.D.D.D.D.D.I.{ I B.B.B.D.D.D.D.B.B.D.D.' I.E.E.E.E.E.E.J.E.E.E.E.E.E.E.y.H.J.J.J.J.G.J.J.J.J.H.i.0.d.p.d.H.J.G.J.J.G.J.J.! K.(.(.(.(.(._.]._.(.(.(.(.(._._.(.).!.^.(.(.(.(.(.(.(.(.(.!._._.(.(.(.(.(.K.^.(.(.(.(.K.!.(.(.).(./.(.(.(.K.#X_.^._.8X7X%X) V T.iXN.[.V Z jX) 5XBXyXMXMXMXMXMXMXNXmXqXNXMXMXNXyXdXdXrXtXrXsX,X$.@.g.sXrXrXrXtXzX8X( A A A A A A #XDX8XC B B B B B B _.DXtXn.A ( ( ( ( A ].DXtXgX,., , o.o.o., , , , o., o.",
"Y.Y.Y.Y.Y.Y.Y.Y.Y.T.Y.Y.Y.[.S.] U.m.S.P.P.P.P.A.S.P.U.] / m.m.A.A.A.P.P.A.S.P.D.l ] Q ` D.D.D.D.D.D.D.I.{ I B.B.B.D.D.D.D.B.B.D.D.{ B.E.E.E.E.E.E.J.E.E.E.E.E.W.J.i.R.J.J.J.J.G.J.J.J.J.H.i.0.d.p.d.H.J.G.J.J.G.H.R.! H.).(.(.(.(.)._._.(.(.(.(.(._.(.(.(.K.^.(.(.(.(.(.(.(.(.(.K./.).(.(.(.(.(.K.^.(.(.(.(.K.!.(.(.(.^.^.(.(.(.K.).(.K.^.#X4X/.T.V z.uX#XE.V A N.V 5XBXT.yXNXMXMXMXMXNXmXqXNXMXMXNXyXdXdXrXtXrXsX,X$.@.g.sXrXrXrXtXAX7Xn v v v v v v #XDX8Xz l l l l l l _.DXtXA z z z z z z ).DXtXgX,., : : : , , : : : : : , ",
"Y.Y.Y.Y.Y.Y.Y.Y.Y.T.Y.Y.Y.`.m.m.U.m.S.P.P.P.P.A.S.P.U.] / m.m.A.A.A.P.P.A.S.U.B.z Z Q ' D.D.D.D.D.D.D.I.{ I B.B.B.D.D.D.D.B.B.D.D.Z.` E.E.E.E.E.E.J.E.E.E.E.E.W.d.p.R.J.J.J.J.G.J.J.J.J.H.i.0.d.p.d.H.J.G.J.J.G.H.R.! p.).(.(.(.(.)._.(.(.(.(.(.(.).(.(.(.K.^.(.(.(.(.(.(.(.(.(.K.^.).(.(.(.(.(.K.^.(.(.(.(.K.!.(.(.(.^.!.(.(.(.K.(.(.K.^.)./.^.5Xn s.@X_.T.N.A.C C 5XCXM.7XBXMXMXMXMXNXmXqXNXMXMXNXyXdXdXrXtXrXsX,X$.@.g.sXrXrXrXtXAX7Xn v v v v v v #XDX8Xz l l l l l l _.DXtX( V V V V V V _.DXtXgX=.o., , , , , , , , , , , ",
"Y.Y.Y.Y.Y.Y.Y.Y.Y.T.Y.Y.Y.Y.] S.P.A.S.P.P.P.P.A.S.S.U.] / m.m.A.A.A.P.P.A.A.U._ _ C Q ` D.D.D.D.D.D.D.I.{ I B.B.B.D.D.D.D.B.B.D.D.D.' I.E.E.E.E.E.J.E.E.E.E.E.E.i.p.J.J.J.J.J.G.J.J.J.J.H.i.0.d.p.d.H.H.G.J.J.G.H.R.W Q (.(.(.(.(.(.(.(.(.(.(.(.(.(.(.(.(.K.^.(.(.(.(.(.(.(.(.(.K.^.(.(.(.(.(.(.K.^.(.(.(.(.K.!.(.(.(.!.K.(.(.(.K.(.(.K.^.(.K.^.#Xz.s.].).T.N.T.) S N.eX) N.BXmXMXMXMXMXmXqXNXMXMXNXyXdXdXrXtXrXsX,X$.@.g.sXrXrXrXtXAX7Xn v v v v v v #XDX8Xz l l l l l l _.DXtXA V V V V V z ).DXtXtX>X:X:X:X:X:X:X:X:X:X:X:X:X",
"Y.Y.Y.Y.Y.Y.Y.Y.{.T.Y.Y.{.U.] U.P.A.S.P.P.P.P.A.S.P.U.] / m.A.S.S.A.P.P.A.S.S.E B.S z B.I.D.D.D.D.D.D.I.{ I B.B.B.D.D.D.D.D.B.D.D.I.{ Z.W.E.E.E.E.J.E.E.E.E.W.K.s.H.R.J.J.J.J.G.J.J.J.J.H.i.0.d.p.d.J.J.G.R.R.G.J.R.w.Q J.).(.(.(.(.(.(.(.(.(.(.(.(.(.(.).K.^.).(.(.(.(.(.(.(.).K.^.).(.(.(.(.).!.^.).(.(.).^.^.).(.).^.^.).(.(.K.(.).K.(.).^.^.#XXXd.].(.E.T.5X5XA C ].) n.CXNXNXNXNXNXmXqXBXNXNXBXjXdXdXrXtXrXsX,X$.@.g.sXrXrXrXtXAX7Xn v v v v v v #XDX8Xz l l l l l l _.DXtXA V V V V V z ).DXdXtXsXfXfXfXfXfXfXfXfXfXfXfXfX",
"U.U.U.U.U.U.U.U.U.S.T.U.Y.] ] S.A.m.A.A.A.A.A.m.m.A.P.[ / m.m.m.m.m.A.A.m.A.` E n.[ l ` D.B.B.B.B.B.B.D.' I { { B.B.B.B.B.B.B.B.B.C.{ ' I.I.I.I.I.C.I.I.I.I.I.d.i.V.H.G.G.G.H.p.G.G.G.G.V.q.0.p.e.p.G.G.p.H.H.p.G.H.W Q p.^.K.K.K.K.K.K.K.K.K.K.K.K.K.K.!.L.K.K.K.K.K.K.K.K.K.!.L.K.!.K.K.K.K.!.L.K.!.K.K.!.L.L.!.K.!.L.L.!.K.K.L.K.!.L.K.!.K.L._.l.y.(.K.^./.OXjXL.V ) S n.iXeXjXyXyXyXqXwXjXyXyXyXqXdXuXrXtXrXsX,X$.@.g.sXrXrXrXtXAX7Xn v v v v v v #XDX8Xz l l l l l l _.DXtXA V V V V V z _.DXzXzXzXzXzXzXzXzXzXzXzXzXzXzXzX",
"U.U.U.U.U.U.U.U.Y.T.U.Y.U.] A.S.S.m.A.S.S.S.S.m.A.S.P.[ / m.m.m.m.m.S.S.m.A._ ' ` m.l ' D.B.B.B.B.B.B.D.' I B.{ B.B.B.B.D.B.B.D.B.B.D.[ D.I.I.I.I.C.I.I.I.I.I.i.d.V.H.H.H.H.H.p.H.H.H.H.V.q.0.d.p.d.G.G.p.H.H.p.G.J.W p.Q K.^.^.^.^.^.^.^.^.^.^.^.^.^.^.^.L.K.^.^.^.^.^.^.^.^.^.K.K.^.^.^.^.^.^.K.K.^.^.^.^.K.K.^.^.^.K.K.^.^.!.L.^.^.L.K.^.K.L._.d.e.(.K.^./.].7X_.n.S C N.!.).ZXyXjXjXqXwXmXjXjXmXyXdXdXrXtXrXsX,X$.@.g.sXrXrXrXtXAX7Xn v v v v v v #XDX8Xz l l l l l l _.DXtXA V V V V V z ).DX7XoX2XOXOXOXOXOXOX2XOXOXOXOX2X",
"Y.Y.Y.Y.Y.Y.Y.Y.{.T.Y.{.U.] U.P.P.A.S.P.P.P.P.A.S.P.U.] / m.A.S.S.A.P.P.A.A._ Z.` D.C ] I.D.D.D.D.D.D.I.{ I B.B.B.D.D.D.D.D.B.D.D.D.I.{ Z.W.E.E.E.J.E.E.E.W.K.s.J.G.R.J.J.J.J.G.J.J.J.J.H.i.0.d.p.d.J.J.G.R.J.G.J.R.W H.p.J.).(.(.(.(.(.(.(.(.(.(.(.(.(.).K.^.(.(.(.(.(.(.(.(.).K.^.(.(.(.(.(.).!.^.).(.(.).^.^.).(.).^.^.).(.(.K.(.(.K.(.).^.K.#XL.e._.(.)._.].#X#X7XN.C M.[.].CXMXNXNXmXqXBXNXNXNXjXdXdXrXtXrXsX,X$.@.g.sXrXrXrXtXAX7Xn v v v v v v #XDX8Xz l l l l l l _.DXtXA V V V V V z ).DX7X+XoXoXXXOXOXoXOXc.oXoXOXoX+X",
"Y.Y.Y.Y.Y.Y.Y.Y.Y.T.Y.{.m.m.U.S.P.A.S.P.P.P.P.A.S.S.U.] / m.m.A.A.A.P.P.S.` _ Z.` D./ C I.D.D.D.D.D.D.I.{ I B.B.B.D.D.D.D.B.B.D.D.D.D.Z.' E.E.E.E.J.E.E.E.W.d.d.J.G.J.J.J.J.J.G.J.J.J.J.H.i.0.d.p.d.H.H.G.J.J.G.H.R.W H.V.p.).(.(.(.(.(.(.(.(.(.(.(.(.(.(.K.^.(.(.(.(.(.(.(.(.(.K.^.(.(.(.(.(.(.K.^.(.(.(.(.K.!.(.(.(.!.K.(.(.(.K.(.(.K.^.(.^.K._.G.e._.(.(.).).].].7X5XC ) N._.BXmXMXNXmXqXNXMXMXNXyXdXdXrXtXrXsX,X$.@.g.sXrXrXrXtXAX7Xn v v v v v v #XDX8Xz l l l l l l _.DXtXA V V V V V z ).DX7XXXOX5.c.z.z.'.z.i.z.+Xz.z.z.",
"Y.Y.Y.Y.Y.Y.Y.Y.Y.T.Y.Y.] S.P.P.P.A.S.P.P.P.P.A.S.P.U.] / m.m.A.A.A.P.P.S.E ` Z.` F._ B D.D.D.D.D.D.D.I.{ I B.B.B.D.D.D.D.B.B.D.D.D.D.D.' I.E.E.E.J.E.E.E.E.s.H.H.G.J.J.J.J.J.G.J.J.J.J.H.i.0.d.p.d.H.J.G.J.J.G.H.R.W G.J.Q (.(.(.(.(.(.(.(.(.(.(.(.(.(.(.K.^.(.(.(.(.(.(.(.(.(.K.^.(.(.(.(.(.(.K.^.(.(.(.(.K.!.(.(.(.!.K.(.(.(.K.(.(.K.^.(.^.K._.G.e._.(.(.).(._._.#X].S n.S _.CXMXMXNXmXqXNXMXMXNXyXdXdXrXtXrXsX,X$.@.g.sXrXrXrXtXAX7Xn v v v v v v #XDX8Xz l l l l l l _.DXtXA V V V V V z ).DX4XoXc.R i.q.q.l.T 5.q.i.5.i.i.",
"Y.Y.Y.Y.Y.Y.Y.Y.Y.T.Y.U.] P.S.P.P.A.S.P.P.P.P.A.S.P.U.] / m.m.A.A.A.P.P.m.E Z.Z.` F._ B ] I.D.D.D.D.D.I.{ I B.B.B.D.D.D.D.B.B.D.D.D.D.I.{ B.E.E.E.J.E.E.W.K.s.R.H.G.J.J.J.J.J.G.J.J.J.J.H.i.0.d.p.d.H.J.G.J.J.G.H.R.W G.R.Q J.).(.(.(.(.(.(.(.(.(.(.(.(.(.K.^.(.(.(.(.(.(.(.(.(.K.^.(.(.(.(.(.(.K.^.(.(.(.(.K.!.(.(.(.!.K.(.(.(.K.(.(.K.^.(.^.K._.G.e._.(.(.).(.(.)._._.V T.V ).NXyXNXNXmXqXNXMXMXNXyXdXdXrXtXrXsX,X$.@.g.sXrXrXrXtXAX7Xn v v v v v v #XDX8Xz l l l l l l _.DXtXA V V V V V z ).DX4XOXs.s.T s.s.T T q.s.T z.T i.",
"Y.Y.Y.Y.Y.Y.Y.Y.Y.T.Y.m.m.U.S.P.P.A.S.P.P.P.P.A.S.P.U.] / m.m.A.A.A.P.U.` _ F.Z.` F._ S Z I.D.D.D.D.D.I.{ I B.B.B.D.D.D.D.B.B.D.D.D.D.D.Z.' E.E.E.J.E.E.W.d.d.R.H.G.J.J.J.J.J.G.J.J.J.J.H.i.0.d.p.d.H.J.G.J.J.G.H.R.W G.R.p.p.).(.(.(.(.(.(.(.(.(.(.(.(.(.K.^.(.(.(.(.(.(.(.(.(.K.^.(.(.(.(.(.(.K.^.(.(.(.(.K.!.(.(.(.!.K.(.(.(.K.(.(.K.^.(.^.K._.G.e._.(.(.(.(.(.(.).).n.).V T.[.].CXMXmXqXNXMXMXNXyXdXdXrXtXrXsX,X$.@.g.sXrXrXrXtXAX7Xn v v v v v v #XDX8Xz l l l l l l _.DXtXA V V V V V z ).DX4XXX+XOX'.'.+Xc.z.+Xi.l.'.z.+X",
"Y.Y.Y.Y.Y.Y.Y.Y.Y.T.Y.] S.P.P.P.P.A.S.P.P.P.P.A.S.P.U.] / m.m.A.A.A.P.U._ ' F.Z.` F._ _ C D.D.D.D.D.D.I.{ I B.B.B.D.D.D.D.B.B.D.D.D.D.D.D.' I.E.E.J.E.E.E.s.H.J.H.G.J.J.J.J.J.G.J.J.J.J.H.i.0.d.p.d.H.J.G.J.J.G.H.R.W G.R.H.Q (.(.(.(.(.(.(.(.(.(.(.(.(.(.K.^.(.(.(.(.(.(.(.(.(.K.^.(.(.(.(.(.(.K.^.(.(.(.(.K.!.(.(.(.!.K.(.(.(.K.(.(.K.^.(.^.K._.G.e._.(.(.(.(.(.(.(.]._._.S S Z ].CXMXmXqXNXMXMXNXyXdXdXrXtXrXsX,X$.@.g.sXrXrXrXtXAX7Xn v v v v v v #XDX8Xz l l l l l l _.DXtXA V V V V V z ).DX7XOX2XOX2X2X2X2X2X2X'.2X2X2X2X",
"Y.Y.Y.Y.Y.Y.Y.Y.Y.T.P.] P.S.P.P.P.A.S.P.P.P.P.A.S.P.U.] / m.m.A.A.A.P.S.E m.Z.Z.` F._ ' C ] I.D.D.D.D.I.{ I B.B.B.D.D.D.D.B.B.D.D.D.D.D.I.` Z.E.E.J.E.W.K.s.J.J.H.G.J.J.J.J.J.G.J.J.J.J.H.i.0.d.p.d.H.J.G.J.J.G.H.R.W G.J.K.Q J.).(.(.(.(.(.(.(.(.(.(.(.(.K.^.(.(.(.(.(.(.(.(.(.K.^.(.(.(.(.(.(.K.^.(.(.(.(.K.!.(.(.(.!.K.(.(.(.K.(.(.K.^.(.^.K._.G.e._.(.(.(.(.(.(.(.].).(.Z V C ].BXMXmXqXNXMXMXNXyXdXdXrXtXrXsX,X$.@.g.sXrXrXrXtXAX7Xn v v v v v v #XDX8Xz l l l l l l _.DXtXA V V V V V z ).DXuXrXtXtXtXtXtXtXrXtXtXtXtXrXtX",
"Y.Y.Y.Y.Y.Y.Y.Y.Y.T.m.m.U.S.P.P.P.A.S.P.P.P.P.A.S.P.U.] / m.m.A.A.A.U.B.E Z.Z.Z.` F._ ` [ S I.D.D.D.D.I.{ I B.B.B.D.D.D.D.B.B.D.D.D.D.D.D.B.' E.E.J.E.W.d.d.J.J.H.G.J.J.J.J.J.G.J.J.J.J.H.i.0.d.p.d.H.J.G.J.J.G.H.R.W G.J.K.p.p.).(.(.(.(.(.(.(.(.(.(.(.(.K.^.(.(.(.(.(.(.(.(.(.K.^.(.(.(.(.(.(.K.^.(.(.(.(.K.!.(.(.(.!.K.(.(.(.K.(.(.K.^.(.^.K._.G.e._.(.(.(.(.(.(.(._.(.).Z Z Z ).BXMXmXqXNXMXMXNXyXdXdXrXtXrXsX,X$.@.g.sXrXrXrXtXAX7Xn v v v v v v #XDX8Xz l l l l l l _.DXtXA V V V V V z ).DXtXrXrX8XrX8X8X8XrXrXrXrXrXrXrX",
"Y.Y.Y.Y.Y.Y.Y.Y.Y.T.] S.P.P.P.P.P.A.S.P.P.P.P.A.S.P.U.] / m.m.A.A.A.U.' ' Z.Z.Z.` F._ ' m.C D.D.D.D.D.I.{ I B.B.B.D.D.D.D.B.B.D.D.D.D.D.D.D.' I.E.J.E.E.s.H.J.J.H.G.J.J.J.J.J.G.J.J.J.J.H.i.0.d.p.d.H.J.G.J.J.G.H.R.W G.J.J.H.Q (.(.(.(.(.(.(.(.(.(.(.(.(.K.^.(.(.(.(.(.(.(.(.(.K.^.(.(.(.(.(.(.K.^.(.(.(.(.K.!.(.(.(.!.K.(.(.(.K.(.(.K.^.(.^.K._.G.e._.(.(.(.(.(.(.(._.(.).Z n.].[.CXMXmXqXNXMXMXNXyXdXdXrXtXrXsX,X$.@.g.sXrXrXrXtXAX7Xn v v v v v v #XDX8Xz l l l l l l _.DXtXA V V V V V z ).DXuX8XuXdXuXdXdXzXtXuXtX8XrXrXrX",
"Y.Y.Y.Y.Y.Y.Y.Y.{.A.] U.S.P.P.P.P.A.S.P.P.P.P.A.S.P.U.] / m.m.A.A.A.S.E ` m.Z.Z.` F._ _ D.C ] I.D.D.D.I.{ I B.B.B.D.D.D.D.B.B.D.D.D.D.D.D.I.' Z.E.J.W.K.s.J.J.J.H.G.J.J.J.J.J.G.J.J.J.J.H.i.0.d.p.d.H.J.G.J.J.G.H.R.W G.J.J.K.Q K.(.(.(.(.(.(.(.(.(.(.(.(.K.^.(.(.(.(.(.(.(.(.(.K.^.(.(.(.(.(.(.K.^.(.(.(.(.K.!.(.(.(.!.K.(.(.(.K.(.(.K.^.(.^.K._.G.e._.(.(.(.(.(.(.(.).(.).Z n.#X[.BXMXmXqXNXMXMXNXyXdXdXrXtXrXsX,X$.@.g.sXrXrXrXtXAX7Xn v v v v v v #XDX8Xz l l l l l l _.DXtXA V V V V V z ).DXtXtXoXc.oXc.c.z.7XXX4XzXtXrXtX",
"Y.Y.Y.Y.Y.Y.Y.Y.{.] ] U.S.P.P.P.P.A.S.P.P.P.P.A.S.P.U.] / m.m.A.A.S.B._ m.m.Z.Z.` F._ _ D./ S I.D.D.D.I.{ I B.B.B.D.D.D.D.B.B.D.D.D.D.D.D.D.B.' E.J.W.d.d.J.J.J.H.G.J.J.J.J.J.G.J.J.J.J.H.i.0.d.p.d.H.J.G.J.J.G.H.R.W G.J.J.R.p.p.).(.(.(.(.(.(.(.(.(.(.(.K.^.(.(.(.(.(.(.(.(.(.K.^.(.(.(.(.(.(.K.^.(.(.(.(.K.!.(.(.(.!.K.(.(.(.K.(.(.K.^.(.^.K._.G.e._.(.(.(.(.(.(.(.(.(.).) T.].[.BXMXmXqXNXMXMXNXyXdXdXrXtXrXsX,X$.@.g.sXrXrXrXtXAX7Xn v v v v v v #XDX8Xz l l l l l l _.DXtXA V V V V V z ).DXtXdX5.l.5.l.s.T dXq.l.i.'.uXrX",
"Y.Y.Y.Y.Y.Y.Y.Y.Y.[ A.P.S.S.S.S.P.m.S.P.S.S.P.m.S.S.U.[ / m.m.A.A.A._ ` m.n.Z.m.` F._ _ F.] C D.D.D.D.D.` I B.B.B.D.D.D.D.B.B.D.D.D.D.D.D.D.D.' I.J.W.s.d.J.J.J.H.G.J.J.J.J.J.V.J.J.J.J.H.i.0.d.p.d.H.H.V.J.J.V.H.R.W G.J.J.J.H.Q (.(.(.(.(.(.(.(.(.(.(.(.K.^.(.(.(.(.(.(.(.(.(.K.^.(.(.(.(.(.(.K.!.(.(.(.(.K.K.(.(.(.K.K.(.(.^.K.(.(.K.^.(.!.K.).G.e.).^.(.(.(.(.(.(.(.(.(.#X#X(.T.BXMXmXqXMXmXmXMXyXdXdXrXtXrXsX,X$.@.g.sXrXrXrXtXAX7Xn v v v v v v #XDX8Xz l l l l l l _.DXtXA V V V V V z ).DXtXdXT l.5.f.oXs.SXl.q.i.i.uX8X",
"{.{.{.{.{.{.{.{.U.[ U.U.U.U.U.U.U.S.P.U.U.U.U.S.P.U.Y.] / A.A.S.S.A._ Z.Z.Z.F.Z.n.S._ ' F.D.C ] I.D.D.I.{ I B.B.D.D.D.D.I.D.D.I.D.D.D.D.D.D.I.{ D.E.E.s.R.R.R.R.J.H.R.R.R.R.R.H.R.R.R.R.J.i.0.H.p.H.R.J.H.R.R.H.J.R.W H.R.R.R.R.p.R._.).).).).).).).).)._.^.(.).).).).).).).)._.^.(._.).).).)._.^.(._.).)._.^.(._.)._.(.^._.).).!.)._.^.(._.(.^._.L.e._.).).).).).).).).)._.#X#X(.T.CXBXNXjXBXBXBXBXjXdXdXrXtXrXsX,X$.@.g.sXrXrXrXtXAX7Xn v v v v v v #XDX8Xz l l l l l l _.DXtXA V V V V V z ).DXtXtXs.tXs.rXoXl.zXi.i.'.l.tXrX",
"n._ _ _ _ _ _ n./ E ( ( ( ( ( ( _ E ( _ ( ( _ E E ( _ E z E E E ( E I E E E E E E E n E E E z V Q E E Q ! I ! ! E E E E Q ! ! Q E E E E E E Q E E Q W T W W W W W W W W W W W W W W W W W T J W T W W W W W W W W W R W W W W W ! W e.w.w.w.w.w.w.w.w.w.w.u.w.w.w.w.w.w.w.w.w.w.u.w.w.w.w.w.w.w.u.w.w.w.w.w.u.u.w.w.w.w.u.w.w.w.u.w.w.u.w.w.w.u.e.W ! e.w.w.w.w.w.w.w.w.w.w.e.e.w.e.v.v.v.v.v.v.v.v.3XzXuXrXtXrXsX,X$.@.g.sXrXrXrXtXAX7Xn v v v v v v #XDX8Xz l l l l l l _.DXtXA V V V V V z ).DXuXrXtXrXtXrXtXtXrX8XrXtXtXrXrX",
"U.T.T.T.T.T.T.T.] ` A.A.A.A.A.A.A.m.m.A.A.A.S.m.m.A.P.[ / m.m.m.m.E ' m.' ` m.` ' Z.E _ Z.n.] C B.B.B.D.' I { { B.B.B.B.B.B.B.B.B.B.B.B.B.B.B.B.[ C.i.d.H.G.G.H.G.p.H.G.H.G.H.p.G.H.G.G.V.q.0.d.w.p.G.G.p.H.H.p.G.J.W p.H.G.G.H.V.Q !.K.K.K.K.K.K.K.K.K.^.L.K.!.K.K.K.K.K.K.K.^.L.K.^.K.K.K.K.^.L.L.^.K.K.^.L.L.^.K.^.L.L.^.K.K.L.!.^.L.K.^.K.L.(.p.e.(.K.K.K.K.K.K.K.K.K.!.^./.K.( iXjXqX6XjXqXyXjXqXdXuXrXtXrXsX,X$.@.g.sXrXrXrXtXAX7Xn v v v v v v #XDX8Xz l l l l l l _.DXtXA V V V V V z ).DXuXrXrXrXrXrXrXrXrXtXtXrXrXrXrX",
"{.Y.Y.Y.Y.Y.{.U.] A.S.P.P.P.P.P.U.A.S.P.P.P.U.A.S.P.U.] / m.A.S.S.E Z.F.n.Z.Z.Z.` F._ ' F.Z.D.C ] I.D.I.{ I B.B.B.D.D.D.D.D.B.D.D.D.D.D.D.D.D.I.{ n.s.J.J.J.J.R.J.H.R.J.J.J.R.G.J.J.J.J.J.i.0.d.p.d.J.J.G.R.R.G.J.R.W H.R.J.J.J.R.Q R.).(.(.(.(.(.(.(.(.).K.(.).(.(.(.(.(.(.(.).!.^.).(.(.(.(.).^.^.).(.(.).^.^.).(.).^.^.).(.(.K.(.).K.(.).^.K._.L.e._.(.(.(.(.(.(.(.(.(.(.).).].M.uXBXmXyXBXNXNXBXjXdXdXrXtXrXsX,X$.@.g.sXrXrXrXtXAX7Xn v v v v v v #XDX8Xz l l l l l l _.DXtXA V V V V V z ).DXtX8XrXrXrXrXrXrXrXrXrXrXrXrXrX",
"Y.Y.Y.Y.Y.Y.`.A.] A.S.P.P.P.P.P.P.A.S.P.P.P.P.A.S.S.U.] / m.m.S.` E A.Z.` m.Z.Z.` F._ _ F.Z.D./ / I.D.I.{ I B.B.B.D.D.D.D.B.B.D.D.D.D.D.D.D.D.D.Z.! d.J.J.J.J.J.H.G.J.J.J.J.J.G.J.J.J.J.H.i.0.d.p.d.H.J.G.J.J.G.H.R.W G.J.J.J.J.R.p.V.).(.(.(.(.(.(.(.(.(.K.^.(.(.(.(.(.(.(.(.(.K.^.(.(.(.(.(.(.K.^.(.(.(.(.K.!.(.(.(.!.K.(.(.(.K.(.(.K.^.(.^.K._.G.e._.(.(.(.(.(.(.(.(.(.(.(.(.].N.).BXmXqXNXMXMXNXyXdXdXrXtXrXsX,X$.@.g.sXrXrXrXtXAX7Xn v v v v v v #XDX8Xz l l l l l l _.DXtXA V V V V V z _.DXzXzXzXzXzXzXzXzXzXzXzXzXzXzXzX",
"Y.Y.Y.Y.Y.Y.Y.] F.A.S.P.P.P.P.P.P.A.S.P.P.P.P.A.S.P.U.] / m.m.S._ _ F.Z.` m.Z.Z.` F._ _ F.Z.Z.] C D.D.I.{ I B.B.B.D.D.D.D.B.B.D.D.D.D.D.D.D.D.D.D.W d.J.J.J.J.J.H.G.J.J.J.J.J.G.J.J.J.J.H.i.0.d.p.d.H.J.G.J.J.G.H.R.W G.J.J.J.J.J.H.p.(.(.(.(.(.(.(.(.(.(.K.^.(.(.(.(.(.(.(.(.(.K.^.(.(.(.(.(.(.K.^.(.(.(.(.K.!.(.(.(.!.K.(.(.(.K.(.(.K.^.(.^.K._.G.e._.(.(.(.(.(.(.(.(.(.(.(.(.].N.) CXjXqXNXMXMXNXyXdXdXrXtXrXsX,X$.@.g.sXrXrXrXtXAX7Xn v v v v v v #XDX8Xz l l l l l l _.DXtXA V V V V V z _.DXdXuXdXdXdXdXdXdXdXdXdXdXdXdXdX",
"Y.Y.Y.Y.Y.Y.U.] P.m.S.P.P.P.P.P.P.A.S.P.P.P.P.A.S.P.U.] / m.m.A.E ` Z.Z.` m.Z.Z.` F._ _ F.Z.Z.F.C ] D.I.{ I B.B.B.D.D.D.D.B.B.D.D.D.D.D.D.D.D.D.D.W V.R.J.J.J.J.H.G.J.J.J.J.J.G.J.J.J.J.H.i.0.d.p.d.H.J.G.J.J.G.H.R.W G.J.J.J.J.J.J.Q K.(.(.(.(.(.(.(.(.(.K.^.(.(.(.(.(.(.(.(.(.K.^.(.(.(.(.(.(.K.^.(.(.(.(.K.!.(.(.(.!.K.(.(.(.K.(.(.K.^.(.^.K._.G.e._.(.(.(.(.(.(.(.(.(.(.(.(._.N.) BXmXqXNXMXMXNXyXdXdXrXtXrXsX,X$.@.g.sXrXrXrXtXAX7Xn v v v v v v #XDX8Xz l l l l l l _.DXtXA V V V V V z ).DXtX8XrXrXrXrXrXrXrXrXrXrXrXrXrX",
"Y.Y.Y.Y.Y.`.A.] U.m.S.P.P.P.P.P.P.A.S.P.P.P.P.A.S.P.U.] / m.A.` E n.Z.Z.` m.Z.Z.` F._ _ F.Z.Z.D./ / I.D.{ I B.B.B.D.D.D.D.B.B.D.D.D.D.D.D.D.D.D.p.W ` R.J.J.J.J.H.G.J.J.J.J.J.G.J.J.J.J.H.i.0.d.p.d.H.J.G.J.J.G.H.R.W G.J.J.J.J.J.R.p.V.).(.(.(.(.(.(.(.(.K.^.(.(.(.(.(.(.(.(.(.K.^.(.(.(.(.(.(.K.^.(.(.(.(.K.!.(.(.(.!.K.(.(.(.K.(.(.K.^.(.^.K._.G.e._.(.(.(.(.(.(.(.(.(.(.(.(.(.].N.MXmXqXNXMXMXNXyXdXdXrXtXrXsX,X$.@.g.sXrXrXrXtXAX7Xn v v v v v v #XDX8Xz l l l l l l _.DXtXA V V V V V z ).DXuXrXrXrXrXrXrX8XrXrXrXrX8XrXtX",
"Y.Y.Y.Y.Y.Y.] A.U.m.S.P.P.P.P.P.P.A.S.P.P.P.P.A.S.P.U.] / m.A._ _ n.Z.Z.` m.Z.Z.` F._ _ F.Z.Z.Z.] C D.I.{ I B.B.B.D.D.D.D.B.B.D.D.D.D.D.D.D.D.D.q.w._ H.J.J.J.J.H.G.J.J.J.J.J.G.J.J.J.J.H.i.0.d.p.d.H.J.G.J.J.G.H.R.W G.J.J.J.J.J.J.G.Q (.(.(.(.(.(.(.(.(.K.^.(.(.(.(.(.(.(.(.(.K.^.(.(.(.(.(.(.K.^.(.(.(.(.K.!.(.(.(.!.K.(.(.(.K.(.(.K.^.(.^.K._.G.e._.(.(.(.(.(.(.(.(.(.(.(.(.(.#XN.MXmXqXNXMXMXNXyXdXdXrXtXrXsX,X$.@.g.sXrXrXrXtXAX7Xn v v v v v v #XDX8Xz l l l l l l _.DXtXA V V V V V z ).DXuX8XdXuXuXuXdXzXtXuXuXtXzXtXrX",
"Y.Y.Y.Y.Y.U.] P.P.m.S.P.P.P.P.P.P.A.S.P.P.P.P.A.S.P.U.] / m.m.E ` ` Z.Z.` m.Z.Z.` F._ _ F.Z.Z.Z.Z.C ` I.` I B.B.B.D.D.D.D.B.B.D.D.D.D.D.D.D.D.C.q.V.Q V.R.J.J.J.H.G.J.J.J.J.J.G.J.J.J.J.H.i.0.d.p.d.H.J.G.J.J.G.H.R.W G.J.J.J.J.J.J.J.Q K.(.(.(.(.(.(.(.(.K.^.(.(.(.(.(.(.(.(.(.K.^.(.(.(.(.(.(.K.^.(.(.(.(.K.!.(.(.(.!.K.(.(.(.K.(.(.K.^.(.^.K._.G.e._.(.(.(.(.(.(.(.(.(.(.(.(.(._.) ].VXqXNXMXMXNXyXdXdXrXtXrXsX,X$.@.g.sXrXrXrXtXAX7Xn v v v v v v #XDX8Xz l l l l l l _.DXtXA V V V V V z ).DXtXtXz.l.z.l.s.q.7X+Xl.2Xi.oXtX",
"Y.Y.Y.Y.`.A.] U.P.m.S.P.P.P.P.P.P.A.S.P.P.P.P.A.S.P.U.] / m.` E m.` Z.Z.` m.Z.Z.` F._ _ F.Z.Z.Z.D.Z / E.' I B.B.B.D.D.D.D.B.B.D.D.D.D.D.D.D.D.p.q.V.{ Q R.J.J.J.H.G.J.J.J.J.J.G.J.J.J.J.H.i.0.d.p.d.H.J.G.J.J.G.H.R.W G.J.J.J.J.J.J.R.p.H.).(.(.(.(.(.(.(.K.^.(.(.(.(.(.(.(.(.(.K.^.(.(.(.(.(.(.K.^.(.(.(.(.K.!.(.(.(.!.K.(.(.(.K.(.(.K.^.(.^.K._.G.e._.(.(.(.(.(.(.(.(.(.(.(.(.(._.( N.VXqXNXMXMXNXyXdXdXrXtXrXsX,X$.@.g.sXrXrXrXtXAX7Xn v v v v v v #XDX8Xz l l l l l l _.DXtXA V V V V V z ).DXtXdXT l.5.l.z.5.zX5.z.i.c.7XtX",
"Y.Y.Y.Y.[.] A.P.P.m.S.P.P.P.P.P.P.A.S.P.P.P.P.A.S.P.U.] / m.[ _ m.` Z.Z.` m.Z.Z.` F._ _ F.Z.Z.Z.Z.] C I.` I B.B.B.D.D.D.D.B.B.D.D.D.D.D.D.D.D.y.p.V.V.Q J.J.J.J.H.G.J.J.J.J.J.G.J.J.J.J.H.i.0.d.p.d.H.J.G.J.J.G.H.R.W G.J.J.J.J.J.J.K.V.p.).(.(.(.(.(.(.(.K.^.(.(.(.(.(.(.(.(.(.K.^.(.(.(.(.(.(.K.^.(.(.(.(.K.!.(.(.(.!.K.(.(.(.K.(.(.K.^.(.^.K._.G.e._.(.(.(.(.(.(.(.(.(.(.(.(.(.).).T.MXqXNXMXMXNXyXdXdXrXtXrXsX,X$.@.g.sXrXrXrXtXAX7Xn v v v v v v #XDX8Xz l l l l l l _.DXtXA V V V V V z ).DXtXdX5.z.5.z.XXs.zX2X5.R 2XtXrX",
"Y.Y.Y.Y.U.] P.P.P.m.S.P.P.P.P.P.P.A.S.P.P.P.P.A.S.P.U.] / m.E ` ` ` Z.Z.` m.Z.Z.` F._ _ F.Z.Z.Z.Z.Z.C Z.{ I B.B.B.D.D.D.D.B.B.D.D.D.D.D.D.D.D.q.V.p.V.Q V.R.J.J.H.G.J.J.J.J.J.G.J.J.J.J.H.i.0.d.p.d.H.J.G.J.J.G.H.R.W G.J.J.J.J.J.J.J.J.Q ^.(.(.(.(.(.(.(.K.^.(.(.(.(.(.(.(.(.(.K.^.(.(.(.(.(.(.K.^.(.(.(.(.K.!.(.(.(.!.K.(.(.(.K.(.(.K.^.(.^.K._.G.e._.(.(.(.(.(.(.(.(.(.(.(.(.(.(.].T.mXqXNXMXMXNXyXdXdXrXtXrXsX,X$.@.g.sXrXrXrXtXAX7Xn v v v v v v #XDX8Xz l l l l l l _.DXtXA V V V V V z ).DXtXtXz.uXc.tX2Xc.dXz.s.XXq.OXtX",
"Y.Y.Y.`.A.] U.S.P.m.S.P.P.P.P.P.P.A.S.P.P.P.P.A.S.S.U.[ / ` E m.` ` Z.Z.` m.Z.Z.` F._ _ F.Z.Z.Z.Z.D.Z ) B.I B.B.B.D.D.D.D.B.B.D.D.D.D.D.D.D.V.y.C.p.V.{ Q R.J.J.H.G.J.J.J.J.J.G.J.J.J.J.H.i.0.d.p.d.H.J.G.J.J.G.H.R.W G.J.J.J.J.J.J.J.R.p.H.).(.(.(.(.(.(.K.^.(.(.(.(.(.(.(.(.(.K.^.(.(.(.(.(.(.K.^.(.(.(.(.K.!.(.(.(.!.K.(.(.(.K.(.(.K.^.(.^.K._.G.e._.(.(.(.(.(.(.(.(.(.(.(.(.(.(._.T.mXqXNXMXMXNXyXdXdXrXtXrXsX,X$.@.g.sXrXrXrXtXAX7Xn v v v v v v #XDX8Xz l l l l l l _.DXtXA z V V V V z ).DXuXrXuXrXuXrXtXuXrXtXuXuXdXtXrX",
"Y.Y.Y.`.] A.P.P.P.A.S.P.P.P.P.P.P.A.S.P.P.P.P.A.S.P.U.[ / _ [ m.` ` Z.Z.` m.Z.Z.` F._ _ F.Z.Z.Z.Z.Z.] C { I B.B.B.D.D.D.D.B.B.D.D.D.D.D.D.D.p.p.C.p.V.V.Q J.J.J.H.G.J.J.J.J.J.G.J.J.J.J.H.i.0.d.p.d.H.J.G.J.J.G.H.R.W G.R.J.J.J.J.J.J.K.V.p.).(.(.(.(.(.(.K.^.(.(.(.(.(.(.(.(.(.K.^.(.(.(.(.(.(.K.^.(.(.(.(.!.!.(.(.(.!.!.(.(.(.K.(.(.K.^.(.^.K._.G.e._.(.(.(.(.(.(.(.(.(.(.(.(.(.(.(.N.jXqXNXMXMXNXyXdXdXrXtXrXsX,X$.@.g.sXrXrXrXtXAX7Xn v v v v v v #XDX8Xz l l l l l l _.DXtX( V S V V S V _.DXtXrXrXrXrXrXrXrXrXrX8XrX8XrXrX",
"Y.Y.Y.U.] S.P.S.P.m.S.P.S.S.S.S.P.m.S.P.S.S.P.A.S.S.U.[ / E ' ` ` ` Z.Z.` m.Z.Z.` F._ _ F.Z.Z.Z.Z.Z.Z.C _ I B.B.B.D.D.D.D.B.B.D.D.D.D.D.D.D.q.V.V.p.V.V.Q V.J.J.H.G.J.J.J.J.J.V.J.J.J.J.H.i.0.d.p.d.H.H.G.J.J.G.H.R.W G.J.J.J.J.J.J.J.J.J.Q ^.(.(.(.(.(.(.K.^.(.(.(.(.(.(.(.(.(.K.^.(.(.(.(.(.(.K.!.(.(.(.(.K.K.(.(.(.K.K.(.(.(.K.(.(.K.^.(.^.K.).G.e.).(.(.(.(.(.(.(.(.(.(.(.(.(.(.(.N.yXqXMXMXMXMXyXdXdXrXtXrXsX,X$.@.g.sXrXrXrXtXAX7Xb h j j j j j oXDX8Xj i d d d d i /.DXtXn j j j j j f /.DXuXtXtXtXtXtXtXtXtXtXtXtXtXtXtX",
"T.T.T.m.' A.m.m.A.m.m.m.m.m.m.m.A.m.m.m.m.m.A.m.m.m.S.[ U E ' ' ' ' ` ` ' ` ` ` ' m.E _ m.` ` ` ` ` B.Z z I ` ` { B.B.B.B.B.B.B.B.B.B.B.B.e.q.V.p.w.p.p.Q Q G.V.V.p.G.G.G.G.G.p.V.G.G.G.V.q.0.p.w.p.p.V.p.G.G.p.V.H.W p.G.G.G.G.G.G.G.V.G.Q p.!.K.K.K.K.K.L.L.K.K.K.K.K.K.K.K.K.L.L.K.K.K.K.K.K.L.L.K.K.K.K.L.L.K.K.K.L.L.K.K.K.L.K.K.L.L.K.L.L.^.e.w.^.K.K.K.K.K.K.K.K.K.K.K.K.K.K.K.n.6XwXqXqXqXqXiXdXuXrXtXrXsX,X$.@.g.sXrXrXrXtXAX7Xh h h h h h h oXFX8Xj i d i i i i /.DXtXn f f f f j f /.DXzXzXzXzXzXzXzXzXzXzXzXzXzXzXzX",
"Y.Y.`.] A.U.P.P.P.A.S.P.P.P.P.P.P.A.S.P.P.P.P.A.S.P.U.] z _ ` ` ` ` Z.Z.` m.Z.Z.` F._ ' F.Z.Z.Z.Z.Z.Z.] l I B.B.B.D.D.D.D.B.B.D.D.D.D.D.D.p.p.C.V.p.V.V.V.Q J.J.H.G.R.J.J.J.J.G.J.J.J.J.H.i.0.d.p.d.H.J.G.J.J.G.J.R.W G.R.J.J.J.J.J.J.J.R.V.p.).(.(.(.(.(.K.^.(.(.(.(.(.(.(.(.(.K.^.(.(.(.(.(.(.K.^.(.(.(.(.!.^.(.(.(.^.!.(.(.(.K.(.(.K.^.).^.K._.G.e._.(.(.(.(.(.(.(.(.(.(.(.(.(.(.(.M.yXqXNXMXMXNXjXdXdXrXtXrXsX,X$.@.g.sXrXrXrXtXAX7Xb g h h h h h oXDX8Xj i d d d d i /.DXtXn f j j j j f /.DXuXtXtXtXtXtXtXtXtXtXtXtXtXtXtX",
"Y.Y.Y.] S.P.P.P.P.m.S.P.P.P.P.P.P.A.S.P.P.P.P.A.S.S.U.] z ' ` ` ` ` Z.Z.` m.Z.Z.` F._ _ F.Z.Z.Z.Z.Z.Z.F.B U B.B.B.D.D.D.D.B.B.D.D.D.D.D.D.q.V.V.V.p.V.V.V.Q V.R.H.G.J.J.J.J.J.G.J.J.J.J.H.i.0.d.p.d.H.J.G.J.J.G.H.R.W G.J.J.J.J.J.J.J.J.J.J.Q ^.(.(.(.(.(.K.^.(.(.(.(.(.(.(.(.(.K.^.(.(.(.(.(.(.K.^.(.(.(.(.K.!.(.(.(.!.K.(.(.(.K.(.(.K.^.(.^.K._.G.e._.(.(.(.(.(.(.(.(.(.(.(.(.(.(.).n.4XyXNXMXMXNXyXdXdXrXtXrXsX,X$.@.g.sXrXrXrXtXAX7Xb g h h h h h oXDX8Xj i d d d d i /.DXtXn f j j j j f /.DXtX8XrXrXrXrXrXrXrXrXrXrXrXrXrX",
"Y.`.S.] U.S.P.P.P.m.S.P.P.P.P.P.P.A.S.P.P.P.P.A.S.S.U.[ U ` ` ` ` ` Z.Z.` m.Z.Z.` F._ _ F.Z.Z.Z.Z.Z.Z.D.Z z B.B.B.D.D.D.D.B.B.D.D.D.D.D.V.q.C.V.V.p.V.V.V.` ` R.H.G.J.J.J.J.J.G.J.J.J.J.H.i.0.d.p.d.H.J.G.J.J.G.H.R.W G.J.J.J.J.J.J.J.J.J.R.Q H.).(.(.(.(.K.^.(.(.(.(.(.(.(.(.(.K.^.(.(.(.(.(.(.K.^.(.(.(.(.K.!.(.(.(.!.K.(.(.(.K.(.(.K.^.(.^.K._.G.e._.(.(.(.(.(.(.(.(.(.(.(.(.(.(._.T.).mXMXMXMXNXyXdXdXrXtXrXsX,X$.@.g.sXrXrXrXtXAX7Xb h h h h h f oXDX8Xj i d i i d i /.DXtXn f j f f j f /.DXtXrXrXtXrXtXtXrXtXrXtXrXrXrXrX",
"Y.`.] Z.P.P.P.P.P.m.S.P.P.P.P.P.P.A.S.P.P.P.P.A.S.S.U.[ U ` ` ` ` ` Z.Z.` m.Z.Z.` F._ _ F.Z.Z.Z.Z.Z.Z.F.[ B B.B.B.D.D.D.D.B.B.D.D.D.D.D.p.p.C.V.V.p.V.V.V.V.Q J.H.G.J.J.J.J.J.G.J.J.J.J.H.i.0.d.p.d.H.J.G.J.J.G.H.R.W G.J.J.J.J.J.J.J.J.J.K.p.p.).(.(.(.(.K.^.(.(.(.(.(.(.(.(.(.K.^.(.(.(.(.(.(.K.^.(.(.(.(.K.!.(.(.(.!.K.(.(.(.K.(.(.K.^.(.^.K._.G.e._.(.(.(.(.(.(.(.(.(.(.(.(.(.(._.T.(.ZXMXMXMXNXyXdXdXrXtXrXsX,X$.@.g.sXrXrXrXtXAX7Xj h h h h h f oXDX8Xj i d i i d i /.DXtXn f j f f j f /.DXtXrXtX7XtX7XrXtX8XuXtXuXtXtXuX",
"Y.Y.] S.P.P.P.P.P.m.S.P.P.P.P.P.P.A.S.P.P.P.P.A.S.P.U.U U ` ` ` ` ` Z.Z.` m.Z.Z.` F._ _ F.Z.Z.Z.Z.Z.Z.F.' l ` B.B.D.D.D.D.B.B.D.D.D.D.D.q.V.V.V.V.p.V.V.V.V.Q V.J.G.J.J.J.J.J.G.J.J.J.J.H.i.0.d.p.d.H.J.G.J.J.G.H.R.W G.J.J.J.J.J.J.J.J.J.J.J.Q ^.(.(.(.(.K.^.(.(.(.(.(.(.(.(.(.K.^.(.(.(.(.(.(.K.^.(.(.(.(.K.!.(.(.(.!.K.(.(.(.K.(.(.K.^.(.^.K._.G.e._.(.(.(.(.(.(.(.(.(.(.(.(.(.(._.T.^.mXMXMXMXNXyXdXdXrXtXrXsX,X$.@.g.sXrXrXrXtXAX7Xb h h h h h h oXDX8Xj i d d d d i /.DXtXn f j j j j f /.DXtXuXs.f.s.s.i.R 8X+X5.l.8X8X+X",
"`.S.] U.S.P.P.P.P.m.S.P.P.P.P.P.P.A.S.P.P.P.P.A.S.P.S.U U ` ` ` ` ` Z.Z.` m.Z.Z.` F._ _ F.Z.Z.Z.Z.Z.Z.A.` l / C.B.D.D.D.D.B.B.D.D.D.D.V.q.C.V.V.V.p.V.V.V.V.` { J.G.J.J.J.J.J.G.J.J.J.J.H.i.0.d.p.d.H.J.G.J.J.G.H.R.W G.J.J.J.J.J.J.J.J.J.J.R.p.J.).(.(.(.K.^.(.(.(.(.(.(.(.(.(.K.^.(.(.(.(.(.(.K.^.(.(.(.(.K.!.(.(.(.!.K.(.(.(.K.(.(.K.^.(.^.K._.G.e._.(.(.(.(.(.(.(.(.(.(.(.(.(.(.).T.!.mXMXMXMXNXyXdXdXrXtXrXsX,X$.@.g.sXrXrXrXtXAX7Xb g h h h h h oXDX8Xj i d d d d i /.DXtXn f j j j j f /.DXtXdXT l.5.f.XXs.zX5.tXq.q.+XR ",
"`.] Z.P.P.P.P.P.P.m.S.P.P.P.P.P.P.A.S.P.P.P.P.A.S.U.{ U U ` ` ` ` ` Z.Z.` m.Z.Z.` F._ _ F.Z.Z.Z.Z.Z.Z.F.' z C C.B.D.D.D.D.B.B.D.D.D.D.p.p.C.V.V.V.p.V.V.V.V.V.Q H.G.J.J.J.J.J.G.J.J.J.J.H.i.0.d.p.d.H.J.G.J.J.G.H.R.W G.J.J.J.J.J.J.J.J.J.J.K.p.p.).(.(.(.K.^.(.(.(.(.(.(.(.(.(.K.^.(.(.(.(.(.(.K.^.(.(.(.(.K.!.(.(.(.!.K.(.(.(.K.(.(.K.^.(.^.K._.G.e._.(.(.(.(.(.(.(.(.(.(.(.(.(.(.).T.T.mXBXMXMXNXyXdXdXrXtXrXsX,X$.@.g.sXrXrXrXtXAX7Xb h h h h h f oXDX8Xj i d i i d i /.DXtXn f j f f j f /.DXtXuX5.oX5.XX+Xs.AXq.l.i.i.5.5.",
"Y.] S.P.P.P.P.P.P.A.S.P.P.P.P.P.P.A.S.P.P.P.P.A.S.P._ / U ' ` ` ` ` Z.Z.` m.Z.Z.` F._ _ F.Z.Z.Z.Z.Z.Z.F.' U C ` B.D.D.D.D.B.B.D.D.D.D.q.V.V.V.V.V.p.V.V.V.V.V.Q V.H.J.J.J.J.J.V.J.J.J.J.H.i.0.d.p.d.H.J.G.J.J.G.H.R.W G.J.J.J.J.J.J.J.J.J.J.J.J.Q (.(.(.(.K.^.(.(.(.(.(.(.(.(.(.K.^.(.(.(.(.(.(.K.^.(.(.(.(.K.!.(.(.(.!.K.(.(.(.K.(.(.K.^.(.^.K._.G.e._.(.(.(.(.(.(.(.(.(.(.(.(.(.(.).T.!.qX].NXBXBXyXdXdXrXtXrXsX,X$.@.g.sXrXrXrXtXAX7Xb h h h h h f oXDX8Xj i d i i d i /.DXtXn f j f f j f /.DXtXtXOXtX2XtX7X2XuX7Xs.2X2Xl.2X",
"S.] U.S.P.P.P.P.P.m.P.P.P.P.P.P.P.A.S.P.P.P.P.A.S.A.Q [ U ` ` ` ` ` Z.Z.` m.Z.Z.` F._ _ F.Z.Z.Z.Z.Z.Z.F.' I C / D.D.D.D.D.B.B.D.D.D.V.y.C.V.C.V.V.p.V.V.V.V.V.' Q H.J.J.J.J.J.G.J.J.J.J.H.i.0.d.p.d.H.J.G.J.J.G.H.R.W G.R.J.J.J.J.J.J.J.J.J.J.R.p.J.).(.(.!.^.(.(.(.(.(.(.(.(.(.K.^.(.(.(.(.(.(.^.^.).(.(.(.K.!.(.(.(.!.K.(.(.(.K.(.(.K.^.).^.K._.G.e._.(.(.(.(.(.(.(.(.(.(.(.(.(.(.(.E.n.N.) NX[.yXjXdXdXrXtXrXsX,X$.@.g.sXrXrXrXtXAX7Xb h h h h h h oXDX8Xj i d d d d i /.DXtXn f j j j j f /.DXuXrXuXrXtXrXtXtXrXtXzXtXtXzXtX",
"] m.U.P.P.P.P.P.P.A.' _ ' _ U.S.P.A.S.P.P.P.P.A.P.` ' [ U _ U [ E ` Z.Z.` m.Z.Z.` F._ _ F.Z.Z.Z.` E _ E _ I / C D.D.D.D.D.B.B.D.D.D.p.w.! e.W e.V.p.V.V.V.V.V.V.Q G.J.J.J.J.J.! Q ! H.J.H.i.0.d.p.d.H.J.G.J.J.G.H.R.R Q Q p.R.J.J.J.J.J.J.J.J.K.p.p.).(.).w.w.e.W ).(.(.(.(.(.(.K.^.(.(.(.(.(.).e.w.w.w.(.(.K.!.(.(.(.!.K.(.(.(.K.(.).e.W e.w.K._.G.e._.(.(.(.(.(.(.(.(.(.(.(.(.(.(.(.!.C n.N.[.V ) yXdXdXrXtXrXsX,X$.@.g.sXrXrXrXtXAX7Xb h h h h h h oXDX8Xj i d d d d i /.DXtXn f j j j j f /.DXtX8X8XrX8XrXrX8XrXrX8X8X8X8X8X",
"] S.P.P.P.P.P.P.P.A.E P.n._ U.S.P.A.S.P.P.P.P.A.P._ B.[ U U ' Z.E ' Z.Z.` m.Z.Z.` F._ _ F.Z.Z.F.E ' F.E E U ` C B.D.D.D.D.B.B.D.D.D.i.W Q V.k Q V.p.V.V.V.V.V.V.Q V.R.J.J.R.e.W K.! p.R.H.i.0.d.p.d.H.J.G.J.J.G.J.V.k G.R e.R.J.J.J.J.J.J.J.J.J.H.Q (.(.!.! _.G.e._.(.(.(.(.(.(.K.^.(.(.(.(.(.(.! (.W ! ).(.K.!.(.(.(.!.K.(.(.(.K.(.).W ^.e.R L._.G.e._.(.(.(.(.(.(.(.(.(.(.(.(.(.(.(.(.Z _.N.C S S ].zXuXrXtXrXsX,X$.@.g.sXrXrXrXtXAX7Xb h h h h h f oXDX8Xj i d i i d i /.DXtXn f j f f j f /.DXdXtXuXuXuXuXuXuXuXuXuXuXuXuXuX",
"] P.S.P.P.P.P.S.P.S._ _ m.' U.S.P.A.S.P.P.P.P.A.A.E F.[ U E E E U ` Z.Z.` m.Z.Z.` F._ _ F.Z.Z.F._ E ' E E U B.C [ D.D.D.D.B.B.D.D.V.i.e.! Q I Q V.p.V.V.V.V.V.V.Q Q R.J.J.J.G.! p.W w.R.H.i.0.d.p.d.H.H.G.J.J.G.J.J.c Q ! W R.J.J.J.J.J.J.J.J.J.K.Q J.).(.W p.e.L.).(.(.(.(.(.(.K.^.(.(.(.(.(.).W w.W W (.(.K.!.(.(.(.!.K.(.(.(.K.(.).w.w.G.W K.).G.e.).(.(.(.(.(.(.(.(.(.(.(.(.(.(.(.).eXqXT.V A ) T.zXuXrXtXrXsX,X$.@.g.sXrXrXrXtXAX7Xb h h h h h f oXDX8Xj i d i i d i /.DXtXn f j f f j f /.DXzXzXzXzXzXzXzXzXzXzXzXzXzXzXzX",
"m.U.P.P.P.P.P.P.P.A.P.m.P.P.P.P.P.A.S.P.P.P.P.S.` _ P.[ U ` ' ` ' ` F.Z.` Z.F.Z.` F._ _ F.Z.Z.Z.F.` ` Z.' U B./ C I.D.D.D.D.B.D.D.p.p.C.p.V.H.V.V.p.V.V.V.V.V.V.V.Q R.J.J.J.R.p.G.G.J.J.H.i.0.d.p.d.H.J.G.J.R.G.H.R.W p.J.J.R.J.J.J.J.R.J.J.J.J.R.p.p.).).K.L.(.(.(.(.(.(.(.(.).K.^.).(.(.).(.).K.L.(.^.(.).!.^.).(.).!.^.).(.(.K.(.).K.L.^.K.!._.G.e._.(.(.(.(.).(.(.(.(.(.(.(.(.(.(.).jXyXNXn.) T.T.dXdXrXtXrXsX,X$.@.g.sXrXrXrXtXAX7Xb h h h h h h oXDX8Xj i d d d d i /.DXtXn f j j j j f /.DXuXrXtXtXrXtXsXsXsXgXsXrXrXtXtX",
"m.m.S.A.m.S.S.m.S.m.m.S.m.S.S.m.S.m.m.A.m.S.A.m.E ' n./ U ' ' ' ` ` ` n.` ' ` ' ` Z.E ' Z.` ` Z.` m.` Z._ I ' ' C ` B.B.D.B.B.D.B.q.p.V.V.p.V.V.p.w.V.p.p.p.V.V.e.E V.G.V.J.G.V.G.H.H.V.V.i.0.p.w.p.H.V.p.J.G.p.H.H.w.p.H.J.G.V.H.G.V.V.G.J.G.V.J.V.Q ^.!.L.K.K.^.K.L.^.K.K.K.K.K.K.K.^.K.L.^.^.L.K.K.(.K.K.K.K.K.K.K.!.L.K.^.!.G.^.^.L.K.K.^.K.K.L.p.K.K.L.^.!.L.K.K.K.K.K.K.K.K.K.K.K.6XwXyXN.n.!.jXsXuXrXtXrXsX,X$.@.g.sXrXrXrXtXAX7Xb h h h h h h oXDX8Xj i d d d d i /.DXtXn f j j j j f /.DXtXrXtXrXtXtX>X-.=.-.>XtXtXrXrX",
"_ _ m.n.( m.m.( n.m._ ` ( m.m.( n.m._ _ _ m.m.E E ' E U U E [ E ' ` E _ ` E _ E ' ' E ' ` E _ ` E _ E ' _ z E ' B / Q ` B.E ' B.! T V.Q Q ! Q p.! Q V.Q Q ! Q p.W ! Q w.Q H.w.e.Q w.G.Q w.q.J w.W w.d.Q w.H.w.Q G.e.e.Q w.H.w.Q H.e.Q Q w.H.w.Q G.e.! H.G.p.e.e.!.p.w.K.G.e.e.e.!.p.w.K.G.w.L.L.e.p.w.K.G.w.K.G.e.e.e.!.G.w.K.G.w.L.L.e.p.w.K.G.w.L.L.e.e.w.K.G.w.V.^.^.^.^.^.^.^.^.^.^.eXwXMXN.].iXjXdXdXrXtXrXsX,X$.@.g.sXrXrXrXtXAX7Xb h h h h h f oXDX8Xj i d i i d i /.DXtXn f j f f j f /.DXtXrXrXsX6X=.@.=.-.=.@.=.6XtXrX",
"' _ m.n._ m.m._ n.m.' n._ m.m._ m.m._ ' _ m.m.E E ` E U U / [ E ' ` E ' ` E _ E ' ` E ' ` E _ ` _ ' E ' _ z E ' V C Q ` B.E ' Z.W W V.Q Q W Q V.Q Q V.Q Q ! Q V.W Q Q w.w.H.w.e.Q e.H.w.e.q.J w.W w.d.Q w.H.w.Q H.e.e.w.w.H.w.Q H.e.w.Q w.H.w.Q G.e.! p.L.p.p.e.!.p.e.K.G.e.e.e.!.p.e.K.G.w.L.L.p.p.e.K.G.e.K.L.e.e.e.!.G.e.K.L.w.L.L.p.G.e.K.L.w.L.L.e.e.e.K.G.w.G.(.(.(.(.(.(.(.(.(.).iXqXBX[.iXCXyXdXdXrXtXrXsX,X$.@.g.sXrXrXrXtXAX7Xb h h h h h f oXDX8Xj i d i i d i /.DXtXn f j f f j f /.DXtXrXtX6X$.=.wXcXFXcXwX$.=.eXtX",
"' _ m.n._ m.m._ n.m.' ` _ m.m._ m.m._ ' _ m.m.I _ ` E U U E [ E ' ` E ' ` E _ E ' ' E ' ` E _ ` _ _ E ' _ z E ' E B E B.B.E ' B.T W V.Q Q ! Q V.W Q V.Q Q ! Q V.! Q Q Q w.H.w.e.Q e.H.Q e.q.J w.W w.d.Q w.H.w.Q G.e.e.w.w.H.w.Q H.e.w.Q w.H.w.Q H.e.W Q G.p.p.e.!.p.e.K.G.e.e.e.!.p.e.K.G.w.L.L.p.p.e.K.G.w.K.L.e.e.e.K.G.w.K.L.w.L.L.e.G.e.K.L.w.L.L.e.e.e.K.G.w.G.(.(.(.(.(.(.(.(.(.(.iXqXNXNXMXNXyXdXdXrXtXrXsX,X$.@.g.sXrXrXrXtXAX7Xb h h h h h h oXDX8Xj i d d d d i /.DXtXn f j j j j f /.DXtXrXsX-.$.kXFXzXzXzXcXyX$.-.sX",
"_ _ m.n._ m.m._ n.m.' ` _ m.m._ m.m._ ' _ m.n.I ' ` E U U / [ E ' ` E ' ` E _ E ' ` E ' ` E _ n._ _ E ' _ z E _ E C z B.B.E ` V.T Q V.Q Q ! Q V.W Q V.Q Q ! Q V.! Q Q ! w.H.w.e.Q e.H.Q e.i.J w.W w.d.Q w.H.w.Q H.e.e.w.w.H.w.Q H.e.w.Q w.H.w.Q H.e.Q Q p.G.e.e.!.p.e.K.G.e.e.e.!.p.e.K.G.w.L.L.p.p.e.!.G.w.K.L.e.e.e.!.G.w.K.L.w.L.L.e.G.e.K.L.w.L.L.e.e.e.K.G.w.G.(.(.(.(.(.(.(.(.(.(.iXqXNXMXMXNXyXdXdXrXtXrXsX,X$.@.g.sXrXrXrXtXAX7Xb h h h h h h oXDX8Xj i d d d d i /.DXtXn f j j j j f /.DXtXtX7X$.:XKXkXzXzXFXFXKX;X$.eX",
"_ _ m.n._ m.m._ n.m.' ` _ m.m._ n.m._ ' _ m._ I ' ' E U U E [ E ' ' E _ ` E _ E ' ' E _ ` E _ ` _ _ E ' _ z E _ E V V B.B.E ` w.T Q p.Q Q ! Q p.W Q V.Q Q ! Q p.! Q e.! w.G.w.p.Q w.G.Q w.q.J w.W w.d.Q w.G.w.Q G.e.e.w.w.G.w.Q G.e.w.Q w.G.w.Q G.e.w.w.Q G.e.e.K.p.e.K.G.e.e.e.K.p.e.K.G.w.L.L.p.p.e.K.G.w.L.G.e.e.e.K.G.w.L.G.w.L.L.p.G.e.K.G.w.L.L.e.e.e.K.G.w.G.(.(.(.(.(.(.(.(.(.(.iXqXNXMXMXNXyXdXdXrXtXrXsX,X$.@.g.sXrXrXrXtXAX7Xb h h h h h f oXDX8Xj i d i i d i /.DXtXn f j f f j f /.DXtXsX,X$.wXcXzXzXAX'.z.9X<X$.6X",
"' _ ' _ _ ' _ _ ' _ ' n._ ' _ _ ' _ _ ' _ ` U E _ E E U z E [ E _ E E _ _ E _ E _ E E _ _ E _ _ E ' E _ E z E E E / M _ Q E _ T W Q Q ! Q W Q Q ! Q Q ! Q ! Q Q ! Q Q I Q w.Q p.Q w.w.W w.5.J w.W w.w.Q w.w.Q Q w.Q e.w.Q w.Q Q w.Q w.Q w.w.Q Q w.Q Q Q ! G.p.e.p.e.e.p.e.e.e.e.p.e.e.p.e.e.p.e.p.p.e.p.e.e.p.e.e.e.e.p.e.e.p.e.e.p.e.p.G.e.p.e.e.p.e.e.e.e.p.e.e.V.(.(.(.(.(.(.(.(.(.(.eXqXNXMXMXNXyXdXdXrXtXrXsX,X$.@.g.sXrXrXrXtXAX7Xb h h h h h f oXDX8Xj i d i i d i /.DXtXn f j f f j f /.DXtXsX,X@.wXcXzXzXSXq.5 R ,X*.,X",
"_ _ ' _ _ ' _ _ _ _ _ ` ( ' _ _ ' _ _ _ _ _ I E _ E E U z E [ E [ E E _ E E _ E _ E E _ E E E E E _ E _ E z E E E E B / Q E Q T ! W Q ! Q ! Q Q ! Q Q ! Q ! Q Q ! Q Q I ! w.W p.Q Q Q W Q T J w.W W W W Q w.W Q w.W p.w.Q w.W Q w.W w.Q Q w.W Q w.W W w.I p.e.w.e.w.w.e.w.e.e.e.e.w.e.e.w.w.e.w.p.p.w.e.w.w.e.w.e.e.w.e.w.w.e.w.w.e.w.e.p.w.e.w.w.e.e.e.e.w.e.w.w.p.(.(.(.(.(.(.(.(.(.(.eXqXNXMXMXNXyXdXdXrXtXrXsX,X$.@.g.sXrXrXrXtXAX7Xb h h h h h h oXDX8Xj i d d d d i /.DXtXn f j j j j f /.DXtXtX6X$.:XKXzXzXzXFXzXKXb.< 7X",
"` ' n.` ' n.` ' n.' ` m.' n.` ' n.' ` n.` _ E _ _ _ _ U z [ _ [ _ _ _ ' _ _ ' _ _ _ E _ _ _ _ _ _ ` _ ' E I _ E _ ' S C B.' W W Q Q Q Q e.Q Q Q Q Q Q Q Q Q Q Q Q Q Q Q ! p.w.p.e.e.p.w.e.q.Y w.q.w.e.w.e.p.e.w.p.e.w.e.e.p.w.e.p.e.p.e.e.p.w.e.p.e.e.p.W w.L.p.G.p.G.G.p.G.G.G.G.p.G.G.G.p.G.G.G.G.G.G.p.G.G.p.G.G.G.G.p.G.G.G.e.G.G.G.L.p.G.p.G.p.e.G.G.p.G.G.p.L.(.(.(.(.(.(.(.(.(.(.eXqXNXMXMXNXyXdXdXrXtXrXsX,X$.@.g.sXrXrXrXtXAX7Xb h h h h h h oXDX8Xj i d d d d i /.DXtXn f j j j j f /.DXtXrXsX-.$.zXcXzXzXzXFXuX< ;.xX",
"P.U.P.P.P.P.P.P.P.A.P.U.P.U.P.P.U.A.S.P.U._ ` m.Z.F.F.[ U ` ` m.` ` Z.Z.n.Z.Z.Z.` F._ ' F.Z.Z.Z.Z.Z.Z.F.' U ` ` ` Z.` C D.D.q.G.C.C.V.C.V.V.V.V.V.p.C.V.C.V.C.V.V.V.V.V.Q J.R.G.R.R.R.R.J.i.0.d.p.d.J.J.G.R.R.G.J.R.W H.R.J.J.J.J.J.J.J.J.J.J.J.J.J.J.R.H.Q (.).(.(.(.(.(.(.(.).K.(.).(.(.(.(.).!.^.).(.(.).^.^._.(.).^.^.).(.(.K.(.).K.(.).^.K._.G.e._.(.).(.(.(.(.(.(.(.(.(.(.(.(.(.(.7XqXBXMXNXNXyXdXdXrXtXrXsX,X$.@.g.sXrXrXrXtXAX7Xb h h h h h f oXDX8Xj i d i i d i /.DXtXn f j f f j f /.DXtXrXtX6X$.=.iXzXzXcXeX< < 7XtX",
"S.A.S.P.P.P.P.S.P.A.A.A.S.A.P.S.P.A.S.P.S.E Z.` Z.` B./ U ` ` ` ` ` Z.Z.` m.Z.Z.` F._ ' Z.Z.n.B.n.Z.Z.F.' U ` ' ` ` Z.C ] C.q.p.V.p.V.p.V.V.V.V.V.p.p.V.p.V.p.V.V.V.V.V.Q V.R.G.G.G.G.J.V.i.0.d.p.d.H.H.G.J.J.G.H.R.W G.J.J.R.J.J.J.J.J.J.J.J.J.J.J.J.J.J.Q H.!.(.(.(.(.(.(.(.(.K.K.K.(.).(.(.(.K.^.(.(.(.(.K.K.K.^.).!.K.(.(.(.K.(.(.K.^.(.^.K._.G.e.).^.K.(.(.(.(.(.(.(.(.(.(.(.(.(.(.7XqXyXMXyXNXjXdXdXrXtXrXsX,X$.@.g.sXrXrXrXtXAX7Xb h h h h h f oXDX8Xj i d i i d i /.DXtXn f j f f j f /.DXtXrXrXsX6X-.6XsXtXdX3XO.,XsXrX",
"n n Q U.S.P.P.P.P.A.m.n ! ! S.P.P.A.S.U.B._ F.m.Q k ! k U ` ` ` ` ` Z.Z.` m.Z.Z.` F._ _ I ! c c I Z.Z.F.' U ` ` ` ` D./ / d.w.! k R R R V.V.V.V.V.V.! k R R R V.V.p.V.V.B.Q R.G.R W R R R q.0.d.p.d.H.J.G.J.J.G.H.R.w.W R W V.J.J.J.J.J.J.J.J.J.J.J.J.J.R.p.w.R W L.(.(.(.(.(.(.^.p.R W L.(.(.(.K.^.(.(.(.(.(.w.R w.G.^.K.(.(.(.K.(.(.K.^.(.^.K._.L.w.W w.R W K.(.(.(.(.(.(.(.(.(.(.(.(.7XqXv.a.a.j.6XdXuXrXtXrXsX,X$.@.g.sXrXrXrXtXAX7Xb h h h h h h oXDX8Xj i d d d d i /.DXtXn f j j j j f /.DXtXrXtXrXtXsXtXrXrXrXtXsXtXrXtX",
"n ! ! U.S.P.P.P.P.m.P.! k ! m.P.P.A.S.U.' ' F.` ` I k I z ` ` ` ` ` Z.Z.` m.Z.Z.` F.E ' ! I I k ! ` Z.F.' U ` ` ` m.Z.` C q.p.Q k ! k ! w.C.V.V.V.V.Q 6 ! k ! Q V.p.V.V.V.Q H.G.w.k W k ! T 0.d.p.d.H.J.G.J.J.G.H.R.Q w.W 6 w.R.J.J.J.J.J.J.J.J.J.J.J.J.R.p.Q u.6 w._.(.(.(.(.(.K.!.T 6 w._.(.(.K.^.(.(.(.(.^.G.W 6 W (.K.(.(.(.K.(.(.K.^.(.^.K._.G.e.W W W 5 e._.(.(.(.(.(.(.(.(.(.(.(.7XmX Xa.c.9 l.AXuXrXtXrXsX,X$.@.g.sXrXrXrXtXAX7Xb h h h h h h oXDX8Xj i d d d d i /.DXtXn f j j j j f /.DXtXrXtXrXrXrXrXrXrXrXrXrXrXrXrX",
"! ! ' U.P.P.P.P.P.A.n.! ! ! P.P.P.A.S.P.E Z.Z.n.` ! ! j U ` ` ` ` ` Z.Z.n.m.Z.Z.` F._ ' Q ! I ! ! F.Z.F.' U ` ` ` B.Z.F.V W p.k ! R ! R V.V.V.V.V.p.! ! R ! R V.V.V.V.V.V.Q V.H.W W R W R q.0.d.p.d.H.J.G.J.J.G.H.R.Q p.w.T w.R.J.J.J.J.J.J.J.J.J.J.J.J.J.J.R T W e.).(.(.(.(.(.^.p.W W w.).(.(.!.^.(.(.(.(.^.G.W W w.^.!.(.(.(.K.(.(.K.^.(.^.K._.G.e.d.w.W W e.).(.(.(.(.(.(.(.(.(.(.(.5X6X8. Xk.l.z.zXuXrXtXrXsX,X$.@.g.sXrXrXrXtXAX7Xb h h h h h f oXDX8Xj i d i i d i /.DXtXn f j f f j f /.DXtXrXtXrXrXrXtXsXsXsXrXrXrXrXrX",
"S.S.S.S.S.S.S.S.S.m.S.S.P.S.S.S.S.m.S.` [ Z.Z.` ` ` F./ z ' ' ` ` ` Z.Z.` ` Z.` ' F.E _ F.Z.Z.Z.Z.Z.m.Z.[ U ' ' ` ` ` F.E n V.C.V.C.C.C.V.V.V.V.V.e.V.C.C.C.C.V.V.e.V.V.V.{ Q G.H.J.J.J.H.i.0.d.e.d.H.H.V.J.J.V.H.R.W V.J.R.J.J.J.J.J.J.J.J.J.J.J.J.J.J.J.G.Q V._.(.(.(.(.(.(.(.K.K.(.).(.(.(.(.K.K.(.(.(.(.K.K.(.).).K.K.(.(.(.L.(.(.K.^.(.K.K.).G.e._.(.(.).(.(.(.(.(.(.(.(.(.(.(.(.(._.qXBXNXBXCXjXdXdXrXtXrXsX,X$.#.g.sXrXrXrXtXAX7Xb h h h h h f oXDX8Xj i d i i d i /.DXtXn f j f f j f /.DXtXrXtXrXrXsXrX,X>X,XtXsXrXrXrX",
"E.E.E.E.E.E.E.E.E.E.E.E.E.E.E.E.E.E.Y.C.C.I.I.J.J.I.I.C.B.D.J.J.J.J.I.I.J.J.I.J.J.I.C.C.I.J.J.J.J.I.I.I.C.B.J.D.J.J.J.I.p.E J.R.J.J.J.J.J.R.R.R.J.H.R.J.J.J.J.R.J.H.R.J.R.J.V.R.^.^.^.^.R.d.s.~.R.~.^.^.R.^.^.R.^.^.d.R.^.^.^.^.^.^.^.^.^.^.^.^.^.^.^.^.^.^.H.d._././././././._././._././././._././._././._././._././././._./././._._././._././._.^.~._./././././././././././././././.).].iXyXyXyXyXiXdXdXrXtXrXsX,X$.@.g.sXrXtXrXtXAX7Xb g h h h h h oXDX8Xj i d d d d i /.DXtXn f j j j j f /.DXtXrXrXtXsX;X$.@.$.$.$.>XsXrXrX",
"zXzXzXzXzXzXzXzXzXzXzXzXzXzXzXzXzXzXzXzXzXzXzXzXzXzXzXzXAXzXzXzXzXzXzXzXzXzXzXzXzXzXzXzXzXzXzXzXzXzXzXzXzXAXzXzXzXzXzXzXzXzXzXzXzXzXzXzXzXzXzXzXzXzXzXzXzXzXzXzXzXzXzXzXzXzXzXzXzXzXzXzXzXzXzXzXzXzXzXzXzXzXzXzXzXzXzXzXzXzXzXzXzXzXzXzXzXzXzXzXzXzXzXzXzXzXzXzXzXzXzXzXzXzXzXzXzXzXzXzXzXzXzXzXzXzXzXzXzXzXzXzXzXzXzXzXzXzXzXzXzXzXzXzXzXzXzXzXzXzXzXzXzXzXzXzXzXzXzXzXzXzXzXzXzXzXzXzXzXzXdXdXdXdXdXzXuXrXrXtXzXrX6XwXeXdXtXrXrXtXAX7Xb h h h h h h oXDX8Xj i d d d d i /.DXtXn f j j j j f /.DXtXrXrXtX-.#.-.<XqX<X-.#.g.sXrX",
"uXuXuXuXuXuXuXuXuXuXuXuXuXuXuXuXuXuXuXuXuXuXuXuXuXuXuXuXuXuXuXuXuXuXuXuXuXuXuXuXuXuXuXuXuXuXuXuXuXuXuXuXuXuXuXuXuXuXuXuXuXuXuXuXuXuXuXuXuXuXuXuXuXuXuXuXuXuXuXuXuXuXuXuXuXuXuXuXuXuXuXuXuXuXuXuXuXuXuXuXuXdXdXdXdXdXdXdXdXdXdXdXdXdXdXdXdXuXuXdXdXdXdXdXdXdXdXdXdXuXuXuXuXuXuXuXuXzXzXuXdXdXdXdXdXdXdXdXdXdXdXdXdXdXdXdXdXdXdXdXdXdXdXdXdXdXdXdXdXdXdXdXdXdXdXdXdXdXdXdXdXdXdXdXdXdXdXdXdXdXdXdXdXuXuXzXuXrXtX8Xz.7XtXz.7Xz.7XtXrXtXAX7Xj h h h h f f oXDX8Xj i d i i d i /.DXtXn f j f f j f /.DXtXrXsX;X#.>XKXcXxXKXKX>X: h.xX",
"tXtXtXtXtXtXtXtXtXtXtXtXtXtXtXtXtXtXtXtXtXtXrXrXrXrX8X8X8XrXrXrXrXrXrXrXrXtXtXtXtXtXtXtXtXtXtXtXtXtXtXtXtXtXtXtXtXtXtXtXtXrXrXrXrX8X8X8XrXrXrXrXrXrXrXtXtXtXtXtXtXtXtXtXtXtXtXtXtXtXtXtXtXtXtXtXtXrXrXrX8X7X7X7X7X7X7X7X7X7X7X7X7X7X7X7X7X7XrX7X7X7X7X7X7X7X7X7X7XrXrXrXrXrXrXrXrXzXuXrX7X2X2X2X2X2X2X2X2X2X2X2X2X2X2X2X2X2X2X2X2X2X2X2X2X2X2X2X2X2X2X2X2X2X2X2X2X2X2X2X2X2X2X2X2X2X2X2X2X2X2X2X2X8XrXzXuX8XdXz.T z.c.5.T 5.f.dX8XtXAX7Xb h h h h h f oXDX8Xj i d i i d i /.DXtXn f j f f j f /.DXtXrXtX$.-.KXzXzXSXoX6 9X;.< tX",
"zXzXAXzXzXzXzXzXzXzXzXzXzXzXzXzXzXzXzXSXzXzXtXrXtXrXuXdXuXrXrXrX8XrXrXrXtXzXzXzXzXzXzXzXzXAXAXzXzXzXzXzXzXzXzXzXzXzXFXzXzXtXrXtXrXuXzXtXrXrXrXrXrXrXtXzXSXAXzXzXzXzXzXzXzXzXzXzXzXSXzXzXzXAXSXzXzXrXrXtX7X2X7X7X4X7X4X7X7X4X4X4X7X7X4X7X2X4XrXOX7X4X4X4X7X4X4X7X2X8XtXrXtXtXtXrXtXzXuXtX2X7X8X7X7X7X7X7X7X7X7X7X7X7X7X7X7X7X7X7X8X8X8XtXrX8XrX8XrX8X7X7X7X7X7X7X7X7X7X7X7X7X7X7X7X7X7X7X7X7X7X8X2X7XtXzXuX8XdXf.l.s.l.z.x z.s.uX8XtXAX7Xb h h h h h h oXDX8Xj i d d d d i /.DXtXn f j j j j f /.DXtXtX6X$.<XcXzXzXuX6 i.JXv.: 3X",
"FXSXtXFXSXzXzXzXzXzXzXzXzXzXzXzXdXzXuX2XSXzXtXrXrXtXoXc.z.uXuXuXdXuXuXuXrXzXzXzXzXuXzXSXuXtXrXzXzXzXFXzXFXFXSXdXzXzXOXzXzXtXrXrXtX'.l.7XuXdXdXuXuXuXtXzXrXuXSXSXFXSXSXSXSXFXSXAXFX7XzXdXSXrX4XSXzXrXrXtX7X4XuX7XtX7XtX8X8XtXtXtXrX8XtXtX8X4X8X4XtXtXtXtX7XtXtXtX4X8XtXrXrXrXrXrXtXzXuXtX4X8XtXtXtXtXtXtXtXtXtXtXtXtXtXtXtXtXtXtX7X7X7XXXOX8X4X7X4X7XtXtXtXtXtXtXtXtXtXtXtXtXtXtXtXtXtXtXtXtXtXtX4X7XtXzXuX8XuXOX5.f.z.5.l.5.'.uX8XtXAX7Xf g g g g g g '.FX8Xd p p p p p p /.FXtXb d d d d d d ~.DXtXsX,X@.wXcXzXzXzX7XFXFX,X:  X",
"2XoX7X2X2XSXzXzXzXzXzXzXzXzXzXzXuXFXs.6 tXzXrXrXtXtXR z.i.z.s.'.5.XXs.z.uXzXtX5.s.5.uXuXi.s.5.z.+X+XoXzXXXs.2XzXSXOX5 +XFXtXrXrXuXz.R z.XXs.q.oXs.z.zX7X5.XXtX+Xs.7X2X4X2XXX4X8X2Xs.uXdXFXT k zXzXrXrXtX7X4X8Xi.l.s.z.i.4X+Xl.z.s.s.l.OXrX4X8X2XtXi.+Xs.f.f.z.tX2X8XtXrXrXrXrXrXtXzXuXtX4X7XtXrXrXrXrXrXrXrXrXrXrXrXrXrXrXrXrXuX+Xz.OXs.T l.z.i.s.8XtXtXrXrXrXrXrXrXrXrXrXrXrXrXrXrXrXrXrXrXrXtX4X7XtXzXuXrXrXtXtXtXuXtXdXtXtXrXrXtXzXrXl.d.d.d.d.d.d.5XAXtXd.d.d.d.d.d.d.4XAXtX~.L.L.L.L.L.d.4XAXuXtX6X@.<XSXzXzXzXSXuXFXv.1 3X",
"i.s.q.s.tXzXzXzXzXzXzXzXzXzXzXzXdXAXz.s.7XAXrXrXrXtX'.5.5.q.s.R l.R x q.tXzXs.T i.T uXs.s.i.5.s.f.s.s.5.'.5.2XzXAXOXs.XXSXtXrXrXtX2Xs.l.T 5.s.Y x s.zX2XT 7XR s.i.5.T T c.5.s.'.R q.zXzXzXz.f.tXzXrXrXtX7X7X7Xq.z.q.s.s.2Xz.q.i.l.z.T 7X8X4X8X2XtXi.q.s.'.i.l.zX2X8XtXrXrXrXrXrXtXzXuXtX4X7XtXrXrXrXrXrXrXrXrXrXrXrXrXrXrXrXrXuX+Xz.7Xl.l.T f.T i.uX7X8XrXtXrXrXrXrXrXrXrXrXrXrXrXrXrXrXrXrXrXtX4X7XtXzXuXrXtXrXrXdX4X7X4XtXrXtXrXtXzXtXkXzXxXzXzXzXzXtXzXuXkXzXxXzXzXzXzXtXzXuXuXxXkXkXxXkXzXtXzXuXrXsX=.-.KXzXzXzXzXzXKXO.< sX",
"f.T q.s.7XzXzXzXzXzXzXzXzXzXzXzXuXGXs.6 uXzXrXrXtXrXl.q.s.s.s.i.R z.q.c.uXdXf.Y 5.5.7Xl.q.i.q.T z.z.s.i.z.s.OXzXAX2X5 XXFXtXrXrXtX2Xz.+X5.s.R z.q.+XzX4XT oXT l.s.5.s.s.4Xz.l.T R 5.zXdXGXT k SXzXrXrXtX7X7X7Xz.tXz.z.s.oXoXf.z.z.s.z.oXrX4X8X4XrXz.s.'.s.z.z.rX2X8XtXrXrXrXrXrXtXzXuXtX4X7XtXrXrXrXrXrXrXrXrXrXrXrXrXrXrXrXrXuXOXi.z.s.+Xz.s.+Xz.z.'.z.4XtXrXrXrXrXrXrXrXrXrXrXrXrXrXrXrXrXrXtX4X7XtXzXuXrXtXrXtXXX5.i.T c.uXrXrXtXzXtXeX*X$X9X*X*X*XiXzXtXeX*X*X9X*X$X*XtXzXuXeX$X*X8X*X*X*X8XzXuXrXsX>X#.;XzXzXzXzXzX;.: v.sX",
"7X7XzX7X7XAXzXzXzXzXzXzXzXzXzXzXdXzXzX8XSXzXtXrXrXtX7XtXuXrXdXz.XXzXrX8XtXzXFXzX8X4XSXtX2XuXoX7XzXuX2XSX2X7X8XzXzXAX8XAXzXtXrXtXrXrXdXs.oXz.OXzXrX8XtXzX2X2XdXtX7XtX4XtXdXtXuX7X7XtXzXdXAXdXtXSXzXrXrXtX7X4XtXtXtXuXtXrXtXuXuXuXtXtXuXtX8X4X8X4XtXtXuXtXtXuXtXtX4X8XtXrXrXrXrXrXtXzXuXtX4X8XtXtXtXtXtXtXtXtXtXtXtXtXtXtXtXtXtXtXtXrX8XtXtXuXuXtXuXtXtXtXtXtXtXtXtXtXtXtXtXtXtXtXtXtXtXtXtXtXtXtX4X7XtXzXuXrXrXtX2X5.q.5.T l.dX8XrXtXzXtX$X..*X9X*X$X*XiXzXuX$X..*X$X*X*X*XtXzXuX$X$X*XtX*X*X..9XzXuXrXrXsX;X$.6XzXuXxX,X: b.sXrX",
"SXSXzXSXSXzXzXzXzXzXzXzXzXzXzXzXzXzXzXAXzXzXtXrXtXrXtXrXrXrXrXtXtXrXtXtXtXzXzXzXAXSXzXAXFXzXFXSXzXzXFXzXFXSXSXdXzXzXAXzXzXtXrXtXtXrXrXrXtXtXtXrXtXtXtXzXFXFXzXAXSXAXSXzXzXzXzXSXSXAXzXzXzXzXzXzXzXrXrXtX7X2X4X4X4X4X4X4X4X4X4X4X4X4X4X4X2X4XrXOX4X4X4X4X4X4X4X4X2X8XtXrXtXtXtXrXtXzXuXtX2X4X7X7X7X7X7X7X7X7X7X7X7X7X7X7X7X7X7X7X7X7X7X7X7X7X7X7X7X7X7X7X7X7X7X7X7X7X7X7X7X7X7X7X7X7X7X7X7X7X7X7X2X7XtXzXuXrXrXtX2X5.5.5.T l.dXrXrXtXzXtXrX$X*X9X$X9X$XtXzXtXrX$X*X$X*X*X*XtXzXuXrX*X*X9X$X9X$XtXzXuXrXtXrXtX6XrXrXrXrXrX3XtXrXrX",
"rXrXtXrXrXtXtXtXtXtXtXtXtXtXtXtXrXtXtXrXtXtXrXrXrXrXrXrXrXrXrXrXrXrXrXrXrXtXtXtXrXrXtXtXrXtXrXrXtXtXrXtXrXrXtXtXtXtXrXtXtXrXrXrXrXrXrXrX8XrXrXrXrXrXrXtXrXrXtXtXrXrXrXtXtXtXtXrXrXtXtXtXtXtXrXtXtXrXrXrX8X7X7X7X7X7X7X7X7X7X7X7X7X7X7X7X7X8X8X7X7X7X7X7X7X7X7X7X7X8X8X8X8X8X8X8XrXzXtX8X7X4X4X4X4X4X4X4X4X4X4X4X4X4X4X4X4X4X4X4X4X4X4X4X4X4X4X4X4X4X4X4X4X4X4X4X4X4X4X4X4X4X4X4X4X4X4X4X4X4X4X4X4X8X8XzXuX8XrX8XtXoXoX2Xc.7XrX8X8XtXzXtX8XeXeXrXrXrXeXrXzXtX8XeXeXrXeXiXeX8XzXtX8XeXeXrXeXrXeX8XzXuX8XrXrX8XtX8X8X8X8XrXtX8X8X8X",
"uXdXdXdXdXdXdXdXdXdXdXdXdXdXdXdXdXdXdXdXdXdXdXdXdXdXdXdXdXdXdXdXdXdXdXdXdXdXuXuXuXuXuXuXuXuXuXuXuXuXuXuXuXuXuXdXdXuXuXuXuXdXdXdXdXdXdXdXdXdXuXdXdXdXdXuXuXuXuXuXuXuXuXuXuXuXuXuXuXuXuXuXuXuXuXuXuXdXdXdXdXdXdXdXdXdXzXzXzXzXzXzXzXzXzXzXzXzXzXzXzXzXzXzXzXzXzXzXzXzXzXzXzXzXzXzXzXAXzXzXdXzXzXzXzXzXzXzXzXzXzXzXzXzXzXzXzXzXzXzXzXzXzXzXzXzXzXzXzXzXzXzXzXzXzXdXzXzXzXzXzXzXzXzXzXzXzXzXzXzXzXzXzXzXzXAXzXzXzXzXzXzXzXzXSXzXzXzXzXzXzXzXzXzXzXzXzXzXzXzXAXzXzXzXzXzXzXzXzXzXAXzXzXzXzXzXzXzXzXzXAXzXzXzXuXzXzXzXzXzXzXzXzXzXzXzX",
"zXzXzXzXzXzXzXzXzXzXzXzXzXzXzXzXzXzXzXzXzXzXzXzXzXzXzXzXzXzXzXzXzXzXzXzXzXzXzXzXzXzXzXzXzXzXzXzXzXzXzXzXzXzXzXzXzXzXzXzXzXzXzXzXzXzXzXzXzXzXzXzXzXzXzXzXzXzXzXzXzXzXzXzXzXzXzXzXzXzXzXzXzXzXzXzXzXzXzXzXzXzXzXzXzXzXrX7X8X8X8X8X8X8X8X8X8X8X8X8X8X8X8X8X8X8X8X8X8X8X8X8X8X8X8X8X8X7X7X8XzXzXzXzXzXzXzXzXzXzXzXzXzXzXzXzXzXzXzXzXzXzXzXzXzXzXzXzXzXzXzXzXzXzXzXzXdX7X8X8X8X8X8X8X8X8X8X8X8X8X8X8X8X8X8X7X8X8X8X8X8X7X7X7X7X8X8X8X7XuXzX7X8X8X8X8X8X8X8X8X7X8X8X8X8X8X8X8X8X8X7X8X8X8X8X8X8X8X8X8X7X8X7XtXzXrX7X8X8X8X8X8X8X8X8X8X",
"uX8XrXtXtXtXtXtXtXtXtXtXtXtXtXtXtXtXtXtXtXtXtXtXtXtXtXtXtXtXtXtXrX8XdXzX8XrXtXtXtXtXtXtXtXtXtXtXtXtXtXtXtXtXtXtXtXtXtXtXtXtXtXtXtXtXtXtX8XuXzXrXrXtXtXtXtXtXtXtXtXtXtXtXtXtXtXtXtXtXtXtXtXtXtXtXtXtXtXtXtXtXtXrXtXzXk.7.8.8.8.8.8.8.8.8.8.8.8.8.8.8.8.8.8.8.8.8.8.8.8.8.8.8.8.8.8.8.8.8.tXdX8XtXtXtXtXtXtXtXtXtXtXtXtXtXtXtXtXtXtXtXtXtXtXtXtXtXtXtXtXtXtXrX8XzX2X4.8.8.8.8.8.8.8.8.8.8.8.8.8.8.8.8.8.8.8.8.8.8.8.8.8.8.8.8.8.8.3.'.uX8.8.8.8.8.8.8.8.8.8.8.8.8.8.8.8.8.8.8.8.8.8.8.8.8.8.8.8.8.8.8.7.j.AXa.7.8.8.8.8.8.8.8.8.8.",
"sXjX|.D D D D D D D D D D D D D D D D D D D D D D D D D D D D D }.yXdXzXuX%XK K K K K K K K K K K K K K K K K K K K K K K K K K K K K } uXtXzXtX4XG G G G G G G G G G G G G G G G G G G G G G G G G G G G G ^ tXtXzXj.8.4.3.3.3.3.3.3.3.3.3.3.3.3.3.4.4.4.3.3.3.3.3.3.3.3.3.3.3.3.3.8.t.uXuXgX>.&.&.&.&.&.&.&.&.&.&.&.&.&.&.&.&.&.&.&.&.&.&.&.&.&.&.&.&.<.>XaXzX2X8.8.3.4.3.3.3.3.3.3.3.3.3.3.3.4.4.4.3.3.3.3.3.3.3.3.3.3.3.3.7.7.'.uX8.8.3.3.3.3.3.3.3.3.3.3.3.3.3.4.4.7.3.3.3.3.3.3.3.3.3.3.3.3.4.8.l.AXk.8.3.3.3.3.3.3.3.3.3.",
"sXjX|.t r r r r r r r r r r r r e e e r r r r r r r r r r e r t }.jXdXdXuXW.u % # # # # # # # # # # # # # $ # # # # # # # # # # # # $ | vXtXzXtX$XH o o o o o o o o o o o o o o & o o o o o o o o o o o o o G uXtXzXj.8.3.8.8.8.8.8.8.8.8.8.8.8.8.9.8.8.4.r.8.8.8.8.8.8.8.8.8.8.r.3.8.t.uXuXgX,.o.> > > > > > > > > > > > > > > > > > > > > > > > > > > o.:XaXzX2X8.7.4.r.8.8.8.8.8.8.8.8.8.8.8.8.4.7.r.8.8.8.8.8.8.8.8.8.r.8.4.7.'.uX8.8.4.r.8.8.8.8.8.8.8.8.8.8.9.8.3.2.r.8.8.8.8.8.8.8.8.8.8.8.3.8.j.AXk.8.3.8.8.8.8.8.8.8.8.",
"sXjX|.t e e e e e e e e e e e e N F F e e e e e e e e e e e e t }.yXdXdXuXW.u # # # # # # # # # # # # u u y $ # # # # # # # # # # # $ | uXtXzXtX$XH o + + + + + + + + + + + * * * * @ + + + + + + + + + + o G tXtXzXj.8.3.8.8.8.8.8.8.8.8.8.8.8.t.3.9 Y Y a.8.8.8.8.8.8.8.8.8.8.r.4.8.t.uXuXgX,.o.> > > > > > > > > > > > *.*.o.> > > > > > > > > > > > o.:XaXzX2X8.7.7.r.8.8.8.8.8.8.8.8.8.a.T 6 x 3.t.8.8.8.8.8.8.8.8.8.r.8.4.7.'.uX8.8.4.r.8.8.8.8.8.8.8.8.8.t.4.6 Y Y t.8.8.8.8.8.8.8.8.8.8.8.4.8.j.AXk.8.3.8.8.8.8.8.8.8.8.",
"sXjX|.t e e e e e e e e e e e e N t t e e e e e e e e e e e e t }.yXdXdXuXW.u # # # # # # # # # # # # u u u $ # # # # # # # # # # # $ | vXtXzXtX$XH o + + + + + + + + + + + * * * * + + + + + + + + + + + o G tXtXzXj.8.3.8.8.8.8.8.8.8.8.8.8.8.a.2.6 x x a.8.8.8.8.8.8.8.8.8.8.r.4.8.t.uXuXgX,.o.> > > > > > > > > > > > *.o.o.> > > > > > > > > > > > o.:XaXzX2X8.7.4.r.8.8.8.8.8.8.8.8.8.a.Y 9 9 Y a.8.8.8.8.8.8.8.8.8.r.8.4.7.'.uX8.8.4.r.8.8.8.8.8.8.8.8.8.a.2.6 2.2.t.8.8.8.8.8.8.8.8.8.8.8.4.8.j.AXk.8.3.8.8.8.8.8.8.8.8.",
"sXjX|.t e e e e e e e e e e e e e e e e e e e e e e e e e e r t }.yXdXdXuXW.u % # # # # # # # # # # # # # $ # # # # # # # # # # # # $ | uXtXzXtX$XH o @ @ @ @ @ @ @ @ @ @ @ @ @ & + @ @ @ @ @ @ @ @ @ @ @ o G tXtXzXj.8.4.8.r.r.r.r.r.r.r.r.r.r.r.8.8.8.7.r.r.r.r.r.r.r.r.r.r.r.t.4.8.t.uXuXgX,.o.> > > > > > > > > > > > > > > > > > > > > > > > > > : o.:XaXzX2X8.7.7.t.r.r.r.r.r.r.r.r.r.r.8.8.4.7.t.r.r.r.r.r.r.r.r.r.t.8.4.7.'.uX8.8.4.t.r.r.r.r.r.r.r.r.r.r.8.8.8.8.r.r.r.r.r.r.r.r.r.r.r.8.4.8.j.AXk.8.4.r.r.r.r.r.r.r.r.",
"sXjX|.t t t t t t t t t t t t t t t t t t t t t t t t t t t t F }.jXdXdXuXW.u $ y y y y y y y y y y y y y y y y y y y y y y y y y y y | vXtXzXtX$XH O & & & & & & & & & & & & & & & & & & & & & & & & & & O G tXtXzXj.8.3.7.8.8.8.8.8.8.8.8.8.8.8.8.8.8.8.8.8.8.8.8.8.8.8.8.8.8.8.3.8.t.uXuXgX,.o.o.o.o.o.o.o.o.o.o.o.o.o.o.o.o.o.o.o.o.o.o.o.o.o.o.o.o.*.:XaXzX2X8.7.3.8.8.8.8.8.8.8.8.8.8.8.8.8.8.8.8.8.8.8.8.8.8.8.8.8.8.4.4.7.'.uX8.8.3.8.8.8.8.8.8.8.8.8.8.8.8.8.8.8.8.8.8.8.8.8.8.8.8.8.8.7.3.8.j.AXa.8.3.8.8.8.8.8.8.8.8.",
"uXiX}.|.|.|.|.|.|.|.|.|.|.|.|.|.|.|.|.|.|.|.|.|.|.|.|.|.|.|.|.|.@XtXdXzXtX#X} } } } } } } } } } } } } } } } } } } } } } } } } } } } } E.uXtXzXtX9X~ ~ ~ ~ ~ ~ ~ ~ ~ ~ ~ ~ ~ ~ ~ ~ ~ ~ ~ ~ ~ ~ ~ ~ ~ ~ ~ ~ ~  .tXtXzXj.8.7.4.4.4.4.4.4.4.4.4.4.4.4.4.4.4.4.4.4.4.4.4.4.4.4.4.4.4.4.4.8.r.uXuXsX:X>.>.>.>.>.>.>.>.>.>.>.>.>.>.>.>.>.>.>.>.>.>.>.>.>.>.>.>.>.<XtXzX2X7.8.4.4.4.4.4.4.4.4.4.4.4.4.4.4.4.4.4.4.4.4.4.4.4.4.4.4.4.4.8.7.'.uX8.8.4.4.4.4.4.4.4.4.4.4.4.4.4.4.4.4.4.4.4.4.4.4.4.4.4.4.4.4.7.8.j.AXa.8.7.4.4.4.4.4.4.4.4.",
"uX8XuXjXjXjXjXjXjXjXjXjXjXjXjXjXjXjXjXjXjXjXjXjXjXjXjXjXjXjXjXjXtX8XzXzX8XtXvXvXvXvXvXvXvXvXvXvXvXvXvXvXvXvXvXvXvXvXvXvXvXvXvXvXvXvXvXuX8XuXzXrXtXnXnXnXnXnXnXnXnXnXnXnXnXnXnXnXnXnXnXnXnXnXnXnXnXnXnXnXnXnXdXrXtXzXj.8.t.r.r.r.9.9.r.r.r.r.r.r.r.r.r.r.r.r.r.8.r.8.r.9.r.r.r.r.r.r.8.r.uXdXrXsXgXgXgXgXgXgXgXgXgXgXgXgXgXgXgXgXgXgXgXgXgXgXgXgXgXgXgXgXgXtX8XzX2X7.r.r.r.r.9.9.r.r.r.r.r.r.r.r.r.r.r.r.r.r.8.r.9.r.8.r.r.r.r.t.7.'.dX8.8.r.r.r.r.9.r.r.r.r.r.r.r.r.r.r.r.r.8.r.9.r.9.r.r.r.r.r.r.t.8.j.AXa.8.t.r.r.r.9.r.r.r.r.",
"uXrXrX8X8X8X8X8X8X8X8X8X8X8X8X8XrXsX8X8X8X8X8X8X8X8X8X8X8X8X8X8XrXrXzXzXrXrX8X8X8XtXtX8X7X8X8X8X8X8X8X8X8X8X8X8XtXtXsXtXrXsXtX8X8X8X8X8XrXuXzXtXrX8X7X8XtXuXtX7X8X8X8X8X8X8X8X8X8X8X8X8XtX8XrXrXrXrX8X8X8X8X8XrXtXzXj.8.r.8.8.t.a.a.8.8.8.8.8.8.8.8.8.8.8.8.8.a.r.a.t.a.r.8.8.8.8.8.8.r.uXdXrXrXeXeXrXtXtXeXeXeXeXeXeXeXeXeXeXeXeXeXtXtXuXtXuXtXeXeXeXeXeXrX8XzX2X7.r.8.8.8.a.a.8.8.8.8.8.8.8.8.8.8.8.8.t.r.a.r.a.t.a.t.8.8.8.r.7.'.dX8.8.8.8.8.t.a.r.8.8.8.8.8.8.8.8.8.8.8.a.r.a.r.a.r.8.t.8.8.8.r.8.j.AXa.8.8.8.8.r.a.r.8.8.8.",
"uXrXtXrXrXrXrXrXrXrXrXrXrXrXrXtX7X+XtXrXrXrXrXrXrXrXrXrXrXrXrXrXtXrXzXzXrXrX8XzXtXXX'.8XzXrXrXrXrXrXrXrXrXrXtX7X+XoXz.2X7Xz.OXtXrXrXrXtXrXuXzXtXrX8XdXdXOXc.4XzXtXrXtXrXrXrXrXrXrXrXtX8XOXtX4X7X7X7XtXrXrXrXrXrXtXzXj.8.8.r.a.3.1.3.a.a.8.8.8.8.8.8.8.8.8.8.8.Y 7.2.3.Y 7.r.8.8.8.8.8.r.uXdXrXrXtXsX7X,X3XsXsXrXrXrXrXrXrXrXrXrXrXtX7XOXXX2XXX2XtXrXrXrXrXtX8XzX2X7.r.8.a.r.3.3.8.a.8.8.8.8.8.8.8.8.8.8.3.8.2.4.2.3.Y 3.t.8.8.r.7.'.dX8.8.8.a.a.6.3.8.a.8.8.8.8.8.8.8.8.9.8.Y 8.2.7.2.4.8.3.r.8.8.r.8.j.AXa.8.8.t.a.7.2.7.a.t.8.",
"uXrXtXrXrXrXrXrXrXrXrXrXrXrXrXuXs.T XXuXrXrXrXrXrXrXrXrXrXrXrXrXtXrXzXzXrXrXzXs.6 6 6 5 q.uXrXrXrXrXrXrXrX8XdXz.Y 2Xi.i.uXq.i.zX8XrXrXtXrXuXzXtX8XdXc.6 5 6 5 J 8XtXrXrXrXrXrXrXrXrXtX2XR dXR +X5.z.dXrXrXrXrXrXtXzXj.8.a.7.q 2 2 2 3 2.a.8.8.8.8.8.8.8.8.r.8.x 6 5 2.x 9 a.8.8.8.8.8.r.uXdX8XtXtX-.=.=.$.< v.xXrXrXrXrXrXrXrXrXrXtXT l.z.5.z.5.8XtXrXrXrXtX8XzX2X7.r.a.1.8 8 8 7 O.a.8.8.8.8.8.8.8.t.3.6 x 6 Y 5 Y 9 9 a.8.8.r.7.'.dX8.8.a.2.8 8 8 7 0 8.r.8.8.8.8.8.8.r.8.9 6 9 9 5 x x 9 a.8.8.r.8.j.AXa.8.a.6.q 8 8 8 q 7.a.",
"uXrXtXrXrXrXrXrXrXrXrXrXrXrXrXtXs.l.l.zX8XrXrXrXrXrXrXrXrXrXrXrXtXrXzXzX8XzXq.5 z.uXdXXX6 R dXrXrXrXrXrXrXrXtX8Xs.l.l.XXSXs.XXuXrXrXrXtXrXuXzXrXuXXX6 s.zXdX2XJ 6 8XtXrXrXrXrXrXrXrXrXtXs.s.Y T Y z.dX8XrXrXrXrXtXzXj.8.7.8 0 7.a.9.q ; 2.a.8.8.8.8.8.8.8.8.a.Y Y Y 9 Y Y a.8.8.8.8.8.r.uXdXrXtX=.=.wXuX4Xh.< h.xXrXrXrXrXrXrXrXtX2XT s.c.5.OXs.tXrXrXrXrXtX8XzX2X7.a.0 8 6.a.a.7.8 q a.8.8.8.8.8.8.8.a.9 3.Y 6 6 Y x 2.a.8.8.r.7.'.dX8.a.1.7 1.a.a.7.q q r.8.8.8.8.8.8.8.a.Y 6 9 5 6 6 5 9 a.8.8.r.8.j.AXa.8.6.7 O.9.a.9.0 7 6.",
"uXrXtXrXrXrXrXrXrXrXrXrXrXrXrXuXz.T 2XtXrXrXrXrXrXrXrXrXrXrXrXrXtXrXzXdXuX+X5 8XIXAXzXGXzX5 l.zX8XrXrXrXrXrXtX4Xi.l.s.oXz.s.tXrXrXrXrXtXrXuXzXtXrXR +Xz.OXFXSXLX9 Y zX8XrXrXrXrXrXrXrXtXs.+X5.s.q.l.dX8XrXrXrXrXtXzXj.r.q 0 z.5 Y j.z.q 3 a.8.8.8.8.8.8.8.a.2.5 Y x 9 5 Y t.8.8.8.8.8.r.uXuXsXg.=.cXJXz.6 PXc.< 7XtXrXrXrXrXrXrXtX8Xi.q.s.q.Y s.tXrXrXrXrXtX8XzX2X8.3.7 9.j.a.j.T 3.; Y a.8.8.8.8.8.8.a.x 2.9 9 9 x 9 t.8.8.8.r.7.'.uX8.8.7 2.l.a.k.j.l.q 0 a.8.8.8.8.8.t.4.9 x 9 9 9 9 9 9 a.8.8.r.8.j.AXa.r.q O.l.k.a.a.l.0 q ",
"uXrXtXrXrXrXrXrXrXrXrXrXrXrXrXrXrX7XtX8XrXrXrXrXrXrXrXrXrXrXrXrXtXrXzXdXzXW T 4Xz.tXzXdXLXy.x zX8XrXrXrXrXrXtX8X4XtXtX8X8XtXtXrXrXrXrXtXrXuXzXdX XT GX5.5 tXzXFXXX6 rXtXrXrXrXrXrXrXrXrXrXuXuXdXdXtXrXrXrXrXrXrXtXzXj.3.8 9.l.9 6 j.a.a.2 2.a.8.8.8.8.8.8.8.8.4.4.4.8.4.4.r.8.8.8.8.8.r.uXuXtX=.>XcXFXi.R DXKXO.b.xXrXrXrXrXrXrXrXtX8X8X4X8X7X4XrXrXrXrXrXtX8XzX2Xr.0 0 j.a.j.9 @ a.q 4 a.8.8.8.8.8.8.8.r.8.4.a.4.8.9.8.8.8.8.r.7.'.uXa.1.q j.a.a.a.4.8.3.8 t.8.8.8.8.8.8.8.4.8.4.a.4.9.a.t.8.8.8.r.8.j.AXk.3.8 a.k.a.k.j.k.t.8 ",
"uXrXtXrXrXrXrXrXrXrXrXrXrXtXuXuXdXuXtXdXuXrXrXrXrXrXrXrXrXrXrXrXtXrXzXdXuXQ /.l.5 l.GXzXFXz.6 uXrXrXrXrXrXrXrXtXtXtXrXtXtXtXtXrXrXrXrXtXrXuXzXdXf.i.FXSXoXdXzXAX8X5 2XtXrXrXrXrXrXrXrXrXuXtXuXtXuXrXrXrXrXrXrXrXtXzXl.2.8 a.k.a.a.a.a.k.3 0 a.8.8.8.8.8.8.8.8.a.a.r.a.a.a.8.8.8.8.8.8.r.uXdX8X=.6XcXzXzXzXzXKX;.;.cX8XrXrXrXrXrXuXtXtXtXuXtXuXuXtXtXrXtXrXtX8XzX2Xr.q 1.j.a.k.T 4.l.0 3 a.8.8.8.8.8.8.8.8.a.a.8.a.a.r.8.8.8.8.r.7.'.uXa.0 0 j.a.k.8.= = 6.3 7.r.8.8.8.8.8.9.r.t.a.8.a.a.r.8.8.8.8.r.8.j.zXj.1.8 k.a.k.a.Y a.k.8 ",
"uXrXtXrXrXrXrXrXrXrXrXrXtX8XXXOXc.2X7Xc.OXtXrXrXrXrXrXrXrXrXrXrXtXrXzXdXuXp.p.LXzXzXzXzXGXs.k zX8XrXrXrXrXrXrXtX7X2XtX4XrX4X8XtXrXrXrXtXrXuXzXdX XT SXzXFXzXzXFXOX5 7XtXrXrXrXrXrXrXrXtXOX2XXX7X+XrXtXrXrXrXrXrXtXzXj.3.8 9.k.a.k.a.a.a.2 1.a.8.8.8.8.8.8.8.a.3.2.a.Y Y 2.t.8.8.8.8.8.r.uXdXtX=.>XKXzXzXzXzXKX;.b.xX8XrXrXrXrXtXXX2XtX7X2X4X2X2X4X2XtXrXrXtX8XzX2Xr.0 O.j.a.a.j.k.j.q 4 a.8.8.8.8.8.8.8.a.2.3.8.Y Y 4.t.8.8.8.r.7.'.uXa.1.q j.a.a.a.8.k.1.2 8.8.8.8.8.8.8.8.t.3.2.a.Y Y 2.t.8.8.8.r.8.j.AXk.2.8 a.a.k.a.= 5 k.8 ",
"uXrXtXrXrXrXrXrXrXrXrXrXdX'.Y 2Xi.q.tXi.5.zX8XrXrXrXrXrXrXrXrXrXtXrXzXzXtXoXI tXSXzXzXzXSX6 s.zX8XrXrXrXrXrXrXdXz.5.uXY 4XR 4XtXrXrXrXtXrXuXzXtX8XR XXFXzXzXzXLXJ Y zX8XrXrXrXrXrXrXuXc.T oX5.l.i.l.dX8XrXrXrXrXtXzXj.r.q 0 j.a.a.a.l.0 2 a.8.8.8.8.8.8.8.t.3.9 9 9 6 5 Y a.8.8.8.8.8.r.uXuXsXg.=.FXzXzXzXKX3X< 3XtXrXrXrXrXtXrXz.q.c.R i.5.5.5.5.5.7XtXrXtX8XzX2X8.2.7 a.k.a.a.k.k.2 0 a.8.8.8.8.8.8.a.Y 9 9 9 5 5 4.t.8.8.8.r.7.'.uX8.7.7 6.j.a.a.k.l.4 q a.8.8.8.8.8.8.t.3.9 9 9 6 5 Y a.8.8.8.r.8.j.AXa.r.8 O.j.a.k.a.5.0 8 ",
"uXrXtXrXrXrXrXrXrXrXrXrXtX8Xs.l.z.'.FXf.'.dXrXrXrXrXrXrXrXrXrXrXtXrXzXzX8XuXp.! sXzXzXzXx x uXrXrXrXrXrXrXrXrXtX4Xs.s.Y 5.Y OXuXrXrXrXtXrXuXzXrXuX XR 4XAXzXFX5.5 7XtXrXrXrXrXrXrX8XzXs.5.z.i.z.z.XXuXrXrXrXrXrXtXzXj.8.6.7 1.k.a.j.1.; 1.a.8.8.8.8.8.8.8.a.Y Y 8.6 x 9 4.t.8.8.8.8.8.r.uXdXrXtX=.-.cXzXcX6X< b.xXrXrXrXrXrXrXuX2Xs.5.x z.5.i.q.5.s.oXuXrXtX8XzX2X7.a.0 8 a.a.a.a.3 4 a.8.8.8.8.8.8.8.a.9 2.2.6 x 9 8.8.8.8.8.r.7.'.dX8.a.1.7 7.k.a.j.q 2 8.r.8.8.8.8.8.8.a.Y x 8.6 9 9 3.t.8.8.8.r.8.j.AXa.r.3.7 1.k.a.j.1.; 2.",
"uXrXtXrXrXrXrXrXrXrXrXrXtX4Xs.s.s.oXz.s.8XtXrXrXrXrXrXrXrXrXrXrXtXrXzXzXrXtXtX/.7XtXtXrXs.8XtXrXrXrXrXrXrXrXrXtX7Xs.+XR s.T XXuXrXrXrXtXrXuXzXtXrXuX XOXuXtXdXs.oXdXrXrXrXrXrXrXrXrXuX'.5.s.s.5.R 2XtXrXrXrXrXrXtXzXj.8.a.2.1.a.9.a.1.1.a.8.8.8.8.8.8.8.8.r.7.9 9 Y Y x 7.r.8.8.8.8.8.r.uXdX8XsX6X>XtXtXsX3Xh.sXrXrXrXrXrXrXtX8XY s.l.T q.q.q.q.q.5.rXtXrXtX8XzX2X7.t.8.1.8.t.t.8.0 8.r.8.8.8.8.8.8.8.a.2.6 9 Y Y Y r.8.8.8.8.r.7.'.dX8.8.a.1.3.a.r.a.0 3.a.8.8.8.8.8.8.8.r.8.9 9 Y Y x 4.r.8.8.8.r.8.j.AXa.8.a.2.1.a.9.a.x 1.a.",
"uXrXtXrXrXrXrXrXrXrXrXrXtX8X2XtXrXrX7XtXtXrXrXrXrXrXrXrXrXrXrXrXtXrXzXzXrXrXrXuXtXrXrXtXzXtXrXtXrXrXrXrXrXrXrXrXrXrXdXuXdXuXtXrXrXrXrXtXrXuXzXtXrXrXuXtXrXrXrXdXtXrXtXrXrXrXrXrXrXrXrXtX7X7X4XrX2X7XtXrXrXrXrXrXtXzXj.8.8.a.a.8.8.8.a.a.8.8.8.8.8.8.8.8.8.8.t.8.4.t.8.8.8.8.8.8.8.8.8.r.uXdXrXrXtXsXrXrXrXtXsXrXrXrXrXrXrXrXtXrX7X4XdXuX7X8X8X8X8X7XtXrXrXtX8XzX2X7.r.8.a.r.8.8.r.a.8.8.8.8.8.8.8.8.8.8.a.7.8.t.8.8.8.8.8.8.8.r.7.'.dX8.8.8.a.t.8.8.8.a.t.8.8.8.8.8.8.8.8.8.t.8.4.a.8.8.8.8.8.8.8.r.8.j.AXa.8.8.a.a.8.8.8.a.a.8.",
"uXrXrX8X8X8X8X8X8X8X8X8X8XrXtX8X8X8XrX8X8X8X8X8X8X8X8X8X8X8X8X8XrXrXzXzXrXrX8X8X8X8X8X8X8X8X8X8X8X8X8X8X8X8X8X8X8X8X8X8X8X8X8X8X8X8X8X8XrXuXzXtXrX8X8X8X8X8X8X7X8X8X8X8X8X8X8X8X8X8X8X8XrXrXtX8XtXrX8X8X8X8X8XrXtXzXj.8.8.8.8.8.8.8.8.8.8.8.8.8.8.8.8.8.8.8.8.8.9.8.8.8.8.8.8.8.8.8.8.r.uXdXrXrXeXeXeXeXrXeXeXeXeXeXeXeXeXeXeXrXtXtX7XeXrXrXrXrXrXrXeXeXeXrX8XzX2X7.r.8.8.8.8.8.8.8.8.8.8.8.8.8.8.8.8.8.8.9.8.8.8.8.8.8.8.8.8.r.7.'.dX8.8.8.8.8.8.8.8.8.8.8.8.8.8.8.8.8.8.8.8.8.9.8.8.8.8.8.8.8.8.8.8.j.AXa.8.8.8.8.8.8.8.8.8.8.",
"uX8XuXjXjXjXjXjXjXjXjXjXjXjXjXjXjXjXjXjXjXjXjXjXjXjXjXjXjXjXjXjXtX8XzXzX8XtXvXvXvXvXvXvXvXvXvXvXvXvXvXvXvXvXvXvXvXvXvXvXvXvXvXvXvXvXvXuX8XuXzXrXtXnXnXnXnXnXnXnXnXnXnXnXnXnXnXnXnXnXnXnXnXnXnXnXnXnXnXnXnXnXdXrXtXzXj.8.a.a.a.a.a.a.a.a.a.a.a.a.a.a.a.a.a.a.a.a.a.a.a.a.a.a.a.a.a.a.8.r.uXdXrXsXgXgXgXgXgXgXgXgXgXgXgXgXgXgXgXgXgXgXgXgXgXgXgXgXgXgXgXgXgXtX8XzX2X7.a.a.a.a.a.a.a.a.a.a.a.a.a.a.a.a.a.a.a.a.a.a.a.a.a.a.a.a.a.a.7.'.dX8.r.a.a.a.a.a.a.a.a.a.a.a.a.a.a.a.a.a.a.a.a.a.a.a.a.a.a.a.a.a.7.j.AXa.8.a.a.a.a.a.a.a.a.a.",
"uXtX].|.}.}.}.}.}.}.}.}.}.}.}.}.}.}.}.}.}.}.}.}.}.}.}.}.}.}.}.|.@XtXdXzXtX#X} } } } } } } } } } } } } } } } } } } } } } } } } } } } } `.tXuXzXtX9X . . . . . . . . . . . . . . . . . . . . . . . . . . . . .Q.tXtXzXj.8.1.1.1.1.1.1.1.1.1.1.1.1.1.1.1.1.1.1.1.1.1.1.1.1.1.1.1.1.1.1.8.t.uXuXsX>X:X:X:X:X:X:X:X:X:X:X:X:X:X:X:X:X:X:X:X:X:X:X:X:X:X:X:X:X:X<X8XzX2X8.6.O.1.1.1.1.1.1.1.1.1.1.1.1.1.1.1.1.1.1.1.1.1.1.1.1.1.1.O.3.8.'.uX8.7.1.1.1.1.1.1.1.1.1.1.1.1.1.1.1.1.1.1.1.1.1.1.1.1.1.1.1.1.1.8.j.AXa.8.1.1.1.1.1.1.1.1.1.",
"sXjX|.F t t t t t t t t t t t t t t t t t t t t t t t t t t t F }.jXdXdXuXW.u y y y y y y y y y y y y y y y y y y y y y y y y y y y u | vXtXzXtX$XH & & & & & & & & & & & & & & & & & & & & & & & & & & & & G tXtXzXj.r.7   - - - - - - - - -   - - - - -   - - - - - - - - - -   2 7.a.uXuXgX,.o.o.o.o.o.o.o.o.o.o.o.o.o.o.o.o.o.o.o.o.o.o.o.o.o.o.o.o.*.:XaXzX2X8.1.;   - - - - - - - - - - - - - -   - - - - - - - - -   - 0 r.c.uXr.6.2   - - - - - - - - - - - - - - - - - - - - - - - - -   8 r.j.AXa.8.7   - - - - - - - ",
"sXjX|.t r r r r r r r r r r r e t t t r r r r r r r r r r r r t }.yXdXdXuXW.u % # # # # # # # # # % $ u y y # # # # # # # # # # # % $ | uXtXzXtX$XH o @ @ @ @ @ @ @ @ @ @ + * * * & @ @ @ @ @ @ @ @ @ @ @ o G tXtXzXj.r.7 .                       X X X X                       . 2 7.t.uXuXgX,.> > > > > > > > > > > > o.o.o.o.> > > > > > > > > > > : o.:XaXzX2X8.1.- .                     X X X X                     .   0 8.c.uXr.7.2 .                     X X X X                       . 8 r.j.AXa.8.7 .               ",
"sXjX|.t r e e e e e e e e e e t t N N e r e e e e e e e e e r t }.jXdXdXuXW.u # # # # # # # # # # # y y u u y # # # # # # # # # # # $ | vXtXzXtX$XH o + + + + + + + + + + & * * H * + + + + + + + + + + + o G tXtXzXj.r.7 .                       X X X X                       . 2 7.t.uXuXgX,.o.> > > > > > > > > > > o.o.*.+.> > > > > > > > > > > > o.:XaXzX2X8.1.-                       X X X X                         0 8.c.uXr.7.2 .                     X X X X                       . 8 r.j.AXa.8.7 .               ",
"sXjX|.t r e e e e e e e e e r t F e t e e e e e e e e e e e r t }.jXdXdXuXW.u # # # # # # # # # # # $ u y y y # # # # # # # # # # # $ | uXtXzXtX$XH o + + + + + + + + + + & * & & * + + + + + + + + + + + o G tXtXzXj.r.7 .                       X X   X                       . 3 7.t.uXuXgX,.o.> > > > > > > > > > > o.o.o.o.> > > > > > > > > > > > o.:XaXzX2X8.1.;                       X X   X                         0 8.c.uXr.7.2 .                       X   X                       . 8 r.j.AXa.8.7 .               ",
"sXjX|.t r r r r r r r r r r r r r r r r r r r r r r r r r r r t }.jXdXdXuXW.u % # # # # # # # # # # % % % % % # # # # # # # # # # % $ | vXtXzXtX$XH o o o o o o o o o o o o o o o o o o o o o o o o o o o o G uXtXzXj.r.7 . . . . . . . . . . . . . . . . . . . . . . . . . . . . 2 7.t.uXuXgX,.> > > > > > > > > > > > > > > > > > > > > > > > > > > : o.:XaXzX2X8.1.- . . . . . . . . . . . . . . . . . . . . . . . . . . . 0 8.c.uXr.7.2 . . . . . . . . . . . . . . . . . . . . . . . . . . . 8 r.j.AXa.8.7 . . . . . . . . ",
"sXjX|.N N N N N N N N N N N N N N N N N N N N N N N N N N N N N }.yXdXzXuX`.a a a a a a a a a a a a a a a a a a a a a a a a a a a a a } uXtXzXtX4XG H H H H H H H H H H H H H H H H H H H H H H H H H H H H L tXtXzXj.8.q 3 3 3 3 3 3 3 3 3 3 3 3 3 3 3 3 3 3 3 3 3 3 3 3 3 3 3 3 7 7.a.uXuXgX>.+.+.+.+.+.+.+.+.+.+.+.+.+.+.+.+.+.+.+.+.+.+.+.+.+.+.+.+.<.>XaXzX2X8.1.3 3 3 3 3 3 3 3 3 3 3 3 3 3 3 3 3 3 3 3 3 3 3 3 3 3 3 3 O.8.'.uXr.6.7 3 3 3 3 3 3 3 3 3 3 3 3 3 3 3 3 3 3 3 3 3 3 3 3 3 3 3 q 8.j.AXa.8.8 3 3 3 3 3 3 3 3 ",
"uXrX8XaXaXaXaXaXaXaXaXaXaXaXaXaXaXaXaXaXaXaXaXaXaXaXaXaXaXaXaXaXrXrXzXzXrX8X9X9X9X9X9X9X9X9X9X9X9X9X9X9X9X9X9X9X9X9X9X9X9X9X9X9X9X9X9X8XrXuXzXtXrX9X9X9X9X9X9X9X9X9X9X9X9X9X9X9X9X9X9X9X9X9X9X9X9X9X9X9X9X9X9XrXtXzXj.8.8.9.9.9.9.9.9.9.9.9.9.9.9.9.9.9.9.9.9.9.9.9.9.9.9.9.9.9.9.8.8.r.uXdXrXeXiXiXiXiXiXiXiXiXiXiXiXiXiXiXiXiXiXiXiXiXiXiXiXiXiXiXiXiXiXrX8XzX2X7.9.9.9.9.9.9.9.9.9.9.9.9.9.9.9.9.9.9.9.9.9.9.9.9.9.9.9.9.9.9.7.'.uX8.8.8.9.9.9.9.9.9.9.9.9.9.9.9.9.9.9.9.9.9.9.9.9.9.9.9.9.9.9.9.8.j.AXa.8.8.9.9.9.9.9.9.9.9.",
"uXrX7X2X2X2X2X2X4X2X2X4X2X2X2X2X7XrX2X2X2X2X2X2X2X2X7X4X2X2X2X2X7XrXdXzXrX7X2X2X2X2X4X4X2X2X2X4X2X2X2X2XtX2X2X2X2X2X2X2X2X7X7X4X2X2X2X7XrXuXzXtXrX2X2X2X4X4X4X4X4X4X4X2X4X2X2XtX7X2X4X4X4X4X4X4X4X7X4X4X2X2X4XrXtXzXj.8.4.3.3.3.4.4.4.3.3.4.3.3.3.3.8.8.3.3.3.4.3.4.3.4.4.4.4.3.3.3.8.r.uXdXrX7X4X4X4X4X4X4X4X4X4X4X4X4X4X7X8X4X4X4X4X4X4X4X4X4X4X4X4X4X4X7XrXzX2X7.8.3.3.3.4.4.4.3.3.4.4.3.3.3.8.7.3.3.3.4.4.4.4.4.4.4.3.3.3.8.7.'.uX8.8.3.3.3.4.4.4.4.3.4.4.3.3.3.8.8.3.3.3.4.4.4.3.4.4.4.3.3.3.4.8.j.AXa.8.4.3.3.4.4.4.4.3.4.",
"uXtX4X7X8X8X7X4X2X7X8X4X7XrX8X7X4X8X2XrX8X7X7X7X7X7XOX2X4X8XrX4X4XtXdXzXtX7X4XrX8X7X4X2X7X8X4X4XrX8X8X2XrX2X8X8X7X7X7X7X7X2X2X4X8X8X7X2XtXuXzXtX8X2X8X8X7X4X4X4X8X7X2XrX8X8X2X8X2X7X8X8X7X7X7X7X4X2X4X7X8X8X2XrXtXzXj.8.3.8.8.8.4.4.3.8.8.3.8.8.8.4.7.7.4.8.8.7.8.7.8.4.3.3.7.8.8.3.8.t.uXdXtX2X7XrXrX7X7X2X7X8X2X7XrXrX7X4X8X2XrX8X7X7X7X7X7XOX2X4X8XrX4X7XrXzX2X8.7.4.8.8.4.4.3.8.8.3.8.8.8.3.8.4.7.8.8.8.8.7.8.3.3.4.8.8.7.4.7.'.uX8.8.3.8.8.7.4.3.8.8.4.4.8.8.4.7.7.4.8.8.7.8.7.8.3.3.3.8.8.8.3.8.j.AXa.8.3.8.8.8.4.3.4.8.7.",
"uXtX4X7XtXtXz.z.z.z.OXz.z.tXtX7X4X8X4XtXuX+Xf.s.'.'.f.s.+XuXtX7X7XtXdXzXtX7X7XtXuX'.z.z.l.oXz.l.7XtXrX2XrX2XrXtX4Xf.s.z.+Xl.s.z.tXtX8X4XtXuXzXtX8X4XtXuXoXl.z.l.+X+Xf.2XtXtX4X8X4X8XtXrXf.f.f.oXz.s.f.8XtXrX2XrXtXzXj.8.4.8.t.4.Y Y Y Y 2.Y 2.t.r.4.8.7.7.r.a.Y Y 9 2.Y x 9 4.t.r.4.8.t.uXdXrX4X7XtXtXz.z.z.z.OXz.z.tXtX7X4X8X4XtXuX'.f.s.+X'.f.s.+XuXtX7X7XrXzX2X8.7.7.t.8.Y Y Y Y 3.Y Y t.r.4.8.4.8.a.3.x x Y 2.Y 9 Y t.r.8.4.7.'.uX8.8.4.r.t.Y Y Y Y 3.Y Y 8.t.4.7.7.7.t.8.x x Y 2.Y x Y 8.r.8.4.8.j.AXk.8.3.8.a.T Y Y Y 2.Y ",
"uXtX4X7XtXtX+Xi.'.s.z.z.z.8XtX7X4X8X2XtXtXOX5.s.z.z.XXs.'.uXtX7X7XtXdXzXtX7X4XtXtX2Xi.z.f.z.z.z.4XtXrX2XrX2XrXtX7Xq.i.z.z.oXl.z.tXrX7X4XtXuXzXtX8X2XtXtX7Xs.l.z.f.z.z.oXtXtX2X8X4X7XtXtXs.5.l.z.XXz.s.8XtXrX2XrXtXzXj.8.3.8.8.8.Y 9 Y x Y Y Y t.8.4.8.7.7.8.t.Y 6 x Y Y Y 9 3.r.9.4.8.t.uXdXtX4X7XtXtX'.i.'.s.z.z.z.rXtX7X4X8X4XtXtXoXT s.z.z.XXs.+XtXtX4X7XrXzX2X8.7.4.r.r.Y 9 Y x Y Y Y r.9.3.8.4.8.t.4.9 9 Y Y 2.Y Y t.8.8.4.7.'.uX8.8.4.9.t.2.9 Y x Y Y Y 8.t.4.7.7.4.r.8.9 6 Y Y 2.Y x 8.8.8.4.8.j.AXk.8.3.8.r.4.9 Y x Y Y ",
"uXtX4X7XtXtXOXOX+X2XXX+X2XtXtX8X4X8X4XtXtX7XoX4XoX2X7XoXOXtXtX7X7XtXdXzXtX7X7XtXtX2XOX+XOXXXoXXXtXtXrX2XrX2XrXtXrXOX2XOXoX8XOXoXtXtX8X4XtXuXzXtX8X4XtXtX7XoXXXoXoXoX+XtXtXtX4X8X4X8XtXtX4XOX4X+X7X4X+X8XtXrX2XrXtXzXj.8.4.8.r.8.2.2.2.2.2.T 8.r.t.4.8.7.7.t.r.4.2.4.2.7.4.2.4.t.r.4.8.t.uXdXrX4X7XtXtXoXOX+X2XoX+X2XtXtX7X4X8X4XtXtX7XoX4XXX4X7XoX2XtXtX7X7XrXzX2X8.7.7.t.8.2.3.2.3.2.2.4.t.r.4.8.4.8.t.8.3.3.3.2.8.3.2.r.r.8.4.7.'.uX8.8.4.r.t.3.3.2.3.2.2.2.t.r.7.7.7.7.t.8.3.3.3.2.8.3.2.8.r.8.4.8.j.AXk.8.3.8.t.4.2.2.3.2.2.",
"uXtX4X7X8X8XtXtXtXtXtXtXtX8X8X7X4X8X2XrX8X8XtXrXtXrX8XtXtX8XrX4X7XtXdXzXtX7X4XrX8XrXtXtXtXtXtXtX8X8X8X2XrX2X8X8X8XtXtXtXtX8XtXtX8X8X7X2XtXuXzXtX8X2X8X8XrXtXtXtXtXtXtX8X8X8X2X8X4X7X8X8XrXtXrXtX8XrXtX8X8X8X2XrXtXzXj.8.3.8.8.8.r.r.r.9.r.t.8.8.8.4.7.7.4.8.8.8.r.8.t.8.8.r.8.8.8.3.8.t.uXdXtX2X7X8X8XtXtXtXtXtXtXrX8X8X7X4X8X2XrX8X8XtXrXtXrX8XtXrX8XrX4X7XrXzX2X8.7.4.8.8.r.9.t.9.r.t.8.8.8.3.8.4.7.8.8.9.8.9.9.8.9.9.8.8.7.4.7.'.uX8.8.3.8.8.9.9.t.9.r.r.9.8.8.4.7.7.4.8.8.9.9.8.t.8.8.r.8.8.8.3.8.j.AXa.8.3.8.8.8.9.t.9.r.r.",
"uXrX7X2X2X2X2X2X2X2X2X2X2X2X2X2X7XrX2X2X2X2X2X2X2X2X2X2X2X2X2X2X7XrXdXzXrX7X2X2X2X2X2X2X2X2X2X2X2X2X2X4XtX4X2X2X2X2X2X2X2X2X2X2X2X2X2X7XrXuXzXtXrX2X2X2X2X2X2X2X2X2X2X2X2X2X2XrX7X2X2X2X2X2X2X2X2X2X2X2X2X2X4XrXtXzXj.8.4.3.3.3.3.3.3.3.3.3.3.3.3.3.8.8.3.3.3.3.3.3.3.3.3.3.3.3.3.3.8.r.uXdXrX7X2X2X2X2X2X2X2X2X2X2X2X2X2X7XrX2X2X2X2X2X2X2X2X2X2X2X2X2X2X7XrXzX2X7.8.3.3.3.3.3.3.3.3.3.3.3.3.3.8.7.3.3.3.3.3.3.3.3.3.3.3.3.3.8.7.'.uX8.8.3.3.3.3.3.3.3.3.3.3.3.3.3.8.8.3.3.3.3.3.3.3.3.3.3.3.3.3.4.8.j.AXa.8.4.3.3.3.3.3.3.3.3.",
"uXrXtXtXtXrXrXrXtXtXtXtXtXtXtXtXtXrXrXrXrXtXtXtXtXtXtXtXtXtXtXtXtXrXzXzXrXtXtXtXtXrXrXrXtXtXtXtXtXtXtXtXrXrXrXrXtXtXtXtXtXtXtXtXtXtXtXtXrXuXzXtXrXtXtXtXrXrXrXtXtXtXtXtXtXtXtXrXrXrXrXtXtXtXtXtXtXtXtXtXtXtXtXrXtXzXj.8.r.r.9.8.8.8.9.r.r.r.r.r.r.r.8.8.8.8.8.r.r.r.r.r.r.r.r.r.r.r.8.r.uXdXrXtXtXtXrXrXrXtXtXtXtXtXtXtXtXtXrXrXrXrXtXtXtXtXtXtXtXtXtXtXtXtX8XzX2X7.r.r.r.8.8.8.8.r.r.r.r.r.r.r.8.8.8.8.9.r.r.r.r.r.r.r.r.r.r.t.7.'.dX8.8.r.r.9.8.8.8.r.r.r.r.r.r.r.8.8.8.8.8.r.r.r.r.r.r.r.r.r.r.t.8.j.AXa.8.r.r.9.8.8.8.9.r.r.",
"uXrXtXrX8XuXzXzXtX8XrXrXrXrXrXrX8XtXzXzXuXrXrXrXrXrX8XrXrXrXtXrXrXrXzXzXrXrXrX8XtXzXzXuX8XrXrXrXrXrXrX8XrXdXzXdXtX8XrXrXrXrXrXrXrXtXtXrXrXuXzXtXrXrX8XtXzXzXdXrX8XrXrXrXrXrXrXrXdXzXzXtX8XrXrXrXrXrXrXrXrXtXrXrXtXzXj.8.r.8.8.a.a.a.8.8.8.8.8.8.8.8.8.a.a.a.a.8.8.8.8.8.8.8.8.8.r.8.8.r.uXdXrXtXrXrXsXxXxXtX8XrXrXrXrXrXrX8XtXxXxXsXrXrXrXrXrX8XrXrXrXtXrXrX8XzX2X7.r.8.8.t.a.a.a.8.8.8.8.8.8.8.8.a.a.a.t.8.8.8.8.8.8.8.8.8.8.r.7.'.dX8.8.8.8.r.a.a.a.8.8.8.8.8.8.8.8.a.a.a.a.8.8.8.8.8.8.8.8.8.r.8.8.j.AXa.8.9.8.8.a.a.a.8.8.8.",
"uXrXrXtXzXoXd.l.4XzXrXrXrXrXrXrXzX7Xl.d.'.uXuX8XrXtXuXrXtXuX7X8XuXrXzXzXrXrXrXzX4Xd.s.oXzXtXrXtXrXtX8XuXtXz.s.z.tXdX8XtXrXuXtXrXuX8X7XuXrXuXzXtXrX8XzX8Xl.s.c.uXuX8XtXrXtX8XtXdX+Xs.l.7XzXrXrXrXuXtXrXtXrX7XtXtXtXzXj.8.8.a.a.1.0 Y 8.a.8.8.8.8.8.r.a.3.0 0 3.a.r.8.8.t.a.8.t.t.7.r.t.r.uXdXrXrXtXsX Xh.h.6XxXrXrXrXrXrXrXxX7Xv.h. XsXtXrXrXtXuXrXtXtX7XrXuX8XzX2X7.r.8.a.3.0 0 3.a.r.8.8.8.8.t.a.2.0 0 7.a.8.8.8.a.9.8.a.8.8.a.7.'.dX8.8.8.a.8.0 0 1.a.a.8.8.8.8.8.a.3.0 0 3.a.r.8.8.a.t.8.t.8.8.a.8.j.AXa.8.8.a.r.1.0 1.r.a.8.",
"uX8XtX7Xc g b h g u.uXrXrXrXrXzXy.g h b g h 4XuXrXtXs.s.7X7X2X4X2X8XzXzXrXtXuXT 5 k k 5 x 8XtXrXtX8XzXz.6 6 k 6 5 z.dX8XuXz.i.4X7X4X4X4X7XuXzXtX8XzXs.5 6 9 5 6 OXuX8XtXrXuX2X6 6 9 6 5 i.dX8XuXXX5.oX7X7X2X7X4XtXzXj.7.a.1.2 2 3 2 ; Y a.8.8.8.r.r.7 2 3 3 ; 7 t.8.t.4.9 Y 7.7.3.7.3.t.uXdX8XsX6Xw < w < < b.sXrXrXrXrXsXb.< w w < w 6XtXrXrXs.s.7X7X2X7X2X8XzX2X7.t.t.7 ; 3 3 ; 7 r.r.8.8.a.6.3 2 3 3 ; q a.8.a.Y 9 4.4.4.4.4.3.+XuX8.8.a.0 ; 3 3 ; 3 3.a.8.8.r.t.7 ; 3 3 ; 7 r.8.a.Y 9 3.7.4.3.4.3.l.AXa.8.a.1.2 2 3 2 2 1.a.",
"uXrXrXh c dXFXDX5Xg W zX8X8XzXu.g oXFXFXzXu.g 5XzXz.s.+X+X5.i.i.T z.AXdX8XdXR 6 7XFXFXtXx 6 tXrX8XuX'.5 d.SXFXzXd.= z.zX2X5.+XXXi.5.s.T s.zXzX8XzXs.5  XFXFXzX5.5 2XtX8XtX7X5 T zXFXSXXX5 4.zXtX5.'.+Xl.T s.5.5.8XAXj.r.2.; 0 k.j.k.0 - Y a.8.8.a.4 3 9.j.j.8.3 4 a.a.9 Y 2.Y 6 9 9 6 3.dXuXtX7X< ;.zXFXSX3X< ;.xXrXrXxX;.< 3XFXFXuX;.< 7XzXz.s.+X+X5.i.q.T z.FX2X7.a.4 3 8.j.j.9.3 3 a.8.r.7.2 7 a.j.k.3.; q a.2.9 2.2.9 9 9 6 9 XXuX8.a.q ; 2.j.j.a.q ; 7.r.8.a.4 3 9.j.j.8.3 4 a.8.6 2.2.x 6 9 6 6 j.AXa.a.1.; 0 k.j.k.0 - 1.",
"uXzXu.h GXzXzXzXGX8Xg '.uXtX4Xg OXGXzXzXzXLXc n DX'.i.q.R Y R 5.z.s.SXuXuXz.5 uXFXzXzXSXGX6 s.zX8XuX6 s.IXzXzXzXIXs.6 zX7Xq.s.Y R Y 5.z.i.tXzXtX7X5 +XLXzXzXzXIXY J zX7XzXY J PXzXzXzXLXOX5 2XdXq.f.R T x T s.s.2XFXj.t.3 q z.a.a.a.z.0 2 a.8.a.0 2 k.k.a.a.j.a.; x k.9 9 6 6 5 6 9 x Y zXuXxX;.;.PXzXzXzXJX6X< 3XtXtX3X< 6XKXzXzXzXPXO.;.FXc.i.5.R Y R 5.z.s.GX2Xr.x 2 a.j.a.a.j.k.2 0 a.a.q 4 l.k.a.a.l.6.; 3.4.9 9 5 6 5 6 Y 6 XXuXr.3.; 3.l.a.a.k.z.4 7 a.a.0 2 k.j.a.a.j.k.2 0 a.9 x 5 6 5 6 Y 9 a.SXa.r.2 0 z.a.a.a.z.0 2 ",
"uXuXh z.GXFXSXzXdXJXn u.zXzXy.b GXFXFXzXzXFX'.g rXuXz.l.c.z.+XXX2XoXzXuXzXR T LXFXFXzXzXGXs.x zXuX+X5 uXzXzXAXzXzXdX6 XXzXXXs.'.l.'.+X2XXXuXzXzXs.6 FXzXAXzXzXFX2X6 7XtXrX6 +XFXzXSXzXzXGX9 s.zX2Xs.c.z.c.+XOXoX7XAXl.2.2 9.k.k.k.a.a.a.2 1.a.a.4 q j.a.k.a.a.l.q 7 a.8.x Y Y Y 2.2.2.4.uXdXtX< v.KXGXSXzXkXKX;.b.xXxXb.;.PXDXzXzXzXFXv.< tXtXz.l.c.z.+XXX2XoXSX2Xa.4 q l.a.k.a.a.l.0 4 a.8.2 1.j.a.k.a.a.j.4 0 k.2.x Y Y 2.2.3.2.+XuXa.0 3 j.a.j.k.a.j.2.2 8.a.4 q l.a.k.a.a.l.q 4 k.3.9 Y Y Y 2.3.2.j.AXj.1.2 a.a.k.k.a.k.a.2 ",
"uXtXg '.zXq.+XFXdXGXu.c zXzXu.c GXs.q.FXzXAX5Xg 7XtXuXdXuXdXuXuXtXtXdXdXzXx q.GXs.f.FXzXFXz.6 uXdXz.6 zXSXtXrXzXzXzX6 z.dXtXzXuXdXuXuXtXtXuXzXzX8.9 GXAX8XuXzXzX8X5 2XuX7X5 2XFXdX7XzXzXGXY 5.zXrXzXuXdXuXuXtXtXtXzXl.1.2 a.k.t.8.k.a.k.3 0 a.a.3 0 j.a.4.a.a.j.0 3 a.8.a.a.a.a.a.a.t.a.tXdX8X< ,XzXq.OXFXzXKX;.;.xXxX;.;.#X6 i.FXzXSX3X< 8XtXdXdXuXdXuXuXtXtXzX2Xa.4 0 j.k.4.a.a.j.0 3 a.8.2 3.j.a.8.k.a.j.7 q s.t.a.a.a.a.a.a.8.'.uXa.q 7 j.k.Y a.a.k.6.2 7.s.3 0 j.a.4.a.a.j.0 3 a.9.a.a.a.a.a.a.8.l.zXj.x 2 k.k.8.8.k.a.k.2 ",
"uXkXh l.s.5 4XSXdXJXc u.zXkXd.h 4X6 l.AXzXGX/.g tXrX8X8XrX8XrXrXrX8XzXdXzXT R oX5 z.SXdXLXq.x zXtXOX5 8XFX6 s.GXzXtX5 oXuX8X8XrX8XrXrXrX8XuXzXzXl.6 FXrX5 +XSXFX+X6 rXtXtX6 z.IXR R GXzXFX6 s.zX8X8XrX8XrXrXrXrXtXzXj.3.2 6.j.= 9 j.a.a.2 2.a.a.4 q c.x = a.a.l.7 7 a.8.8.8.8.8.8.8.8.r.uXuXsX< v.i.6 7XAXzXKXw b.xXsXh.;.5Xi.4XzXzXKXv.< sXrX8X8XrX8XrXrXrX8XzX2Xa.7 7 z.Y = a.a.l.q 4 a.a.2 0 z.6 5 j.a.j.3 0 a.8.8.8.8.8.8.r.4.'.uXa.0 2 l.6 = a.a.j.1.2 r.a.7 7 c.Y = a.a.l.q 7 a.8.8.8.8.8.8.8.7.j.zXj.2.2 9.k.= x j.k.9.; ",
"uXkXl.n tXSXFXzXGX'.g 4XtXtX7Xn ].FXFXzXzXDXh u.zX8XrXtXtXtXtXtXtXrXzXzXtXoXk #XAXFXzXSXtX5 z.dX8XzXx R tXR uXzXGXR x zX8XrXtXtXtXtXtXtXrXuXzXtXtX5 a.OXR SXzXFX6 2.zX7XzX5.6 zXR OXSXGXl.5 rXtXrXtXtXtXtXtXtXrXtXzXj.a.4 4 a.5 8.k.j.q 3 a.8.a.1.; 9.9 Y j.k.6.; 2.a.8.8.8.8.8.8.8.8.r.uXuXsXh.$.tXSXSXzXKXv.< 7XtXtXeX$.>XPXAXzXzXzX< b.xX8XrXtXtXtXtXtXtX8XzX2X8.2.; 6.x 9 j.k.8.; 1.a.a.q 2 a.6 2.k.j.1.; 8.r.8.8.8.8.8.8.r.7.'.uX8.8.; 0 Y 4.j.a.k.2 q a.a.1.; 7.9 x j.k.7.; 1.a.8.8.8.8.8.8.r.8.j.AXa.a.3 7 a.5 a.k.j.7 4 ",
"uX8XuXN.N.zXzXAX5Xg d.zX8XrXuX#Xn 5XzXzXDXn c uXrXrXeX0X0X0X0X0X0XeXzXzX8XuX^.I tXzXzXzX6 R zXrXrXuX2X6 ~.GXzXFXs.5 4XtXrXeX0X0X0X0X0X0XeXuXzXrXdXc.5 OXGXzXFXY 6 tXtXrXtXtX9 T GXzXSXXX5 z.dX8XeX0X0X0X0X0X0XeXtXzXj.8.7.2 O.j.a.j.0 ; 3.a.8.8.a.q 3 k.k.a.t.2 q a.8.8.7.7.7.7.7.7.7.r.uXdX8XsX-.-.xXzXSX3X< v.sXrXrXsX>X$.6XxXzXcX;.;.sXrXrX0X0X0X0X0X0X0XeXzX2X7.a.q 3 k.k.a.a.2 q a.8.8.a.4 q j.k.k.3.; Y a.8.7.6.7.7.7.7.7.3.+XuX8.a.Y 3 9.k.a.j.7 3 a.8.8.a.q 3 k.k.a.a.2 q a.8.8.6.7.7.7.7.7.4.l.AXa.r.3.2 1.j.a.j.0 ; 7.",
"uXrXtXrX#XrXrXtX4X'.kXrXrXtXrXtX4X5XtXrXtX/.7XtXrXrX0X0X0X0X0X0X0XeXzXzXrXrXtXoX7XtXrX8Xz.tXtXrXtXrXtX5XOXrX8XtX+X2XuXrXtXeX0X0X0X0X0X0XeXuXzXtX8XuXOX2XrXrXtXc.7XtXrXrXrXtX8XoXrX8XtX2X+XdX8XtXeX0X0X0X0X0X0XeXtXzXj.8.a.7.3.8.8.a.2.2.a.8.8.8.8.t.2.8.8.r.7.1.a.8.8.8.6.6.6.6.6.6.7.r.uXdXrXtX8X,XtXrXtX3Xc.sXrXtXrXrXsX,X6XtXrXrXv.8XtXrXrX0X0X0X0X0X0X0XeXzX2X7.r.t.2.8.8.r.8.1.t.8.8.8.r.8.2.8.8.t.3.1.a.8.8.7.6.6.6.6.6.7.3.+XuX8.8.a.3.6.r.8.r.1.8.t.8.8.8.t.2.8.8.r.8.1.a.8.8.8.6.7.6.6.7.7.4.l.AXa.8.a.6.3.r.8.t.1.3.a.",
"uXrXrXtXzXrXtXuXuXzX8XtXrXrXrXdXuXtXdXtXdXzXdXtXrXrX0X0X0X0X0X0X0XeXzXzXrXrXtXzXtXtXdXtXAXtXrXrXrXrXuXuXtXuXtXuXzXzXtXrXtXeX0X0X0X0X0X0XeXuXzXtXrXuXuXtXdXtXuXzXdXtXrXtXrXtXdXtXuXuXtXzXzXuXrXtXeX0X0X0X0X0X0XeXtXzXj.8.a.a.r.a.a.a.a.a.t.8.8.8.r.a.a.t.a.r.a.a.a.8.8.8.7.6.7.6.7.6.7.r.uXdXrXrXtXsX8XtXuXdXxX8XtXrXrXtXuXsXtXdXtXdXdXuXrXrXrX0X0X0X0X0X0X0XeXzX2X7.t.a.a.r.a.r.a.a.a.8.8.8.t.a.t.t.a.t.a.a.a.8.8.7.6.7.6.6.7.7.3.+XuX8.8.a.a.r.t.a.a.a.a.r.8.8.r.a.a.t.a.r.a.a.a.8.8.8.6.7.6.6.7.7.4.l.AXa.8.a.a.r.a.t.a.a.a.t.",
"uXrXtX4X+XuX2Xc.4Xz.tXrXrXtXtXz.4XtXz.4Xz.4Xz.4XtXrX0X0X0X0X0X0X0XeXzXzXrXtX7X'.tX7Xz.7Xz.7XtXrXrXtXc.XXdXc.OX+XoX+XXXuXrXeX0X0X0X0X0X0XeXuXzXrXtXz.2XuXz.4Xz.2Xz.2XtXrXuXoXc.dXXX'.2X'.2Xz.tXrXeX0X0X0X0X0X0XeXtXzXj.8.Y 2.a.Y 2.2.2.2.2.a.8.t.4.Y r.4.Y 4.Y 4.Y 8.r.8.7.7.7.7.7.6.7.r.uXdX8XtX2XXXdXOX'.2Xz.tXrXrXtXrXz.7XtXz.7Xz.4X+X7XtXrX0X0X0X0X0X0X0XeXzX2X8.7.Y 8.7.Y 7.Y 4.Y 8.8.t.2.Y a.2.Y 3.Y 3.Y t.8.7.6.7.7.7.7.7.3.+XuX8.8.Y 4.a.3.2.Y 3.Y 4.t.r.4.Y 9.7.Y 4.Y 4.Y 8.r.8.6.7.7.7.7.7.4.l.AXa.9.Y 2.a.Y 3.2.2.2.2.",
"uX8XdXz.T zXi.5.T 5.+XuX8XdXc.5.l.+X5.T q.T 5.s.uXrX0X0X0X0X0X0X0XeXzXzX8XtX2XR dXl.5.T 5.l.dX8XtX2X5.s.2X5.5.5.5.5.q.7XtXeX0X0X0X0X0X0XeXuXzXuX+X5.l.XX5.T q.T 5.s.tXrXrXq.5.2Xi.5.T q.T 5.OXuXeX0X0X0X0X0X0XeXtXzXj.3.6 9 3.9 6 6 6 6 9 7.8.a.9 6 2.Y 6 6 9 6 9 Y a.8.7.7.7.7.7.7.7.r.uXdX8XdXl.5.zXi.5.T 5.XXuX8XdXz.5.z.'.5.T 5.s.T 2XtXrX0X0X0X0X0X0X0X8XzX2X8.Y 6 2.Y 6 6 9 6 9 Y a.8.9 6 3.9 6 6 9 6 9 2.a.7.6.7.7.7.7.7.3.+XuXa.Y 6 x k.9 6 6 Y 6 9 t.a.x 6 2.Y 6 6 9 6 9 Y a.7.6.7.7.7.7.7.4.l.zXk.2.6 9 3.9 6 6 6 6 9 ",
"uXrXtX7Xi.tXs.f.Y z.z.zX8XdXz.l.s.z.z.x z.Y l.i.tXrX0X0X0X0X0X0X0XeXzXzXrXrXuXq.8Xs.z.x z.s.dX8XuX+Xs.s.z.l.T s.5.i.s.2XtXiX0X0X0X0X0X0XiXuXzXdXz.l.s.z.z.Y z.Y l.s.rXtX7Xs.s.z.l.s.T s.R l.c.dXeX0X0X0X0X0X0XiXtXzXl.2.x 9 Y Y 6 9 6 9 9 3.t.t.9 x Y x Y 5 Y 5 Y x a.8.6.6.6.6.6.6.7.r.uXdX8XtX4Xs.rXs.s.R z.z.dX8XdXl.l.s.z.z.x z.s.s.oXuXrX0X0X0X0X0X0X0XeXzX2X8.x Y Y Y Y 5 Y 5 Y 9 a.4.9 x Y x 9 6 Y 6 Y Y a.7.6.6.6.6.6.7.3.+XuXa.Y Y 9 Y 5 9 2.5 Y 9 r.t.9 Y Y Y Y 5 Y 5 Y 9 a.7.6.6.6.6.6.6.4.l.zXj.Y x 9 Y Y 6 9 6 9 9 ",
"uXrXtX7Xl.'.s.5.l.5.7XtXrXtX4X5.s.z.5.l.5.l.5.z.uX8XXX+X+X+X+X+X+X4XzXzXrXrXtXl.'.z.5.z.5.XXuXrXtXrXq.i.z.q.s.i.s.i.s.tXtXOX+X+X+X+X+X+X2XdXzXtX7X5.s.z.5.l.5.l.5.l.uX8XuXs.5.z.s.q.s.q.s.5.7XtX4X+X+X+X+X+X+XoXtXzXj.8.9 9 Y 9 9 9 9 9 9 t.8.a.Y 6 Y Y 6 Y 6 Y 6 3.t.8.4.4.4.4.4.4.4.r.uXdX8XtX4Xl.'.s.q.f.5.7XtXrXtX2X5.s.z.5.l.5.+Xz.2XtX8X+X+X+X+X+X+X+X7XAX2X8.2.6 Y Y 6 Y 6 Y 6 2.t.a.x 9 Y x 9 x 9 x 6 8.r.7.4.4.4.4.4.7.3.+XuXr.3.6 x Y Y 9 9 Y 6 Y a.a.Y 6 Y Y 6 Y 6 Y 6 2.a.8.4.4.4.4.4.4.4.l.AXk.8.9 9 Y 9 9 9 9 9 9 ",
"uXrXrXtXtXtXtXtXuXtXtXrXtXrXtXtXtXtXtXuXtXuXtXtXtX8XK L L L L L L %XAXzXrXtXrXtXtXtXtXuXtXtXrXrXrXtXtXtXtXtXtXtXtXtXtXrXuX~ L L L L L L { AXzXrXtXtXtXtXtXuXtXuXtXtXrXrXtXtXtXtXtXtXtXtXuXtXrXuXQ.L L L L L L I uXzXj.8.t.t.t.r.t.t.t.t.t.r.8.8.t.r.t.t.r.a.9.a.r.t.8.r.i.i.i.i.i.i.i.r.uXdXrXrXtXtXtXtXtXuXtXtXrXtXrXtXtXtXtXtXuXtXtXtXtXtX9XK L L L L L L %XDX2X7.a.r.t.t.r.a.9.a.r.t.8.8.t.r.t.t.t.a.r.a.r.r.8.i.i.i.i.i.i.i.5.'.dX8.r.r.t.t.a.a.8.a.r.t.8.8.t.r.t.t.r.a.9.a.r.t.9.q.i.i.i.i.i.i.5.l.AXa.8.t.t.t.r.t.t.t.t.t.",
"uXrXtXrXrXrXrXrXrXrXrXrXrXrXrXrXrXrXrXrXrXrXrXrXtXrX;X:.:.:.:.:.:.<XxXzXrXrXrXrXrXrXrXrXrXrXrXrXrXrXrXrXrXrXrXrXrXrXrXrXtX-X:.:.:.:.:.:.-XxXzXtXrXrXrXrXrXrXrXrXrXrXrXrXrXrXrXrXrXrXrXrXrXrXrXsX-X:.:.:.:.:.:.;XsXzXj.8.9.8.8.8.8.8.8.8.8.8.8.8.8.8.8.8.8.8.8.8.8.8.8.8.7.7.7.7.7.7.7.r.uXdXrXtXrXrXrXrXrXrXrXrXrXrXrXrXrXrXrXrXrXrXrXrXrXtXeX:.:.:.:.:.:.:.pXcX2X7.r.8.8.8.8.8.8.8.8.8.8.8.8.8.8.8.8.8.8.8.8.8.8.7.6.7.7.7.7.7.3.+XuX8.8.8.8.8.8.8.r.8.8.8.8.8.8.8.8.8.8.8.8.8.8.8.r.8.6.7.7.7.7.7.4.l.AXa.8.8.8.8.8.8.8.8.8.8.",
"uXrXtXrXrX8X8X8X8XrXrXrXrXrXrXrXrXrX8X8X8XrXrXrXtXrX-X-X-X-X-X-X-X0XzXzXrXrXrXrX8X8X8X8XrXrXrXrXrXrXrXrXrX8X8X8XrXrXrXrXtX1X-X-X-X-X-X-XpXsXzXtXrXrXrXrX8X8X8XrXrXrXrXrXrXrXrXrX8X8X8X8XrXrXrXtXpX-X-X-X-X-X-X1XtXzXj.8.r.8.8.8.8.8.8.8.8.8.8.8.8.8.8.8.8.8.8.8.8.8.8.8.6.6.6.6.6.6.7.r.uXdXrXtXrXrXrX8X8XrXrXrXrXrXrXrXrXrXrX8X8X8XrXrXrXtXeX-X-X-X-X-X-X-X0XxX2X7.r.8.8.8.8.8.8.8.8.8.8.8.8.8.8.8.8.8.8.8.8.8.8.7.6.6.6.6.6.7.3.+XuX8.8.8.8.8.8.8.8.8.8.8.8.8.8.8.8.8.8.8.8.8.8.8.r.8.6.6.6.6.6.7.4.l.AXa.8.9.8.8.8.8.8.8.8.8.",
"uXrXtX8XtXzXzXzXzXrXrXtXrXrXrXrXrXuXzXzXzXtX8XtXrXrXeXeXeXeXeXeXeXrXzXzXrXtXrXrXzXzXzXzXtX8XtXrXrXrXrX8XuXzXzXzXuX8XrXrXtXeXeXeXeXeXeXeXeXuXzXtXrXrX8XdXzXzXzXtX8XtXrXrXrXtX8XtXzXzXzXdXrXrXrXtXrXeXeXeXeXeXeXeXtXzXj.8.r.8.a.a.s.a.a.8.8.8.8.8.8.8.8.a.s.s.a.8.8.8.8.8.7.6.7.7.7.6.7.r.uXdXrXtXrXtXxXcXcXsXrXrXtXrXrXtXrXrXsXcXcXxXtXrXtXrXrXeXeXeXeXeXeXeX8XzX2X7.r.8.8.a.s.s.a.8.8.8.8.8.8.8.r.a.s.s.a.8.8.8.8.7.6.7.7.7.7.7.3.+XuX8.8.8.8.a.s.s.a.t.8.8.8.8.8.8.8.a.s.s.a.8.8.8.8.8.6.7.7.7.7.7.4.l.AXa.8.9.8.a.a.s.a.a.8.8.",
"uXrX8XuX8Xd.n W z.uXtXrXtXrXrXtXkX/.u.c u.5XkX8XtXrX0X0X0X0X0X0X0XeXzXzXrXrXtXuXz.R R s.8XuX8XtXrXrXrXzXoXq.R 5.XXzXrXrXtXeX0X0X0X0X0X0XeXuXzXtXrXtXzXc.2.Y 4.2XzX8XtXrXtX8XdX7Xi.Y Y z.dXtXrXtXeX0X0X0X0X0X0XeXtXzXj.8.8.a.3.q 7 q 2.a.8.8.8.8.8.a.r.0 7 7 0 t.a.8.8.8.7.7.7.7.7.6.7.r.uXdXrXrXsX7Xb.;.;.v.sXtXrXrXrXrXtXsXv.;.;.b.7XsXrXtXrX0X0X0X0X0X0X0XeXzX2X7.8.a.t.0 7 7 0 8.a.8.8.8.8.a.7.0 7 7 1.a.r.8.8.7.6.7.7.7.7.7.3.+XuX8.8.r.a.1.q 7 q 7.a.8.8.8.8.a.t.0 7 7 0 r.a.8.r.8.6.7.7.7.7.7.4.l.AXa.8.8.a.2.q 7 q 2.a.8.",
"uX8XuX'.g h u.W g c 8XtXrXrXtXtXc g W u.b g ~.kX8XrX0X0X0X0X0X0X0XeXzXzX8XtX7Xk 6 T T 6 6 oXuX8XrX8XzXq.5 R 5.x 5 q.dXrXtXeX0X0X0X0X0X0XeXuXzXrXrXuXY 5 Y 2.9 5 l.dX8XtX8XdXz.5 9 5.Y 5 J tXtXrXeX0X0X0X0X0X0XeXtXzXj.7.a.0 ; 4 q 4 ; q a.8.8.8.a.3.2 3 q q 2 2 3.a.8.8.7.6.7.7.7.6.7.r.uXdX8XsXc.< O.;.;.< ;.rXtXrXrXtXtX;.< ;.;.w < v.sXrXrX0X0X0X0X0X0X0XeXzX2X7.a.6.2 2 q q 2 2 3.a.8.8.a.1.; 3 q 7 ; 4 8.r.8.7.6.7.7.7.7.7.3.+XuX8.8.t.4 ; 7 q 3 ; Y a.8.8.a.3.2 2 q q 2 2 3.a.8.8.6.7.7.7.7.7.4.l.AXa.8.a.q ; 7 q 4 ; q a.",
"uXtX4Xg d.GXGXGXSXc c uXrX8XzXc h zXJXGXJX~.5 '.uXrX0X0X0X0X0X0X0XeXzXzXrXtX6 R FXGXGXGXq.5 7XtX8XzXs.5 4XLXGXJX4X5 s.zX8XeX0X0X0X0X0X0XeXuXzX8XzXY 6 uXJXJXJXc.= c.dX8XuX+X5 z.LXJXJXzX6 Y zX8XeX0X0X0X0X0X0XeXtXzXj.a.0 ; 3.l.j.l.8.; q a.8.r.8.2 q j.j.j.j.7 2 r.r.8.6.6.6.6.7.6.7.r.uXuXtX3X< h.JXKXKXzXw ;.xXrXrXsX;.O.zXJXKXJXh.< 3XsXrX0X0X0X0X0X0X0XeXzX2X7.r.2 7 j.j.j.j.q 2 8.8.a.2.; 0 l.j.j.a.3 4 a.8.7.6.7.6.6.7.7.3.+XuX8.a.7 3 a.l.j.l.0 ; 2.a.8.8.2 q j.j.j.j.q 2 8.r.8.6.7.6.6.7.7.4.l.AXa.a.0 ; 6.l.j.l.6.; 0 ",
"uXzXn c IXFXzXdXAXAXg ~.uXuX'.g tXFXdXzXdXIXu.c zX8X0X0X0X0X0X0X0XeXzXdXzXd.6 FXzXzXzXzXLXx 5.zXrXrX6 '.LXuXzXdXLX'.6 tXtXeX0X0X0X0X0X0XeXuXzXuXOX5 7XGXzXzXzXIX8.9 zX8XzX9 5.IXdXdXzXFXtX5 XXdXeX0X0X0X0X0X0XeXtXzXj.8.2 0 l.a.a.a.l.2.; 8.8.a.q 3 l.a.a.a.a.j.3 0 a.8.7.6.7.6.7.6.7.r.uXuXxX;.;.PXuXuXzXSXzX< c.sXsXc.< kXSXuXzXzXPX;.;.xX8X0X0X0X0X0X0X0XeXzX2Xa.0 3 j.a.a.a.a.l.3 q a.a.4 q z.a.a.a.k.a.; 1.a.7.6.7.6.6.7.7.3.+XuXa.2.; 9.j.a.a.a.z.q 4 a.a.0 3 j.a.a.a.a.l.3 0 a.7.6.7.6.6.7.7.4.l.AXk.8.2 1.l.a.a.a.l.1.2 ",
"dXtXn ].T k 4XSXdXGXW W zXzXu.c GXdXFXAXzXDX2Xg 8XtX0X0X0X0X0X0X0XeXzXdXzXR 5.IXSXzXzXzXGXl.k dXuX'.6 zXzXSXSXzXzXzX6 '.dXeX0X0X0X0X0X0XeXuXzXzXa.9 GXrX7XzXzXSX7X6 7XtX7X5 oXSXzXFXzXzXGXJ 8.zXeX0X0X0X0X0X0XeXtXzXl.1.2 t.j.j.k.a.a.k.2 1.a.a.3 0 j.a.j.k.a.j.0 4 a.8.7.7.7.7.7.6.7.r.uXdXrX<  XFXzXFXzXzXKX;.;.xXxX;.;.KXkXFXAXzXFX,X< tXrX0X0X0X0X0X0X0XeXzX2Xa.4 q j.a.j.k.a.j.0 4 a.8.2 2.j.k.j.a.a.j.7 q s.7.6.7.7.7.7.7.3.+XuXa.q 4 l.a.r.k.a.k.3.2 8.a.4 0 j.a.j.k.a.j.0 4 a.7.6.7.7.7.7.7.4.l.zXj.1.2 a.a.k.k.a.a.a.2 ",
"uXtXn.5XoXq.7XSXzXGXu.n zXzXu.c GXSX'.7XAXAX5Xg 7XtX0X0X0X0X0X0X0XeXzXdXzXx q.rX6 i.GXzXFXz.6 uXuXz.6 zXFXoXOXSXzXzX6 z.zXeX0X0X0X0X0X0XeXuXzXzX8.J OX= T FXzXAX7X5 2XuX7X6 2XGX7X'.SXzXGXY 5.zXeX0X0X0X0X0X0XeXtXzXl.1.2 a.Y = 8.k.a.k.3 0 a.a.3 0 j.a.Y a.a.j.0 3 a.8.7.6.7.6.7.6.7.r.uXdX8X< ,XGX8X'.AXzXKX;.;.xXxX;.;.KXAXz.rXzXSX,X< rXtX0X0X0X0X0X0X0XeXzX2Xa.4 0 j.a.Y a.a.j.0 3 a.8.2 3.j.8.Y k.a.j.7 q s.7.6.7.6.6.7.7.3.+XuXa.q 7 5.= 6 j.a.k.6.2 7.s.3 0 j.a.Y a.a.j.0 3 a.7.6.7.6.6.7.7.4.l.zXj.Y 2 a.j.2.5.k.a.a.2 ",
"uXuXN.!.LXGXAXzXzXGXh y.zXuX~.g FXoX= 4XAXLXd.h uXrX0X0X0X0X0X0X0XeXzXdXzXq.R XXT 8XzXzXLXT R zXtX4X5 4XAX5 f.FXFX4X5 4XtXeX0X0X0X0X0X0XeXuXzXuX+XR rX4XdXzXzXLXz.6 tXrXdX6 s.IX9 R GXzXSX6 z.zXeX0X0X0X0X0X0XeXtXzXj.7.2 2.6 9 k.a.j.8.; 3.r.a.7 4 c.6 = k.a.l.4 q a.8.6.6.6.6.7.6.7.r.uXuXsXw b.IXR R GXzXFX< h.sXsXh.< JX+X= 7XzXPXb.w xXrX0X0X0X0X0X0X0XeXzX2Xa.q 4 c.9 = a.a.l.7 7 a.a.3 0 c.5 5 j.a.j.2 0 a.7.6.7.6.6.7.7.3.+XuXa.1.7 4.Y a.k.a.l.0 3 a.a.q 4 c.9 = k.a.l.7 q a.7.6.7.6.6.7.7.4.l.zXk.3.; 6.a.@ Y j.j.6.; ",
"uXtX#Xn 5XzXzXzXFXy.g rXtXrXuXh u.OXl.FXzX8Xg l.zX8X0X0X0X0X0X0X0XeXzXzXtX7XI /.LXSXzXFX+X5 XXuX8XzXR 6 8Xs.zXzXzXk T zX8XeX0X0X0X0X0X0XeXuXzXrXdXT i.GXzXzXAXtX5 s.zX7XzXs.5 4Xs.rXAXFX2.6 dXrXeX0X0X0X0X0X0XeXtXzXj.a.0 7 k.j.k.a.k.4 7 a.8.a.3.; 1.Y 2.j.j.0 ; 6.t.8.7.6.7.6.7.6.7.r.uXuXsXv.< 6Xd.7XSXFX;.< tXrXrXtX< -.OXz.FXxX6X< v.sXrX0X0X0X0X0X0X0XeXzX2X8.6.; O.Y T j.k.1.; 3.t.a.0 ; 6.x 8.k.j.q 2 a.8.7.6.7.6.6.7.7.3.+XuX8.a.8 O.l.k.a.k.7.; 0 a.r.3.; 1.Y 2.j.k.1.; 3.a.8.6.7.6.6.7.7.4.l.AXa.a.7 3 8.x k.k.a.3 q ",
"uX8XuX!.n.zXdXzX2Xg '.uXrXrXuXOXb 5XFXdXAXc W zXrXrX0X0X0X0X0X0X0XeXzXzX8XuX%X! 7XzXzXuX6 s.zX8XrXtXrXc R.GXuXFXq.k tXtXrXeX0X0X0X0X0X0XeXuXzXrXtX7XR +XzXuXSXY Y zXrXrXrXdXT T GXzXAXc.6 2XtXrXeX0X0X0X0X0X0XeXtXzXj.8.a.q 0 a.a.j.0 3 8.r.8.8.a.0 7 k.k.a.8.2 Y a.8.8.7.7.7.7.7.6.7.r.uXdX8XxX;.;.GXzXxX,X< 3XsXrXrXsX X$.wXFXuXxX;.;.xXrXrX0X0X0X0X0X0X0XeXzX2X7.a.0 4 k.k.a.9.2 0 a.8.8.a.q q j.a.k.2.2 3.a.8.7.6.7.7.7.7.7.3.+XuX8.t.6.7 2.a.a.k.4 q a.8.8.a.0 7 k.k.a.9.2 0 a.8.8.6.7.7.7.7.7.4.l.AXa.8.8.4 O.l.a.j.q 3 a.",
"uXrXrXtX7XrXrXrX7X7XuXrXtXtXrXtXtX7X7X8X8X4XtXrXrXrX0X0X0X0X0X0X0XeXzXzXrXrXtX7X8XrX8X8X4XuXrXrXrXrXtXtX7X7X8XrX4XrXtXrXtXeX0X0X0X0X0X0XeXuXzXtXrXtX8X7XrX8XrX2XtXtXrXrXrXrXuX7X7X8XrX7X7XtXrXtXeX0X0X0X0X0X0XeXtXzXj.8.r.8.7.8.8.8.7.8.t.8.8.8.8.a.8.8.8.8.8.7.a.8.9.8.7.6.7.6.7.6.7.r.uXdXrXrXuXeX7X8XrX7X7XtXrXtXtXrXtXiX7X8XrX8X2XtXrXrXrX0X0X0X0X0X0X0XeXzX2X7.8.a.8.8.8.8.8.7.a.8.8.8.8.a.8.8.8.8.7.7.a.8.r.7.6.7.6.6.7.7.3.+XuX8.8.t.8.8.8.8.8.4.t.8.8.8.8.a.8.8.8.8.8.7.a.8.r.8.6.7.6.6.7.7.4.l.AXa.8.r.t.8.8.8.8.7.8.r.",
"uXrXrXtXzXtXtXuXdXuX8XtXrXrXtXdXtXtXdXuXdXuXdXtXrXrX0X0X0X0X0X0X0XeXzXzXrXrXtXzXrXtXdXtXzXrXrXrXrXrXdXuXtXdXuXdXdXdXuXrXtXeX0X0X0X0X0X0XeXuXzXtXrXrXzXtXtXdXtXzXtXrXtXrXrXuXuXtXuXdXuXdXdXuXrXtXeX0X0X0X0X0X0XeXtXzXj.8.8.a.a.8.a.a.a.a.8.8.8.8.t.a.r.t.a.a.a.a.a.r.8.8.6.6.6.6.7.6.7.r.uXdX8XuXdXtXuXdXuXdXdXuXtXrXrXtXdXtXtXzXuXdXdXdXtXrXrX0X0X0X0X0X0X0XeXzX2X7.a.a.r.t.a.a.a.a.a.r.8.8.r.a.t.r.a.t.a.a.a.t.8.7.6.7.6.6.7.7.3.+XuX8.8.8.a.r.8.a.a.a.t.8.8.8.9.a.a.8.a.a.a.a.a.a.8.8.6.7.6.6.7.7.4.l.AXa.8.a.a.8.a.a.a.a.a.a.",
"uX8XuXc.s.tX'.l.z.s.rXtXrXtX7Xi.OXrXi.XXs.+Xs.XXuXrX0X0X0X0X0X0X0XeXzXzXrXtX4Xs.tX4Xl.XXs.7XtXrXrXtXs.z.dXs.z.l.z.l.z.uXrXeX0X0X0X0X0X0XeXuXzXrXrXtXs.7X7Xs.+Xs.oXtXrXrXuXz.s.dXz.l.c.f.c.s.tXtXeX0X0X0X0X0X0XeXtXzXj.8.a.Y 2.a.x Y Y Y a.8.8.a.2.9 8.2.9 2.9 2.9 7.r.8.7.6.7.6.7.6.7.r.uXuXtXc.s.uXz.s.'.s.'.s.tXrXtX7Xi.2X7Xi.XXs.XXs.oXtXrX0X0X0X0X0X0X0XeXzX2X8.3.9 8.3.9 2.9 2.9 4.r.t.3.9 7.4.9 2.9 2.9 3.t.7.6.7.6.6.7.7.3.+XuX8.8.8.x 4.a.Y Y 9 2.a.8.9.8.9 2.t.9 2.9 2.9 Y a.8.6.7.6.6.7.7.4.l.AXa.8.9 Y a.9 Y Y Y Y Y ",
"uXrXrXrX5.2X4X5.T q.8XtX8XdXz.i.l.c.s.Y s.Y s.s.tXrX0X0X0X0X0X0X0XeXzXzXrXtX4XT tX7X5.l.R 4XtXrXuXoXi.s.XXs.T q.5.5.s.7XtXeX0X0X0X0X0X0XeXuXzXrXrXtXT 2X4XR z.R '.tXrXtX7Xi.i.XXs.q.T s.R s.+XdXeX0X0X0X0X0X0XeXtXzXj.7.a.9 Y 8.9 6 6 9 4.t.8.a.9 9 Y Y 9 5 Y 5 9 Y a.8.7.7.7.7.7.6.7.r.uXdX7Xi.i.XXs.i.R s.R s.'.uXdXz.i.z.z.s.Y l.Y s.s.uXrX0X0X0X0X0X0X0XeXzX2X8.x 9 Y Y 9 5 Y 5 9 Y a.a.x 9 Y Y 9 5 Y 5 9 x a.7.6.7.7.7.7.7.3.+XuX8.8.r.6 3.a.6 6 x 9 t.8.a.Y 9 x 2.9 6 9 6 9 9 r.8.6.7.7.7.7.7.4.l.zXj.2.9 9 2.9 6 9 6 9 9 ",
"uX8XuXz.i.4X2XT +Xi.z.dX8XdXz.s.s.l.s.Y l.Y s.i.tXrX0X0X0X0X0X0X0XeXzXzXrXrXuXi.OXtXi.7Xl.s.zX8XuXoXs.i.z.s.T i.T q.i.4XtXeX0X0X0X0X0X0XeXuXzXtX8XzXs.c.7X'.5.XX5.uXrXtX7Xs.i.z.s.q.T s.T s.+XdXeX0X0X0X0X0X0XeXtXzXj.7.a.Y Y 2.9 6 6 9 3.t.8.a.9 9 x x 9 5 Y 5 x Y a.8.7.6.7.6.7.6.7.r.uXdX7Xs.i.l.s.i.R s.R s.c.uXdXz.s.s.l.s.Y l.Y s.s.uXrX0X0X0X0X0X0X0XeXzX2X8.x 9 x x 9 5 Y 5 x x a.a.Y 9 9 Y x 5 Y 5 x 9 a.7.6.7.6.6.7.7.3.+XuX8.8.a.9 2.Y 5 5 x 9 t.8.a.Y 9 9 Y x 5 x 6 9 9 r.8.6.7.6.6.7.7.4.l.zXj.2.9 9 Y 9 6 9 6 9 9 ",
"uX8XuXs.i.z.z.f.z.s.8XtXrXtX7Xs.z.+Xs.+Xs.+Xs.+XuXrX0X0X0X0X0X0X0XeXzXzXrXrXtX'.'.2X+XXXs.4XtXrXrXtXs.l.+Xs.z.l.z.l.z.uXrXeX0X0X0X0X0X0XeXuXzXtXrXuX+X+Xz.s.c.s.+XtXrXrXuXz.s.+Xz.s.z.s.c.s.tXtXeX0X0X0X0X0X0XeXtXzXj.8.a.3.2.2.x Y Y Y a.8.8.a.2.9 Y Y 9 2.9 2.9 7.t.8.6.6.6.6.7.6.7.r.uXuXuXz.s.+Xz.s.c.s.'.s.rXrXtX7Xi.z.+Xs.+Xs.+Xs.XXuXrX0X0X0X0X0X0X0XeXzX2X8.3.9 Y Y 9 2.9 2.9 4.r.t.3.9 Y 2.9 2.9 2.9 3.t.7.6.7.6.6.7.7.3.+XuX8.8.t.2.2.2.2.Y 9 2.a.8.9.8.9 Y 2.9 Y 9 Y 9 Y a.8.6.7.6.6.7.7.4.l.AXa.8.x Y 2.x Y x Y Y Y ",
"uXrXrXdXuXuXuXuXuXdXtXrXrXrXtXdXuXuXdXuXdXuXdXuXrXrX0X0X0X0X0X0X0XeXzXzXrXtXrXuXuXtXuXtXdXtXrXrXrXrXdXdXuXdXuXdXuXdXuXrXtXeX0X0X0X0X0X0XeXuXzXtXrXrXtXtXuXuXuXuXuXrXrXrXrXuXdXuXuXdXuXdXuXdXrXtXeX0X0X0X0X0X0XeXtXzXj.8.t.a.a.a.a.a.a.a.r.r.r.8.t.a.a.a.a.a.a.a.a.r.8.8.7.6.7.6.7.6.7.r.uXdX8XuXdXuXuXdXuXdXuXdXtXrXrXtXdXuXuXdXuXdXuXdXtXrXrX0X0X0X0X0X0X0XeXzX2X7.a.a.a.a.a.a.a.a.a.t.r.8.t.a.a.a.a.a.a.a.a.t.8.7.6.7.6.6.7.7.3.+XdX8.r.r.a.a.a.a.a.a.a.r.r.r.8.a.a.t.a.a.a.a.a.a.8.8.6.7.6.6.7.7.4.l.AXk.8.a.a.a.a.a.a.a.a.a.",
"uXrXtX8X8XrXrX8XrX8XrXrXrXrXrX8XrXrX8X8X8XrX8XrXtXrX0X0X0X0X0X0X0XeXzXzXrXrXrXrXrXrXrXrX8XrXrXrXrXrX8XrXrX8X8X8XrXrXrXrXtXeX0X0X0X0X0X0XeXuXzXtXrXtXrXrXrXrXrX8XrXrXrXrXrXrX8XrX8X8X8X8XrX8XrXtXeX0X0X0X0X0X0XeXtXzXk.3.7.7.7.7.4.7.7.4.7.7.7.8.8.8.8.8.8.8.8.8.8.8.8.8.7.7.7.7.7.6.7.r.uXdXrXrX8XrXrX8XrX8XrX8XrXrXrXrX8XrXrX8X8X8XrX8XrXtXrX0X0X0X0X0X0X0XeXzX2X3.7.4.7.7.4.7.4.7.4.7.7.8.8.8.8.8.8.8.8.8.8.8.8.7.6.7.7.7.7.7.3.+XuX4.7.7.7.7.7.7.7.4.7.7.7.8.8.8.8.8.8.8.8.8.8.8.r.8.6.7.7.7.7.7.4.l.AXa.4.7.4.7.4.7.4.7.4.7.",
"uXrXtXrXrXrXrXrXrXrXrXrXrXrXrXrXrXrXtXuXtX8XrXrXrXrX0X0X0X0X0X0X0XeXzXzXrXrXrXrXrXrXrXrXrXrXrXrXrXrXrXrX8XtXuXtX8XrXrXrXtXeX0X0X0X0X0X0XeXuXzXtXrXrXrXrXrXrXrXrXrXrXrXrXrXrXrX8XtXdXuXrXrXrXrXtXeX0X0X0X0X0X0XeXtXzXoXc.c.c.c.c.c.c.c.c.c.c.'.a.8.8.8.8.a.a.8.8.8.8.8.8.7.6.7.6.7.6.7.r.uXdXrXtXrXrXrXrXrXrXrXrXrXrXrXrXrXrXrXsXsXtX8XrXrXrXrX0X0X0X0X0X0X0XeXzXrXc.'.c.c.c.c.c.c.c.c.c.+Xj.8.8.8.r.a.a.8.8.8.8.8.7.6.7.6.6.7.7.3.'.zXc.c.c.c.c.c.c.c.c.c.c.+Xz.8.9.8.8.a.a.8.8.8.8.8.8.6.7.6.6.7.7.4.l.AXXXc.c.c.c.c.c.c.c.c.c.",
"uXrXtXrXrXrXrXrXrXrXrXrXrXrXrXrXtXuX4X'.7XzXtXrXtXrX0X0X0X0X0X0X0XeXzXzXrXtXrXrXrXrXrXrXrXrXrXrXrXtXrXtXzX4X'.4XzXtX8XtXtXeX0X0X0X0X0X0XeXuXzXtXrXrXrXrXrXrXrXrXrXrXrXrXtXrXtXzX7X+XoXdXdX8XrXtXeX0X0X0X0X0X0XeXtXzXSXSXSXSXSXSXSXSXSXSXSXSXGXz.7.9.a.r.2.2.r.a.8.8.8.8.6.6.6.6.7.6.7.r.uXdXrXtXrXrXrXrXrXrXrXrXrXrXrXrXrXsXsX3X X7XxXtXrXtXrX0X0X0X0X0X0X0XeXdXAXSXSXSXSXSXSXSXSXSXSXSXGXc.7.t.a.8.2.2.a.a.8.8.8.7.6.7.6.6.7.7.4.c.FXSXSXSXSXSXSXSXSXSXSXSXGX2X7.9.a.r.2.2.r.a.8.8.r.8.6.7.6.6.7.7.4.l.AXSXSXSXSXSXSXSXSXSXSXSX",
"uXrXtXrXrXrXrXrXrXrXrXrXrXrXrXuX#Xn.n g g n tXtXrXrX0X0X0X0X0X0X0XeXzXzXrXtXrXrXrXrXrXrXrXrXrXrXrXrXuX2Xx 5 6 5 k 2XuX8XtXeX0X0X0X0X0X0XeXuXzXrXrXrXrXrXrXrXrXrXrXrXrXrXrXtXrXY 5 6 5 6 z.zX8XtXeX0X0X0X0X0X0XeXtXzXzXzXzXzXzXzXzXzXzXzXzXzXzXl.7.a.0 2 2 2 2 0 a.8.8.8.7.6.7.7.7.6.7.r.uXdX8XtXrXrXrXrXrXrXrXrXrXrXrXrXsXv.< < < < ;.tXtXrXrX0X0X0X0X0X0X0XeXzXzXzXzXzXzXzXzXzXzXzXzXzXSXc.8.r.7 2 2 2 2 1.a.8.8.7.6.7.7.7.7.7.4.c.SXzXzXzXzXzXzXzXzXzXzXzXSX2X7.a.0 2 2 2 2 0 a.8.8.8.6.7.7.7.7.7.4.l.zXzXzXzXzXzXzXzXzXzXzXzX",
"zXtXrXtXrXrXrXrXrXrXrXrXrXrXuX].n ].7X8X4Xb h tXtXrX0X0X0X0X0X0X0XeXdXzXtXrXtXrXrXrXrXrXrXrXrXrXrXtX4X6 5.tXdX7XT 5 2XuXrXeX0X0X0X0X0X0XeXuXzXuXrXtXrXrXrXrXrXrXrXrXrXrXrXtX9 9 7XuXrXs.= l.dX8XeX0X0X0X0X0X0XeXtXzXXXzXzXzXzXzXzXzXzXzXzXzXSXl.r.q 2 2.a.a.1.; q a.8.8.7.7.7.7.7.6.7.r.tXzXtXrXrXrXrXrXrXrXrXrXrXrXrXsXv.< v.uXuX,X< w tXrXrX0X0X0X0X0X0X0XeXzX4X2XSXzXzXzXzXzXzXzXzXzXSXc.8.4 3 6.a.9.0 ; 0 a.8.7.6.7.7.7.7.7.3.+XuXXXSXzXzXzXzXzXzXzXzXzXSX2Xr.q 2 2.a.a.1.; q a.8.8.6.7.7.7.7.7.4.l.zX+XzXzXzXzXzXzXzXzXzXzX",
"zXzXtXrXrXrXrXrXrXrXrXrXrXtX8XE ].IXR 5.IXFXh u.zX8X0X0X0X0X0X0X0XeXdXzXzXtXrXtXrXrXrXrXrXrXrXrXrXuXQ d.OXrXFXAXIXT x zX8XeX0X0X0X0X0X0XeXuXzXzXuXrXtXrXrXrXrXrXrXrXrX8XdXf.T 4X4XGXzXIXz.5 8XtXeX0X0X0X0X0X0XeXtXAXj.c.SXzXzXzXzXzXzXzXzXzXAXz.1.8 3.T j.a.l.8.; 1.a.8.7.6.6.6.7.6.7.r.tXAXzXrXrXrXrXrXrXrXrXrXrXrXtX7X$.>X%XzXAXFXFX< b.xXrX0X0X0X0X0X0X0XeXzX2Xa.uXzXzXzXzXzXzXzXzXzXSX'.0 q 5.5.j.a.z.1.; 7.t.7.6.7.6.6.7.7.3.+XdXa.7XSXzXzXzXzXzXzXzXzXSX2X1.8 3.T j.a.l.9.; 1.a.7.6.7.6.6.7.7.4.l.SXk.XXSXzXzXzXzXzXzXzXzX",
"zXzXdXrXrXrXrXrXrXrXrXrXrXuX/.n.AXGXi.T FXFX/.h tXrX0X0X0X0X0X0X0XeXdXzXzXzXtXrXrXrXrXrXrXrXrXrXtX4X! xXq.5 rXzXzXtX6 OXuXeX0X0X0X0X0X0XeXuXzXzXzXtXrXtXrXrXrXrXrXrXrXrXtXT 4X'.= +XFXdXGX6 s.zXeX0X0X0X0X0X0XeXtXzXz.t.2XSXzXzXzXzXzXzXzXzXAXz.q O.a.@ 9 j.a.l.q 7 s.8.6.6.6.6.7.6.7.r.tXzXzXdXrXtXrXrXrXrXrXrXrXrXsXg.=.KX6 R SXuXKXv.w sXrX0X0X0X0X0X0X0XeXzX4X9.l.zXzXzXzXzXzXzXzXzXSXc.7 6.T @ Y j.a.j.3 0 a.7.6.7.6.6.7.7.3.+XzXa.k.tXzXzXzXzXzXzXzXzXSX4Xq O.a.@ 9 j.a.l.q 7 s.7.6.7.6.6.7.7.4.l.AXl.a.7XSXzXzXzXzXzXzXzX",
"zXzXzXuXrXtXrXrXrXrXrXrX8XkX!.G.DXzXzXzXzXAX5Xg 7XtX0X0X0X0X0X0X0XeXdXzXzXzXdXrXrXrXrXrXrXrXrXrXuX+X! zXSXz.tXzXzXzX6 z.zXeX0X0X0X0X0X0XeXuXzXzXzXzXtXrXrXrXrXrXrXrXrXtX7X^ 7XGX+X4XSXzXGXY 5.zXeX0X0X0X0X0X0XeXtXzXl.a.k.rXAXzXzXzXzXzXzXzXAXz.8 1.l.3.T k.a.j.0 3 a.8.7.6.7.7.7.6.7.r.tXzXzXzXuXrXtXrXrXrXrXrXrXrXgX-.-.KXtXz.zXzXSX3X< 8XtX0X0X0X0X0X0X0XeXzX4Xa.a.c.SXzXzXzXzXzXzXzXFXc.7 7.l.2.3.k.a.j.7 q s.7.6.7.7.7.7.7.3.+XdXa.a.l.zXzXzXzXzXzXzXzXSX4X8 1.l.4.T k.a.j.0 3 a.7.6.7.7.7.7.7.4.l.AXl.a.k.tXzXzXzXzXzXzXzX",
"zXzXzXzXtXrXtXrXrXrXrXrXrXuX/.N.DXzXzXzXzXFX'.g rXtX0X0X0X0X0X0X0XeXdXzXzXzXzXuXrXtXrXrXrXrXrXrXtXOX! dXzXFXzXzXzXuX5 +XuXeX0X0X0X0X0X0XeXuXzXzXzXzXzXrXrXrXrXrXrXrXrXtXtXT OXSXSXSXzXzXGX9 a.zXeX0X0X0X0X0X0XeXtXzXl.a.a.j.zXzXzXzXzXzXzXzXAXz.q O.j.k.j.a.a.l.q 4 a.8.7.7.7.7.7.6.7.r.tXzXzXzXzXtXrXtXrXrXrXrXrXrXgXg.-.KXzXFXzXzXKXv.< tXrX0X0X0X0X0X0X0XeXzX4Xa.k.a.2XSXzXzXzXzXzXzXSXc.7 6.k.k.k.a.a.j.4 q a.7.6.7.7.7.7.7.3.+XdXa.k.a.c.SXzXzXzXzXzXzXSX4Xq O.j.k.j.a.a.l.q 4 a.7.6.7.7.7.7.7.4.l.AXj.a.a.l.zXzXzXzXzXzXzX",
"zXzXzXzXzXtXrXrXrXrXrXrXrXtX7Xn 5XDXzXzXzXLXc W zX8X0X0X0X0X0X0X0XeXdXzXzXzXzXzXtXrXtXrXrXrXrXrXrXuX! R.GXzXzXzXLXy.6 uXrXeX0X0X0X0X0X0XeXuXzXzXzXzXzXuXrXtXrXrXrXrXrX8XdXs.T FXzXzXzXGXXX5 4XtXeX0X0X0X0X0X0XeXtXzXl.a.k.a.c.zXzXzXzXzXzXzXAXz.1.8 a.k.a.a.k.a.; Y a.8.6.6.6.6.7.6.7.r.tXzXzXzXzXzXtXrXrXrXrXrXrXrXtX6X$.6XFXzXzXzXJXw ;.xXrX0X0X0X0X0X0X0XeXzX4Xa.k.a.a.7XSXzXzXzXzXzXSX'.0 q j.a.a.a.j.3.; 3.a.7.6.7.6.6.7.7.3.+XdXa.a.k.a.3XSXzXzXzXzXzXSX2X1.8 a.k.a.a.k.a.; 0 a.7.6.7.6.6.7.7.4.l.AXj.a.k.a.c.AXzXzXzXzXzX",
"zXzXzXzXzXzXrXrXrXrXrXrXrXrXuX/.n 8XAXzXFXu.g 7XtXrX0X0X0X0X0X0X0XeXdXzXzXzXzXzXzXtXrXrXrXrXrXrXrXuXOXI %XDXzXFXz.5 +XuX8XeX0X0X0X0X0X0XeXuXzXzXzXzXzXzXtXrXtXrXrXrXrXrXtX8XR f.SXzXSX2X5 s.zX8XeX0X0X0X0X0X0XeXtXzXl.a.k.k.a.XXSXzXzXzXzXzXSXl.8.q q a.a.k.a.3 7 a.8.8.6.6.6.6.7.6.7.r.tXzXzXzXzXzXzXrXrXrXrXrXrXrXrXsXg.$.iXxXzXFX;.< rXtXrX0X0X0X0X0X0X0XeXzX4Xa.k.k.a.j.uXzXzXzXzXzXSXc.7.8 0 k.a.k.7.; 0 a.8.7.6.7.6.6.7.7.3.+XdXa.a.a.a.a.7XSXzXzXzXzXSX2X8.q 8 a.a.a.a.3 4 a.8.8.6.7.6.6.7.7.4.l.AXj.a.a.k.a.3XSXzXzXzXzX",
"zXzXzXzXzXzXdXrXtXrXrXrXrXrXrXuX/.5XuXtXuXd.2XuXrXrX0X0X0X0X0X0X0XeXdXzXzXzXzXzXzXzXrXrXrXrXrXrXtX8XuX+X+XuXrXdXz.z.zX8XtXeX0X0X0X0X0X0XeXuXzXzXzXzXzXzXzXtXrXtXrXrXrXrXrXtX2Xz.tXtXdXXXs.dX8XtXeX0X0X0X0X0X0XeXtXzXl.a.k.a.a.a.7XSXzXzXzXzXSXl.8.8.1.8.t.t.7.0 r.8.8.8.7.7.7.7.7.7.7.r.tXzXzXzXzXzXzXuXrXtXrXrXrXrXrXrXsX;X6XsXtXtXb.3XsXrXrX0X0X0X0X0X0X0XeXzX4Xa.k.a.k.a.z.zXzXzXzXzXSXc.8.7.1.r.9.a.2.0 a.8.8.7.6.7.7.7.7.7.3.+XdXa.a.a.k.a.j.dXzXzXzXzXSX2X7.8.1.8.t.t.8.0 8.r.8.8.6.7.7.7.7.7.4.l.AXj.a.a.a.a.a.8XSXzXzXzX",
"zXzXzXzXzXzXzXuXrXtXrXrXrXrXtX8XzXuXtXtXtXzXuXrXtXrX0X0X0X0X0X0X0XeXdXzXzXzXzXzXzXzXdXrXrXrXrXrXrXtXtXuXuXtXtXtXzXzXtXtXtXeX0X0X0X0X0X0XeXuXzXzXzXzXzXzXzXzXrXrXrXrXrXrXtXtXuXdXtXtXtXdXzXtXtXrXeX0X0X0X0X0X0XeXtXzXl.a.k.a.k.a.k.tXzXzXzXzXSXl.8.a.a.t.r.a.t.k.r.r.8.8.6.6.6.6.6.6.6.r.tXzXzXzXzXzXzXzXtXrXtXrXrXrXrXtXtXsXtXtXuXtXcXuXtXrXrX0X0X0X0X0X0X0XeXzX4Xa.k.a.a.k.a.XXSXzXzXzXSXc.8.a.a.t.t.t.a.a.9.r.8.7.6.6.6.6.6.7.3.+XdXa.a.a.a.k.a.z.zXzXzXzXSX2X8.a.a.t.r.a.t.k.r.r.8.8.6.6.6.6.6.6.3.l.AXj.a.a.a.k.a.j.uXzXzXzX",
"zXzXzXzXzXzXzXzXtXrXtXrXrXrX8XzXs.z.7X5.z.5.z.uXrXrXeXrXrXeXrXrXrXrXdXzXzXzXzXzXzXzXzXuXrXtXrXrXtXrX5.s.tXq.s.i.s.i.s.uXrXrXeXrXeXrXrXrXrXuXzXzXzXzXzXzXzXzXdXrXtXrXrXrXuXs.5.tXs.i.s.i.s.5.8XtXrXeXrXeXrXrXrXrXtXzXl.a.k.a.a.k.a.l.zXzXzXzXAXz.Y 6 7.Y 6 Y 9 Y 6 3.t.8.8.8.8.8.8.8.8.r.tXzXzXzXzXzXzXzXzXtXrXtXrXrXtX2XT +X4X5.z.5.l.5.c.uXrXeXrXrXrXrXrXrXrXzX4Xa.k.a.a.a.k.a.4XSXzXzXSXc.9 9 r.x 9 x 9 x 6 8.r.8.8.8.8.8.8.8.7.'.zXa.a.a.a.a.k.a.XXSXzXzXSX4XY 6 4.2.6 Y 6 Y 6 3.t.8.8.8.8.8.8.8.7.j.AXj.a.a.a.a.k.a.z.zXzXzX",
"zXzXzXzXzXzXzXzXzXtXrXrXrXrXtX4XR z.XXq.9 z.s.tXrXrXtXeXeXtXeXeXeXrXdXzXzXzXzXzXzXzXzXzXtXrXtXrXuX+Xs.s.'.l.T s.5.i.s.2XtXtXrXeXtXeXrXeXrXuXzXzXzXzXzXzXzXzXzXuXrXtXrXtX7Xs.s.'.s.s.T s.R l.c.dXrXrX0XtXeXeXeXrXtXzXl.a.k.a.a.a.k.a.c.SXzXzXAXz.9 x Y Y Y 5 Y 5 Y x a.8.8.8.8.8.8.r.8.r.tXzXzXzXzXzXzXzXzXzXrXrXrX8XdXl.f.l.z.z.x c.x z.s.uXrXtXeXeXeX0XeXeX8XzX4Xa.k.a.a.a.a.a.k.tXAXzXFXz.9 x Y x 9 6 Y 5 Y Y a.8.8.8.8.8.8.t.7.'.zXa.a.a.a.a.a.k.a.2XSXzXSX2X9 Y Y Y Y 5 Y 5 Y x a.8.8.8.8.8.8.r.8.j.AXj.a.a.a.a.a.k.a.+XSXzX",
"zXzXzXzXzXzXzXzXzXzXrXrXrXrXuXc.Y T 2X5.R q.s.uXrXrXtX0X1XeX-X<X-XrXdXzXzXzXzXzXzXzXzXzXzXtXrXrXtX2X5.q.z.i.T 5.5.5.q.7XtXtX0X1XrX-X-X1XrXuXzXzXzXzXzXzXzXzXzXzXtXrXrXrXrXi.5.l.s.5.5.5.T 5.oXuXrXtX<X0X<X-X-XpXtXzXl.a.k.a.a.a.a.k.a.2XSXzXAXz.9 6 x 9 9 6 9 6 9 Y a.8.8.8.8.8.8.8.8.r.tXzXzXzXzXzXzXzXzXzXdXrXrXrXdXz.5.s.l.q.T i.T 5.s.uX8XtX0X1XrX-XpX<X8XzX4Xa.k.a.a.a.a.k.a.l.zXzXSXc.9 6 Y 9 6 6 9 6 9 2.a.8.8.8.8.8.8.r.7.'.zXa.a.a.a.a.a.a.a.k.tXzXAX4X9 6 x x 9 6 9 6 9 Y a.8.8.8.8.8.8.r.8.j.AXj.a.a.a.a.a.a.k.a.2XSX",
"zXzXzXzXzXzXzXzXzXzXuXrXtXtXrXuX8XXXOX'.8Xz.2XtXrXtX0X<X<XrX<X<X-XeXzXzXzXzXzXzXzXzXzXzXzXzXrXrXrXuXc.+X2Xc.oX'.oX+X+XuXtX0XpX<XeX-X-X-X0XsXzXzXzXzXzXzXzXzXzXzXzXtXrXrXuXXXz.2XXX'.OXc.2Xz.tXrXeXpX-X0X-X-X-XpXtXzXl.a.k.a.a.a.a.k.a.a.8XAXzXz.3.Y 3.3.Y 4.Y 4.Y 8.r.8.8.8.8.8.8.r.8.t.tXzXzXzXzXzXzXzXzXzXzXuXrXrXtX8Xz.oX2Xz.4Xz.4Xz.4XtXrX0X<X<XeX<XpX<XrXzX4Xa.k.a.a.a.a.a.k.a.c.zXSXc.2.Y 3.2.Y 3.Y 3.Y t.8.8.8.8.8.8.8.t.7.'.zXa.a.a.a.a.a.a.k.a.l.zXFX2X3.Y 3.3.Y 4.Y 7.Y 8.r.8.8.8.8.8.8.r.8.l.AXj.a.k.a.a.a.a.k.a.k.rX",
"zXzXzXzXzXzXzXzXzXzXzXtXrXrXrXrXtXuXtXuXtXdXtXrXrXrXtXpXpXeXeXeXpXrXdXzXzXzXzXzXzXzXzXzXzXzXuXrXrXrXuXuXtXuXtXuXuXuXuXrXrXrXrXeXeXpXeXpXeXuXzXzXzXzXzXzXzXzXzXzXzXzXrXrXrXuXdXtXuXuXtXuXtXdXrXrXtXeX<XeXpX0XpXeXtXzXl.a.a.a.a.a.a.a.a.a.j.uXFXl.7.a.r.r.a.8.a.8.a.8.8.8.8.8.8.8.8.8.8.8.tXzXzXzXzXzXzXzXzXzXzXzXtXrXrXtXdXuXtXdXtXdXtXdXtXrXrXtXpXpXeXeXpXpX8XzX4Xt.a.a.a.a.a.a.a.a.t.XXGXc.7.a.9.t.t.9.a.9.a.8.8.8.8.8.8.8.8.8.4.'.zXa.a.a.a.a.a.a.a.a.t.c.FX2X7.a.r.r.a.8.a.8.a.8.8.8.8.8.8.8.8.8.7.j.AXj.a.a.a.a.a.a.a.a.a.j.",
"zXzXzXzXzXzXzXzXzXzXzXzXtXtXtXtXtXrXtXrXtXrXtXtXtXtXtXtXtXtXtXtXtXrXdXzXzXzXzXzXzXzXzXzXzXzXzXtXtXtXrXrXtXrXrXrXrXrXrXtXtXtXtXtXtXtXtXtXtXuXzXzXzXzXzXzXzXzXzXzXzXzXuXtXtXrXrXtXrXrXrXrXrXrXtXtXtXtXsXtXtXtXtXtXtXzXz.k.j.j.j.j.j.j.j.j.k.c.SXz.t.a.a.a.a.a.a.a.a.a.a.a.a.a.a.a.a.a.a.a.uXzXzXzXzXzXzXzXzXzXzXzXzXtXtXtXrXrXtXrXtXrXtXrXtXtXtXtXtXtXtXtXtXtXrXzX7Xk.j.j.j.j.j.j.j.j.j.k.tX'.8.a.a.a.a.a.a.a.a.a.a.a.a.a.a.a.a.a.r.XXzXj.j.j.j.j.j.j.j.j.j.a.4X4Xr.a.a.a.a.a.a.a.a.a.a.a.a.a.a.a.a.a.a.z.zXz.k.j.j.j.j.j.j.j.j.k.",
"zXzXzXzXzXzXzXzXzXzXzXzXzXzXzXzXzXzXzXzXzXzXzXzXzXzXzXzXzXzXzXzXzXzXzXzXzXzXzXzXzXzXzXzXzXzXzXzXzXzXzXzXzXzXzXzXzXzXzXzXzXzXzXzXzXzXzXzXzXzXzXzXzXzXzXzXzXzXzXzXzXzXzXzXzXzXzXzXzXzXzXzXzXzXzXzXzXzXzXzXzXzXzXzXzXzXzXzXzXzXzXzXzXzXzXzXzXzXzXzXzXzXzXzXzXzXzXzXzXzXzXzXzXzXzXzXzXzXzXzXzXzXzXzXzXzXzXzXzXzXzXzXzXzXzXzXzXzXzXzXzXzXzXzXzXzXzXzXzXzXzXzXzXzXzXzXzXzXzXzXzXzXzXzXzXzXzXzXzXzXzXzXzXzXzXzXzXzXzXzXzXzXzXzXzXzXzXzXzXzXzXzXzXzXzXzXzXzXzXzXzXzXzXzXzXzXzXzXzXzXzXzXzXzXzXzXzXzXzXzXzXzXzXzXzXzXzXzXzXzXzXzXzXzXzXzX",
"tXuXxXzXzXzXtXtXtXtXtXtXtXtXtXtXtXtXtXtXtXuXuXuXuXdXtXtXtXtXtXtXtXtXtXtXtXtXtXtXtXtXtXtXtXtXtXtXtXtXtXtXtXtXtXtXtXtXtXtXtXtXtXtXtXtXtXtXtXtXtXtXtXtXtXtXtXtXtXtXtXtXtXtXtXtXtXtXtXtXtXtXtXtXtXtXtXtXtXtXtXtXtXtXtXtXuXuXuXuXuXuXuXuXuXuXuXuXtXuXuXuXuXuXuXuXuXuXuXuXuXuXuXuXuXuXuXuXuXuXtXtXtXtXtXtXtXtXtXtXtXtXtXtXtXtXtXtXtXtXtXtXtXtXtXtXtXtXtXtXtXtXtXtXtXtXtXuXuXuXuXuXuXuXuXuXuXuXuXtXuXuXuXuXuXuXuXuXuXuXuXuXuXuXuXuXuXuXuXuXtXuXuXuXuXuXuXuXuXuXuXuXuXtXuXuXuXuXuXuXuXuXuXuXuXuXuXuXuXuXuXuXuXuXtXuXuXuXtXzXdXuXuXtXuXtX",
"tX3X1.6.6.a.rXrXrXrXtXrXrXrX8X8XrXrXrXrXtX3Xv.c.v.c.tXrXrXrXtX8XrXrX8X8XrXrXrXrXrXrXrXrXrXrXrXrXrXrXrXrXrXrXrXrXrXrXrXrXrXrXrXrXrXrXrXrXrXrXrXrXrXrXrXrXrXrXrXrXrXrXrXrXrXrXrXrXrXrXrXrXrXrXrXrXrXrXrXrXrXrXrXrXrXrXrXrXrXrXrXrXrXrXrXrXrXrXrXrXrXrXrXrXrXrXrXrXrXrXrXrXrXrXrXrXrXrXrXrXrXrXrXrXrXrXrXrXrXrXrXrXrXrXrXrXrXrXrXrXrXrXrXrXrXrXrXrXrXrXrXrXrXrXrXrXrXrXrXrXrXrXrXrXrXrXrXrXrXrXrXrXrXrXrXrXrXrXrXrXrXrXrXrXrXrXrXrXrXrXrXrXrXrXrXrXrXrXrXrXrXrXrXrXrXrXrXrXrXrXrXrXrXrXrXrXrXrXrXrXrXrXrXrXrX7X8X7XtX3X4XrX7XtX8XtX",
"zXc.O.k.1.1.rXtXrXuXj.tXtXtXsXsXtXrXtXrXtXXX1.O.0 6.dXrXtX7Xj.dXrXtXsXsXtXrXtXtXtXtXtXtXtXtXtXtXtXtXtXtXtXtXtXtXtXtXtXtXtXtXtXtXtXtXtXtXtXtXtXtXtXtXtXtXtXtXtXtXtXtXtXtXtXtXtXtXtXtXtXtXtXtXtXtXtXtXtXtXtXtXtXtXtXtXtXtXtXtXtXtXtXtXtXtXtXtXtXtXtXtXtXtXtXtXtXtXtXtXtXtXtXtXtXtXtXtXtXtXtXtXtXtXtXtXtXtXtXtXtXtXtXtXtXtXtXtXtXtXtXtXtXtXtXtXtXtXtXtXtXtXtXtXtXtXtXtXtXtXtXtXtXtXtXtXtXtXtXtXtXtXtXtXtXtXtXtXtXtXtXtXtXtXtXtXtXtXtXtXtXtXtXtXtXtXtXtXtXtXtXtXtXtXtXtXtXtXtXtXtXtXtXtXtXtXtXtXtXtXtXtXrXtX4Xc.c.v.c.j.c.k.c.3XtXrX",
"zXc.6.1.9.9.8XrXtXb.< b.tX7Xb.;.v.sXrXrXtXc.2Xa.1.XXrXtXrX0.w j.dX3X0.;. XsXrXrXrXrXrXrXrXrXrXrXrXrXrXrXrXrXrXrXrXrXrXrXrXrXrXrXrXrXrXrXrXrXrXrXrXrXrXrXrXrXrXrXrXrXrXrXrXrXrXrXrXrXrXrXrXrXrXrXrXrXrXrXrXrXrXrXrXrXrXrXrXrXrXrXrXrXrXrXrXrXrXrXrXrXrXrXrXrXrXrXrXrXrXrXrXrXrXrXrXrXrXrXrXrXrXrXrXrXrXrXrXrXrXrXrXrXrXrXrXrXrXrXrXrXrXrXrXrXrXrXrXrXrXrXrXrXrXrXrXrXrXrXrXrXrXrXrXrXrXrXrXrXrXrXrXrXrXrXrXrXrXrXrXrXrXrXrXrXrXrXrXrXrXrXrXrXrXrXrXrXrXrXrXrXrXrXrXrXrXrXrXrXrXrXrXrXrXrXrXrXrXrXrXrXrXtX4Xj.9.9.k.xX3XO.4X4XuXOX",
"zXc.1.1.tXc.7XtXtX4X;.3XtXrX3X3X7XtXrXrXuXc.rX9.O.XXrXrXtX X0.7XtX7X3X3X7XtXrXrXrXrXrXrXrXrXrXrXrXrXrXrXrXrXrXrXrXrXrXrXrXrXrXrXrXrXrXrXrXrXrXrXrXrXrXrXrXrXrXrXrXrXrXrXrXrXrXrXrXrXrXrXrXrXrXrXrXrXrXrXrXrXrXrXrXrXrXrXrXrXrXrXrXrXrXrXrXrXrXrXrXrXrXrXrXrXrXrXrXrXrXrXrXrXrXrXrXrXrXrXrXrXrXrXrXrXrXrXrXrXrXrXrXrXrXrXrXrXrXrXrXrXrXrXrXrXrXrXrXrXrXrXrXrXrXrXrXrXrXrXrXrXrXrXrXrXrXrXrXrXrXrXrXrXrXrXrXrXrXrXrXrXrXrXrXrXrXrXrXrXrXrXrXrXrXrXrXrXrXrXrXrXrXrXrXrXrXrXrXrXrXrXrXrXrXrXrXrXrXrXrXrXrXtX7X9.c.c.k.v.c.l.j.3XtXrX",
"tX3Xj.j.c.c.rXtXrXtXrXtXrXtXtXtXtXrXrXrXtX3Xc.l.k.XXtXrXtXtXrXtXrXtXtXtXtXrXrXrXrXrXrXrXrXrXrXrXrXrXrXrXrXrXrXrXrXrXrXrXrXrXrXrXrXrXrXrXrXrXrXrXrXrXrXrXrXrXrXrXrXrXrXrXrXrXrXrXrXrXrXrXrXrXrXrXrXrXrXrXrXrXrXrXrXrXrXrXrXrXrXrXrXrXrXrXrXrXrXrXrXrXrXrXrXrXrXrXrXrXrXrXrXrXrXrXrXrXrXrXrXrXrXrXrXrXrXrXrXrXrXrXrXrXrXrXrXrXrXrXrXrXrXrXrXrXrXrXrXrXrXrXrXrXrXrXrXrXrXrXrXrXrXrXrXrXrXrXrXrXrXrXrXrXrXrXrXrXrXrXrXrXrXrXrXrXrXrXrXrXrXrXrXrXrXrXrXrXrXrXrXrXrXrXrXrXrXrXrXrXrXrXrXrXrXrXrXrXrXrXrXrXrXuXc.l.zXtXrX2X7XtX7X7XtXtX",
"rXtXdXdXtXtXtXrXrXrXtXrXrXrXrXrXrXrXrXrXrXtXtXuXdXtXrXrXrXrXtXrXrXrXrXrXrXrXrXrXrXrXrXrXrXrXrXrXrXrXrXrXrXrXrXrXrXrXrXrXrXrXrXrXrXrXrXrXrXrXrXrXrXrXrXrXrXrXrXrXrXrXrXrXrXrXrXrXrXrXrXrXrXrXrXrXrXrXrXrXrXrXrXrXrXrXrXrXrXrXrXrXrXrXrXrXrXrXrXrXrXrXrXrXrXrXrXrXrXrXrXrXrXrXrXrXrXrXrXrXrXrXrXrXrXrXrXrXrXrXrXrXrXrXrXrXrXrXrXrXrXrXrXrXrXrXrXrXrXrXrXrXrXrXrXrXrXrXrXrXrXrXrXrXrXrXrXrXrXrXrXrXrXrXrXrXrXrXrXrXrXrXrXrXrXrXrXrXrXrXrXrXrXrXrXrXrXrXrXrXrXrXrXrXrXrXrXrXrXrXrXrXrXrXrXrXrXrXrXrXrXrXrXtX7XrXtXrXtXtXtXrXtXtXrXrX"
};
