/* XPM */
static char *mb_ringmod_sc_stereo[] = {
/* columns rows colors chars-per-pixel */
"256 256 256 2 ",
"   c #2A2B36",
".  c #272833",
"X  c #302F2D",
"o  c #7A1926",
"O  c #5C5530",
"+  c #363744",
"@  c #2F3141",
"#  c #00667B",
"$  c #026375",
"%  c #356970",
"&  c #265363",
"*  c #42434C",
"=  c #4A4B57",
"-  c #54545A",
";  c #736D59",
":  c #6F6B54",
">  c #5A5A6B",
",  c #4B6F78",
"<  c #7A7766",
"1  c #696973",
"2  c #767677",
"3  c #68686C",
"4  c #685A45",
"5  c #871724",
"6  c #953236",
"7  c #B13334",
"8  c #F22F2B",
"9  c #8F523B",
"0  c #AA613B",
"q  c #B24A3C",
"w  c #D64D36",
"e  c #D26339",
"r  c #8E584D",
"t  c #B8524D",
"y  c #936A57",
"u  c #A57B5E",
"i  c #AF6C54",
"p  c #AD5670",
"a  c #827C6B",
"s  c #977667",
"d  c #8A7B73",
"f  c #B4746B",
"g  c #9A4E7D",
"h  c #CE524A",
"j  c #D26A51",
"k  c #CE7669",
"l  c #EA7C77",
"z  c #EE594F",
"x  c #CD3D45",
"c  c #F7F82F",
"v  c #EDD433",
"b  c #898578",
"n  c #988879",
"m  c #918D73",
"M  c #AA836C",
"N  c #B6856B",
"B  c #A7887A",
"V  c #B38572",
"C  c #BB8D7B",
"Z  c #B58A77",
"A  c #BE907D",
"S  c #B3937E",
"D  c #A99473",
"F  c #B1A164",
"G  c #C6947A",
"H  c #CD8874",
"J  c #D98A64",
"K  c #EBE860",
"L  c #F7B82E",
"P  c #025D99",
"I  c #017692",
"U  c #005FA4",
"Y  c #3954BD",
"T  c #016EB7",
"R  c #3C6581",
"E  c #534B97",
"W  c #51498C",
"Q  c #567085",
"!  c #70738F",
"~  c #6658B6",
"^  c #7671AF",
"/  c #5A60A9",
"(  c #3365E5",
")  c #7073D2",
"_  c #5B75E7",
"`  c #4D6FF1",
"'  c #677BE5",
"]  c #5C66D6",
"[  c #915790",
"{  c #97758C",
"}  c #A8798A",
"|  c #8C71B0",
" . c #9265A0",
".. c #867BC5",
"X. c #C57783",
"o. c #2691A8",
"O. c #3799A6",
"+. c #0D96B1",
"@. c #6F8C95",
"#. c #419BAE",
"$. c #5B94BB",
"%. c #6CACB8",
"&. c #73B3B9",
"*. c #5D9AA9",
"=. c #1493DB",
"-. c #7788D6",
";. c #49B7CB",
":. c #738AEB",
">. c #6F90F0",
",. c #49AFEA",
"<. c #77A3F4",
"1. c #67A1D6",
"2. c #74C6EA",
"3. c #898887",
"4. c #968B88",
"5. c #96948C",
"6. c #98968D",
"7. c #9B9886",
"8. c #979591",
"9. c #999791",
"0. c #9E9C95",
"q. c #9B9C99",
"w. c #899197",
"e. c #AB8C83",
"r. c #AC8D8B",
"t. c #A68885",
"y. c #B58A85",
"u. c #AD9184",
"i. c #AE928C",
"p. c #A49B8B",
"a. c #B49484",
"s. c #BB9482",
"d. c #B99887",
"f. c #B3938B",
"g. c #BD948C",
"h. c #BB9A89",
"j. c #B59A89",
"k. c #A98C94",
"l. c #A09E97",
"z. c #A19F98",
"x. c #AC9493",
"c. c #B39391",
"v. c #BA9692",
"b. c #B69891",
"n. c #BA9A95",
"m. c #B48D94",
"M. c #9BA59D",
"N. c #A4A29B",
"B. c #AAA798",
"V. c #B8A798",
"C. c #B1AB91",
"Z. c #9291B0",
"A. c #AA91AF",
"S. c #96A9AE",
"D. c #ABAAA4",
"F. c #A8A7A4",
"G. c #B7ABA5",
"H. c #B5B4AD",
"J. c #B9B6A7",
"K. c #A7A8B8",
"L. c #B7B8B9",
"P. c #AFAFB6",
"I. c #C29482",
"U. c #C4968B",
"Y. c #C6988B",
"T. c #C8998D",
"R. c #C59983",
"E. c #C39A91",
"W. c #C59992",
"Q. c #D09588",
"!. c #C8A798",
"~. c #D6AB98",
"^. c #C8B399",
"/. c #DCB09E",
"(. c #D4B599",
"). c #CDA78B",
"_. c #E5AA99",
"`. c #C7ABA6",
"'. c #CAB6A8",
"]. c #D5B4A9",
"[. c #D9B8A7",
"{. c #C3BCB3",
"}. c #D3B0AE",
"|. c #E6B4A9",
" X c #E39893",
".X c #B9C3B2",
"XX c #ACC59B",
"oX c #C6C4BA",
"OX c #C8C6BB",
"+X c #CAC8BD",
"@X c #C5C2B5",
"#X c #DCC4BB",
"$X c #D4D3B7",
"%X c #E7C9AD",
"&X c #8C91D0",
"*X c #95AED1",
"=X c #B9B9C5",
"-X c #AEB0CE",
";X c #8698E7",
":X c #A299E9",
">X c #90AAED",
",X c #A7B9E6",
"<X c #A39AC5",
"1X c #CBB4C6",
"2X c #C3BEE7",
"3X c #92C9D2",
"4X c #B3C8D3",
"5X c #B2CBEA",
"6X c #92CBE8",
"7X c #CECCC3",
"8X c #C7C8C8",
"9X c #D1CEC5",
"0X c #D8CBC6",
"qX c #D4D3CC",
"wX c #D9D6CF",
"eX c #D7D8C8",
"rX c #C8CDD7",
"tX c #CDD1D5",
"yX c #CCD9D8",
"uX c #D4D5D2",
"iX c #D9D7D0",
"pX c #DBD9D2",
"aX c #DDDCDA",
"sX c #D6D6DB",
"dX c #CDD2CB",
"fX c #E5DACD",
"gX c #E2DDD4",
"hX c #E0DFD9",
"jX c #E8DCD2",
"kX c #EAD2CD",
"lX c #DEE4D3",
"zX c #D9E2DA",
"xX c #D9E3CF",
"cX c #E0E5D3",
"vX c #E3E2DC",
"bX c #E9E4DC",
"nX c #E7EAD6",
"mX c #EBEAD1",
"MX c #DBDAE5",
"NX c #CAD4EB",
"BX c #E2DDE4",
"VX c #D9E6E6",
"CX c #D2E9F0",
"ZX c #E4E6E1",
"AX c #E9E6E2",
"SX c #EBEAE4",
"DX c #E3E2EA",
"FX c #EEECE9",
"GX c #E4E9E5",
"HX c #F0EFEA",
"JX c #F2ECE5",
"KX c #F2F1EC",
"LX c #F9F4E9",
"PX c #F8F7F3",
"IX c #E7EEF0",
"UX c #4FB04C",
/* pixels */
"iXiXiXiXiXiXiXiXiXiXiXiXiXiXiXiXiXiXiXiXiXiXiXiXiXiXiXiXiXiXiXiXiXiXiXiXiXiXiXiXiXiXiXiXiXiXiXiXiXiXiXiXiXiXiXiXiXiXiXiXiXiXiXiXiXiXiXiXiXiXiXiXiXiXiXiXiXiXiXiXiXiXiXiXiXiXiXiXiXiXiXiXiXiXiXiXiXiXiXiXiXiXiXiXiXiXiXiXiXiXiXiXiXiXiXiXiXiXiXiXiXiXiXiXiXiXiXiXiXiXiXpXpXiXpXpXpXpXpXpXpXiXpXpXpXpXpXpXpXpXiXpXpXpXpXpXpXpXpXpXiXiXpXpXpXpXpXpXpXpXpXpXpXpXiXpXpXiXpXpXiXpXpXiXpXpXiXpXpXpXpXpXpXiXpXpXpXpXpXpXpXpXpXpXpXiXiXpXpXpXpXpXpXpXiXpXpXpXiXpXpXpXpXpXpXpXpXpXpXpXpXiXpXpXiXpXpXpXpXpXpXpXpXpXpXiXpXpXiXpXpXiXiXpXpXiX",
"pXiXiXiXiXiXiXiXiXiXiXiXiXiXiXiXiXiXiXiXiXiXiXiXiXiXiXiXiXiXiXiXiXiXiXiXiXiXiXiXiXiXiXiXiXiXiXiXiXiXiXiXiXiXiXiXiXiXiXiXiXiXiXiXiXiXiXiXiXiXiXiXiXiXiXiXiXiXiXiXiXiXiXiXiXiXiXiXiXiXiXiXiXiXiXiXiXiXiXiXiXiXiXiXiXiXiXiXiXiXiXiXiXiXiXiXiXiXiXiXiXiXiXiXiXiXiXiXiXiXpXiXdXpXqXqXqXiXqXwXqXpX8X8X8X8XqXqX8XwXpXqXiXqXqXiXqXqX8XwXpXpXdX8XiX8XqXqXiXqXwXiX8XdXpXiXdXpXqXqXpX8XdXpX8X8XpXqXqXwXqXqXiXpXwXqXqX8X8XdX8X8XqX8XwXpXpXiX8XqX8XwX8X8XpXiX8X8XpX8XdXqXiXqXiXiXqXiX8XqXqXpXqXiXpXdX8X8X8X8XdX8XqX8X8XpX8X8XpXdX8XpXpXqXL.pX",
"iXpXiXiXiXiXiXiXiXiXiXiXiXiXiXiXiXiXiXiXiXiXiXiXiXiXiXiXiXiXiXiXiXiXiXiXiXiXiXiXiXiXiXiXiXiXiXiXiXiXiXiXiXiXiXiXiXiXiXiXiXiXiXiXiXiXiXiXiXiXiXiXiXiXiXiXiXiXiXiXiXiXiXiXiXiXiXiXiXiXiXiXiXiXiXiXiXiXiXiXiXiXiXiXiXiXiXiXiXiXiXiXiXiXiXiXiXiXiXiXiXiXiXiXiXiXiXiXiXiXpXiXZ.qXP.P.P.qXL.8XP.pX8XZ.=XK.8XP.K.K.cXK.=X8XZ.8XL.P.K.K.qXgXP.K.L.K.8XK.P.=X8XP.P.8XpXwXZ.qXP.P.=XK.K.8XK.P.=X=X=X8X=XL.8XcX=XK.iXK.K.=XS.8XP.P.K.qXpXK.P.8XK.8XK.P.=X8XS.8X=XK.8XK.dXP.dX=XK.iXS.dXZ.8XP.wXqXS.=X8XZ.=XK.K.8XK.K.=XK.=X8XK.P.=XgXqXD.pX",
"pXiXiXiXiXiXiXiXiXiXiXiXiXiXiXiXiXiXiXiXiXiXiXiXiXiXiXiXiXiXiXiXiXiXiXiXiXiXiXiXiXiXiXiXiXiXiXiXiXiXiXiXiXiXiXiXiXiXiXiXiXiXiXiXiXiXiXiXiXiXiXiXiXiXiXiXiXiXiXiXiXiXiXiXiXiXiXiXiXiXiXiXiXiXiXiXiXiXiXiXiXiXiXiXiXiXiXiXiXiXiXiXiXiXiXiXiXiXiXiXiXiXiXiXiXiXiXiXiXiXpXwXS.=XK.L.P.iXL.8XP.gXgXP.pX=X8XP.K.P.qXZ.K.8XK.K.=XP.pXL.=XcXP.K.=X=X8XL.K.P.L.P.qXP.pXwXS.=XK.L.K.gX8XK.L.cXK.L.8X8X=XL.qXcXK.Z.wX8X8X8XK.dXP.pXL.4XcX=XP.qXP.dXP.cXK.=XK.8XK.iXbXK.K.S.dXK.Z.dXL.qXK.P.K.qXpXL.=XgXP.iXP.P.dXK.K.8XK.8XP.8XcXK.pXqXH.pX",
"pXiXiXiXiXiXiXiXiXiXiXiXiXiXiXiXiXiXiXiXiXiXiXiXiXiXiXiXiXiXiXiXiXiXiXiXiXiXiXiXiXiXiXiXiXiXiXiXiXiXiXiXiXiXiXiXiXiXiXiXiXiXiXiXiXiXiXiXiXiXiXiXiXiXiXiXiXiXiXiXiXiXiXiXiXiXiXiXiXiXiXiXiXiXiXiXiXiXiXiXiXiXiXiXiXiXiXiXiXiXiXiXiXiXiXiXiXiXiXiXiXiXiXiXiXiXiXiXpXiXpXqXP.K.K.=XL.L.K.8XK.8XiXK.qXK.8XP.P.P.P.K.K.K.8XK.K.P.L.K.dXgXP.K.=XK.8XL.8XZ.=XK.=XK.pXqXP.K.K.=XL.L.P.=XK.L.P.8XK.P.8XP.L.8XK.P.=X=X=X8XK.qXK.L.K.qXpX8XK.P.K.8XK.L.P.8XK.qXP.P.dXK.qXL.=XK.P.K.K.8XP.8XZ.pXwX8XZ.qXK.qXK.L.8XK.K.=XK.8X8XK.=XP.gXqXD.pX",
"dXpXiXiXiXiXiXiXiXiXiXiXiXiXiXiXiXiXiXiXiXiXiXiXiXiXiXiXiXiXiXiXiXiXiXiXiXiXiXiXiXiXiXiXiXiXiXiXiXiXiXiXiXiXiXiXiXiXiXiXiXiXiXiXiXiXiXiXiXiXiXiXiXiXiXiXiXiXiXiXiXiXiXiXiXiXiXiXiXiXiXiXiXiXiXiXiXiXiXiXiXiXiXiXiXiXiXiXiXiXiXiXiXiXiXiXiXiXiXiXiXiXiXiXiXiXiXpXiXiXiXwX8X8XdXdXwX=X8XpX=X=XwX8XwX8X8X8XL.dX8XpXqX8XqXqX8X8X=XdXpXiX8XwX8X=X8X8XiX8XqXqX=X8XpXwX8X8XdXdXiX=X8XpX=X=XwXpX8X=XpX8X=X8XqXpX8XdXdXqX=X8X8X=XdXpXiX8X=XqX=XqX8X=XiXqX=X8XiX=X8X8XwXdX8XqXpX8X=XqX8XiX8XiXwX=X8XpX8XiX8X=X8XdXqX8X8X=XiX8X=XwXpXqXL.pX",
"4XgXiXiXiXiXiXiXiXiXiXiXiXiXiXiXiXiXiXiXiXiXiXiXiXiXiXiXiXiXiXiXiXiXiXiXiXiXiXiXiXiXiXiXiXiXiXiXiXiXiXiXiXiXiXiXiXiXiXiXiXiXiXiXiXiXiXiXiXiXiXiXiXiXiXiXiXiXiXiXiXiXiXiXiXiXiXiXiXiXiXiXiXiXiXiXiXiXiXiXiXiXiXiXiXiXiXiXiXiXiXiXiXiXiXiXiXiXiXiXiXiXiXiXiXiXpXiXpXaXpXaXhXhXhXhXaXvXhXpXvXvXaXhXaXvXhXhXvXaXhXpXaXvXaXaXhXhXvXhXpXpXhXpXhXvXhXhXpXhXaXaXvXhXpXaXhXhXhXhXpXvXvXpXvXvXaXpXvXvXpXhXvXvXaXpXhXaXaXaXvXhXhXvXhXpXpXvXvXaXvXaXvXvXaXaXvXhXpXvXhXaXpXpXpXpXpXgXgXpXaXpXgXpXpXcXgXpXpXpXaXcXaXpXpXgXgXcXpXgXcXpXpXaXhXpX",
"4XpXiXiXiXiXiXiXiXiXiXiXiXiXiXiXiXiXiXiXiXiXiXiXiXiXiXiXiXiXiXiXiXiXiXiXiXiXiXiXiXiXiXiXiXiXiXiXiXiXiXiXiXiXiXiXiXiXiXiXiXiXiXiXiXiXiXiXiXiXiXiXiXiXiXiXiXiXiXiXiXiXiXiXiXiXiXiXiXiXiXiXiXiXiXiXiXiXiXiXiXiXiXiXiXiXiXiXiXiXiXiXiXiXiXiXiXiXiXiXiXiXiXiXiXpXiXpXvXvXvXvXvXvXvXvXvXvXvXvXvXvXvXvXvXvXvXvXvXvXvXvXvXvXvXvXvXvXvXvXvXvXvXvXvXvXvXvXvXvXvXvXvXvXvXvXvXvXvXvXvXvXvXvXvXvXvXvXvXvXvXvXvXvXvXvXvXvXvXvXvXvXvXvXvXvXvXvXvXvXvXvXvXvXvXvXvXvXvXvXvXhXhXhXvXhXhXaXaXhXhXhXaXhXhXaXhXhXbXbXhXaXhXhXhXhXaXaXhXaXhXvXvXvXvXvX",
"4XgXiXiXiXiXiXiXiXiXiXiXiXiXiXiXiXiXiXiXiXiXiXiXiXiXiXiXiXiXiXiXiXiXiXiXiXiXiXiXiXiXiXiXiXiXiXiXiXiXiXiXiXiXiXiXiXiXiXiXiXiXiXiXiXiXiXiXiXiXiXiXiXiXiXiXiXiXiXiXiXiXiXiXiXiXiXiXiXiXiXiXiXiXiXiXiXiXiXiXiXiXiXiXiXiXiXiXiXiXiXiXiXiXiXiXiXiXiXiXiXiXiXiXpXiXpXvXvXvXvXvXbXvXvXvXvXvXvXvXvXvXvXvXvXvXvXvXvXvXvXvXvXvXvXvXvXvXAXZXvXvXvXhXvXZXvXAXAXAXvXvXAXvXvXvXZXvXZXvXvXvXAXZXvXvXvXvXvXvXvXvXvXvXvXvXvXvXvXvXvXvXvXvXvXvXvXvXbXbXvXvXvXvXvXvXvXvXvXvXhXhXhXhXdXaXhXhXhXaXaXaXaXaXhXhXhXhX4X4XhXhXhXhXhXhXhXhXhXvXvXvXbXbXbXbX",
"uXpXiXiXiXiXiXiXiXiXiXiXiXiXiXiXiXiXiXiXiXiXiXiXiXiXiXiXiXiXiXiXiXiXiXiXiXiXiXiXiXiXiXiXiXiXiXiXiXiXiXiXiXiXiXiXiXiXiXiXiXiXiXiXiXiXiXiXiXiXiXiXiXiXiXiXiXiXiXiXiXiXiXiXiXiXiXiXiXiXiXiXiXiXiXiXiXiXiXiXiXiXiXiXiXiXiXiXiXiXiXiXiXiXiXiXiXiXiXiXiXiXiXpXiXpXvXvXvXvXbXvXyXvXvXvXvXvXvXvXvXvXvXvXvXvXvXvXvXvXvXvXvXvXvXvXvXAX7XB.qXvXvXG.pXpXAXpX@XoXAXaXwXbXpXaXpXZXpXaXhXvX{.qXZXvXvXvXvXvXvXvXvXvXvXvXvXvXvXvXvXvXvXvXvXvXvXbXyXyXbXvXvXvXvXvXvXvXvXhXhXaXvXeXUXdXvXaXaXvXbXbXbXvXhXaXvXuX%.%.3XbXaXhXhXhXhXhXvXvXvXbX4X3X3X4X",
"gXiXiXiXiXiXiXiXiXiXiXiXiXiXiXiXiXiXiXiXiXiXiXiXiXiXiXiXiXiXiXiXiXiXiXiXiXiXiXiXiXiXiXiXiXiXiXiXiXiXiXiXiXiXiXiXiXiXiXiXiXiXiXiXiXiXiXiXiXiXiXiXiXiXiXiXiXiXiXiXiXiXiXiXiXiXiXiXiXiXiXiXiXiXiXiXiXiXiXiXiXiXiXiXiXiXiXiXiXiXiXiXiXiXiXiXiXiXiXiXiXiXpXiXpXvXvXvXvXvXvX3XyXbXvXvXvXvXvXvXvXvXvXvXvXvXvXvXvXvXvXvXvXvXvXvXvXSXJ.B.pXp.p.B.B.7.B.J.p.B.FXB.B.J.p.J.7.p.p.+Xp.p.m +XAXvXvXvXvXvXvXvXvXvXvXvXvXvXvXvXvXvXvXvXvXvXvXvXzX3XyXbXvXvXvXvXvXvXhXhXhXpXSXXXUXXXSXpXvXyX&.*X%.&.bXaXvXuX%.%.3XbXaXhXhXhXhXvXvXvXvXbX3X&.&.3X",
"iXiXiXiXiXiXiXiXiXiXiXiXiXiXiXiXiXiXiXiXiXiXiXiXiXiXiXiXiXiXiXiXiXiXiXiXiXiXiXiXiXiXiXiXiXiXiXiXiXiXiXiXiXiXiXiXiXiXiXiXiXiXiXiXiXiXiXiXiXiXiXiXiXiXiXiXiXiXiXiXiXiXiXiXiXiXiXiXiXiXiXiXiXiXiXiXiXiXiXiXiXiXiXiXiXiXiXiXiXiXiXiXiXiXiXiXiXiXiXiXiXpXiXpXvXvXvXvXvXvXvX3XyXbXvXvXvXvXvXvXvXvXvXvXvXvXvXvXvXvXvXvXvXvXvXvXvXvXvXJ.n 7.J.p.m J.7.wX@X@XFXB.+X7.J.J.7.@XJ.p.n J.B.aXvXvXvXvXvXvXvXvXvXvXvXvXvXvXvXvXvXvXvXvXvXvXvXvXzX3XyXbXvXvXvXvXvXhXhXhXhXhXaXUX7.UXpXhXvXuX4X4X3X3XbXaXvXyX%.&.&.bXaXhXhXhXvXvXvXvXvXbX3X&.&.3X",
"iXpXpXpXpXpXpXpXpXpXpXpXpXpXpXpXpXpXpXpXpXpXpXpXpXpXpXpXpXpXpXpXpXpXpXpXpXpXpXpXpXpXpXpXpXpXpXpXpXpXpXpXpXpXpXpXpXpXpXpXpXpXpXpXpXpXpXpXpXpXpXpXpXpXpXpXpXpXpXpXpXpXpXpXpXpXpXpXpXpXpXpXpXpXpXpXpXpXpXpXpXpXpXpXpXpXpXpXpXpXpXpXpXpXpXpXpXpXpXpXpXiXpXvXvXvXvXvXvXvXbXvXyXvXvXvXvXvXvXvXvXvXvXvXvXvXvXvXvXvXvXvXvXvXvXvXvXAX7XB.+XJ.@X@X{.J.7XB.@XJ.SXp.B.OX+XiXB.7XJ.{.J.oXJ.@XAXvXvXvXvXvXvXvXvXvXvXvXvXvXvXvXvXvXvXvXvXvXvXbXyXyXbXvXvXvXvXvXhXhXhXhXhXvXiX.XFX.XiXvXaXvXbXbXbXbXaXhXhXaX3X3XpXvXhXhXhXvXvXvXvXvXvXbX4X3X3X4X",
"iXiXiXiXiXiXiXiXiXiXiXiXiXiXiXiXiXiXiXiXiXiXiXiXiXiXiXiXiXiXiXiXiXiXiXiXiXiXiXiXiXiXiXiXiXiXiXiXiXiXiXiXiXiXiXiXiXiXiXiXiXiXiXiXiXiXiXiXiXiXiXiXiXiXiXiXiXiXiXiXiXiXiXiXiXiXiXiXiXiXiXiXiXiXiXiXiXiXiXiXiXiXiXiXiXiXiXiXiXiXiXiXiXiXiXiXiXiXiXiXiXpXvXvXvXvXvXvXvXvXvXvXbXvXvXvXvXvXvXvXvXvXvXvXvXvXvXvXvXvXvXvXvXvXvXvXvXvXvXvXAXAXvXAXAXvXZXAXZXZXvXV.vXSXbXZXZXvXvXAXAXvXAXvXvXvXvXvXvXvXvXvXvXvXvXvXvXvXvXvXvXvXvXvXvXvXvXvXbXbXvXvXvXvXvXaXhXhXhXhXhXaXhXAXpXbXhXaXhXaXaXaXaXaXhXhXhXhXbXbXhXaXhXhXvXvXvXvXvXvXvXvXbXbXbXbX",
"aXaXaXaXaXaXaXaXaXaXaXaXaXaXaXaXaXaXaXaXaXaXaXaXaXaXaXaXaXaXaXaXaXaXaXaXaXaXaXaXaXaXaXaXaXaXaXaXaXaXaXaXaXaXaXaXaXaXaXaXaXaXaXaXaXaXaXaXaXaXaXaXaXaXaXaXaXaXaXaXaXaXaXaXaXaXaXaXaXaXaXaXaXaXaXaXaXaXaXaXaXaXaXaXaXaXaXaXaXaXaXaXaXaXaXaXaXaXaXaXaXvXvXvXvXvXvXvXvXvXvXvXvXvXvXvXvXvXvXvXvXvXvXvXvXvXvXvXvXvXvXvXvXvXvXvXvXvXvXvXvXvXvXvXvXvXvXvXvXvXvXvXvXvXvXvXvXvXvXvXvXvXvXvXvXvXvXvXvXvXvXvXvXvXvXvXvXvXvXvXvXvXvXvXvXvXvXvXvXvXvXvXvXvXvXvXvXvXvXvXvXvXvXvXvXvXvXvXvXvXvXvXvXvXvXvXvXvXaXzXvXvXvXvXvXvXvXvXvXvXvXvXvXvXvXvX",
"vXvXvXvXvXvXvXvXvXvXvXvXvXvXvXvXvXvXvXvXvXvXvXvXvXvXvXvXvXvXvXvXvXvXvXvXvXvXvXvXvXvXvXvXvXvXvXvXvXvXvXvXvXvXvXvXvXvXvXvXvXvXvXvXvXvXvXvXvXvXvXvXvXvXvXvXvXvXvXvXvXvXvXvXvXvXvXvXvXvXvXvXvXvXvXvXvXvXvXvXvXvXvXvXvXvXvXvXvXvXvXvXvXvXvXvXvXvXvXvXvXvXvXvXvXvXvXvXvXvXvXvXvXvXvXvXvXvXvXvXvXvXvXvXvXvXvXvXvXvXvXvXvXvXvXvXvXvXvXvXvXvXvXvXvXvXvXvXvXvXvXvXvXvXvXvXvXvXvXvXvXvXvXvXvXvXvXvXvXvXvXvXvXvXvXvXvXvXvXvXvXvXvXvXvXvXvXvXvXvXvXvXvXvXvXvXvXvXvXvXvXvXvXvXvXvXvXvXvXvXvXvXvXvXvXvXvXvXvXvXvXvXvXvXvXvXvXvXvXvXvXvXvXvXvXvX",
"+X+X+X+X+X+X+X+X+X+X+X+X+X+X+X+X+X+X+X+X+X+X+X+X+X+X+X+X+X+X+X+X+X+X+X+X+X+X+X+X+X+X+X+X+X+X+X+X+X+X+X+X+X+X+X+X+X+X+X+X+X+X+X+X+X+X+X+X+X+X+X+X+X+X+X+X+X+X+X+X+X+X+X+X+X+X+X+X+X+X+X+X+X+X+X+X+X+X+X+X+X+X+X+X+X+X+X+X+X+X+X+X+X+X+X+X+X+X+X+X+X+X+X+X+X+X+X+X+X+X+X+X+X+X+X+X+X+X+X+X+X+X+X+X+X+X+X+X+X+X+X+X+X+X+X+X+X+X+X+X+X+X+X+X+X+X+X+X+X+X+X+X+X+X+X+X+X+X+X+X+X+X+X+X+X+X+X+X+X+X+X+X+X+X+X+X+X+X+X+X+X+X+X+X+X+X+X+X+X+X+XOXqXvXpXpXpXpXpXpXaXpXpXpXpXpXiXvXvXiXpXpXpXwXpXpXiXvXvXiXpXaXpXpXaXpXiXvXvXiXpXaXiXpXiXiX",
"OXOXOXOXOXOXOXOXOXOXOXOXOXOXOXOXOXOXOXOXOXOXOXOXOXOXOXOXOXOXOXOXOXOXOXOXOXOXOXOXOXOXOXOXOXOXOXOXOXOXOXOXOXOXOXOXOXOXOXOXOXOXOXOXOXOXOXOXOXOXOXOXOXOXOXOXOXOXOXOXOXOXOXOXOXOXOXOXOXOXOXOXOXOXOXOXOXOXOXOXOXOXOXOXOXOXOXOXOXOXOXOXOXOXOXOXOXOXOXOXOXOXOXOXOXOXOXOXOXOXOXOXOXOXOXOXOXOXOXOXOXOXOXOXOXOXOXOXOXOXOXOXOXOXOXOXOXOXOXOXOXOXOXOXOXOXOXOXOXOXOXOXOXOXOXOXOXOXOXOXOXOXOXOXOXOXOXOXOXOXOXOXOXOXOXOXOXOXOXOXOXOXOXOXOXOXOXOXOXOXOXoX9XvXpXiXiXpX9X@XJ.@X+XpXiXiXiXvXvXiXiX7XiXvXpXiXiXvXvXwXpX7XqXqXOXpXiXvXhXpXqX+XaXpXpXhX",
"OXOXOXOXOXOXOXOXOXOXOXOXOXOXOXOXOXOXOXOXOXOXOXOXOXOXOXOXOXOXOXOXOXOXOXOXOXOXOXOXOXOXOXOXOXOXOXOXOXOXOXOXOXOXOXOXOXOXOXOXOXOXOXOXOXOXOXOXOXOXOXOXOXOXOXOXOXOXOXOXOXOXOXOXOXOXOXOXOXOXOXOXOXOXOXOXOXOXOXOXOXOXOXOXOXOXOXOXOXOXOXOXOXOXOXOXOXOXOXOXOXOXOXOXOXOXOXOXOXOXOXOXOXOXOXOXOXOXOXOXOXOXOXOXOXOXOXOXOXOXOXOXOXOXOXOXOXOXOXOXOXOXOXOXOXOXOXOXOXOXOXOXOXOXOXOXOXOXOXOXOXOXOXOXOXOXOXOXOXOXOXOXOXOXOXOXOXOXOXOXOXOXOXOXOXOXOXOXOXOXOXoX9XvXpXiXiXpX+XV.J.J.@XpXiXpXiXvXvXiXpX7.J.G.9XpXiXvXhXaXoXm oX7.G.iXiXvXvX9X7.p.J.9XOX7.",
"OXOXOXOXOXOXOXOXOXOXOXOXOXOXOXOXOXOXOXOXOXOXOXOXOXOXOXOXOXOXOXOXOXOXOXOXOXOXOXOXOXOXOXOXOXOXOXOXOXOXOXOXOXOXOXOXOXOXOXOXOXOXOXOXOXOXOXOXOXOXOXOXOXOXOXOXOXOXOXOXOXOXOXOXOXOXOXOXOXOXOXOXOXOXOXOXOXOXOXOXOXOXOXOXOXOXOXOXOXOXOXOXOXOXOXOXOXOXOXOXOXOXOXOXOXOXOXOXOXOXOXOXOXOXOXOXOXOXOXOXOXOXOXOXOXOXOXOXOXOXOXOXOXOXOXOXOXOXOXOXOXOXOXOXOXOXOXOXOXOXOXOXOXOXOXOXOXOXOXOXOXOXOXOXOXOXOXOXOXOXOXOXOXOXOXOXOXOXOXOXOXOXOXOXOXOXOXOXOXOXOXoX9XvXpXiXiXaXoXB.vXJ.{.pXiXpXiXvXvXwXpXG.p.7.B.vXwXvXvXpXqXB.7.V.FXwXiXhXAXJ.G.iXb J.N.m ",
"OXOXOXOXOXOXOXOXOXOXOXOXOXOXOXOXOXOXOXOXOXOXOXOXOXOXOXOXOXOXOXOXOXOXOXOXOXOXOXOXOXOXOXOXOXOXOXOXOXOXOXOXOXOXOXOXOXOXOXOXOXOXOXOXOXOXOXOXOXOXOXOXOXOXOXOXOXOXOXOXOXOXOXOXOXOXOXOXOXOXOXOXOXOXOXOXOXOXOXOXOXOXOXOXOXOXOXOXOXOXOXOXOXOXOXOXOXOXOXOXOXOXOXOXOXOXOXOXOXOXOXOXOXOXOXOXOXOXOXOXOXOXOXOXOXOXOXOXOXOXOXOXOXOXOXOXOXOXOXOXOXOXOXOXOXOXOXOXOXOXOXOXOXOXOXOXOXOXOXOXOXOXOXOXOXOXOXOXOXOXOXOXOXOXOXOXOXOXOXOXOXOXOXOXOXOXOXOXOXOXOXoX9XvXpXiXiXpX7XJ.G.m B.aXiXpXiXvXvXiXpX7.B.J.G.hXwXvXvXpXqXB.7.7.J.pXiXvXvX9X7.p.G.7.7.p.",
"oXoXoXoXoXoXoXoXoXoXoXoXoXoXoXoXoXoXoXoXoXoX+X+X+X+XOXOXOXOXOXOXOX+X+XoXoXoXoXoXoXoXoXoXoXoXoXoXoXoXoXoXoXoXoXoXoXoXoXoXoXoXoXoXoXoXoXoXoXoXoXoXoXoXoXoXoXoXoXoXoXoXoXoXoXoXoXoXoXoXoXoXoXoXoXoXoXoX+XOXoXoXoXoXoXoXoXoXoXoXoXoXoXoXoXoXoXoXoXoXoXoXoXoXoXoXoXoXoXoXoXoXoXoXoXoXoXoXoXoXoXoXoXoXoXoXoXoXoXoXoXoXoXoXoXoXoXoXoXoXoXoXoXoXoXoXoXoXoXoXoXoXoXoXoXoXoXoXoXoXoXoXoXoXoXoXoXoXoXoXoXoXoXoXoXoXoXoXoXoXoXoXoXoXoXoXoXoXoXoXoX@X9XvXpXiXiXpX9XOX+XJ.J.pXiXpXiXvXvXiXiX7XqXwXwXpXiXvXvXiXwXoXpXqX+XpXiXvXhXpXqX7XaX7XqXqX",
"9X9X9X9X9X9X9X9X9X9X9X9X9X9X9X9X9X9X9X9X9X7X-X=X=X{.@X{.@X@X{.{.@X{.=XeX+X9X9X9X9X9X9X9X9X9X9X9X9X9X9X9X9X9X9X9X9X9X9X9X9X9X9X9X9X9X9X9X9X9X9X9X9X9X9X9X9X9X9X9X9X9X9X9X9X9X9X9X9X9X9X9X9X9X9X7X7X9X=X8X9X9X9X9X9X9X9X9X9X7X9X9X9X9X9X9X9X9X9X9X9X9X9X9X7X7X9X7X9X9X9X9X9X9X9X9X9X9X9X9X9X9X9X9X9X9X9X9X9X9X9X9X9X9X7X9X9X9X9X9X9X9X9X9X9X9X9X9X9X9X9X9X9X9X9X9X9X9X9X9X9X9X9X9X9X9X9X9X9X9X9X9X9X9X9X9X9X9X9X9X9X9X9X9X9X9X9X9X9X9X9X9XqXvXpXiXpXiXpXpXpXaXaXiXpXpXiXvXvXiXiXpXpXpXpXiXiXvXvXiXpXaXiXpXaXiXiXvXvXwXpXpXwXpXpXpX",
"AXAXAXAXAXAXvXvXAXAXAXAXAXvXvXAXAXAXAXhXbXNX&X].`.].[.[./.(.[.[.(.`.:.Z.l.pXiXlXvXAXAXAXAXAXAXAXAXAXAXAXAXAXAXAXAXAXhXAXAXAXAXAXAXAXAXAXAXAXAXhXAXAXAXAXAXAXAXAXhXAXAXAXAXAXAXvXvXAXAXAXAXvXzX&.yXzX>.5XbXAXvXvXAXAXhXAXFXoXwXSXAXAXAXAXAXAXAXAXAXAXZXJX4X3XaXyXVXZXAXvXvXAXAXAXAXAXAXAXAXAXAXAXvXvXAXAXAXAXAXAXSXhX-XaXaXhXZXAXAXhXAXAXAXAXAXhXAXAXAXvXvXAXAXAXhXAXAXAXhXAXFX1X}.hXhXhXAXAXAXAXAXAXAXAXAXAXAXAXAXAXAXAXAXvXvXAXAXAXAXSXaXvXpXiXpXpXiXhXvXvXiXiXiXpXiXvXvXiXpXpXpXpXpXpXiXvXvXiXpXpXpXpXpXpXiXvXvXiXpXpXpXpXpXpX",
"KXKXKXKXKXKXbXSXKXKXKXKXKXSXbXKXKXKXKXvXJXNX&X%X[.[.[.[.[.[.[.[.[.[.{.&XZ.mXlXbXSXHXHXKXKXKXKXKXKXKXKXKXKXKXKXKXKXKXvXKXKXKXKXKXKXKXKXKXKXKXKXvXKXKXKXKXKXKXKXKXvXKXKXKXKXKXKXbXSXKXKXKXKXbXVX&.VXVX>.5XLXKXbXSXKXKXvXHXPXoXaXPXKXKXKXKXKXKXKXKXKXKXFXLX5X3XVXVXGXFXKXSXbXKXKXKXKXKXKXKXKXKXKXKXSXbXKXKXKXKXKXKXKXGX-XBXDXGXFXHXKXvXKXKXKXKXKXvXKXKXKXSXbXKXKXKXvXKXKXKXvXHXPX1X}.AXAXSXHXKXKXKXKXKXKXKXKXKXKXKXKXKXKXKXKXbXSXKXKXKXKXKXaXvXpXiXpXpXiXaXvXvXpXiXpXpXiXvXvXqX0X0X0X0X0X0XqXvXvXqX0X0X0X0X0X0XqXvXvXqX0X0X0X0X0X0X",
"FXHXHXHXFXKXvXSXKXFXHXFXKXSXvXKXFXFXKXvXJXNX&X%X[.[.[.[.[.[.[.[.[.[.%XP.&XcXlXvXAXHXLXHXFXHXHXHXHXHXHXHXHXHXHXHXHXHXvXHXHXHXHXHXHXHXHXHXHXHXHXvXHXHXHXHXHXHXHXHXvXHXHXHXHXFXKXvXSXKXFXHXFXbXVX&.VXyX_ 5XLXHXvXSXKXFXvXFXPXoXpXKXFXHXHXHXHXHXHXHXHXHXFXLX5X3XVXVXGXFXKXSXvXKXFXHXHXHXHXHXHXHXFXKXSXvXKXFXHXHXHXFXKXZX-XBXBXGXSXFXHXvXHXHXHXHXHXvXHXFXKXSXvXKXFXHXvXHXHXHXvXFXPX1X}.AXBXAXFXHXHXHXHXHXHXHXHXHXHXHXHXHXHXFXKXvXSXKXFXHXFXHXaXvXpXiXpXpXiXbXJXbXpXiXpXpXiXvXvX0X#X#X#X#X#X#X0XvXvX0X#X#X#X#X#X#X0XvXvX0X#X#X#X#X#X#X",
"HXHXHXHXHXKXvXSXKXHXHXHXKXSXvXKXHXHXKXvXJXNX<X%X[.[.[.[.[.[.[.[.[.[.%XP.&XcXlXbXJXSXNXFXKXHXHXHXHXHXHXHXHXHXHXHXHXHXvXHXHXHXHXHXHXHXHXHXHXHXHXvXHXHXHXHXHXHXHXHXvXHXHXHXHXHXKXvXSXKXHXHXFXbXVX&.VXyX` ,XLXHXvXSXKXHXvXFXPXoXpXKXFXHXHXHXHXHXHXHXHXHXFXLX5X3XVXVXGXFXKXSXvXKXHXHXHXHXHXHXHXHXHXKXSXvXKXHXHXHXHXHXKXGX-XBXDXGXSXFXHXvXHXHXHXHXHXvXHXHXKXSXvXKXHXHXvXHXHXHXvXFXPX1X}.AXBXSXFXHXHXHXHXHXHXHXHXHXHXHXHXHXHXHXKXvXSXKXHXHXHXKXaXvXpXiXpXiXpX4X4X4XiXpXiXpXiXvXvX0X#X#X0X0X#X#X0XvXvX0X#X#X0X0X#X#X0XvXvX0X#X#X0X0X#X#X",
"HXHXHXHXHXKXvXSXKXHXHXHXKXSXvXKXHXHXKXvXLX5X<X%X[.[.[.[.[.[.[.[.[.[.%X`.&XcXlXaXtX>X>.5XLXFXHXHXHXHXHXHXHXHXHXHXHXHXvXHXHXHXHXHXHXHXHXHXHXHXHXvXHXHXHXHXHXHXHXHXvXHXHXHXHXHXKXvXSXKXHXHXFXbXVX&.VXyX` -XLXHXvXSXKXHXvXFXPXoXpXKXFXHXHXHXHXHXHXHXHXHXFXLX5X3XVXVXGXFXKXSXvXKXHXHXHXHXHXHXHXHXHXKXSXvXKXHXHXHXHXHXKXGX-XBXDXGXSXFXHXvXHXHXHXHXHXvXHXHXKXSXvXKXHXHXvXHXHXHXvXFXPX1X}.AXBXSXFXHXHXHXHXHXHXHXHXHXHXHXHXHXHXHXKXvXSXKXHXHXHXKXaXvXpXiXpXiXgX%.o.O.dXpXiXpXiXvXvX0X#X#X0X0X#X#X0XvXvX0X#X#X0X0X#X#X0XvXvX0X#X#X0X0X#X#X",
"HXHXHXHXHXKXvXSXKXHXHXHXKXSXvXKXHXHXKXbXLX5X<X%X[.[.[.[.[.[.[.[.[.[.%X}.;XfXmX,X:.-X-X,XLXFXHXHXHXHXHXHXHXHXHXHXHXHXvXHXHXHXHXHXHXHXHXHXHXHXHXvXHXHXHXHXHXHXHXHXvXHXHXHXHXHXKXvXSXKXHXHXFXbXVX&.VXyX_ -XLXHXvXSXKXHXvXFXPXoXpXKXFXHXHXHXHXHXHXHXHXHXFXLX5X3XVXVXGXFXKXSXvXKXHXHXHXHXHXHXHXHXHXKXSXvXKXHXHXHXHXHXKXGX-XBXDXGXSXFXHXvXHXHXHXHXHXvXHXHXKXSXvXKXHXHXvXHXHXHXvXFXPX1X}.AXBXSXFXHXHXHXHXHXHXHXHXHXHXHXHXHXHXHXKXvXSXKXHXHXHXKXaXvXpXiXpXiXgX%.o.#.qXpXiXpXiXvXvX0X#X#X0X0X#X#X0XvXvX0X#X#X0X0X#X#X0XvXvX0X#X#X0X0X#X#X",
"HXHXHXHXHXKXvXSXKXHXHXHXKXSXvXKXHXFXKX-X&X:.P.%X[.[.[.[.[.[.[.[.[.[.[.].-.:.tX>X1X%XK.,XLXFXHXHXHXHXHXHXHXHXHXHXHXHXvXHXHXHXHXHXHXHXHXHXHXHXHXvXHXHXHXHXHXHXHXHXvXHXHXHXHXHXKXvXSXKXHXHXFXbXVX&.VXyX_ <XLXHXvXSXKXHXvXFXPXoXpXKXFXHXHXHXHXHXHXHXHXHXFXLX5X3XVXVXGXFXKXSXvXKXHXHXHXHXHXHXHXHXHXKXSXvXKXHXHXHXHXHXKXGX-XBXDXGXSXFXHXvXHXHXHXHXHXvXHXHXKXSXvXKXHXHXvXHXHXHXvXFXPX1X}.AXBXSXFXHXHXHXHXHXHXHXHXHXHXHXHXHXHXHXKXvXSXKXHXHXHXKXaXvXpXiXpXiXgX%.o.#.qXpXiXpXiXvXvX0X#X#X0X0X#X#X0XvXvX0X#X#X0X0X#X#X0XvXvX0X#X#X0X0X#X#X",
"HXHXHXHXHXKXvXSXKXHXHXHXKXSXvXKXFXHXFX;XH.].[.[.[.[.[.[.[.[.[.[.[.[.|.(.F <X,X*X`.%XP.,XLXFXHXHXHXHXHXHXHXHXHXHXHXHXvXHXHXHXHXHXHXHXHXHXHXHXHXvXHXHXHXHXHXHXHXHXvXHXHXHXHXHXKXvXSXKXHXHXFXbXVX&.VXyX' &XKXKXvXSXKXHXvXFXPXoXpXKXFXHXHXHXHXHXHXHXHXHXFXLX5X3XVXVXGXFXKXSXvXKXHXHXHXHXHXHXHXHXHXKXSXvXKXHXHXHXHXHXKXGX-XBXDXGXSXFXHXvXHXHXHXHXHXvXHXHXKXSXvXKXHXHXvXHXHXHXvXFXPX1X}.AXBXSXFXHXHXHXHXHXHXHXHXHXHXHXHXHXHXHXKXvXSXKXHXHXHXKXaXvXpXiXpXiXgX%.o.#.qXpXiXpXiXvXvX0X#X#X0X0X#X#X0XvXvX0X[.#X#X#X#X[.0XvXvX0X[.#X#X#X#X[.",
"HXHXHXHXHXKXvXSXKXHXHXHXKXSXvXKXFXHXDX&X[.|.[.[.[.[.[.[.[.[.[.[.[.[.|.(.F `.:.-.].%XP.>XLXFXHXHXHXHXHXHXHXHXHXHXHXHXvXHXHXHXHXHXHXHXHXHXHXHXHXvXHXHXHXHXHXHXHXHXvXHXHXHXHXHXKXvXSXKXHXHXFXbXVX&.VX4X&X-.DXLXvXSXKXHXvXFXPXoXpXKXFXHXHXHXHXHXHXHXHXHXFXLX5X3XVXVXGXFXKXSXvXKXHXHXHXHXHXHXHXHXHXKXSXvXKXHXHXHXHXHXKXGX-XBXDXGXSXFXHXvXHXHXHXHXHXvXHXHXKXSXvXKXHXHXvXHXHXHXvXFXPX1X}.AXBXSXFXHXHXHXHXHXHXHXHXHXHXHXHXHXHXHXKXvXSXKXHXHXHXKXaXvXpXiXpXiXgX%.o.#.qXpXiXpXiXvXvX0X#X#X0X0X#X#X0XvXvXwXwXwXwXwXwXwXwXvXvXwXwXwXwXwXwXwX",
"HXHXHXHXFXKXvXSXKXHXHXHXKXSXvXKXLXLXFX&X[.[.[.[.[.[.[.[.[.[.[.[.[.[.|.(.D (.-X=X[.%X`.>XLXFXHXHXHXHXHXHXHXHXHXHXHXHXvXHXHXHXHXHXHXHXHXHXHXHXHXvXHXHXHXHXHXHXHXHXvXHXHXHXHXHXKXvXSXKXHXHXFXbXVX&.VX4XZ.Z.CXLXvXSXKXHXvXKXPXoXpXKXFXHXHXHXHXHXHXHXHXHXFXLX5X3XVXVXGXFXKXSXvXKXHXHXHXHXHXHXHXHXHXKXSXvXKXHXHXHXHXHXKXGX-XBXDXGXSXFXHXvXHXHXHXHXHXvXHXHXKXSXvXKXHXHXvXHXHXHXvXFXPX1X}.AXBXSXFXHXHXHXHXHXHXHXHXHXHXHXHXHXHXHXKXvXSXKXHXHXHXKXaXvXpXiXpXiXgX%.o.#.qXpXiXpXiXvXvX0X#X#X0X0X#X#X0XvXZX Xz z l l z z  XZXZX Xz z l l z z ",
"HXHXHXKXKXPXGXFXKXHXHXHXKXSXbXFX5X5X,X&X|.[.[.[.[.[.[.[.[.[.[.[.[.[.|.(.D (.(./.[.|.`.>XLXFXHXHXHXHXHXHXHXHXHXHXHXHXvXHXHXHXHXHXHXHXHXHXHXHXHXvXHXHXHXHXHXHXHXHXvXHXHXHXHXHXKXvXSXKXHXHXFXbXNX%.VX4X&X&XNXLXvXSXKXHXGX_.jX8XpXKXFXHXHXHXHXHXHXHXHXHXFXLX5X3XVXVXGXSXHXSXvXKXHXFXHXHXHXHXHXHXHXKXSXvXKXHXHXHXHXHXKXGX-XBXDXGXSXFXHXvXHXHXHXHXHXvXHXHXKXSXvXKXHXHXvXHXHXHXvXFXPX1X}.AXBXSXFXHXHXHXHXHXHXHXHXHXHXHXHXHXHXHXKXvXSXKXHXHXHXKXaXvXpXiXpXiXgX%.o.#.qXpXiXpXiXvXvX0X#X#X0X0X#X#X0XvXZX Xz z l l z z  XZXZX Xz z l z 8 8 ",
"HXHXHXjXkXjXkXjXKXHXHXHXKXFXSX5X-.A.<X`.[.[.[.[.[.[.[.[.[.(.!.!.(.[.|.(.D (.(.(.[.[.}.>XLXFXHXHXHXHXHXHXHXHXHXHXHXHXvXHXHXHXHXHXHXHXHXHXHXHXHXvXHXHXHXHXHXHXHXHXvXHXHXHXHXHXKXvXSXKXHXHXFXbX>X1.VX-XZ.Z.NXLXvXSXKXFXIXj |.dXpXKXFXHXHXHXHXHXHXHXHXHXFXLX5X3XVXVXGXFXKXSXvXKXHXKXHXHXHXHXHXHXHXKXSXvXKXHXHXHXHXHXKXGX-XBXDXGXSXFXHXvXHXHXHXHXHXvXHXHXKXSXvXKXHXHXvXHXHXHXvXFXPX1X}.AXBXSXFXHXHXHXHXHXHXHXHXHXHXHXHXHXHXHXKXvXSXKXHXHXHXKXaXvXpXiXpXiXgX%.o.#.qXpXiXpXiXvXvX0X#X#X0X0X#X#X0XvXvXwX0X0XwX0X0X0XwXvXvXwX0XwX0Xz 8 8 ",
"HXPXMX| ......&XJXHXFXHXJXjXmX-XK.%X%X/.[.[.[.[.[.[.[./.T.Y.T.T.~.[.[.(.D (.(.(.[.[.}.;XKXFXFXFXFXFXFXFXFXFXFXFXFXFXvXFXFXFXFXFXFXFXFXFXFXFXFXvXFXFXFXFXFXFXFXFXvXFXFXFXFXFXHXvXSXHXFXFXFXnX>X1.zX-XZ.Z.NXLXvXSXHXFXGXk |.dXiXKXFXFXKXFXFXFXFXFXFXFXFXLX4X3XVXVXVXjXjXSXvXKXFXDXFXFXFXFXFXFXFXFXAXvXHXFXFXFXFXFXKXZX-XMXBXZXSXFXFXvXFXFXFXFXFXvXFXFXHXSXvXHXFXFXvXFXFXFXvXFXPX1X}.AXhXAXFXFXFXFXFXFXFXFXFXFXFXFXFXFXFXFXKXvXSXHXFXFXFXFXaXvXpXiXpXiXgX%.o.#.qXpXiXpXiXvXvX0X#X#X0X0X#X#X0XvXvXwX0X0X0Xz 8 8 l ZXZXl 8 8 z z 8 8 ",
"mXmX=X>XSXVXaX:.DXPXPXjXp } p ) 1X%X#X[.%X%X#X#X[.(.!.!.T.T.!.!.(.[.%X[.D (.(.[.[.%X%X;X,XPXPXPXPXPXPXPXPXPXPXPXPXPXSXPXPXPXPXPXPXPXPXPXPXPXPXAXPXPXPXPXPXPXPXPXSXPXPXPXPXPXPXSXKXPXPXPXPXLX>X1.IX-XZ.A.NXPXSXKXPXPXJX&X2XeXvXPXPXPXbXJXPXPXPXPXPXPXPXPX5X6XIXVXPX_._.PXSXPXIX>XPXPXPXPXPXPXPXPXKXSXPXPXPXPXPXPXPXFX-XDXDXFXKXPXPXAXPXPXPXPXPXbXPXPXPXKXSXPXLXLXbXLXLXLXbXKXPX1X1XJXSXJXKXLXLXLXLXLXLXLXLXLXLXLXLXLXLXLXPXSXKXPXLXLXLXLXhXvXpXiXpXiXgX%.o.#.qXpXiXpXiXvXvX0X#X#X0X0X#X#X0XvXZX Xz z l z 8 8 l ZXZXl 8 8 z z 8 8 ",
"p p ^ } j k j | k z z } ~ [ [ [ k k k k k H H H H Z Z s.a.Z C C s.Y.E.d.M d.d.h.R.Y.).F.;X+X@X.X.X.X.XXXJ.J.J.C.C.C.C.C.C.C.C.C.C.C.C.C.C.C.C.C.C.C.C.C.C.J.J.J.C..X.X.X.X@X8X{.oXoXoXoXoX@X-.1..XZ.Z.Z.*X+XL.oX+XoXJ.) &XM.P.4X.X4Xk `.7X+XoXoX{.oXoX+X*X%.L.L.4XH k 8X{.+X1X:.=X4X4X4X4X4X4X.XL.{.+XOXoXoXoXoXOXL.Z.L.L.L.oXoXoXL.+XoX{.1X1X=X=X=X=X-X-X-X-X-X-X-X-X-X-X-X-XA.A.-X-X-X-X-X-X-X-X-X-X-X-X-X-X-X-X-X-X-X-X-X-X-X-X-X-X-XuXvXpXiXpXiXgX%.o.#.qXpXiXpXiXvXvX0X#X#X0X0X#X#X0XhXVXl 8 8 z z 8 8 l ZXZXl 8 8 z z 8 8 ",
"-X,X-X~.~.~. X&X .} X.| A. X X_. X X XQ.Q.Q.H H k i i i f C Y.U.Y.~.(.).M ).).!.!.(.(.n.-.XXC.C.XX.X@X@XOX+X$X$X$X$X@X$X$X$X$X$X$X$X$X$X$X$X$X@X$X$X$X$X$X$X+X@X.X@X.XXXC.C.XXJ.9XhXaXpXpXeX;X:.dXA.Z.A.,XmX8X4X3X3XS.) >.S.S.4X3XP.) &X4XrXpXmX .*XcXjX3X2.yXrXyXQ.k zX4X4X*X>.*X3X3X4X4X3X3X*X*X*X4XtXgXgXpXpXaXuX<XtXtXuXuXaXpX1X=X-X-X=XrX=XrXrXrXrXrXMXsXsXrXsXsXsXrXtXMX1XP.rXrXrXtXsXsXsXsXsXsXsXsXsXsXsXsXsXsXsXsXrXrXsXsXsXsXsXuXvXpXiXpXiXgX%.o.#.qXpXiXpXiXvXvX0X#X#X0X0X#X#X0XhXGXJ 8 8 z z 8 8 l ZXZXl 8 8 z z 8 8 ",
"|.|.|.[.[.[.~.`.:X:X>X*X]./.~.[.[.[.[.~.[.[.[.[.[.).T.I.k k k Q.!.!.|.[.D (.(.[.[.(.).j.;XmXnXnXnXnXnXnXnXnXnXnXnXnXeXnXnXnXnXnXnXnXnXnXnXnXnXeXnXnXnXnXnXnXnXnXpXnXnXnXnXnXxX$X.X$XbXPXKXJX;X>.GXK.Z.P.>XyX4X5XCXCXpX) >X+XyXIXGXVX' >XVX5X5XzX&X>XPXPX5XS.ZXVXPX Xj 5X5XCXCX>.CXIXIXIXIXIXIXIXVXNXNX5X5XIXPXKXPXFX-XDXDXFXKXMXNXrXMXDXFXFXFXaXFXDXFXDXMXFXDXDXaXDXDXDXaXDXIX1X1XBXBXBXDXDXDXDXDXDXDXDXDXDXDXDXDXDXDXDXFXMXDXDXDXDXDXDXpXvXpXiXpXiXgX%.o.#.qXpXiXpXiXvXvX0X|.#X0X0X#X|.0XhXGXl 8 8 z z 8 8 l ZXZXl 8 8 z z 8 8 ",
"/./././././.~./.|.|.|.|./.~.~././././.~.~./.~.~.T.Y.Y.T.T.U.H k k E.[.(.D (.(.(.).G ).`.;XnXlXlXlXlXlXlXlXlXlXlXlXlXeXlXlXlXlXlXlXlXlXlXlXlXlXeXlXlXlXlXlXlXlXlXeXlXlXlXlXlXnXpXlX$XXX$XFXbX>.>.VXA.Z.A.<.yXyXVXVXVXtX) ;X.XrXVXVXCX) ;XIXVXVX4X) ;XLXLX5Xr  XCXCXy.j CXsXGXMX>.NXVXVXVXVXVXVXVXVXsXVXCXCX5X5XHXKXZX-XMXZXDXNXNXMXsXDXDXDXDXDXsXDXDXDXMXsXDXDXDXsXDXDXDXsXDXIX1X1XMXMXBXBXDXDXDXDXDXDXDXDXDXDXDXDXDXDXDXDXsXMXDXDXDXDXDXpXvXpXiXpXiXgX%.o.#.qXpXiXpXiXvXvXeX$X$XeXeX$X$XeXvXZXK L L L L L L K ZXZXK L L L L L L ",
"/./././././.~.~./././././.~.~././././.~.~.[.T.U.I.U.Y.Y.U.I.T.T.k k [.(.M (.(.F ).(.(.`.;XnXlXcXcXcXcXcXcXcXcXcXcXcXeXcXcXcXcXcXcXcXcXcXcXcXcXeXcXcXcXcXcXcXcXcXeXcXcXcXcXcXcXeXxXnXcX$X@XbX;X:.zXA.@.q.>XIXyXVXVXVXrX) ;X=XtXVXVXNX) ;XpX#XCXvX) -.VXLX6Xr  X5X6X<X} zXyXVXNX_ NXVXVXVXVXVXVXVXMXyXCX0X0XVX5X5XFXAX-XZXMX,XNXDXDXsXDXDXDXDXDXsXDXDXDXMXsXDXDXDXsXDXDXDXsXBXIX1X1XMXMXMXBXDXDXDXDXDXDXDXDXDXDXDXDXDXDXDXDXsXMXDXDXDXDXDXpXvXpXiXpXiXgX%.o.#.qXpXiXpXiXvXvXeX$X$XeXeX$X$XeXvXBXK c c c c c c K BXBXK c c c c c c ",
"/./././././.~.~./././././.~.~././././.~.~./.T.Y.U.U.Y.Y.U.I.Y.Y.Y.k k R.D (.F ).(.(.(.!.;XcXcXcXcXcXcXcXcXcXcXcXcXcXeXcXcXcXcXcXcXcXcXcXcXcXcXeXcXcXcXcXcXcXcXcXeXcXcXcXcXcXcXeXxXcXcXnX$XXX:.>.yX{ Z.G.>XGXyXVXVXVX4X..&X-XtXVXVXNX..&X}.Q.CXsX^ -.3XVX5Xr I.6XVX&X..zXNXIXCX` 5XIXCXCXCXCXCXCXCXyXIXQ.~.CXIXCX5XIX-XCX5XCXIXFXFXhXFXFXFXFXFXhXFXFXHXAXvXHXFXFXhXFXFXFXhXSXKX1X1XBXBXAXSXFXFXFXFXFXFXFXFXFXFXFXFXFXFXFXFXhXAXFXFXFXFXFXaXvXpXiXpXiXgX%.o.#.qXpXiXpXiXvXvXeX$X$XeXeX$X$XeXvXBXK c c K K c c K BXBXK c c K K c c ",
"/./././././.~.~./././././.~.~././././.~.~./.T.Y.U.U.Y.Y.U.I.Y.Y.I.T.H i M F ).(.(.(.(.^.;XlXcXcXcXcXcXcXcXcXcXcXcXcXeXcXcXcXcXcXcXcXcXcXcXcXcXeXcXcXcXcXcXcXcXcXeXcXcXcXcXcXcXeXxXcXcXlXnX$X) ) 3X .Z.!.' NXzXVXVXVX4X&X&X-XtXVXVX5X| &X*X;XIXuX^ &XCX4X6Xt H CXCX;X:.VXMX5X-X' A./.0X}.}.[.`.}.].k }.k Q.}.}./.`.G.U.W. X/.}.1X-X:X>X>X>X;X;X:.>.>.>.>.:.>.>.>.:.>.:.:.:.:.:.:.' :.:.:.:.:.:.:.:.:.:.:.:.:.:.:.:.:.:.:.:.:.:.:.:.:.:.:.-XbXiXiXpXiXgX%.o.#.qXpXiXpXiXvXvXeX$X$XeXeX$X$XeXvXBXK c c K K c c K BXBXK c c K K c c ",
"/./././././.~.~./././././.~.~././././.~.~./.T.Y.U.U.Y.Y.U.I.Y.Y.I.U.!.k i C.).^.(.(.(.^.&XzXcXcXcXcXcXcXcXcXcXcXcXcXeXcXcXcXcXcXcXcXcXcXcXcXcXeXcXcXcXcXcXcXcXcXeXcXcXcXcXcXcXeXxXcXcXcXcXiX..) 4X} Z.^.` 5XlX5X>XGX,X&X&X*XyXCXVX5X| Z.;X:.VXQ.| <.tXpX2./ X.{.~.f t j j h h h w w j j j j t h j h t h j z w j t h t g ^ ~ ] ' :.:.;X;X&X&X&XZ.A.A.A.A.A.A.A.A.A.A.A.A.A.A.A. . .A.A.A.A.A.A.A.A.A.A.A.A.A.A.A.A.A.A.A.A.A.A.A.A.A.A.| 1XbXiXiXpXiXgX%.o.#.qXpXiXpXiXvXvXeX$X$XeXeX$X$XeXvXBXK c c K K c c K BXBXK c c K K c c ",
"/./././././.~.~./././././.~.~././././.~.~./.T.Y.U.U.Y.Y.U.I.Y.Y.I.U.T.S 0 H ^.).(.(.(.(.;XzXcXlXcXcXcXcXcXcXcXcXcXcXeXcXcXcXcXcXcXcXcXcXcXcXcXeXcXcXcXcXcXcXcXcXeXcXcXcXcXcXcXeXxXcXcXcXcXuX| ^ .X{ Z.).[ ,XnX5X>.GX,XZ.<X*X-X}.IX5X| &X:.>.<.p &X&Xk j f t w j j t  .].#X&X;X' ;Xp %XIXNX5X` ,XFX) :.;X;X,X| <.` _ ` >.` >.NXDXFXhXFXFXFXFXFXhXFXKXHXAXZXKXFXFXhXFXFXFXhXFXPX1X1XAXBXAXFXFXFXFXFXFXFXFXFXFXFXFXFXFXFXFXHXvXAXFXFXFXFXFXaXvXpXiXpXiXgX%.o.#.qXpXiXpXiXvXvXeX$X$XeXeX$X$XeXvXBXK c c K K c c K BXBXK c c K K c c ",
"/./././././.~.~./././././.~.~././././.~././.T.Y.I.U.Y.Y.U.I.Y.Y.I.Y.R.M M j ).^.^.).Y.(.| :.aXcXlXcXcXcXcXcXcXcXcXcXeXcXcXcXcXcXcXcXcXcXcXcXcXeXcXcXcXcXcXcXcXcXeXcXcXcXcXcXcXeXxXcXcXlXcXrX| ^ M.[ Z.~.p >XnX<X>.IX,X<X<X<.~ h cX,X} } |  .p h h w t h t ~ m.CX0X .>.5X>X>.>._ >.) &X<._ >.` >.>.` _ ` >.>._ &X_ ) ) <.` :.MXDXhXsXDXDXDXBXDXMXhX~.DXVX}.kXDXBXsXDXDXDXsXBXIX1X1XMXMXMXBXDXDXDXDXDXDXDXDXDXDXDXDXDXDXDXDXsXMXDXDXDXDXDXpXvXpXiXpXiXgX%.o.#.qXpXiXpXiXvXvXeX$X$XeXeX$X$XeXvXBXK c c K K c c K BXBXK c c K K c c ",
"/./././././.~.~./././././.~.~./././.[.~.).~.Y.Y.I.U.Y.Y.U.I.Y.Y.I.Y.Z Z M H j ^.I.R.Y.(.~.&X5XmXlXcXcXcXcXcXcXcXcXcXeXcXcXcXcXcXcXcXcXcXcXcXcXeXcXcXcXcXcXcXcXcXeXcXcXcXcXcXcXeXxXcXcXlXnX3X^ ^ K.[ Z.(.f ' >X*X_ 0Xm.f j h t w h h w h h h p p k.Z.` } s ( ) ;X:._ ` >.` _ _ _ ` ` _ | _ ` | &X>X[ | >.>XQ.] ) [ )  .<.` ` NXkXk sXMXMXDXIX#XMXkXj DXIXk _.IXBXsXDXDXDXsXDXIX1X1XBXMXBXBXDXDXDXDXDXDXDXDXDXDXDXDXDXDXDXDXsXMXDXDXDXDXDXpXvXpXiXpXiXgX%.o.#.qXpXiXpXiXvXvXeX$X$XeXeX$X$XeXvXBXK c c K K c c K BXBXK c c K K c c ",
"/./././././.~.~./././././.~.~./././.[.).I.Y.Y.T.I.U.Y.Y.U.I.Y.Y.U.C Z A u s.j G h.R.Y.^.(.&X5XmXlXcXcXcXcXcXcXcXcXcXeXcXcXcXcXcXcXcXcXcXcXcXcXeXcXcXcXcXcXcXcXcXeXcXcXcXcXcXcXeXxXcXlXnXdX*X| ^ K. .q.(.n.` | k h h h j f |  .k ) [ v.&X^ | >.| ;X-.` ' ] ` _ >.<X^ -.-X>.` :.:.] [ _ [ ) ` p ) <.p  ._ ;Xk ` ` } t [ >.' :.,X| h vX>X>XKX1Xh Q.|. .,XNXk  XDXDXMXDXDXDXsXDXIX1X1XBXMXBXBXDXDXDXDXDXDXDXDXDXDXDXDXDXDXDXDXsXMXDXDXDXDXDXpXvXpXiXpXiXgX%.o.#.qXpXiXpXiXvXvXeX$X$XeX$X$X$XeXvXMXK c c c c c c K BXBXK c c c c c c ",
"/./././././.~.~./././././.~.~./././.[.T.U.T.Y.T.I.U.Y.Y.U.I.Y.T.I.V I.A u A G j h.R.Y.^.(.&X5XmXlXcXcXcXcXcXcXcXcXcXeXcXcXcXcXcXcXcXcXcXcXcXcXeXcXcXcXcXcXcXcXcXeXcXcXcXcX$XcXeXxXcXcXlX3X4X| ! A.[ 5.^.H h t h | VX>XG.-X` ) m._ ] Z.-.] ) ` ` _ _ ` ^ ) [ &X2.G. .-.| &X} ) :.) 8 h ~ _ ` } ' ` p  .] )  .` ` } 8 [ _ p -.<. .w ,X>.;XHX>.` h J | >.<.k z | } |.NXDXDXsXDXIX1X1XBXMXBXBXDXDXDXDXDXDXDXDXDXDXDXDXDXDXDXDXsXMXDXDXDXDXDXpXvXpXiXpXiXgX%.o.#.qXpXiXpXiXvXvXeX$X$XeXeXeXeXeXvXZXK v v v K v v (.ZXZXK v v K K K K ",
"/./././././.~.~./././././.~.~./././.[.T.U.T.Y.T.I.U.Y.Y.U.I.Y.T.Z Z R.C u C R.k N E.U.^.(.<X5XmXlXcXcXcXcXcXcXcXcXcXeXcXcXcXcXcXcXcXcXcXcXcXcXeXcXcXcXcXcXcXcXcXeXcXcXcXlXj fXeXxXcXnX4X4X4X^ s | ^ t.w h  ._ f &X>X:.) ' ` _ _ ` ` ' _ ) ) ` -.[.) :.| [ h :.>.-.Z.-.` } j ) :.) H w ^ ` ` -X&X` k ..) h `  .' U.w | -.8 f >.^ w :.>...rX) ` f z ^ ` >.) h ^ ~  ._ 5XSXsXDXIX1X1XBXMXBXBXDXDXDXDXDXDXDXDXDXDXDXDXDXDXDXDXsXMXDXDXDXDXDXpXvXpXiXpXiXgX%.o.#.qXpXiXpXiXvXvXqX0X0X0XdXdXdXqXhXZXQ.h j k C f f !.vXZXQ.h h k :.>._ ",
"/./././././.~.~./././././.~.~.[.~.~./.Y.U.Y.Y.Y.U.U.Y.Y.U.I.T.U.N I.I.A u A A C i Y.U.!.(.Z.,XmXlXcXcXcXcXcXcXcXcXcXeXcXcXcXcXcXcXcXcXcXcXcXcXeXcXcXcXcXcXcXcXcXeXcXcXcXpXh 0XxXpXcXlX3XxXm.^ i ~ ) w j '.' ] _ _ >.' &X&X_ ) <X) _ W.K.p  .` <X^.) &X)  .h :.>.-.A.&X` } J ) >.) !.w  .` ` P.~.g j -X<XQ.&Xh ) `.W.k.`.h w ] ) w ' >.| -X[ ] ) | ' ` ' ` [ [  .` ` >X_.W.IXFX1X1XBXMXBXBXDXDXDXDXDXDXDXDXDXDXDXDXDXDXDXDXsXMXDXDXDXDXDXpXvXpXiXpXiXgX%.o.#.qXpXiXpXiXvXvXwXwXwXwXiXiXiXwXhXZX).e j J G N N !.vXZXQ.j j k ;X:.:.",
"~.~.~.~.~.~.).~.~.~.~.~.~.~.).~.R.R.R.G G G G G G G I.I.I.s.U.Z V C A Z u Z Z A f N h.).(.Z.,XeXeXeXeXeXeXeXeXeXeXeX+XeXeXeXeXeXeXeXeXeXeXeXeX+XeXeXeXeXeXeXeXeX+XeXeXeX$Xw [.dX9XeX4X3X$X} ^ i p w j p.-.` ) } &X>X&X~.K._ &X;X| ] m.).w | ' ^.S.f H ' | h ) _ ' Z.K.` p J  .>.^ ).T.j h ) K.~.8 j '.'.'.`.} A.`.G.k.n.G.k [ ) j _ _ | -.t p ) ^ ' A.' ^ ) p [ ` :...| ] P.hX1X1X}.~.sXsXsXsXsXsXsXsXsXsXsXsXsXsXsXsXsXsXtXsXsXsXsXsXsXpXvXpXiXpXiXgX%.o.#.qXpXiXpXiXhXvX].I.Q.W.K.K.S.=XvXZXQ.e j J G N N !.vXZXQ.j j k ;X:.:.",
"' ' ' ' ' ' ' ' ' ' ' ' :.' ' :.' ' ) ) ) -.&XZ.Z.k.E.Q.G R.U.Z A I.I.A u A C A C i U.!.(.A.,XmXlXcXcXcXcXcXcXcXcXcXeXcXcXcXcXcXcXcXcXcXcXcXcXeXcXcXcXcXcXcXcXcXeXcXlXnXuX .[.lXpXlX3XyX$X) -.y 8 H q._ ) <Xw j <X` -.(.K.' &X:.P._ E.~.z | :.V.P.j H :.Z.j ' ~ ] -.^.>.p ~.A.&X| ~.+Xj w -.K.[.w j {.'.'.G.`.'.`.`.k.`.`.W.w ^ } ` ' ' ] j j /.Z.:.|.'  ._ A.| ` &X&X` ` ] CX}.1X}.k IXBXDXDXDXDXGXDXDXDXDXDXDXDXDXDXDXDXsXMXDXDXDXDXDXpXvXpXiXpXiXgX%.o.#.qXpXiXpXiXhXvX].I.Q.W.K.K.K.=XvXZXQ.e j J G N N !.vXZXQ.j j k ;X:.:.",
"G.G.G.A.A.A.k.A.P.G.P.K.P.A.A.A.A.A.Z.Z.Z.Z.&X-.) ' _ ' &Xm.G G s.I.I.A u A A C I.f N ^.(.A.,XmXlXcXcXcXcXcXcXcXcXcXeXcXcXcXcXcXcXcXcXcXcXcXcXeXcXcXcXcXcXcXcXcXeXcXlXmX5X] [.lXlX4X4XzX!.[ f w k &X` Z.G ^.H k <X` -.(.K.) -.&XH.` '.~.k <X&XF.L.j G L.Z.8.-.[  .&XB.| j '.#XP.-.[.'.Q.).-.P.#XH j {.].`.G.`.`.`.`.k.`.`.W.w ' _ [ ) -.| H j ].P.P.[.' A.' K.&X) h  .` _ ` ,Xl }.}.j }.kXDXDXDXSX,XMXDXDXDXDXDXDXDXDXDXDXsXMXDXDXDXDXDXpXvXpXiXpXiXgX%.o.#.qXpXiXpXiXvXvXwXwXwXwXwXuXuXwXhXZX).e j J G N N !.vXZXQ.j j k ;X:.:.",
"/./._.Q.Q.Q.I.)./././._.).Q.Q.).Q.Q.Q.G Q.Q.Q.Q.R.U.v.A.) _ ) k.G G I.A u A A A s.G f Y.(.A.,XmXlXcXzXlXcXcXcXcXcXcXeXcXcXcXcXcXcXcXcXcXcXcXcXeXcXcXcXcXcXcXcXcXeXcXlXmX5X] ].xXeX3XdXzXI.[ w j Z.` 8.R.V.j.^.'.W.[ -.(.P.) K.P.`.:.'.'.'.[.J.F.'.H E.'.M.q.:. .[ <XD.k w '.].P.<X[.'.'.[.-.P.@XQ.j {.'.G.`.`.`.`.`.k.`.`.W.w ' { h &X&XZ./.Q.`.[.[.[.-.A.:.P.&X| w w  .] ~ &Xj H W.t  .|.DXDXDXNX>.NXFXDXDXDXDXDXDXDXDXDXsXMXDXDXDXDXDXpXvXpXiXpXiXgX%.o.#.qXpXiXpXiXvXvXwXqXwXqXS.Z.Z.-XvXZX).e j J G N N !.vXZXQ.j j k ;X:.:.",
"~.~.).Y.Y.Y.I.T./././.~.Y.U.I.Y.Y.Y.Y.U.U.Y.Y.Y.U.U.T.Q.Q.Z Z._ ) G R.C u A A A A R.f C (.G.:.4XnX$XJ j [.nXcXcXcXcXeXcXcXcXcXcXcXcXcXcXcXcXcXeXcXcXcXcXcXcXcXcXeXcXlXmX5X] `.cX4X4XyXxXA.[ w @.` q.S f.^.j.C.'.).f &X(.P.) ^.[.'.'.'.'.'.'.F.J.`.'.J.'.M.q.&XZ.!.G.J.e.j '.'.'.].'.'.'.[.-.P.[.!.H '.`.G.`.`.`.`.`.k.`.`.!.h &Xt.w k }.}.[.].`.].].[.&XP.:.P.<X&XJ 8 h Z.[ ) ) k ^ [ ^ |.IXhX}.' >.MXNXMXDXDXDXDXDXDXDXDXsXMXDXDXDXDXDXpXvXpXiXpXiXgX%.o.#.qXpXiXpXiXhXvX].Y.T.!.Z.Z.Z.-XbXZXQ.e j J G N N !.vXZXQ.j j k ;X:.:.",
"Y.Y.Y.Y.Y.T.I.Y.).).).).T.U.U.T.Y.Y.T.I.U.Y.Y.T.I.U.Y.Y.U.N G g.) ' g.G u A A A A I.H f ^.~.f -.GX~.} W. XGXcXcXcXcXeXcXcXcXcXlXlXcXcXcXcXcXcXeXcXcXcXcXcXcXcXcXeXcXlXmX5X] !.xX3X;X4XdX-.w H ` Z.C.u.j.^.^.S '.'.{.!.!.G.) ^.'.'.'.!.'.[.G.F.'.G.`.`.'.M.w.G.G.J.G.`.N.U.].'.'.'.'.'.'.].H.'.].'.'.].G.`.'.`.`.`.`.k.`.`.!.h `.n.k Q.[.[.].].`.].].].}.].:.`.<X&X X8 j G w ^ ~ ) ` ..~ }.}.|.j _ ` DX>X,XFXDXDXDXDXDXDXDXsXMXDXDXDXDXDXpXvXpXiXpXiXgX%.o.#.qXpXiXpXiXhXZX!.k k G Z.Z.Z.-XbXZXQ.e j J G N N !.vXZXQ.j j k ;X:.:.",
"Y.Y.Y.Y.Y.T.I.U.T.Y.Y.Y.Y.U.I.T.Y.Y.T.I.U.Y.Y.T.I.U.Y.T.A Z U.I.G ) _ y.u A A A s.I.R.f ).[.(.-.lX-X<.:.-XnXlXcXcXcXeXcXcXcXcXcXcXcXcXcXcXcXcXeXcXcXcXcXcXcXcXcXeXcXlXmX4X_ K.dX4X:.*X5X[ e :.-.C.V.u.j.!.^.S ^.].'.'.!.`.q.!.].'.'.!.`.].F.G.'.V.G.`.'.M.w.G.G.G.G.`.G.D.].'.'.'.'.'.'.'.].'.'.'.`.'.G.`.`.`.`.`.`.k.`.`.`.k `.G.F.[.].].].].`.].].].]./.&X}.<X&X Xw Q.H h w p ` ` >.] ) } ) t _ ` 0X>X,XFXDXDXDXDXDXDXDXsXMXDXDXDXDXDXpXvXpXiXpXiXgX%.o.#.qXpXiXpXiXhXZX!.k H I.Z.Z.Z.-XbXZX).e j J G N N !.vXZXQ.j j k ;X:.:.",
"Y.Y.Y.Y.Y.T.I.U.Y.Y.Y.Y.Y.U.I.T.Y.Y.T.I.U.Y.Y.T.I.U.Y.T.Z C I.I.A G &X_ u A A A s.I.R.N H [.(. .;X,X{.-X*XmXlXcXcXcXeXcXcXlXmX>X,XmXlXcXcXcXcXeXcXcXcXcXcXcXcXcXeXcXlXmX,XZ.&X3XdX:.;XL.w Z._ 3.C.C.u.a.!.^.h.j.].'.^.!.`.h.!.].'.'.!.^.'.F.'.'.V.G.`.'.M.w.G.G.G.G.`.J.q.'.'.`.'.'.'.'.'.'.'.'.'.'.`.G.'.`.`.`.`.`.k.`.`.`.`.`.`.F.`.].].].].`.].].].].].}.[.P.K.~.j #XH H j p ) _ ` ' ' } ` [ ) ` Q.^ 5XFXDXDXDXDXDXDXDXsXMXDXDXDXDXDXpXvXpXiXpXiXgX%.o.#.qXpXiXpXiXhXZX!.k H I.Z.Z.Z.-XbXZX).e j J G N N !.vXZXQ.j j k ;X:.:.",
"Y.Y.Y.Y.Y.T.I.U.Y.Y.Y.Y.Y.U.I.T.Y.Y.T.I.U.Y.Y.T.I.U.T.I.V I.I.I.A s.G ) ) G A A s.I.I.I.j ~.[.j | >.!.A.*XmXlXcXcXcXeXcXlXcXlX' ;XmXlXcXcXcXcXeXcXcXcXcXcXcXcXcXeXcXlXmX,XA.| *XxX:.-.j j >.q.m C.C.u.a.!.^.!.D '.'.^.!.`.j.!.].'.'.!.^.D.G.'.'.V.V.'.'.M.w.G.G.G.G.!.`.B.G.].`.'.'.'.'.'.'.'.'.'.`.G.`.`.`.`.`.`.`.k.`.`.`.`.`.'.F.G.[.].].].`.].].].].`.[.].[.(.].Q.].!.].].H h ~ m.:.] p ` [ [ ) X.~ Z.kXDXDXDXDXDXDXDXsXMXDXDXDXDXDXpXvXpXiXpXiXgX%.o.#.qXpXiXpXiXhXZX!.k H I.Z.Z.Z.-XbXZXQ.e j J G N N !.vXZXQ.j j k ;X:.:.",
"Y.Y.Y.Y.Y.T.I.U.Y.Y.Y.Y.Y.U.I.T.Y.Y.T.I.U.Y.Y.T.I.U.T.Z C I.I.I.A I.I.G _ Z.G A s.I.I.U.k H [.(.} ) ).K.*XmXlXcXcXcXeXlXnXyX:.<X;XaXcXcXcXcXcXeXcXcXcXcXcXcXcXcXeXcXlXmX*XA.| 3X4X' | w ) -.).3.C.C.u.a.!.^.!.j.C.].^.!.!.j.!.].'.'.!.!.F.`.`.'.V.V.'.'.M.w.G.G.G.G.V.`.G.F.'.`.'.'.'.'.'.'.'.'.'.G.G.`.`.`.`.`.`.`.k.`.`.`.`.`.`.G.F.].].].].`.].].].].`.].].].`.].].].`.].[.W.w h H :._ | ` ] p g } ) [ |.IXDXDXDXDXDXDXsXMXDXDXDXDXDXpXvXpXiXpXiXgX%.o.#.qXpXiXpXiXhXZX!.k H I.Z.Z.Z.-XbXZXQ.e j J G N N !.vXZXQ.j j k ;X:.:.",
"Y.Y.Y.Y.Y.T.I.U.Y.Y.Y.Y.Y.U.I.T.Y.Y.T.I.U.Y.Y.T.I.Y.U.Z I.A I.I.A I.I.G d ` r.G s.I.I.I.R.j (.(.k z ).P.&XmXlXcXcXcXeXlXmX,X*XmX| 5XmXlXcXcXcXeXcXcXcXcXcXcXcXcXeXcXlXmX*XG.{ *X*X .h t ` V.V.3.C.C.u.a.V.^.!.!.S '.^.!.!.j.!.].'.'.!.z.D.`.`.'.n.V.'.'.M.w.G.G.G.V.V.J.G.F.G.!.'.'.'.'.'.'.'.'.'.n.`.`.`.`.`.`.`.`.k.`.`.`.`.`.`.`.G.`.[.].].`.].].].].`.].].].`.].].].`.].[.W.w 8 Q.-._ ` ` ` p g p ) [ _.IXDXDXDXDXDXDXsXMXDXDXDXDXDXpXvXpXiXpXiXgX%.o.#.qXpXiXpXiXhXZX!.k H I.Z.Z.Z.-XbXZX).e j J G N N !.vXZXQ.j j k ;X:.:.",
"Y.Y.Y.Y.Y.T.I.U.Y.Y.Y.Y.Y.U.I.T.Y.Y.T.I.U.Y.Y.T.I.Y.A C I.A I.I.A I.I.C N Z.) G s.I.I.I.).k G @XH j (.G.&XnXlXcXcXcXeXlXmX,X,XmX-X,XmXlXlXcXcXeXcXcXcXcXcXcXcXcXeXcXlXmX*XM.{ *X*Xp w ] &X).V.3.C.j.u.a.V.^.!.^.j.^.'.E.!.j.!.].'.'.!.z.G.G.'.`.v.V.`.'.M.w.G.G.G.V.V.J.G.G.F.!.'.'.'.'.'.'.'.'.`.m.`.`.`.`.`.`.`.`.k.`.`.`.`.`.`.`.G.G.[.].].`.].].].].`.].].].`.].].].`.].[.W.j w Q.&X] ` ] ~ } } p ) [  XIXDXDXDXDXDXDXsXMXDXDXDXDXDXpXvXpXiXpXiXgX%.o.#.qXpXiXpXiXhXZX!.k H I.Z.Z.Z.-XbXZX).e j J G N N !.vXZXQ.j j k ;X:.:.",
"Y.Y.Y.Y.Y.Y.I.U.Y.Y.Y.Y.Y.U.I.Y.Y.Y.Y.I.U.Y.Y.Y.I.U.Z G I.A I.I.A G I.C u A _ Z.G s.I.I.).G j (.(.[.(.G...%XlXlXlXlXeXlXmX>X,XmX,X,XmXlXnXlXlXeXlXlXlXlXlXlXlXlXeXlXlXmX&XZ.f &X&Xk p >.!.!.j.3.C.j.u.a.h.^.!.!.C.j.^.n.!.j.!.'.'.'.b.z.`.V.`.!.h.V.`.'.M.w.V.G.G.V.V.G.V.`.N.V.'.'.'.'.'.'.`.'.G.c.`.`.`.`.`.`.`.`.k.G.G.`.`.`.`.`.`.F.'.].].!.].].].].`.].].].!.].].].!.].[.W.U.w Q.A. .` ) h `.<X[ ) [ J IXBXDXDXDXDXDXsXMXDXDXDXDXDXpXvXpXiXpXiXgX%.o.#.qXpXiXpXiXhXZX!.k H I.Z.Z.Z.-XbXZXQ.e j J G N N !.vXZXQ.j j k ;X:.:.",
"T.T.T.T.T.T.Y.T.T.T.T.T.T.T.Y.T.T.T.T.Y.T.T.T.T.Y.s.C Y.I.I.R.R.I.I.R.A u G k._ s.R.R.R.R.).k ).[.(.(.{.| J IXnXnXnXpXnXnX:.sXJX4X,XJXnX].gXnXpXnXnXnXnXnXnXnXnXpXnXnXmX&XS.H ) ) w ) &X(.^.V.3.V.h.a.d.h.^.^.^.^.C.!.!.!.n.!.].].[.x.V.`.G.'.!.n.V.`.'.M.w.G.H.J.V.V.'.G.'.G.b.].`.].].].].`.'.G.n.`.`.`.'.`.`.!.G.k.`.G.`.`.'.'.`.].G.G.[.[.].[.[.[.].].[.[.[.].[.[.[.].[.[.W.W.j Q.|. .` ' h  X{.) ) ^ `. XkXIXIXIXIXIXBXDXIXIXIXIXIXpXvXpXiXpXiXgX%.o.#.qXpXiXpXiXhXZX!.k H I.Z.Z.Z.-XbXZXQ.e j J G N N !.vXZXQ.j j k ;X:.:.",
"Z Z Z Z Z Z Z Z Z Z Z Z Z Z Z Z Z Z Z Z Z Z Z Z Z M V V V V V V V V V V u M N ) | N V V V Z f k h.A A j.) k..XJ.J.J.J..XP.-..X.XK.&X@XH.] G..XJ.J.J.J.J.J.J.J.J.J..X.X'.-.9.N p t p _ u.a.S B b D B B B B u.S S u.D D u.a.B u.d.j.j.4.e.i.i.p.u.e.i.i.f.w.@.p.0.p.e.e.p.p.x.p.4.f.f.b.b.j.b.f.c.k.e.i.f.f.c.f.f.r.r.{ x.k.x.c.c.f.i.b.x.9.n.h.d.h.g.n.h.d.h.h.h.d.h.h.h.d.h.n.y.y.f y.g.k._ ) h s.E.' ) _ &X} &XoX=X=X=X=XL.L.=X=X=X=X=XiXvXpXiXpXiXgX%.o.#.qXpXiXpXiXhXZX!.k H I.Z.Z.Z.-XbXZX).e j J G N N !.vXZXQ.j j k ;X:.:.",
"I.I.I.I.I.I.C s.I.I.I.I.I.s.C I.I.I.I.C s.I.s.I.C M C C C Z C C Z C C Z u Z N k._ C C C C A R.j ).).).).-X;X$X7X9X9X@X$X4X;X$X$X8X:.+X4X` A.$X@X7X9X9X9X9X9X7X7XOX-.*X$X) B.G w w ) &X).V.j.u.b p.u.B u.a.j.j.a.a.V.D a.h.u.j.E.!.x.k.f.c.b.V.b.f.b.b.V.8.3.x.N.B.f.f.V.x.b.V.p.x.g.b.!.V.V.b.r.n.f.b.n.n.V.b.v.f.c.} b.x.b.n.V.n.n.V.V.N.n.!.U.!.!.!.!.!.!.!.!.!.!.!.!.!.!.`.U.y.!.!.!.~.`.`.j T.~.&X| t &X| ;XiXtXuXtXtX8XtXtXuXuXtXtXpXvXpXiXpXiXgX%.o.#.qXpXiXpXiXhXZX!.k H I.Z.Z.Z.-XbXZX).e j J G N N !.vXZXQ.j j k ;X:.:.",
"T.T.T.T.T.T.U.Y.T.T.T.T.T.Y.U.T.T.T.T.U.Y.T.T.T.A C R.I.I.I.R.R.I.I.R.A u A A G ) Z.G I.I.R.(.k G [.(.(.1X>XmXnXnXnXeXnXrX>XmXcXmX;XsXyX:.` 5XxXnXnXnXnXnXnXnXnXxX>.>XeX) G.'.k t >.^.^.^.^.j.b C.j.u.d.d.E.V.h.h.^.S a.!.j.V.~.!.z.b.n.V.V.`.n.b.V.V.`.q.3.V.G.G.n.n.`.V.n.`.n.z.!.!.!.`.`.n.m.`.n.E.!.V.`.n.E.n.n.t.n.n.G.`.`.`.`.`.`.G.F.~.).[.~.].].~.[.].].~.].].[.].].[.W.U.].].].].[.[.k /.[.}.~.h &X| >XPXDXDXDXIXMXDXIXDXDXDXDXpXvXpXiXpXiXgX%.o.#.qXpXiXpXiXhXZX!.k H I.Z.Z.Z.-XbXZXQ.e j J G N N !.vXZXQ.j j k ;X:.:.",
"Y.Y.Y.Y.Y.Y.I.U.Y.Y.Y.Y.Y.U.I.Y.Y.Y.Y.I.U.Y.Y.Y.V A I.I.I.A I.I.A I.I.C u A C G k._ s.I.I.I.~.G j (.(.(.{.;XmXlXlXlXeXmX4X*XmXlXmX;XuX,X*X;X,XeXlXlXlXlXlXlXcXfXoX) &X3X) G.^.w ^ &X(.^.^.!.j.b C.a.e.a.d.h.h.j.h.^.j.D !.j.h.~.n.x.n.b.b.V.G.b.f.V.n.!.9.3.V.G.G.b.b.V.V.b.V.n.l.b.!.!.!.!.c.m.V.b.v.n.v.n.n.n.v.v.} c.c.n.G.!.!.G.`.!.`.x.E.T.~.!.!.`.!./.!.!.!.`.].].!.].[.W.U.].`.].].].].].].].].~.j | ~ ;X|.BXDXDXDXsXMXDXDXDXDXDXpXvXpXiXpXiXgX%.o.#.qXpXiXpXiXhXZX!.k H I.Z.Z.Z.-XbXZXQ.e j J G N N !.vXZXQ.j j k ;X:.:.",
"Y.Y.Y.Y.Y.T.I.U.Y.Y.Y.Y.Y.U.I.T.Y.Y.T.I.U.Y.T.s.V I.I.I.I.A I.I.A I.I.A u A A A G ) Z.G I.I.).(.j ).(.(.'.;XmXlXcXcXeXmX,X*XmXlXmX>XrX../.4X*XxXcXcXcXcXlXmX,X^ ) } &XK.| J.H h _ G.^.^.^.!.j.b j.a.u.a.d.h.j.j.h.^.h.D h.a.d.~.x.n.b.b.b.V.V.b.b.n.b.!.9.3.V.D.G.b.b.V.n.b.n.n.x.i.E.E.!.!.m.v.n.b.v.v.v.v.v.v.v.c.} c.c.v.n.!.!.G.!.E.`.x.n.Y.!.W.E.!.E.~.E.!.E.`.].].!.].[.W.U.].`.].].].].].].].].~.j { _ | w BXDXDXDXsXMXDXDXDXDXDXpXvXpXiXpXiXgX%.o.#.qXpXiXpXiXhXZX!.k H I.Z.Z.Z.-XbXZX).e j J G N N !.vXZXQ.j j k ;X:.:.",
"Y.Y.Y.Y.Y.T.I.U.Y.Y.Y.Y.Y.U.I.T.Y.Y.T.I.U.Y.T.Z C I.I.I.I.A I.I.A I.I.A u A A A G k._ I.I.I.).(.H H [.(.`.;XnXlXlXlXeXmX,X,XmXlXmX*X,X&X%X4X*XqX;XpXcXcXlXnX;Xm.[  X;X&X| G.e [ -.(.^.^.^.).j.b u.u.u.a.d.d.j.j.h.^.h.S a.a.d.!.k.n.b.b.b.V.V.f.b.b.b.V.6.4.V.b.G.b.b.V.b.b.b.n.n.r.n.n.!.v.m.v.n.b.v.v.v.v.v.v.v.c.} c.c.v.n.E.!.V.!.E.`.c.x.U.E.W.E.!.E.!.E.W.Y.`.`.~.!.].[.W.U.].`.].].].].].].].].]./.A.` ^ w hXDXDXDXsXMXDXDXDXDXDXpXvXpXiXpXiXgX%.o.#.qXpXiXpXiXhXZX!.k H I.Z.Z.Z.-XbXZXQ.e j J G N N !.vXZXQ.j j k ;X:.:.",
"Y.Y.Y.Y.Y.T.I.U.Y.Y.Y.Y.Y.U.I.T.Y.Y.T.I.U.T.I.Z G I.I.I.I.A I.I.A I.I.A u A A A s.G ' Z.G I.).~.).j (.(.!.;XcXlXnXmXeXfX) =XnXlXmX*X-X;XmX4X*X{.` rXmXlXcXcX;XwXJ %X{ ` -.G w _ F.^.^.^.^.h.j.b u.u.u.a.d.d.j.d.h.!.h.a.S S h.b.x.n.b.b.b.n.n.b.b.b.b.n.6.4.b.x.V.b.b.n.b.b.b.b.n.r.f.E.E.m.v.v.v.c.v.v.v.v.v.v.v.c.} c.c.v.n.n.E.n.V.n.n.v.k.g.E.E.E.!.E.!.E.E.Y.!.`.!.E.!.].W.U.].~.].].].].].].].].].[.-X] _  .kXDXDXDXsXMXDXDXDXDXDXpXvXpXiXpXiXgX%.o.#.qXpXiXpXiXhXZX!.k H I.S.Z.Z.-XvXZX).e j J G N N !.vXZXQ.j j k ;X:.:.",
"Y.Y.Y.Y.Y.T.I.U.Y.Y.Y.Y.Y.U.I.T.Y.Y.T.I.U.T.A C I.I.I.I.I.A I.I.A I.I.A u A A A s.G Z.' G I.).~.(.k G [.^.;XzXmXrX4XfX*X| %XzXlXmX,X-.<XmXqX^ } >.,XmXlXmX-X| fXzX4Xj [ >.j g :.^.^.^.^.^.d.a.b u.u.u.a.d.d.a.d.h.V.d.d.S B g.x.b.n.b.b.b.b.b.b.b.b.b.n.4.4.b.x.b.b.b.b.b.b.b.b.b.i.i.E.v.m.v.v.v.c.v.v.v.v.v.v.v.c.} c.c.v.n.n.n.b.n.v.v.v.x.i.E.E.E.E.U.W.E.E.U.E.!.!.E.!.].W.U.].!.~.].].].].].].].].[.-X) p ^ kXIXDXDXsXMXDXDXDXDXDXpXvXpXiXpXiXgX%.o.#.qXpXiXpXiXhXZX!.f f G Z.Z.@.K.bXZXR.e j k Z N u !.vXZXQ.h j k :.' _ ",
"Y.Y.Y.Y.Y.T.I.U.Y.Y.Y.Y.Y.U.I.T.Y.Y.T.I.U.Y.Z I.A I.I.I.I.A I.I.A I.I.A u A A A s.I.I._ A.G Y.).(.G k (.^.;XnXsX:.:.eX;XyXnXlXlXmX,X` +XnXfX} ] ..,XmXlXmX;XtXcXeX.Xj p :.w ) Z.).^.^.^.^.s.a.b u.u.u.a.d.d.a.d.h.h.d.d.d.M i.x.b.b.b.b.b.b.b.b.b.b.b.n.4.4.c.x.c.b.b.b.b.b.b.b.b.b.r.n.v.m.v.v.v.f.v.v.v.v.v.v.v.c.} c.c.v.n.v.v.c.n.v.v.v.c.r.E.E.E.E.U.W.E.E.U.E.!.E.U.E.].U.U.`.W.!.].].].].].].].].[.}.A.h | 0XIXDXDXsXMXDXDXDXDXDXpXvXpXiXpXiXgX%.o.#.qXpXiXpXiXhXZXE.i i f w.! ! K.bXZXs.0 i i M u y V.vXZXI.t t f _ ( ( ",
"Y.Y.Y.Y.Y.T.I.U.Y.Y.Y.Y.Y.U.I.T.Y.Y.T.I.Y.I.Z R.A I.I.I.I.A I.I.A I.I.A u A A A s.I.G Z.) G s.T.~.~.j ).(.) ,X*XA.>X7X;XyXcXlXlXmX,X` nXcXcXlX4X} &XnXcXrX<.lXcXdXS.).K. .t >.V.^.^.^.^.!.s.a.b u.u.u.a.d.d.a.d.d.d.a.d.h.M t.c.b.b.b.b.b.b.b.b.b.b.b.n.4.4.i.i.c.b.b.f.f.b.b.b.b.b.i.i.m.v.v.v.v.f.v.v.v.v.v.v.v.c.} c.c.v.v.v.v.f.v.v.v.v.v.k.v.E.E.U.g.E.E.E.U.E.!.E.g.E.`.y.U.`.T.W.].].].].`.].].].].[./.j ) 2XFXDXDXsXMXDXDXDXDXDXpXvXpXiXpXiXgX%.o.#.qXpXiXpXiXhXZXE.i i f Z.^ ! K.bXZXR.0 i i M u u V.vXZXU.t t f _ ` ( ",
"Y.Y.Y.Y.Y.T.I.U.Y.Y.Y.Y.Y.U.I.T.Y.Y.T.I.Y.Z A I.A I.I.I.I.A I.I.A I.I.A u A A A s.I.I.g._ k.G Y.).(.H H %XW.&X;X7X>X1X&XsXcXcXlXnXrX,XcXlXcXlXlX8X&XmXyX) A.nXcX4XH.^.H.h  .&X).!.^.^.^.h.a.a.b u.u.u.a.d.d.a.d.d.d.a.d.h.B 4.n.b.b.b.b.b.b.b.b.b.b.b.n.4.4.i.i.c.b.b.f.f.b.b.b.b.b.b.t.m.v.v.v.v.f.v.v.v.v.v.v.v.c.} c.c.v.v.v.v.f.v.v.v.v.v.r.c.E.E.U.g.E.E.E.U.E.E.E.g.E.!.y.U.!.T.W.].].].].!.!.].].].].~.j &X,XFXDXDXsXMXDXDXDXDXDXpXvXpXiXpXiXgX%.o.#.qXpXiXpXiXhXZXE.i i f Z.^ ! K.bXZXI.0 i i M u y V.vXZXI.t t f _ ` ( ",
"Y.Y.Y.Y.Y.T.I.U.Y.Y.Y.Y.Y.U.I.T.Y.Y.Y.U.I.Z I.I.A I.I.I.I.A I.I.A I.I.A u A A A s.I.I.G ) ) G s.T.~.I.k (.$X;X:.pX>Xf &XzXcXcXcXlXcXmXcXcXcXlXeX+X-.mX5X[ %XzXlX3X'.^.G h _ G.!.^.!.^.^.h.a.a.b u.u.u.a.d.d.a.d.d.d.a.d.h.B n n.b.b.b.b.b.b.b.b.b.b.b.n.4.4.i.i.c.b.b.f.f.b.b.b.b.b.b.t.m.v.v.v.v.f.v.v.v.v.v.v.v.c.} c.c.v.v.v.v.f.v.v.v.v.v.i.k.E.E.U.g.E.E.E.g.E.E.E.g.E.E.y.y.!.W.W.].].].].!.!.].].].].].[.A.,XFXDXDXsXMXDXDXDXDXDXpXvXpXiXpXiXgX%.o.#.qXpXiXpXiXhXZXE.i i f Z.^ ! K.bXZXI.0 i i M u y V.vXZXI.t t f _ ` ( ",
"Y.Y.Y.Y.Y.T.I.U.Y.Y.Y.Y.Y.U.I.T.Y.Y.Y.U.A C I.I.A I.I.I.I.A I.I.A I.I.A u A A A s.I.I.G k._ g.G T.).R.f G $XZ.| mX,X) ;XcXcXcXcXcXlXlXcXcXcXcXeX%X .5X4X<XmXcX4XB.^.'.j [ -.).!.^.!.!.^.d.a.a.b u.u.u.a.d.d.a.d.d.d.a.d.h.4.n f.b.b.b.b.b.b.b.b.b.b.b.n.4.4.i.i.c.b.b.f.f.b.b.b.b.b.b.k.r.v.v.v.v.f.v.v.v.v.v.v.v.c.} c.c.v.v.v.v.f.v.v.v.v.v.f.k.v.E.U.g.E.E.E.g.E.E.E.g.E.E.y.y.W.U.W.`.~.`.~.!.!.].`.].].].[.A.>XFXDXDXsXMXDXDXDXDXDXpXvXpXiXpXiXgX%.o.#.qXpXiXpXiXhXZXE.i i f Z.^ ! K.bXZXR.0 i i M u u V.vXZXU.t t f _ ` ( ",
"Y.Y.Y.Y.Y.T.I.U.Y.Y.Y.Y.Y.U.I.T.Y.Y.Y.U.V G I.I.A I.I.I.I.A I.I.A I.I.A u A A A s.I.I.I.G ) Z.G Y.).R.H k $XJ k cXlX4XyXcXcXcXcXcXcXcXcXcXcXcXeXfXp } A.,XmXcX4XC.^.!.w ] Z.).!.^.!.E.^.d.a.a.b u.u.u.a.d.d.a.d.d.d.a.d.f.n B S b.b.b.b.b.b.b.b.b.b.b.n.4.4.i.i.c.b.b.f.f.b.b.b.b.b.c.k.r.v.v.v.v.f.v.v.v.v.v.v.v.c.} c.c.v.v.v.v.f.v.v.v.v.v.g.x.c.W.U.g.E.E.E.g.E.E.E.g.E.E.y.y.W.U.W.`.~.`.~.!.!.].!.].].].[.A.>XIXDXDXsXMXDXDXDXDXDXpXvXpXiXpXiXgX%.o.#.qXpXiXpXiXhXZXE.i i f Z.^ ! K.bXZXR.0 i i M u u V.vXZXU.t t f _ ` ( ",
"Y.Y.Y.Y.Y.T.I.U.Y.Y.Y.Y.Y.U.I.T.Y.Y.T.A V I.I.I.A I.I.I.I.A I.I.A I.I.A u A A A s.I.I.I.G Z.' G R.T.I.I.j ).$XnXlXcXeXcXcXcXcXcXcXcXcXcXcXcXcXeXmXG.| [ ,XmXyX3X!.'.J t _ s.h.!.^.!.h.!.d.a.a.b u.u.u.a.d.d.a.d.d.d.a.d.i.n e.B f.b.b.b.b.b.b.b.b.b.b.n.4.4.i.i.c.b.b.f.f.b.b.b.b.b.k.c.r.i.v.v.v.f.v.v.v.v.v.v.v.c.} c.c.v.v.v.v.f.v.v.v.v.v.f.v.k.E.U.g.E.E.E.g.E.E.E.g.E.E.y.y.E.U.W.!.~.`.!.!.E./.!.~.].].[.A.>X|.BXDXsXMXDXDXDXDXDXpXvXpXiXpXiXgX%.o.#.qXpXiXpXiXhXZXE.i i f Z.^ ! K.bXZXI.0 i i M u y V.vXZXI.t t f _ ` ( ",
"I.I.I.I.I.I.I.I.I.I.I.I.I.I.I.I.I.I.U.V Z G C A C C A A C C A A C C A Z u Z Z C C C C C C C _ k.G s.C s.k H @XeXeXeX+XeXeXeXeXeXeXeXeXeXeXeXeX+XeXyX&X .-XfX4XH.).V.w ^ &XA j.h.V.h.s.j.a.a.u.b u.u.B a.a.a.a.a.a.a.S a.4.B e.B B f.f.f.f.f.f.f.f.f.f.f.4.4.i.i.i.f.f.f.i.f.f.f.f.f.r.f.r.t.f.f.f.f.f.f.f.f.f.f.f.f.} r.i.f.f.f.f.f.f.f.f.f.f.f.f.k.g.g.g.g.g.g.g.g.g.g.g.g.U.y.f v.g.g.E.E.!.E.U.U.!.E.!.!.`.(.n.;Xj 0XMXtXsXsXsXsXsXsXpXvXpXiXpXiXgX%.o.#.qXpXiXpXiXhXZXE.i i f Z.^ ! K.bXZXI.0 i i M u y V.vXZXI.t t f _ ` ( ",
"Y.Y.Y.Y.Y.T.I.U.Y.Y.Y.Y.Y.U.I.T.Y.Y.Y.V I.I.I.I.A I.I.I.I.A I.I.A I.I.A u A A A s.I.I.I.I.G Z.) G I.I.I.Q.j #XcXcXcXeXcXcXcXcXcXcXcXcXcXcXcXcXeXcXcX;X] 8XcX3X'.V.R.h _ G.s.h.V.!.h.d.d.d.a.a.b u.u.u.a.d.d.a.d.d.d.a.i.r.B e.f.B b.b.b.b.b.b.b.b.b.b.n.4.4.i.i.c.b.b.f.f.b.b.b.b.m.k.c.c.r.c.v.v.f.v.v.v.v.v.v.v.c.} c.c.v.v.v.v.f.v.v.v.v.v.f.v.c.c.Y.g.E.E.E.g.E.E.E.g.E.E.y.y.E.U.U.!.!.!.E.E.E.~.!.!.].].[.`.:...aXDXsXMXDXDXDXDXDXpXvXpXiXpXiXgX%.o.#.qXpXiXpXiXhXZXE.i i f Z.^ ! K.bXZXR.0 i i M u u V.vXZXU.t t f _ ` ( ",
"Y.Y.Y.Y.Y.T.I.U.Y.Y.Y.Y.Y.U.I.T.Y.T.A V I.I.I.I.A I.I.I.I.A I.I.A I.I.A u A A A s.I.I.I.I.G m._ f.G I.I.~.k Q.$XcXcXeXcXcXcXcXcXcXcXcXcXcXcXcXeXlXcXyXZ.%X4X3X^.V.j [ :.).d.h.V.!.d.d.d.d.a.a.b u.u.u.a.d.d.a.d.d.d.a.t.i.B e.f.B f.b.b.b.b.b.b.b.b.b.n.4.4.i.i.c.b.b.f.f.b.b.b.b.k.c.c.c.r.i.v.v.f.v.v.v.v.v.v.v.c.} c.c.v.v.v.v.f.v.v.v.v.v.f.v.v.k.U.g.E.E.E.g.E.E.E.g.E.E.y.y.E.U.U.W.W.E.E.E.E.!.!.!.].].[.}._ ` MXDXsXMXDXDXDXDXDXpXvXpXiXpXiXgX%.o.#.qXpXiXpXiXhXZXE.i i f Z.^ ! K.bXZXR.0 i i M u u V.vXZXU.t t f _ ` ( ",
"Y.Y.Y.Y.Y.T.I.U.Y.Y.Y.Y.Y.U.I.T.Y.T.Z C I.I.I.I.A I.I.I.I.A I.I.A I.I.A u A A A s.I.I.I.I.I.G ) Z.G I.I.).H k $XcXcXeXcXcXcXcXcXcXcXcXcXcXcXcXeXcXlXnXmX$XH.4X^.h.w ) K.).d.h.b.h.d.d.d.d.a.a.b u.u.u.a.d.d.a.d.d.d.u.t.f.B e.f.u.S b.b.b.b.b.b.b.b.b.n.4.4.i.i.c.b.b.f.f.b.b.b.c.k.c.c.c.c.r.v.v.f.v.v.v.v.v.v.v.c.} c.c.v.v.v.v.f.v.v.v.v.v.f.v.v.k.v.U.E.E.E.g.E.E.E.g.E.E.y.y.E.U.E.E.E.E.E.E.E.!.W.!.].].].].' _ NXDXsXMXDXDXDXDXDXpXvXpXiXpXiXgX%.o.#.qXpXiXpXiXhXZXE.i i f Z.^ ! K.bXZXI.0 i i M u y V.vXZXI.t t f _ ` ( ",
"Y.Y.Y.Y.Y.T.I.U.Y.Y.Y.Y.Y.U.I.Y.T.I.Z I.I.I.I.I.A I.I.I.I.A I.I.A I.I.A u A A A s.I.I.I.I.I.G Z.' G I.I.).~.j [.cXcXeXcXcXcXcXcXcXcXcXcXcXcXcXeXcXcXlXcX@XB.'.'.J t :.^.!.d.h.j.d.d.d.d.d.a.a.b u.u.u.a.d.d.a.d.d.d.t.r.j.B e.f.f.B b.b.b.b.b.b.b.b.b.n.4.4.i.i.c.b.b.f.f.b.b.b.k.i.c.c.c.c.r.c.v.f.v.v.v.v.v.v.v.c.} c.c.v.v.v.v.f.v.v.v.v.v.f.v.v.c.c.U.E.E.E.g.E.E.E.g.E.E.y.y.U.U.E.E.E.E.E.E.E.E.E.E.`.].].[.-.) NXFXsXMXDXDXDXDXDXpXvXpXiXpXiXgX%.o.#.qXpXiXpXiXhXZXE.i i f Z.^ ! K.bXZXI.0 i i M u y V.vXZXI.t t f _ ` ( ",
"Y.Y.Y.Y.Y.T.I.U.Y.Y.Y.Y.Y.U.I.Y.T.A C I.I.I.I.I.A I.I.I.I.A I.I.A I.I.A u A A A s.I.I.I.I.I.I.I._ k.G I.R.(.k Q.nXcXeXcXcXcXcXcXcXcXcXcXcXcXcXeXcXcXlXfXJ.C.^.^.e ^ &X(.!.d.h.j.a.d.d.d.d.a.a.b u.u.u.a.d.d.a.d.d.d.4.i.f.B e.f.f.B u.b.b.b.b.b.b.b.b.n.4.4.i.i.c.b.b.f.f.b.b.b.k.c.c.c.c.c.i.r.v.f.v.v.v.v.v.v.v.c.} c.c.v.v.v.v.f.v.v.v.v.v.f.v.v.v.k.U.E.E.E.g.E.E.E.g.E.E.y.y.U.U.E.E.E.E.E.E.E.E.E.E.`.].].[.&X) 5XFXsXMXDXDXDXDXDXpXvXpXiXpXiXgX%.o.#.qXpXiXpXiXhXZXE.i i f Z.^ ! K.bXZXR.0 i i M u u V.vXZXU.t t f _ ` ( ",
"Y.Y.Y.Y.Y.T.I.U.Y.Y.Y.Y.Y.U.I.T.Y.Z I.A I.I.I.I.A I.I.I.I.A I.I.A I.I.A u A A A s.I.I.I.I.I.I.G Z.) G I.R.~.G k lXcXeXcX$XpXcXcXcXcXcXcXcXcXcXeXlX$XlXeXB.!.^.R.w _ G.^.E.d.h.d.d.d.d.d.d.a.a.b u.u.u.a.d.d.a.d.h.i.4.f.f.B e.f.f.u.B b.b.b.b.b.b.b.b.n.4.4.i.i.c.b.b.f.f.b.b.c.k.c.c.c.c.c.c.r.c.f.v.v.v.v.v.v.v.c.} c.c.v.v.v.v.f.v.v.v.v.v.f.v.v.v.k.g.E.E.E.g.E.E.E.g.E.E.y.y.U.U.E.E.E.E.E.E.E.E.E.E.!.~.`.[.<X| ,XFXsXMXDXDXDXDXDXpXvXpXiXpXiXgX%.o.#.qXpXiXpXiXhXZXE.i i f Z.^ ! K.bXZXR.0 i i M u u V.vXZXU.t t f _ ` ( ",
"Y.Y.Y.Y.Y.T.I.U.Y.Y.Y.Y.Y.U.I.T.s.Z R.A I.I.I.I.A I.I.I.I.A I.I.A I.I.A u A A A s.I.I.I.I.I.I.G m._ g.I.R.).(.j [.cXeXcX#XeXcXcXcXcXcXcXcXcXcXeXpX(.eX+XB.^.'.j g :.^.^.E.d.d.a.d.d.d.d.d.a.a.b u.u.u.a.d.d.a.a.h.r.e.f.f.B e.f.f.f.B f.b.b.b.b.b.b.b.n.4.4.i.i.c.b.b.f.f.b.b.k.c.c.c.c.c.c.c.r.r.g.v.v.v.v.v.v.v.c.} c.c.v.v.v.v.f.v.v.v.v.v.f.v.v.v.x.i.W.E.E.g.E.E.E.g.E.E.y.y.U.U.E.E.E.E.E.E.E.E.E.E.!.!.`.].|.A.,XHXsXMXDXDXDXDXDXpXvXpXiXpXiXgX%.o.#.qXpXiXpXiXhXZXE.i i f Z.^ ! K.bXZXI.0 i i M u y V.vXZXI.t t f _ ` ( ",
"Y.Y.Y.Y.Y.T.I.U.Y.Y.Y.Y.Y.U.I.T.Z A I.A I.I.I.I.A I.I.I.I.A I.I.A I.I.A u A A A s.I.I.I.I.I.I.I.G ) Z.G I.).(.H H [.$XxX(.$XlXxXcXcXcXcXcXcXcXeXeX(.[.J.V.^.^.w ) K.^.^.E.d.d.a.d.d.d.d.d.a.a.b u.u.u.a.d.d.a.d.j.4.u.f.f.B e.f.f.f.B u.n.b.b.b.b.b.b.n.4.4.i.i.c.b.b.f.f.b.c.k.c.c.c.c.c.c.c.x.r.g.v.v.v.v.v.v.v.c.} c.c.v.v.v.v.f.v.v.v.v.v.f.v.v.v.c.k.E.E.E.g.E.E.E.g.E.E.y.y.U.U.E.E.E.E.E.E.E.E.E.E.E.!.!.].[.A.,XFXsXMXDXDXDXDXDXpXvXpXiXpXiXgX%.o.#.qXpXiXpXiXhXZXE.i i f Z.^ ! K.bXZXI.0 i i M u y V.vXZXI.t t f _ ` ( ",
"Y.Y.Y.Y.Y.T.I.U.Y.Y.Y.Y.Y.U.U.U.V I.I.A I.I.I.I.A I.I.I.I.A I.I.A I.I.A u A A A s.I.I.I.I.I.I.I.G Z.' G I.).~.).j (.'.#X(.[.eX$XcXcXcXcXcXcXcXeX$X(.(.B.^.^.H t :.V.!.^.h.d.d.a.d.d.d.d.d.a.a.b u.u.u.a.d.d.a.d.i.r.a.f.f.B e.f.f.f.u.B b.b.b.b.b.b.b.n.4.4.i.i.c.b.b.f.f.b.m.k.c.c.c.c.c.c.c.c.t.f.v.v.v.v.v.v.v.c.} c.c.v.v.v.v.f.v.v.v.v.v.f.v.v.v.v.k.v.E.E.g.E.E.E.g.E.E.y.y.U.U.E.E.E.E.E.E.E.E.E.E.E.!.!.~.[.A.>XFXsXMXDXDXDXDXDXpXvXpXiXpXiXgX%.o.#.qXpXiXpXiXhXZXE.i i f Z.^ ! K.bXZXR.0 i i M u u V.vXZXU.t t f _ ` ( ",
"Y.Y.Y.Y.Y.T.I.U.Y.Y.Y.Y.Y.U.U.A Z I.I.A I.I.I.I.A I.I.I.I.A I.I.A I.I.A u A A A s.I.I.I.I.I.I.I.I.I._ k.G ).~.(.k G ^.(.(.(.#X#XcXcXcXcXcXcXcXeX#X(.V.B.^.'.e [ -.).V.^.h.d.d.a.d.d.d.d.d.a.a.b u.u.u.a.d.d.a.d.r.i.u.f.f.B e.f.f.f.f.B f.b.b.b.b.b.b.n.4.4.i.i.c.b.b.f.f.b.k.c.c.c.c.c.c.c.c.c.r.r.v.v.v.v.v.v.v.c.} c.c.v.v.v.v.f.v.v.v.v.v.f.v.v.v.v.r.c.E.E.g.E.E.E.g.E.E.y.y.U.U.E.E.E.E.E.E.E.E.E.E.E.E.E.!.[.A.:XKXsXMXDXDXDXDXDXpXvXpXiXpXiXgX%.o.#.qXpXiXpXiXhXZXE.i i f Z.^ ! K.bXZXR.0 i i M u u V.vXZXU.t t f _ ` ( ",
"Y.Y.Y.Y.Y.T.I.U.Y.Y.Y.Y.Y.U.U.Z A I.I.A I.I.I.I.A I.I.I.I.A I.I.A I.I.A u A A A s.I.I.I.I.I.I.I.I.G &X) G ).~.(.G k ^.(.(.(.(.(.lXcXcXcXcXcXcXeX#X(.B.V.^.).w ] F.).h.E.h.d.d.a.d.d.d.d.d.a.a.b u.u.u.a.d.d.a.a.t.f.u.f.f.B e.f.f.f.f.u.B b.b.b.b.b.b.n.4.4.i.i.c.b.b.f.f.c.k.c.c.c.c.c.c.c.c.c.i.t.v.v.v.v.v.v.v.c.} c.c.v.v.v.v.f.v.v.v.v.v.f.v.v.v.v.f.k.E.E.g.E.E.E.g.E.E.y.y.U.U.E.E.E.E.E.E.E.E.E.E.E.E.E.!.[.G.:.NXaXMXDXDXDXDXDXpXvXpXiXpXiXgX%.o.#.qXpXiXpXiXhXZXE.i i f Z.^ ! K.bXZXI.0 i i M u y V.vXZXI.t t f _ ` ( ",
"Y.Y.Y.Y.Y.Y.I.U.Y.Y.Y.Y.Y.Y.A Z I.I.I.A I.I.I.I.A I.I.I.I.A I.I.A I.I.C u A C A A I.I.I.I.I.I.I.I.G m._ g.).~.~.~.j ).(.(.(.(.(.eXcXlXlXlXlXlXeX%X^.B.^.'.k p :.).h.d.h.h.d.d.a.a.d.d.d.d.a.a.b u.u.u.a.d.d.s.t.i.f.u.f.f.B e.f.f.f.f.f.B f.b.b.b.b.b.n.4.4.i.i.f.b.b.f.f.k.i.c.c.c.c.c.c.c.c.c.f.t.c.v.v.v.v.v.v.c.} c.c.v.v.v.v.f.v.v.v.v.v.f.v.v.v.v.g.k.v.E.g.E.E.E.g.E.E.y.y.U.U.E.E.E.E.E.E.E.E.E.E.E.E.E.!.[.`._ >XhXMXDXDXDXDXDXpXvXpXiXpXiXgX%.o.#.qXpXiXpXiXhXZXE.i i f Z.^ ! K.bXZXI.0 i i M u y V.vXZXI.t t f _ ` ( ",
"T.T.T.T.T.T.U.Y.T.T.T.T.T.T.Z A R.I.R.I.I.R.I.R.I.I.R.R.I.I.R.R.I.I.R.A u A A A I.I.I.I.I.I.I.I.I.I.G ' Z.).~.~.(.H H %X(.(.(.(.fXnXnXnXnXnXnXeX%XV.V.^.^.w ~ <X).V.d.h.h.h.h.a.d.h.h.h.h.d.a.b a.a.u.d.h.h.a.4.f.f.u.f.b.B e.f.f.f.f.f.B u.n.b.b.b.b.n.6.4.c.x.c.b.n.b.f.k.c.c.c.c.c.c.c.c.c.c.c.r.x.n.v.n.n.n.n.v.} c.v.v.v.v.n.f.n.n.n.n.n.f.n.n.n.v.v.c.c.W.U.E.E.E.U.E.!.y.y.W.U.W.W.E.E.E.E.E.E.E.E.E.E.E.W.[.}.` >XAXDXIXDXDXDXDXpXvXpXiXpXiXgX%.o.#.qXpXiXpXiXhXZXE.i i f Z.^ ! K.bXZXR.0 i i M u u V.vXZXU.t t f _ ` ( ",
"I.I.I.I.I.I.C s.I.I.I.I.I.s.M C C C C Z C C C C Z C C C C Z C C Z C C Z u Z Z Z C C C C C C C C C C G Z.' G ).R.).G j ^.).).).).OX9X$X9X9X7X9X@X^.p.j.V.H h _ V.j.a.S a.a.a.a.S S a.a.a.a.S S b B B B u.a.a.e.4.e.e.B e.u.B B e.e.e.e.e.B B f.i.i.i.i.f.4.3.r.r.r.i.f.u.t.t.r.r.r.r.r.r.r.r.r.r.r.t.4.f.f.f.f.f.f.r.} r.r.r.f.f.f.y.f.f.f.f.f.y.f.f.f.f.y.i.r.g.y.g.g.g.y.g.g.Z f g.y.g.g.g.g.g.g.g.g.g.g.g.g.g.g.!.`.` >XqXrXtXuXuXtXtXpXvXpXiXpXiXgX%.o.#.qXpXiXpXiXhXZXE.i i f Z.^ ! K.bXZXR.0 i i M u u V.vXZXU.t t f _ ` ( ",
"Z Z Z Z Z Z Z Z Z Z Z Z C V M Z V V V V V V V V V V V V V V V V V V V V u M M V V V V V V V V V V V V Z _ t.G A A A j N h.A d.A J..XJ.J.J.J.J.J.u.7.S p.e [ -.S B B B B B B B B B B B B B B B b B B B B B B n n B B B B B s B B B B B B B n B e.e.e.t.e.4.3.t.t.t.t.e.t.} t.t.t.t.t.t.t.t.t.t.t.t.t.4.t.e.e.e.e.e.t.} t.t.t.e.e.e.t.e.e.e.e.e.t.e.e.e.e.t.e.4.e.Z y.y.y.Z y.y.f f y.Z y.y.y.y.y.y.y.y.y.y.y.y.y.y.v.R.p ;XL.L.=X=X=X=X=XiXvXpXiXpXiXgX%.o.#.qXpXiXpXiXhXZXE.i i f Z.^ ! K.bXZXI.0 i i M u y V.vXZXI.t t f _ ` ( ",
"T.T.T.T.T.T.Y.T.T.T.T.T.T.Z A R.R.R.R.I.I.R.R.R.I.I.R.R.I.I.R.R.I.I.R.A u A A I.I.R.R.R.R.R.R.R.R.R.U.G ) &X).~.~.(.H H %X(.[.(.fXnXnXnXnXnXnXeXG.V.^.^.w ] K.(.a.h.h.h.h.h.h.d.d.h.h.h.h.d.j.b a.a.a.d.h.h.4.f.f.f.u.f.b.B u.b.f.f.f.f.f.u.u.n.n.n.n.n.6.4.b.x.b.b.n.b.k.b.c.c.c.c.c.c.c.c.c.b.c.c.x.k.n.n.n.n.n.v.} v.v.v.v.n.n.v.n.n.n.n.n.v.n.n.n.v.v.E.x.c.Y.E.E.E.U.E.!.y.y.W.W.W.W.W.E.E.E.E.E.E.E.E.E.E.W.].|.p >XSXDXIXIXIXIXIXpXvXpXiXpXiXgX%.o.#.qXpXiXpXiXhXZXE.i i f Z.^ ! K.bXZXI.0 i i M u y V.vXZXI.t t f _ ` ( ",
"Y.Y.Y.Y.Y.Y.I.U.Y.Y.Y.Y.R.V A I.I.I.I.A I.I.I.I.A I.I.I.I.A I.I.A G I.C u C C A A I.I.I.I.I.I.I.I.I.I.G k._ T.~.).~.R.j (.(.(.(.$XlXlXlXlXlXcX+XB.^.'.J t :.^.!.a.d.d.d.d.d.d.a.a.d.d.d.d.a.a.b u.u.u.a.d.i.t.a.f.f.u.f.f.B e.f.f.f.f.f.f.u.B b.b.b.b.n.4.4.i.i.f.b.b.r.r.c.c.c.c.c.c.c.c.c.c.c.f.r.c.t.c.v.v.v.v.c.} c.c.v.v.v.v.f.v.v.v.v.v.f.v.v.v.v.f.v.c.k.U.E.E.E.g.E.E.y.y.U.U.U.E.E.E.E.E.E.E.E.E.E.E.E.E.`.[.p ;XZXMXDXDXDXDXDXpXvXpXiXpXiXgX%.o.#.qXpXiXpXiXhXZXE.i i f Z.^ ! K.bXZXR.0 i i M u u V.vXZXU.t t f _ ` ( ",
"Y.Y.Y.Y.Y.T.I.U.Y.Y.Y.T.A Z I.I.I.I.I.A I.I.I.I.A I.I.I.I.A I.I.A I.I.A u A A A s.I.I.I.I.I.I.I.I.I.I.I.G ' A.~.~.).).k G [.(.(.#XcXcXcXcXlXnXH.C.^.^.e ~ &X(.V.a.d.d.d.d.d.d.a.d.d.d.d.d.a.a.b u.u.u.a.d.t.u.f.f.f.u.f.f.B e.f.f.f.f.f.f.f.B f.b.b.b.n.4.4.i.i.c.b.b.r.r.c.c.c.c.c.c.c.c.c.c.c.f.i.c.r.i.v.v.v.v.c.} c.c.v.v.v.v.f.v.v.v.v.v.f.v.v.v.v.f.v.v.k.g.E.E.E.g.E.E.y.y.U.U.E.E.E.E.E.E.E.E.E.E.E.E.E.E.`.[.f ;XhXMXDXDXDXDXDXpXvXpXiXpXiXgX%.o.#.qXpXiXpXiXhXZXE.i i f Z.^ ! K.bXZXR.0 i i M u u V.vXZXU.t t f _ ` ( ",
"Y.Y.Y.Y.Y.T.I.U.Y.Y.Y.Y.Z A A I.I.I.I.A I.I.I.I.A I.I.I.I.A I.I.A I.I.A u A A A s.I.I.I.I.I.I.I.I.I.I.I.G Z.-.).~.~.).G k [.(.(.#XcXcXcXcXcXcXD.V.^.R.w _ G.^.h.a.d.d.d.d.d.d.a.d.d.d.d.d.a.a.b u.u.u.d.i.r.a.u.f.f.u.f.f.B e.f.f.f.f.f.f.f.u.B b.b.b.n.4.4.i.i.c.b.c.r.f.c.c.c.c.c.c.c.c.c.c.c.f.i.c.i.r.v.v.v.v.c.} c.c.v.v.v.v.f.v.v.v.v.v.f.v.v.v.v.f.v.v.x.i.E.E.E.g.E.E.y.y.U.U.E.E.E.E.E.E.E.E.E.E.E.E.E.E.`.].k ..H VXDXDXDXDXDXpXvXpXiXpXiXgX%.o.#.qXpXiXpXiXhXZXE.i i f Z.^ ! K.bXZXI.0 i i M u y V.vXZXI.t t f _ ` ( ",
"Y.Y.Y.Y.Y.T.I.U.Y.Y.T.I.Z I.A I.I.I.I.A I.I.I.I.A I.I.I.I.A I.I.A I.I.A u A A A s.I.I.I.I.I.I.I.I.I.I.I.I.g._ n.~.~.).~.j ).(.(.[.lXcXcXlXcXyXM.^.'.j [ :.).^.h.a.d.d.d.d.d.d.a.d.d.d.d.d.a.a.b u.u.u.d.r.i.a.u.f.f.u.f.f.B e.f.f.f.f.f.f.f.f.B f.b.b.n.4.4.i.i.c.b.k.r.f.c.c.c.c.c.c.c.c.c.c.c.f.i.c.c.r.c.v.v.v.c.} c.c.v.v.v.v.f.v.v.v.v.v.f.v.v.v.v.f.v.v.c.r.E.E.E.g.E.E.y.y.U.U.E.E.E.E.E.E.E.E.E.E.E.E.E.E.!.].I.| k VXDXDXDXDXDXpXvXpXiXpXiXgX%.o.#.qXpXiXpXiXhXZXE.i i f Z.^ ! K.bXZXI.0 i i M u y V.vXZXI.t t f _ ` ( ",
"Y.Y.Y.Y.Y.T.I.U.Y.Y.T.Z A I.A I.I.I.I.A I.I.I.I.A I.I.I.I.A I.I.A I.I.A u A A A s.I.I.I.I.I.I.I.I.I.I.I.I.G ) &X~.~.).(.H H [.(.(.pXcXcXlXnX4XB.^.^.w ) Z.R.V.d.a.d.d.d.d.d.d.a.d.d.d.d.d.a.a.b u.u.u.a.t.f.u.f.f.f.u.f.f.B e.f.f.f.f.f.f.f.f.B u.b.b.n.4.4.i.i.c.c.k.f.i.c.c.c.c.c.c.c.c.c.c.c.f.i.c.c.i.r.v.v.v.c.} c.c.v.v.v.v.f.v.v.v.v.v.f.v.v.v.v.f.v.v.v.k.v.E.E.g.E.E.y.y.U.U.E.E.E.E.E.E.E.E.E.E.E.E.E.E.!.~.W.| k VXDXDXDXDXDXpXvXpXiXpXiXgX%.o.#.qXpXiXpXiXhXZXE.i i f Z.^ ! K.bXZXR.0 i i M u u V.vXZXU.t t f _ ` ( ",
"Y.Y.Y.Y.Y.T.I.U.Y.Y.Y.Z I.I.A I.I.I.I.A I.I.I.I.A I.I.I.I.A I.I.A I.I.A u A A A s.I.I.I.I.I.I.I.I.I.I.I.I.G k.' ).~.).~.).j (.(.(.$XcXcXcXlX3XV.^.H t ' R.d.h.d.a.d.d.d.d.d.d.a.d.d.d.d.d.a.a.b u.u.a.i.r.f.u.f.f.f.u.f.f.B e.f.f.f.f.f.f.f.f.u.B b.b.n.4.4.i.i.c.x.k.f.i.c.c.c.c.c.c.c.c.c.c.c.f.i.c.c.c.t.v.v.v.c.} c.c.v.v.v.v.f.v.v.v.v.v.f.v.v.v.v.f.v.v.v.r.c.E.E.g.E.E.y.y.U.U.E.E.E.E.E.E.E.E.E.E.E.E.E.E.!.!.`.| j DXDXDXDXDXDXpXvXpXiXpXiXgX%.o.#.qXpXiXpXiXhXZXE.i i f Z.^ ! K.bXZXR.0 i i M u u V.vXZXU.t t f _ ` ( ",
"Y.Y.Y.Y.Y.T.I.U.Y.T.A Z I.I.A I.I.I.I.A I.I.I.I.A I.I.I.I.A I.I.A I.I.A u A A A s.I.I.I.I.I.I.I.I.I.I.I.I.I.I._ A.~.).).(.k Q.(.(.$XlXlXnXdXP.!.'.e [ &XG d.d.d.a.d.d.d.d.d.d.a.d.d.d.d.d.a.a.b u.u.u.t.i.f.u.f.f.f.u.f.f.B e.f.f.f.f.f.f.f.f.f.B f.b.n.4.4.i.i.c.k.c.f.i.c.c.c.c.c.c.c.c.c.c.c.f.i.c.c.c.r.c.v.v.c.} c.c.v.v.v.v.f.v.v.v.v.v.f.v.v.v.v.f.v.v.v.r.x.E.E.g.E.E.y.y.U.U.E.E.E.E.E.E.E.E.E.E.E.E.E.E.E.!.{.| k CXDXDXDXDXDXpXvXpXiXpXiXgX%.o.#.qXpXiXpXiXhXZXE.i i f Z.^ ! K.bXZXI.0 i i M u y V.vXZXI.t t f _ ` ( ",
"Y.Y.Y.Y.Y.T.I.U.Y.T.Z A I.I.A I.I.I.I.A I.I.I.I.A I.I.I.I.A I.I.A I.I.A u A A A s.I.I.I.I.I.I.I.I.I.I.I.I.I.G Z.-.~.).~.).H k [.(.#XeXcXnXL.J.^.).w _ G.R.d.d.d.a.d.d.d.d.d.d.a.d.d.d.d.d.a.a.b u.a.e.4.f.f.u.f.f.f.u.f.f.B e.f.f.f.f.f.f.f.f.f.u.u.b.n.4.4.i.i.i.k.c.f.i.c.c.c.c.c.c.c.c.c.c.c.f.i.c.c.c.i.r.v.v.c.} c.c.v.v.v.v.f.v.v.v.v.v.f.v.v.v.v.f.v.v.v.f.k.E.E.g.E.E.y.y.U.U.E.E.E.E.E.E.E.E.E.E.E.E.E.E.E.W.{. .| NXAXDXDXDXDXpXvXpXiXpXiXgX%.o.#.qXpXiXpXiXhXZXE.i i f Z.^ ! K.bXZXI.0 i i M u u V.vXZXI.t t f _ ` ( ",
"Y.Y.Y.Y.Y.T.I.U.T.I.Z I.I.I.A I.I.I.I.A I.I.I.I.A I.I.I.I.A I.I.A I.I.A u A A A s.I.I.I.I.I.I.I.I.I.I.I.I.I.G m._ E.).~.R.).j ~.(.(.eXcXxXD.^.J.j g :.).d.d.d.d.a.d.d.d.d.d.d.a.d.d.d.d.d.a.a.b u.a.4.r.f.f.u.f.f.f.u.f.f.B e.f.f.f.f.f.f.f.f.f.f.B b.n.4.4.i.i.k.k.c.f.i.c.c.c.c.c.c.c.c.c.c.c.f.i.c.c.c.c.t.v.v.c.} c.c.v.v.v.v.f.v.v.v.v.v.f.v.v.v.v.f.v.v.v.g.x.v.E.g.E.E.y.y.U.U.E.E.E.E.E.E.E.E.E.E.E.E.E.E.E.W.{.| ^ NXAXDXDXDXDXpXvXpXiXpXiXgX%.o.#.qXpXiXpXiXhXZXE.i i f w.^ ! K.bXZXI.0 i i M u u V.vXZXI.t t f _ ` ( ",
"Y.Y.Y.Y.Y.T.I.U.T.A C I.I.I.A I.I.I.I.A I.I.I.I.A I.I.I.I.A I.I.A I.I.A u A A A s.I.I.I.I.I.I.I.I.I.I.I.I.I.I.G ) Z.G ).G ).k G [.~.$XnX4XB.^.V.w ) Z.G h.d.d.d.a.d.d.d.d.d.d.a.d.d.d.d.d.a.a.b u.u.4.i.f.f.u.f.f.f.u.f.f.B e.f.f.f.f.f.f.f.f.f.f.B u.n.4.4.i.i.k.c.c.f.i.c.c.c.c.c.c.c.c.c.c.c.f.i.c.c.c.c.r.i.n.c.} c.c.v.v.v.v.f.v.v.v.v.v.f.v.v.v.v.f.v.v.v.f.c.x.E.g.E.E.y.y.U.U.E.E.E.E.E.E.E.E.E.E.E.E.E.E.E.E.{.| ^ NXSXDXDXDXDXpXvXpXiXpXiXgX%.o.#.qXpXiXpXiXhXZXf.r r s ! Q Q M.bXZXS 9 9 y s y r i.ZXZXy.9 r y / Y Y ",
"Y.Y.Y.Y.Y.Y.I.U.Y.Z I.I.I.I.A I.I.I.I.A I.I.I.I.A I.I.I.I.A I.I.A I.I.C u A A A A I.I.I.I.I.I.I.I.I.I.I.I.I.I.G Z.' G R.I.R.R.k (.(.#XnXD.V.'.H t _ f.h.d.d.d.d.a.d.d.d.d.d.d.a.d.d.d.d.d.a.a.b a.e.4.f.f.f.u.f.f.f.u.f.f.B e.f.f.f.f.f.f.f.f.f.f.u.B n.4.4.f.r.k.c.c.f.i.c.c.c.c.c.c.c.c.c.c.c.f.i.c.c.c.c.i.r.v.c.} c.c.v.v.v.v.f.v.v.v.v.v.f.v.v.v.v.f.v.v.v.f.v.k.E.g.E.E.y.y.U.U.E.E.E.E.E.E.E.E.E.E.E.E.E.E.E.E.}.) ] NXSXDXDXDXDXpXvXpXiXpXiXgX%.o.#.qXpXiXpXiXhXZXf.r r s ! Q Q q.bXZXS 9 9 y s y r i.ZXZXy.9 r y / Y Y ",
"Y.T.T.T.Y.T.U.Y.I.Z R.I.I.I.A I.I.I.I.A I.I.I.I.A I.I.I.I.A I.I.A I.R.A u A A A I.I.I.I.I.I.I.I.I.I.I.I.I.I.I.I.I._ k.G I.I.Y.j ).(.%X+XB.^.'.e [ -.G h.h.d.d.d.a.d.d.d.d.d.h.a.d.h.d.d.d.a.a.b a.4.t.f.f.f.u.f.f.f.u.f.f.B e.f.f.f.f.f.f.f.f.f.f.f.B h.6.4.c.k.k.c.c.c.i.c.c.c.c.c.c.c.c.c.c.c.c.i.c.c.c.c.c.r.b.v.} c.c.v.v.v.v.f.v.v.v.v.v.f.v.v.v.v.f.v.v.v.f.v.k.v.U.E.E.y.y.E.U.W.E.E.E.E.E.E.E.E.E.E.E.E.E.E.E.].' ` NXFXDXDXDXDXpXvXpXiXpXiXgX%.o.#.qXpXiXpXiXhXZXf.r r s ! Q Q M.bXZXS 9 9 y s y r i.ZXZXy.9 r y / Y Y ",
"I.I.I.I.I.U.I.U.Z C I.A A C C A A A A C C A A A C C A A C C A A C C I.C u C Z C C A A A A A A A A A A A A A A s.G | ) G s.C s.f H ^.(.B.C.^.R.w _ k.A a.a.a.a.a.a.a.a.a.a.a.a.a.a.a.a.a.a.a.u.b e.4.e.u.u.u.e.u.u.u.e.u.f.B B u.u.u.u.u.u.u.u.u.u.u.B u.4.4.i.t.r.r.i.r.r.i.i.i.i.i.i.i.i.i.i.i.r.r.i.i.i.i.f.t.r.f.} f.f.f.f.f.f.f.f.f.f.f.f.f.f.f.f.f.f.f.f.f.f.g.r.r.g.g.U.y.} g.g.g.g.U.g.g.g.g.g.g.g.g.g.g.U.g.g.!.' ` ,XhXsXsXsXMXpXvXpXiXpXiXgX%.o.#.qXpXiXpXiXhXZXf.r r s ! Q Q M.bXZXS 9 9 y s y r i.ZXZXy.9 r y / Y Y ",
"U.U.U.U.U.Y.I.I.V I.I.I.I.A C I.I.I.I.C A I.I.I.C A I.I.A C I.I.C A I.C u C C C A I.I.I.I.I.I.I.I.I.I.I.I.I.I.I.G m._ y.G I.I.G j (.^.B.!.'.j g :.A a.d.d.d.d.d.a.d.d.d.d.d.d.a.a.d.d.d.d.a.a.b t.4.e.u.u.f.u.u.f.f.e.u.f.B e.f.u.f.f.f.f.f.f.f.f.f.u.B 4.4.r.k.i.i.c.i.r.c.f.f.f.f.f.f.f.f.f.c.i.r.c.f.f.f.f.i.r.f.} c.c.f.f.v.v.f.v.v.v.v.v.f.v.v.v.f.f.v.v.v.f.v.c.k.g.U.E.y.} U.U.U.U.U.U.U.U.U.U.U.U.U.U.U.U.U.U.~.A.` ,XZXBXBXMXMXpXvXpXiXpXiXgX%.o.#.qXpXiXpXiXhXZXf.r r s ! Q Q M.bXZXS 9 9 y s y r i.ZXZXy.9 r y / Y Y ",
"Y.Y.Y.Y.Y.T.U.A Z I.I.I.I.I.A I.I.I.I.A I.I.I.I.A I.I.I.I.A I.I.A I.R.A u A A A I.I.I.I.I.I.I.I.I.I.I.I.I.I.I.I.I.G ) Z.G I.I.Y.j Q.J.C.^.^.w ) Z.G d.d.d.d.d.d.a.d.d.d.d.d.h.a.d.d.d.d.d.a.a.b 4.t.e.i.f.f.u.f.f.f.u.f.f.B e.f.f.f.f.f.f.f.f.f.f.f.f.S 4.4.k.k.x.c.c.c.i.c.c.c.c.c.c.c.c.c.c.c.c.i.c.c.c.c.c.c.r.f.} c.c.v.v.v.v.f.v.v.v.v.v.f.v.v.v.v.f.v.v.v.f.v.v.k.g.E.E.y.y.E.U.W.E.E.E.E.E.E.E.E.E.E.E.E.E.E.E.~.`.` 5XHXNXMXDXDXpXvXpXiXpXiXgX%.o.#.qXpXiXpXiXhXZXf.r r s ! Q Q q.bXZXS 9 9 y s y r i.ZXZXy.9 r y / Y Y ",
"Y.Y.Y.Y.Y.Y.U.V A I.I.I.I.I.A I.I.I.I.A I.I.I.I.A I.I.I.I.A I.I.A I.I.C u A A A s.I.I.I.I.I.I.I.I.I.I.I.I.I.I.I.I.G Z.' G I.I.R.H k B.V.'.J t _ h.d.d.d.d.d.d.d.a.d.d.d.d.d.d.a.d.d.d.d.d.a.a.b 4.u.e.i.f.f.u.f.f.f.u.f.f.B e.f.f.f.f.f.f.f.f.f.f.f.f.a.n 4.k.i.x.c.c.f.i.c.c.c.c.c.c.c.c.c.c.c.f.i.c.c.c.c.c.c.i.r.} c.c.v.v.v.v.f.v.v.v.v.v.f.v.v.v.v.f.v.v.v.f.v.v.x.r.E.E.y.y.U.U.E.E.E.E.E.E.E.E.E.E.E.E.E.E.E.E.!.`.` :XJX>X5XFXDXpXvXpXiXpXiXgX%.o.#.qXpXiXpXiXhXZXf.r r s ! Q Q q.bXZXS 9 9 y s y r i.ZXZXy.9 r y / Y Y ",
"Y.Y.Y.Y.Y.T.s.V I.I.I.I.I.I.A I.I.I.I.A I.I.I.I.A I.I.I.I.A I.I.A I.I.A u A A A s.I.I.I.I.I.I.I.I.I.I.I.I.I.I.I.I.I.G ' k.G I.I.).j p.^.^.e ^ &XG d.d.d.d.d.d.d.a.d.d.d.d.d.d.a.d.d.d.d.d.a.a.b t.u.e.i.f.f.u.f.f.f.u.f.f.B e.f.f.f.f.f.f.f.f.f.f.f.f.f.n 3.k.i.x.c.c.f.i.c.c.c.c.c.c.c.c.c.c.c.f.i.c.c.c.c.c.c.c.4.} c.c.v.v.v.v.f.v.v.v.v.v.f.v.v.v.v.f.v.v.v.f.v.v.c.r.E.E.y.y.U.U.E.E.E.E.E.E.E.E.E.E.E.E.E.E.E.E.E.].A.~ |.>X,XHXwXpXvXpXiXpXiXgX%.o.#.qXpXiXpXiXhXZXf.r r s ! Q Q M.bXZXS 9 9 y s y r i.ZXZXy.9 r y / Y Y ",
"Y.Y.Y.Y.Y.T.Z C I.I.I.I.I.I.A I.I.I.I.A I.I.I.I.A I.I.I.I.A I.I.A I.I.A u A A A s.I.I.I.I.I.I.I.I.I.I.I.I.I.I.I.I.I.G Z.) G I.I.).V S '.H h _ B.h.d.d.d.d.d.d.d.a.d.d.d.d.d.d.a.d.d.d.d.d.a.a.3.e.u.e.i.f.f.u.f.f.f.u.f.f.B e.f.f.f.f.f.f.f.f.f.f.f.f.f.n { x.i.x.c.c.f.i.c.c.c.c.c.c.c.c.c.c.c.f.i.c.c.c.c.c.c.c.t.{ c.c.v.v.v.v.f.v.v.v.v.v.f.v.v.v.v.f.v.v.v.f.v.v.v.k.v.E.y.y.U.U.E.E.E.E.E.E.E.E.E.E.E.E.E.E.E.E.E.].[.| X.>.>.MXl 0XvXpXiXpXiXgX%.o.#.qXpXiXpXiXhXZXf.r r s ! Q Q M.bXZXS 9 9 y s y r i.ZXZXy.9 r y / Y Y ",
"Y.Y.Y.Y.Y.Y.V G I.I.I.I.I.I.A I.I.I.I.A I.I.I.I.A I.I.I.I.A I.I.A I.I.A u A A A s.I.I.I.I.I.I.I.I.I.I.I.I.I.I.I.I.I.G g._ r.G I.).u.f '.e [ :.).d.d.d.d.d.d.d.d.a.d.d.d.d.d.d.a.d.d.d.d.d.s.u.3.u.u.e.i.f.f.u.f.f.f.u.f.f.B e.f.f.f.f.f.f.f.f.f.f.f.f.f.4.{ x.i.x.c.c.f.i.c.c.c.c.c.c.c.c.c.c.c.f.i.c.c.c.c.c.c.c.r.{ c.c.v.v.v.v.f.v.v.v.v.v.f.v.v.v.v.f.v.v.v.f.v.v.v.r.v.E.y.y.U.U.E.E.E.E.E.E.E.E.E.E.E.E.E.E.E.E.E.].#X>X| ` ] ,XA.qXvXpXiXpXiXgX%.o.#.qXpXiXpXiXhXZXf.r r s ! Q Q q.bXZXS 9 9 y s y r i.ZXZXy.9 r y / Y Y ",
"Y.Y.Y.Y.T.s.V I.I.I.I.I.I.I.A I.I.I.I.A I.I.I.I.A I.I.I.I.A I.I.A I.I.A u A A A s.I.I.I.I.I.I.I.I.I.I.I.I.I.I.I.I.I.C G &X) G I.d.B.k k h _ G.R.d.d.d.d.d.d.d.d.a.d.d.d.d.d.d.a.d.d.d.d.d.s.4.b u.u.e.i.f.f.u.f.f.f.u.f.f.B e.f.f.f.f.f.f.f.f.f.f.f.f.f.4.d r.x.x.c.c.f.i.c.c.c.c.c.c.c.c.c.c.c.f.i.c.c.c.c.c.c.c.i.{ c.c.v.v.v.v.f.v.v.v.v.v.f.v.v.v.v.f.v.v.v.f.v.v.v.r.x.E.y.y.U.U.E.E.E.E.E.E.E.E.E.E.E.E.E.E.E.E.E.].#X>X;X) p &X:.8XbXpXiXpXiXgX%.o.#.qXpXiXpXiXhXZXf.r r s ! Q Q q.bXZXS 9 9 y s y r i.ZXZXy.9 r y / Y Y ",
"Y.Y.Y.Y.T.Z C I.I.I.I.I.I.I.A I.I.I.I.A I.I.I.I.A I.I.I.I.A I.I.A I.I.A u A A A s.I.I.I.I.I.I.I.I.I.I.I.I.I.I.I.I.I.C G g._ } R.e.V.G w  .-.(.h.d.d.d.d.d.d.d.d.a.d.d.d.d.d.d.a.a.d.d.d.d.a.4.b u.u.e.i.f.f.u.f.f.f.u.f.f.B e.f.f.f.f.f.f.f.f.f.f.f.f.f.{ b t.x.i.c.c.f.r.c.c.c.c.c.c.c.c.c.c.c.f.i.c.c.c.c.c.c.c.c.{ r.v.v.v.v.v.f.v.v.v.v.v.f.v.v.v.v.f.v.v.v.f.v.v.v.f.k.E.y.y.U.U.E.E.E.E.E.E.E.E.E.E.E.E.E.E.E.E.E.].#X,X` ) p | ' 8XbXiXiXpXiXgX%.o.#.qXpXiXpXiXhXZXf.r r s ! Q Q M.bXZXS 9 9 y s y r i.ZXZXy.9 r y / Y Y ",
"T.T.Y.T.R.Z A I.I.I.I.I.I.I.A I.I.I.I.A I.R.I.R.A I.I.I.I.A I.I.A I.I.A u A A A s.I.I.I.R.I.I.I.I.I.I.I.I.I.I.I.I.I.C I.G &X~ J p.V.j h _ G.^.d.d.d.d.d.d.d.d.d.a.d.d.d.d.d.d.a.d.h.h.d.d.e.4.b e.u.e.i.f.f.u.f.f.f.u.f.f.B u.f.f.f.f.f.f.f.f.f.f.f.f.r.4.3.B x.x.c.c.f.f.c.c.c.c.c.c.c.c.c.c.c.f.i.c.c.c.c.c.c.c.c.{ k.v.v.v.v.v.f.v.v.v.v.v.f.v.v.v.v.f.v.v.v.f.n.n.v.f.k.n.y.y.U.U.E.E.E.E.E.E.E.E.E.E.E.E.E.E.E.E.E.].].MX` ) p  .] 1XbXiXiXpXiXgX%.o.#.qXpXiXpXiXhXZXf.r r s ! Q Q M.bXZXS 9 9 y s y r i.ZXZXy.9 r y / Y Y ",
"s.s.Y.T.A C I.I.I.I.I.I.I.I.A I.I.I.I.A I.Z Z Z C I.I.I.I.A I.I.A I.I.A u A A A s.I.I.C Z Z C I.I.I.I.I.I.I.I.I.I.I.C I.I.I._ g j j w ) -.(.^.a.d.d.d.d.d.d.d.d.a.d.d.d.d.d.h.a.B S S d.d.t.r.b u.u.e.i.f.f.u.f.f.f.u.f.f.B n u.e.f.f.f.f.f.f.f.f.f.f.r.4.4.B r.x.c.c.c.t.e.t.r.c.c.c.c.c.c.c.c.f.i.c.c.c.c.c.c.c.c.{ 4.t.f.v.v.v.f.v.v.v.v.v.f.v.v.v.v.f.v.v.v.e.e.y.f.g.x.c.y.y.U.U.E.E.E.E.E.E.E.E.E.E.E.E.E.E.E.E.E.].}.MX>.:.Q.~ ] =XbXiXiXpXiXgX%.o.#.qXpXiXpXiXhXZXf.r r s ! Q Q q.bXZXS 9 9 y s y r i.ZXZXy.9 r y / Y Y ",
"C V T.Y.Z G A I.I.I.I.I.I.I.A I.I.I.I.I.Z V I.V V I.I.I.I.A I.I.A I.I.A u A A A s.I.I.M A V M R.I.I.I.I.I.I.I.I.I.I.C I.I.G k.` p h -.] k ^.!.a.d.d.d.d.d.d.d.d.a.d.d.d.d.d.h.M S B M h.f.t.u.b u.u.e.i.f.f.u.f.f.f.u.f.f.n B B B f.f.f.f.f.f.f.f.f.i.r.4.4.t.t.x.c.c.e.B c.B t.c.c.c.c.c.c.c.c.f.i.c.c.c.c.c.c.c.r.{ t.d y.v.v.v.f.v.v.v.v.v.f.v.v.v.v.f.v.v.v.B f.f B g.c.x.y.y.U.U.E.E.E.E.E.E.E.E.E.E.E.E.E.E.E.E.E.~.}.DX;X| DX:.` -XbXiXiXpXiXgX%.o.#.qXpXiXpXiXhXZXf.r r s ! Q Q q.bXZXS 9 9 y s y r i.ZXZXy.9 r y / Y Y ",
"U.Z T.I.Z I.A I.I.I.I.I.I.I.A I.I.I.I.I.Z V A u C I.I.I.I.A I.I.A I.I.C u A A A s.I.I.f A Z M I.I.I.I.I.I.I.I.I.I.I.C I.I.I.G w._ _ ) M t !.V.a.d.d.d.d.d.d.d.d.a.d.d.d.d.d.h.M S a.M s.r.t.u.b u.u.e.i.f.f.u.f.f.f.u.f.f.n B B s u.f.f.f.f.f.f.f.f.r.r.4.4.r.n i.c.c.e.B c.B c.c.c.c.c.c.c.c.c.f.i.c.c.c.c.c.c.c.r.{ t.d e.v.v.v.f.v.v.v.v.v.f.v.v.v.v.f.v.v.v.f g.e.B v.v.x.y.y.U.U.E.E.E.E.E.E.E.E.E.E.E.E.E.E.E.E.E.!.].VXjXJ DX>.<.rXbXiXiXpXiXgX%.o.#.qXpXiXpXiXhXZXf.r r s ! Q Q M.bXZXS 9 9 y s y r i.ZXZXy.9 r y / Y Y ",
"I.I.T.C A I.A I.I.I.I.I.I.I.A I.I.I.I.A I.Z Z V C I.I.I.I.A I.I.A I.I.A u A A A s.I.I.C Z Z C I.I.I.I.I.I.I.I.I.I.I.C I.I.I.e.Z s.k.S ^.f f V.a.d.d.d.d.d.d.d.d.a.d.d.d.d.d.h.a.B S S d.4.u.u.b u.u.e.i.f.f.u.f.f.f.u.f.f.B B u.B f.f.f.f.f.f.f.f.f.t.f.4.3.r.B r.c.c.c.t.r.r.c.c.c.c.c.c.c.c.c.f.i.c.c.c.c.c.c.c.c.{ t.4.r.v.v.v.f.v.v.v.v.v.f.v.v.v.v.f.v.v.n.e.e.f.f.f.v.x.t.y.U.U.W.E.E.E.E.E.E.E.E.E.E.E.E.E.E.E.E.!.].DXDXDXFX>XNXcXvXpXiXpXiXgX%.o.#.qXpXiXpXiXhXZXf.r r s ! Q Q M.bXZXS 9 9 y s y r i.ZXZXy.9 r y / Y Y ",
"Y.T.U.V I.I.A G I.I.I.I.I.A A I.I.I.I.A G R.I.R.A I.I.I.I.A I.I.A I.I.C u A C C A I.I.I.I.I.I.I.I.I.I.I.I.I.I.I.I.I.C I.I.I.e.a.A A h.!.R.f d.a.d.d.d.d.d.d.d.d.a.d.d.d.d.d.d.a.d.d.h.i.t.a.u.b e.e.e.u.f.f.u.u.f.f.u.f.f.B u.f.f.f.f.f.f.f.f.f.f.r.t.f.4.3.r.t.B c.c.f.f.c.c.c.c.c.c.c.c.c.c.c.f.i.c.c.c.c.c.c.c.r.} c.r.r.v.v.v.f.v.v.v.v.v.f.v.v.v.v.f.v.v.v.f.v.v.v.f.v.b.} y.U.U.U.E.E.E.E.E.U.U.U.U.U.U.U.U.U.U.U.T.`.MXMXMXMXZXBXpXvXpXiXpXiXgX%.o.#.qXpXiXpXiXhXZXf.r r s ! Q Q q.bXZXS 9 9 y s y r i.ZXZXy.9 r y / Y Y ",
"Z I.A M V C C V Z V Z I.Z V C A Z V A C V C V Z A Z V C A V Z V V A C M u C V M C A V C V V A C V Z I.Z V V V C C V V A C M B s.V Z Z S h.f f S a.S B B B a.a.B B a.a.B Z a.S B S B S t.B B e.b n B n B u.B B e.u.B B u.e.B e.B e.u.B B u.u.B B B t.r.e.d 3.t.4.s r.i.t.r.t.e.f.r.t.r.f.t.t.t.t.i.r.t.e.f.r.t.r.f.t.{ t.t.4.f.e.y.v.y.e.e.e.f.f.e.e.g.f.e.y.v.y.y.y.e.f.f.e.e.} f y.y.Z g.U.y.y.s.g.U.g.g.g.g.g.g.g.U.g.Y.`.sXMXsXsXsXMXpXvXpXiXpXiXgX%.o.#.qXpXiXpXiXhXZXf.r r s ! Q Q q.bXZXS 9 9 y s y r i.ZXZXy.9 r y / Y Y ",
"V s.V V V C C V Z V Z I.Z V C A V V C C V C V Z I.Z V C A V V V V A C M u C V M Z A V Z V V A C V Z I.Z V V V C C V V A C n B s.V V Z D a.f f S a.S B B B S a.B B a.a.B B a.S B S B e.4.B B e.b n n n B u.B B e.u.B B u.e.B e.B B u.B B e.u.B B B } r.e.d 3.t.4.n t.f.t.r.t.t.f.r.B r.f.t.t.t.t.i.r.t.t.f.e.B r.f.t.{ t.t.4.r.e.y.v.y.e.e.e.f.f.e.e.f.f.B y.v.e.y.e.e.f.f.e.e.t.} Z y.Z s.U.y.Z s.E.E.E.E.E.E.E.E.E.E.E.T.].DXDXDXDXDXDXpXvXpXiXpXiXgX%.o.#.qXpXiXpXiXhXZXf.r r s ! Q Q M.bXZXS 9 9 y s y r i.ZXZXy.9 r y / Y Y ",
"Z C V Z V C C V Z V Z I.Z V C A V V C C V C V Z I.Z V C A V Z V V A C M u C V M Z A V C V V A C V Z I.Z V V V C C V V G Z n Z s.V V Z B S Z i B a.S B B B S a.B B a.a.B B a.S B S B t.t.B B e.b n n n B u.B B e.u.B B u.e.B e.B e.u.B B e.u.B B B t.e.e.d 3.t.4.n B i.t.r.t.t.f.r.B r.f.t.t.t.t.i.r.t.t.f.e.B r.f.t.{ t.t.r.t.e.y.v.y.e.e.e.f.f.e.e.f.f.e.y.v.e.y.e.e.f.f.e.y.t.} Z y.Z s.U.y.Z s.E.E.E.E.E.E.E.E.E.E.E.T.`.MXDXDXDXDXDXpXvXpXiXpXiXgX%.o.#.qXpXiXpXiXhXZXf.r r s ! Q Q M.bXZXS 9 9 y s y r i.ZXZXy.9 r y / Y Y ",
"Z V Z Z V C C V Z V Z I.Z V C A V V C C V C V Z I.Z V C A V Z V V A C M u C V M Z A V C V V A C V Z I.Z V V V C C V V G B n Z s.V Z B M Z S i f d.S B B B S a.B B a.a.B B a.S B S B 4.u.B B e.b n n n B u.B B e.u.B B u.e.B e.B e.u.B B e.u.B B } t.r.e.d 3.t.n n B e.t.r.t.t.f.r.B r.f.t.t.t.t.i.r.t.t.f.e.B r.f.t.{ t.t.r.4.t.y.v.y.e.e.e.f.f.e.e.f.f.e.y.v.e.y.e.e.f.f.e.e.y.} Z y.Z s.U.y.Z s.E.E.E.E.E.E.E.E.E.E.E.T.`.MXDXDXDXDXDXpXvXpXiXpXiXgX%.o.#.qXpXiXpXiXhXZXf.r r s ! Q Q q.bXZXS 9 9 y s y r i.ZXZXy.9 r y / Y Y ",
"Z M A Z V A C V Z V Z I.Z V C I.V V A C V C V Z I.Z V C s.V Z V V A C M u C V M Z A V Z V V s.C V Z I.Z V V V C A V V G B M Z s.V Z V M S S f f d.S B B B a.a.B B a.a.B B d.S B S B 4.a.B B e.b n n n B u.B B e.u.B B u.e.B e.B e.f.B B u.u.B B } B r.e.d 3.t.4.n B B t.r.t.t.f.r.B r.f.t.t.t.t.i.r.t.e.f.e.B r.f.t.{ t.t.i.t.B y.v.y.e.e.e.f.f.e.e.g.f.B y.v.y.y.e.e.f.f.e.e.y.{ y.y.Z g.U.y.Z s.E.E.E.E.E.E.E.E.E.E.E.T.`.MXDXDXDXDXDXpXvXpXiXpXiXgX%.o.#.qXpXiXpXiXhXZXf.r r s ! Q Q q.bXZXS 9 9 y s y r i.ZXZXy.9 r y / Y Y ",
"V M C V V Z Z V Z V V Z V V Z Z V V Z Z V C V V Z V V Z Z V Z V V Z Z M u V V M V Z V C V V Z V V V Z V V V V Z Z V V Z n M V Z M Z V M Z V M i Z B B B B S S B B S B B B S B B S n t.B B B B b n n n B B B B B B B B B B B e.B B B B B B B B t.B B t.B d { t.n n t.n t.r.t.t.e.t.t.e.e.t.t.t.t.e.t.t.t.e.t.t.e.e.t.{ t.t.t.t.4.e.y.e.e.e.e.y.y.e.e.y.e.e.e.y.e.y.e.e.y.y.e.e.y.} t.y.Z y.y.y.Z y.E.E.E.E.E.E.E.E.E.E.E.W.`.MXDXDXDXDXDXpXvXpXiXpXiXgX%.o.#.qXpXiXpXiXhXZXf.r r s ! Q Q M.bXZXS 9 9 y s y r i.ZXZXy.9 r y / Y Y ",
"M M V V V V V V Z V V V V V V V V V V V V C V V V V V V V V Z V V V V M u V M M V V V C V V V V V V V V V V V Z V V V B M M V V M Z V M V M B f f B B B B B B B B B B B B B B Z S n B B B B B d n n n B B B B B B B B B B B e.B B B B B B B B } B B B B d d n n n t.n B r.t.t.t.t.t.t.t.t.t.t.t.t.t.t.t.t.t.t.t.t.t.{ t.t.t.t.4.e.e.B e.e.e.e.e.e.e.e.e.e.e.e.B y.e.B e.e.e.e.y.f t.C Z y.y.Z Z y.E.E.E.E.E.E.E.E.E.E.E.E.!.MXDXDXDXDXDXpXvXpXiXpXiXgX%.o.#.qXpXiXpXiXhXZXf.r r s ! Q Q M.bXZXS 9 9 y s y r i.ZXZXy.9 r y / Y Y ",
"M Z Z V V Z V V Z V V Z V V Z Z V V Z V V C V V Z V V Z V V Z V V Z V V u V M V V V V C V V Z V V V Z V Z V V Z V V V n M M V V M Z V M V V B M i B B B B B B B B S B B B S B Z t.n B B B B B d n B n B B B B B B B B B B B e.B B B B B B B B t.B B t.B n d B n n t.B n r.t.t.e.t.t.t.t.t.e.t.t.e.t.t.t.e.t.t.t.e.t.{ t.t.t.t.4.t.y.e.e.e.e.y.e.e.e.y.e.e.e.y.e.y.y.e.y.e.e.e.y.f t.y.Z y.y.y.y.y.E.E.E.E.E.E.E.E.E.E.E.T.!.MXDXDXDXDXDXpXvXpXiXpXiXgX%.o.#.qXpXiXpXiXhXZXf.r r s ! Q Q q.bXZXS 9 9 y s y r i.ZXZXy.9 r y / Y Y ",
"Z I.I.I.I.I.A G I.I.I.I.I.G C I.I.I.I.A G I.I.I.A G I.I.G C I.I.C G I.C u C C C A I.I.I.I.I.I.I.I.I.I.I.I.I.I.I.I.I.Z B A s.s.s.s.s.s.s.s.s.C a.f Z d.d.d.d.d.d.a.d.d.d.d.d.d.a.t.i.f.u.u.u.u.b e.e.e.u.u.f.u.u.f.f.e.f.f.B e.f.f.f.f.f.f.f.t.r.u.r.r.f.4.3.r.t.r.r.i.B r.c.f.c.c.c.c.c.c.c.c.c.f.r.c.f.c.c.c.c.c.r.} r.r.r.c.i.r.f.v.v.v.v.v.f.v.v.v.g.f.v.v.v.f.v.v.v.f.v.n.y.} k.g.U.E.E.E.E.E.E.E.E.E.E.E.E.E.E.E.E.Y.!.MXDXDXDXDXDXpXvXpXiXpXiXgX%.o.#.qXpXiXpXiXhXZXf.r r s ! Q Q q.bXZXS 9 9 y s y r i.ZXZXy.9 r y / Y Y ",
"I.R.I.I.I.I.A I.I.I.I.I.I.I.I.R.I.R.I.A I.I.I.I.A I.I.I.I.A I.I.A I.R.A u G A G I.R.I.I.I.I.I.I.I.I.I.I.I.I.I.I.I.I.B a.s.s.s.s.s.s.s.s.s.s.s.a.V f h.h.h.d.d.d.a.d.d.d.d.d.h.a.t.f.f.f.f.a.u.b u.u.e.i.f.f.u.f.f.f.u.f.f.B e.b.f.f.f.f.f.f.t.i.i.i.i.f.4.4.r.r.r.i.f.B e.c.b.c.c.c.c.c.c.c.c.c.f.i.c.b.c.c.c.c.c.i.} r.r.c.c.c.r.i.n.v.n.v.v.f.v.v.v.v.f.v.v.v.f.v.v.v.f.v.n.y.y.c.c.W.W.E.E.E.E.E.E.E.E.E.E.E.E.E.E.E.Y.!.MXDXIXDXDXDXpXvXpXiXpXiXgX%.o.#.qXpXiXpXiXhXZXf.r r s ! Q Q M.bXZXS 9 9 y s y r i.ZXZXy.9 r y / Y Y ",
"s M R.I.I.I.A I.I.I.I.I.I.I.V s M s I.A I.I.I.I.A I.I.I.I.A I.I.A I.I.C M s M s s s I.I.I.I.I.I.I.I.I.I.I.I.I.I.I.s.B s s s s s s.s.s.s.s.s.s.C s r s n s d.d.d.a.d.d.d.d.d.d.i.d n s s s B i.b u.u.e.i.f.f.u.f.f.f.u.f.f.B e.s n e.f.f.f.r.r.i.i.i.i.f.4.4.r.r.r.r.i.e.B n d t.c.c.c.c.c.c.c.c.c.r.d d r.c.c.c.c.i.} r.r.c.c.c.r.r.B s t.f.v.f.v.v.v.v.f.v.v.v.f.v.v.v.f.v.n.y.s d d s y.E.E.E.E.E.E.E.E.E.E.E.E.E.E.E.Y.!.sXH.L.D.8XMXpXvXpXiXpXiXgX%.o.#.qXpXiXpXiXhXZXf.r r s ! Q Q M.bXZXS 9 9 y s y r i.ZXZXy.9 r y / Y Y ",
"s s I.I.I.I.A I.I.I.I.I.I.I.Z s s s Z I.I.I.I.I.A I.I.I.I.A I.I.A I.I.C M u y s y s Z R.I.I.I.I.I.I.I.I.I.I.I.I.I.u.B Z y s y s B s.s.s.s.s.s.C B 4 s y s B h.d.a.d.d.d.d.d.d.t.n y s ; s s i.b u.u.e.i.f.f.u.f.f.f.u.f.f.B e.s y a f.f.f.t.r.i.i.i.i.f.4.4.r.r.r.i.i.r.B t.a ; r.c.c.c.c.c.c.c.f.c.d : a b.c.c.c.i.} r.r.c.c.c.i.r.B s ; B n.f.v.v.v.v.f.v.v.v.f.v.v.v.f.v.n.y.f s d y ; g.E.E.E.E.E.E.E.E.E.E.E.E.E.E.Y.E.DX{.N.H.< 8XaXvXpXiXpXiXgX%.o.#.qXpXiXpXiXhXZXf.r r s ! Q Q q.bXZXS 9 9 y s y r i.ZXZXy.9 r y / Y Y ",
"y s R.I.I.I.A I.I.I.I.I.I.I.C s y s A I.I.I.I.I.A I.I.I.I.A I.I.A I.I.C M M s y y s A I.I.I.I.I.I.I.I.I.I.I.I.I.I.e.S y s y y y S s.s.s.s.s.s.Z M y r s s a.h.d.a.d.d.d.d.d.i.t.B a a a a n i.b u.u.e.i.f.f.u.f.f.f.u.f.f.B e.n s a f.f.i.r.i.i.i.i.i.f.4.4.r.r.r.i.i.r.e.; d ; r.c.c.c.c.c.c.c.c.r.d ; a c.c.c.c.i.} r.r.c.c.c.c.t.e.s ; B n.f.v.v.v.v.f.v.v.v.f.v.v.v.f.v.n.y.f s d s y d.E.E.E.E.E.E.E.E.E.E.E.E.E.E.U.!.dX0.L.B.5.{.aXvXpXiXpXiXgX%.o.#.qXpXiXpXiXhXZXf.r r s ! Q Q q.bXZXS 9 9 y s y r i.ZXZXy.9 r y / Y Y ",
"A A I.I.I.I.A I.I.I.I.I.I.I.C C I.C I.C I.I.I.I.A I.I.I.I.A I.I.A G I.C u C C Z A C I.I.I.I.I.I.I.I.I.I.I.I.I.I.s.e.C Z Z Z C Z s.s.s.s.s.s.s.Z B s.i C a.d.d.d.a.d.d.d.d.d.r.e.B u.u.u.e.u.u.b e.e.e.u.f.f.u.f.f.f.e.f.f.B e.f.f.u.u.f.r.r.i.r.i.i.r.f.4.3.r.t.r.r.i.r.e.n e.c.i.c.c.c.c.c.c.c.c.r.t.c.i.f.c.c.c.i.} r.r.f.c.c.c.r.t.f.v.f.v.f.v.v.v.v.f.v.v.v.f.v.v.v.f.v.n.y.} g.t.r.W.g.E.E.E.E.E.E.E.E.E.E.E.E.E.E.Y.E.sXsXMXMXDXMXpXvXpXiXpXiXgX%.o.#.qXpXiXpXiXhXZXf.r r s ! Q Q M.bXZXS 9 9 y s y r i.ZXZXy.9 r y / Y Y ",
"I.I.I.I.I.I.s.s.I.I.I.I.I.s.s.R.I.I.I.s.s.I.I.I.s.s.I.I.s.s.I.I.s.s.I.A M A A s.s.I.I.I.I.I.I.I.I.I.I.I.I.I.I.I.e.u.s.s.s.s.s.s.s.s.s.s.s.s.s.S s.d.f f h.d.d.d.a.d.d.d.d.j.r.u.f.f.f.f.f.u.i.4.u.u.u.i.f.f.u.f.f.f.u.f.f.e.u.f.f.f.f.f.r.i.i.i.i.i.i.f.t.4.i.i.i.i.i.i.i.e.i.c.c.c.c.c.c.c.c.c.c.f.b.c.c.c.c.c.c.c.t.i.i.c.c.c.c.i.k.n.v.v.v.f.v.v.v.v.v.v.v.v.f.v.v.v.f.v.n.y.y.v.c.x.E.E.E.E.E.E.E.E.E.E.E.E.E.E.E.E.U.!.MXDXDXDXMXBXpXvXpXiXpXiXgX%.o.O.dXpXiXpXiXhXZXf.r y s ! ! Q M.bXZXa.9 r y s y r i.ZXZXy.r r y / Y Y ",
"wXwXwXwXwXwXwXwXwXwXwXwXwXwXwXwXwXwXwXwXwXwXwXwXwXwXwXwXwXwXwXwXwXwXwXwXpXwXwXwXwXwXwXwXwXwXwXwXwXwXwXwXwXwXwXwXwXwXwXwXwXwXwXwXwXwXwXwXwXwXwXwXwXwXwXwXwXwXwXwXiXwXwXwXwXwXwXiXwXwXwXwXwXiXiXpXiXiXiXwXwXwXiXiXwXwXiXwXwXiXiXwXwXwXwXwXiXwXwXwXwXwXwXwXiXiXwXwXwXwXwXwXiXwXwXiXiXiXiXiXiXiXiXiXiXiXwXiXiXiXiXiXiXiXpXwXiXiXiXiXiXiXwXwXwXwXiXiXiXiXiXiXiXiXiXiXiXiXiXiXiXiXwXpXpXiXiXiXwXwXiXiXiXiXiXiXiXiXiXiXiXiXiXiXwXpXpXpXpXpXpXpXaXvXpXiXiXpXgX4X3X4XiXpXiXpXiXhXAXu.r r y ! Q > Z.bXZXB 9 9 y y r 4 u.ZXZXZ 9 9 r / Y Y ",
"vXvXvXvXvXvXvXvXvXvXvXvXvXvXvXvXvXvXvXvXvXvXvXvXvXvXvXvXvXvXvXvXvXvXvXvXvXvXvXvXvXvXvXvXvXvXvXvXvXvXvXvXvXvXvXvXvXvXvXvXvXvXvXvXvXvXvXvXvXvXvXvXvXvXvXvXvXvXvXvXvXvXvXvXvXvXvXvXvXvXvXvXvXvXvXvXvXvXvXvXvXvXvXvXvXvXvXvXvXvXvXvXvXvXvXvXvXvXvXvXvXvXvXvXvXvXvXvXvXvXvXvXvXvXvXvXvXvXvXvXvXvXvXvXvXvXvXvXvXvXvXvXvXvXvXZXvXvXvXvXvXvXvXvXvXvXvXvXvXvXvXvXvXvXvXvXvXvXvXvXvXvXvXvXvXvXvXvXvXvXvXvXvXvXvXvXvXvXvXvXvXvXvXvXvXvXvXvXvXvXvXvXvXvXpXiXpXqX9XhXwXwXwX9XpXiXiXhXvXG.B B i.q.w.w.P.vXZXV.u M S u.B n G.vXvX!.f f y.&X) ) ",
"iXiXiXiXiXwXwXwXwXwXwXwXiXwXwXwXwXwXwXiXiXiXiXiXiXiXiXiXiXiXiXiXiXiXiXiXiXiXiXiXiXiXiXiXwXwXiXwXwXwXiXwXwXwXwXwXwXiXiXiXiXiXiXiXiXiXiXiXiXiXiXiXiXiXiXiXiXiXiXiXwXwXiXwXwXiXiXiXiXiXiXiXiXiXiXwXiXiXiXiXiXiXiXiXiXiXiXiXiXiXiXiXiXiXiXiXiXiXiXiXiXiXwXiXiXwXqXqXqXqXqXqXqXqXqXqXqXqXqXqXqXwXiXwXqXwXqXqXqXqXwXqXwXwXiXvXpXwXqX9X9X9X9X9X9X9X9X9X9X9X9X9X9X9X9X9X9X9X9X9X9X9X9X9X9X9X9X9X9X9X9X9X9X9X9X9X9X9X9X9X9X9X9X9X9X9X9X9X9X9XqXiXpXvXpXiXpXp.7.qXp.7.7.7.qXpXiXvXhXpXvXZXvXvXvXbXpXhXhXaXZXZXvXvXZXZXpXvXvXaXGXZXzXnXnXnX",
"vXvXvXvXhXiXpXpXiXpXaXpXwXiXiXiXiXwXiXpXvXvXvXvXvXvXvXvXvXvXvXvXvXvXvXvXvXvXvXvXvXvXvXhXiXpXiXpXaXpXiXiXwXiXiXiXiXhXvXvXvXvXvXvXvXvXvXvXvXvXvXvXvXhXvXvXvXvXvXpXiXpXiXpXaXiXiXiXiXiXiXiXiXiXiXiXhXvXvXvXvXvXvXvXvXvXvXvXvXvXvXvXvXvXvXhXvXvXvXvXvXpXiXpXwX7X7X7X7X7X7X7X7X7X7X7X7X7X7X7X7X9XiX7X7X7X7X7X7X7X7X7X7XwXpXvXpXpX7X9XqXqXqXqXqXqXqXqXqXqXqXqXqXqXqXqXqXqXqXqXqXqXqXqXqXqXqXqXqXqXqXqXqXqXqXqXqXqXqXqXqXqXqXqXqXqXqXqXqX9X7XpXpXvXpXpX7XB.G.J.J.p.7.G.@XaXwXvXvXiXqX].#X}.qX`.qXvXvXiX_.[.[. X[.[.pXhXhXpX|.[.#X X X].",
"ZXvXvXZXhXiXpXiXpX9XOX7XvXpXaXhXpXhXpXpXvXAXSXAXAXvXAXvXZXZXAXZXAXvXvXSXSXvXvXZXvXvXZXhXiXiXpXqXoX9XpXaXvXaXpXaXiXvXAXvXvXvXSXvXZXvXAXZXAXvXAXvXvXvXvXZXvXAXvXpXiXiXpXqX+XaXhXpXpXaXhXpXhXaXaXiXhXAXvXvXAXvXvXAXAXAXAXvXvXAXvXvXZXSXbXhXvXZXvXAXvXpXiXpXwX7XpXpXaXpXpXaXpXpXaXpXaXpXaXpXwX9XwX7XpXaXpXaXpXaXpXpX7XwXpXvXpXpX9XiXpXpXpXpXpXpXpXpXpXpXpXpXpXpXpXpXpXpXiXpXqXqXpXpXwXpXwXiXpXpXpXpXpXpXpXpXpXpXpXpXpXpXpXpXpXpXpXpXpXiX9XpXpXvXpXiXpXN.7.J.p.7.p.7.qXpXiXvXvXqX0X].].].#XW.0XvXhXaX_. XwX XH  XzXhXvXpXl  XwXl  X X",
"SXm m SXhXiXiXaXoX7.J.B.J.oX{.J.qXJ.qXpXFXoXG.B.{.SXqXB.G.B.qX@XwXvXvX+X@XvXhXSXm m SXhXiXiXpX9Xb B.qX@XG.OX+XJ.pXvXB.J.vXvXJ.aXpXvXwXpXiXhXhXJ.7XvXSXJ.: pXvXpXiXiXpXn J.oXJ.7X7XOXJ.OXJ.@XJ.pXvXJ.vXhXvXB.B.wXOXp.B.7XhXpX7XB.vX{.pXvXSXJ.: pXvXpXiXpXwX7XpXG.J.J.J.V.OX9XJ.@XG.G.{.+XpX7XwX7XpXG.+XG.G.J.@XpX7XwXpXvXpXpX7XwXpXiXiXiXiXiXiXiXiXiXiXiXiXiXiXiXwXaXJ.+XJ.B.p.@XJ.C.J.wXiXiXiXiXiXiXiXiXiXiXiXiXiXiXiXiXiXiXiXiXpXwX7XpXpXvXpXiXpXqX9XwXqXqXqX9XpXiXiXvXvXwXwX0X#X].0X].qXvXvXiX_.|.|.#X_.|.aXhXvXwX_._.|._._.|.",
"vXV.V.hXvXiXiXpXqXB.B.7.B.p.7.B.b b J.vXhX7.B.m J.iX7.p.p.7.J.B.B.B.B.B.7.AXvXvXV.V.hXvXiXpXwXhXB.J.7.7.p.7.b m 9XZX7.@XB.B.7.B.n 7.J.N.7.7Xp.7.qXvXAX{.B.9XAXiXiXiXpXG.N.p.B.n J.n N.B.J.m m 9XvXB.ZXp.n 7.7.J.J.n 7.B.B.p.N.7.B.m qXvXAX{.B.9XAXiXiXpXwX7XpXp.V.p.B.B.+X@Xp.B.B.{.7.7XpX7XwX7XpXp.B.p.{.B.G.vX7XwXpXvXpXpX7XwXpXiXiXiXiXiXiXiXiXiXiXiXiXiXiXiXwXhXJ.9X+XJ.p.p.J.m @XvXpXpXpXiXiXiXiXiXiXiXiXiXiXiXiXiXiXiXiXiXpXwX7XpXpXvXpXiXiXpXpXpXpXaXaXpXiXpXiXvXvXiXpXpXpXpXpXpXpXvXvXwXpXaXpXaXzXzXwXvXvXiXzXzXpXzXaXaX",
"SXm m AXhXiXiXpXqXB.n B.p.B.n p.p.7.7XvX7Xm b 7.V.7XB.B.7.7.7.J.B.N.p.OXB.AXaXAXm m AXhXiXpXiXaXB.qXm G.m B.7.B.wXvXn oX7.7.J.7.7.7.9XG.J.7.m b qXvXSXG.: qXZXiXiXiXpXJ.n p.B.B.n 7.@XJ.B.7.B.wXvX7.+Xm B.B.J.B.{.B.p.B.p.J.7.L.B.p.pXhXSXG.: qXZXiXiXpXwX7XpXV.wXC.G.B.@X@XB.B.J.B.V.@XpX7XwX7XpXG.p.J.B.V.J.pX7XwXpXvXpXpX7XwXpXiXiXiXiXiXiXiXiXiXiXiXiXiXiXiXwXhXJ.B.G.B.oXp.C.J.V.J.{.{.iXpXiXiXiXiXiXiXiXiXiXiXiXiXiXiXiXiXpXwX7XpXpXvXpXiXpXiXaXJ.B.N.B.iXpXpXiXvXvXpXiX8X8X8XiX=XqXvXhXaX|.|.#X_._.|.aXhXhXaX|.|.|. X_._.",
"SX+X+XSXhXiXiXpXwXOXwXpX7XqXp.7XaX7XwXpXAXaX7X{.9XAXJ.OXoXJ.7XvXJ.qX7X{.oXaXvXSX+X+XSXhXiXpXiXiXiX+XB.OXN.aXwX7XiXvX@XJ.7XqXoX7XoX7XpXqXwXOX@X7XaXvXvXpX{.AXvXpXiXiXpXOXqXwX7XpX+XqXwXpX+XqX7XiXvX{.J.9XoXqXqXJ.pXqXwXoXqXm B.pXqXoXqXvXvXpX{.AXvXpXiXpXwX9XpXpXpXpXpX9XqXaXwXpXwX9XpXwXiX9XwX9XpXiXiXiX9XiXiXpX9XwXpXvXpXpX7XwXpXpXpXpXpXpXpXpXpXpXpXpXpXpXpXpXpXpXwX+X9XqXiXpXwXpXwX9XqXqXpXpXpXpXpXpXpXpXpXpXpXpXpXpXpXpXpXpXpXwX7XpXpXvXpXiXwXaXJ.n 7.7.7.wXpXiXiXvXvXqXdX=X4X=XiX=XdXvXvXpXl  XwX_._. XzXhXvXpXl _._.H |.|.",
"vXAXAXvXvXiXpXiXpXaXpXpXpXpXwXpXiXaXpXaXvXvXAXSXAXvXFXSXSXFXSXvXFXAXAXSXSXvXvXvXAXAXvXvXiXpXpXiXpXqXqXpXiXpXpXaXiXhXSXSXAXAXSXSXSXAXZXAXAXSXSXSXbXvXvXbXSXvXvXpXiXpXiXaXpXpXpXiXaXpXpXpXaXpXpXiXhXFXSXAXSXAXAXFXZXAXZXFXpXJ.vXSXAXSXAXhXvXbXSXvXvXpXiXpXwX7XqXqXqXqXqXqXqXqXqXqXqXqXqXqX9X7XiX7XqXqXqXqXqXqXqXqX7XwXpXvXpXpX7XqXwXwXwXwXwXwXwXwXwXwXwXwXwXwXwXwXwXwXwXpXpXiXwXwXiXwXwXiXiXiXwXwXwXwXwXwXwXwXwXwXwXwXwXwXwXwXwXwXwXqX7XpXpXvXpXiXwXhXB.p.7.7.7.9XpXiXiXvXvXwXuXdX8X4XdX=XqXvXvXwX_.|._._._.|.pXhXvXwX_./.|._.|.wX",
"pXpXpXpXpXiXiXiXiXwXiXiXiXiXpXiXiXiXiXpXpXpXpXpXpXpXpXpXpXpXpXpXpXpXpXpXpXpXpXpXpXpXpXpXiXiXiXiXwXpXpXiXiXwXiXwXiXpXpXpXpXpXpXpXpXpXpXpXpXpXpXpXpXpXpXpXpXpXpXiXiXiXiXwXiXiXwXiXwXiXiXiXwXiXwXiXpXpXpXpXpXpXpXpXpXpXpXpXaXvXpXpXpXpXpXpXpXpXpXpXpXiXiXiXiXqX9X9X9X9X9X9X9X9X9X9X9X9X9X9X9XqXiXqX9X9X9X9X9X9X9X9XqXiXiXvXpXiX9X7X7X7X7X7X7X7X7X7X7X7X7X7X7X7X7X7X7X7X7X7X7X7X7X7X7X7X7X7X7X7X7X7X7X7X7X7X7X7X7X7X7X7X7X7X7X7X7X7X7X7X9XiXpXvXiXiXiXpX9XB.oXG.J.pXiXiXwXvXvXwXpXpXpXpXiXpXiXvXvXiXzXpXpXpXiXpXwXvXvXiXzXpXpXpXpXiX",
"pXpXpXpXpXpXpXpXpXpXpXpXpXpXpXpXpXpXpXpXpXpXpXaXaXaXaXaXaXaXaXaXaXaXaXaXaXaXaXaXaXaXaXaXaXaXaXaXaXaXaXaXaXaXaXaXaXaXaXaXaXpXpXaXaXaXaXaXaXaXaXaXaXaXaXaXaXaXaXaXaXaXaXaXaXaXaXaXaXaXaXaXaXaXaXaXaXaXaXaXaXpXpXaXaXaXaXaXpXpXpXaXaXaXaXaXaXaXaXaXaXaXaXaXaXhXhXhXhXhXhXhXhXhXhXhXhXhXhXhXaXaXpXaXaXaXaXaXaXaXaXaXaXpXaXvXhXpXaXaXaXaXaXaXaXaXaXaXaXaXaXaXaXaXaXaXaXaXaXaXaXaXaXaXaXaXaXaXaXaXaXaXaXaXaXaXaXaXaXaXaXaXaXaXaXaXaXaXaXaXaXpXhXvXaXpXaXpXaXvXvXvXvXpXpXaXpXvXvXpXpXpXpXpXpXpXpXvXvXpXpXpXpXpXpXpXpXvXvXpXpXpXpXpXpXpX",
"vXvXvXvXvXvXvXvXvXvXvXvXvXvXvXvXvXvXvXvXvXvXvXvXhXhXhXhXhXhXhXhXhXhXhXhXhXhXhXhXhXhXhXhXhXhXhXhXhXhXhXhXhXhXhXhXhXhXhXvXhXvXvXhXhXaXaXaXaXaXaXaXaXaXaXaXaXaXaXaXaXaXaXaXaXaXaXaXaXaXaXaXaXaXaXaXaXaXaXhXvXvXvXhXhXhXhXhXhXhXhXhXhXhXhXhXhXhXhXhXhXhXhXhXhXhXhXhXhXhXhXhXhXhXhXhXhXhXhXhXvXvXvXvXvXvXvXvXvXvXvXvXvXvXvXvXvXvXvXvXvXvXvXvXvXvXvXvXvXvXvXvXvXvXvXvXvXvXvXvXvXvXvXvXvXvXvXvXvXvXvXvXvXvXvXvXvXvXvXvXvXvXvXvXvXvXvXvXvXvXvXvXvXvXvXvXvXvXvXvXvXvXvXvXvXvXvXvXvXvXvXvXvXvXvXvXvXvXvXvXvXvXvXvXvXvXvXvXvXvXvXvXvXvXvXvX",
"zXzXzXzXzXzXzXzXzXzXzXzXzXzXzXzXzXzXzXaXiXaXhXN.N.N.N.N.N.N.N.N.N.N.N.N.N.N.N.N.N.N.N.N.N.N.N.N.N.N.N.N.N.N.N.N.N.N.N.N.0.qXqX0.N.B.B.B.B.B.B.B.B.B.B.B.B.B.B.B.B.B.B.B.B.B.B.B.B.B.B.B.B.B.B.B.B.B.B.N.N.vXH.0.N.N.N.N.N.N.N.N.N.N.N.N.N.N.N.N.N.N.N.N.N.N.N.N.N.N.N.N.N.N.N.N.N.N.N.0.7XvXiXpXjXjXjXjXjXjXjXjXjXjXjXjXjXjXjXjXjXjXjXjXjXjXjXjXjXjXjXjXjXjXjXjXjXpXpXvXaXiXjXjXjXjXjXjXjXjXjXjXjXjXjXjXjXjXjXjXjXjXjXjXjXjXjXjXjXjXjXjXjXjXjXjXiXaXvXpXpXgXgXgXgXgXgXgXgXgXgXgXgXgXgXgXgXgXgXgXgXgXgXgXgXgXgXgXgXgXgXgXgXgXpXiX",
"l l l l l l l l l l l l l l l l l J l  XpXpXhXN.0.5.5.5.5.5.5.5.5.5.5.5.5.5.5.5.5.5.5.5.5.5.5.5.5.5.5.5.5.5.5.5.5.5.5.0.9.qX9X9.3.1 1 1 1 1 1 1 1 1 1 1 1 1 1 1 1 1 1 1 1 1 1 1 1 1 1 1 1 1 1 1 1 1 1 9.N.vXH.9.6.5.5.5.5.5.5.5.5.5.5.5.5.5.5.5.5.5.5.5.5.5.5.5.5.5.5.5.5.5.5.5.5.5.0.9.7XvXfX4X;.;.;.;.;.;.;.;.;.;.;.;.;.;.;.;.;.;.;.;.;.;.;.;.;.;.;.;.;.;.;.;.;.uXpXvXpXfX<.,.,.,.,.,.,.,.,.,.,.,.,.,.,.,.,.,.,.,.,.,.,.,.,.,.,.,.,.,.,.,.,.<.fXpXvXpXuX:X:X:X:X:X:X:X:X:X:X:X:X:X:X:X:X:X:X:X:X:X:X:X:X:X:X:X:X:X:X:X:X:XrXpX",
"6 6 6 6 6 6 6 6 6 6 6 6 6 6 6 6 6 6 7 l zXpXhXN.0.5.0.0.0.0.0.0.0.0.0.0.0.0.0.0.0.0.6.9.0.0.0.0.0.0.0.0.0.0.0.0.0.0.6.9.9.qX9X0.3.@ .                                                             . = 0.N.vXH.9.6.0.0.0.0.0.0.0.0.0.0.0.0.0.0.0.0.0.0.0.0.0.0.0.0.0.0.0.0.0.0.0.0.6.9.0.7XvXfX3XI $ # # # # # # # # # # # # # # I I # # # # # # # # # # # # # $ +.yXpXvXpXjX,.U U U U U U U U U U U U U U U U U U U U U U U U U U U U U U U U ,.jXpXvXpXsX) E E E E E E E E E E E E E E E E E E E E E E E E E E E E E E E ~ 2XpX",
"6 q q q 6 6 6 6 6 6 6 6 6 6 6 6 6 6 6 J zXpXhXN.0.6.l.0.0.0.0.0.0.0.0.0.0.0.0.z.9.< b b z.0.0.0.0.0.0.0.0.0.0.0.0.z.9.9.9.qX9X0.3.+ .                           X X X                             . = 0.N.vXH.9.6.0.l.0.0.0.0.0.0.0.0.0.0.0.z.9.< b b N.0.0.0.0.0.0.0.0.0.0.0.0.z.9.9.9.7XvXfX3XI $ $ $ $ $ $ $ $ $ $ $ $ $ # +.I I $ $ $ $ $ $ $ $ $ $ $ $ $ $ +.yXpXvXpXjX,.U P P P P P P P P P P P P P U T T U P P P P P P P P P P P P P U ,.jXpXvXpXsX) W E E E E E E E E E E E E W ~ ~ ~ E W E E E E E E E E E E E W ~ 2XpX",
"6 h q 7 6 6 6 6 6 6 6 6 6 6 6 6 6 6 6 l zXpXhXN.0.6.l.0.0.0.0.0.0.0.0.0.0.0.0.N.4.: b b z.0.0.0.0.0.0.0.0.0.0.0.0.l.9.9.9.qX9X0.3.+                             X X X X                           . = 0.N.vXH.9.6.0.0.0.0.0.0.0.0.0.0.0.0.0.N.4.: < a N.0.0.0.0.0.0.0.0.0.0.0.0.l.9.9.9.7XvXfX3XI $ # # # # # # # # # # # $ I +.I I $ # # # # # # # # # # # # $ +.yXpXvXpXjX,.U P P P P P P P P P P P P P T T T T P P P P P P P P P P P P P U ,.jXpXvXpXsX) W E E E E E E E E E E E E E ) ~ / E E E E E E E E E E E E E W ~ 2XpX",
"6 6 6 6 6 6 6 6 6 6 6 6 6 6 6 6 6 6 6 J zXpXhXN.0.6.l.0.0.0.0.0.0.0.0.0.0.0.0.l.0.6.4.4.z.0.0.0.0.0.0.0.0.0.0.0.0.z.9.9.9.qX9X0.3.+ .                                                             . = 0.N.vXH.9.6.0.l.0.0.0.0.0.0.0.0.0.0.0.l.0.6.9.5.z.0.0.0.0.0.0.0.0.0.0.0.0.z.9.9.9.7XvXfX3XI $ $ $ $ $ $ $ $ $ $ $ $ $ # # # I $ $ $ $ $ $ $ $ $ $ $ $ $ $ +.yXpXvXpXjX,.U P P P P P P P P P P P P P U P U U P P P P P P P P P P P P P U ,.jXpXvXpXsX) W E E E E E E E E E E E E E E E E W E E E E E E E E E E E E W ~ 2XpX",
"6 6 6 6 6 6 6 6 6 6 6 6 6 6 6 6 6 6 7 l zXpXhXN.0.5.0.0.0.0.0.0.0.0.0.0.0.0.0.0.0.0.l.l.0.0.0.0.0.0.0.0.0.0.0.0.0.0.6.9.9.qX9X0.3.@ .   . . . . . . . . . . . . . . . . . . . . . . . . . . . .   . = 0.N.vXH.9.6.9.0.0.0.0.0.0.0.0.0.0.0.0.0.0.0.0.0.0.0.0.0.0.0.0.0.0.0.0.0.0.0.6.9.9.7XvXfX3XI $ # # # # # # # # # # # # # # # # # # # # # # # # # # # # # $ +.yXpXvXpXjX,.U U U U U U U U U U U U U U U U U U U U U U U U U U U U U U U U ,.jXpXvXpXsX) E E E E E E E E E E E E E E E E E E E E E E E E E E E E E E E ~ 2XpX",
"l l l l l l l l l l l l l l l l l J l  XpXpXhXN.0.6.5.5.5.5.5.5.5.5.5.5.5.5.5.5.5.5.5.5.6.5.5.5.5.5.5.5.5.5.5.5.5.6.5.0.9.qXqX0.5.1 1 1 1 1 1 1 1 1 1 1 1 1 1 1 1 1 1 1 1 1 1 1 1 1 1 1 1 1 1 1 1 1 1 9.N.vXH.9.9.5.6.5.5.5.5.5.5.5.5.5.5.5.5.5.5.5.5.5.5.5.5.5.5.5.5.5.5.5.5.5.6.5.0.9.7XvXfX4X;.;.;.;.;.;.;.;.;.;.;.;.;.;.;.;.;.;.;.;.;.;.;.;.;.;.;.;.;.;.;.;.;.uXpXvXpXfX<.,.,.,.,.,.,.,.,.,.,.,.,.,.,.,.,.,.,.,.,.,.,.,.,.,.,.,.,.,.,.,.,.<.fXpXvXpXuX:X:X:X:X:X:X:X:X:X:X:X:X:X:X:X:X:X:X:X:X:X:X:X:X:X:X:X:X:X:X:X:X:XrXpX",
"zXzXzXzXzXzXzXzXzXzXzXzXzXzXzXzXzXzXzXaXwXaXhXN.0.l.l.l.0.0.0.l.l.l.l.l.l.l.l.l.l.l.l.l.l.l.0.0.0.l.l.0.l.l.l.l.l.l.l.l.9.qXqX9.N.N.N.N.N.N.N.N.N.N.N.N.N.N.N.N.N.N.N.N.N.N.N.N.N.N.N.N.N.N.N.N.N.N.N.0.N.vXH.9.z.l.l.l.0.0.l.l.l.l.l.l.l.l.l.l.l.l.l.l.l.0.0.0.0.0.0.l.l.l.l.l.l.l.l.9.7XvXwXpXjXjXjXjXjXjXjXjXjXjXjXjXjXjXjXjXjXjXjXjXjXjXjXjXjXjXjXjXjXjXjXjXjXpXpXvXpXiXfXjXjXjXjXjXjXjXjXjXjXjXjXjXjXjXjXjXjXjXjXjXjXjXjXjXjXjXjXjXjXjXjXfXiXpXvXpXiXpXgXgXgXgXgXgXgXgXgXgXgXgXgXgXgXgXgXgXgXgXgXgXgXgXgXgXgXgXgXgXgXgXpXiX",
"wXwXpXwXwXwXwXwXwXwXwXwXwXwXwXwXwXwXwXiXiXaXhXN.0.0.0.0.0.z.l.0.0.0.0.0.0.0.0.0.0.0.0.0.0.0.0.0.z.0.0.z.0.0.0.0.0.0.0.l.9.qXqX9.l.0.0.0.0.l.0.0.0.0.0.0.0.0.0.0.0.0.0.0.0.0.0.0.l.0.l.0.0.0.0.0.0.0.0.0.N.vXH.9.l.0.0.0.l.z.0.0.0.0.0.0.0.0.0.0.0.0.0.0.0.z.l.l.z.z.z.0.0.0.0.0.0.0.l.9.7XvXwXiXiXiXuXiXpXiXqXiXiXiXiXiXiXiXiXiXiXiXiXiXiXpXpXpXpXpXiXiXiXiXiXiXiXiXpXvXpXiXiXiXuXuXiXiXuXuXiXiXiXiXiXiXiXiXiXiXiXiXiXiXpXpXpXpXaXpXiXiXiXiXiXiXiXpXvXpXiXiXiXiXiXpXiXiXiXiXiXiXiXiXiXiXiXiXiXiXpXpXiXpXiXpXiXiXiXiXiXiXiXiXiXiX",
"pXiX7XpXiXpXiXiXiXiXiXiXiXiXiXiXiXiXiXpXiXaXhXN.0.0.0.B.z.6.0.B.z.0.0.0.0.0.0.0.0.0.0.0.0.l.0.0.5.z.0.5.l.0.0.0.0.0.0.l.9.qXqX9.l.0.z.B.0.6.z.B.0.0.0.0.0.0.0.0.0.0.0.0.0.l.9.l.5.0.6.0.l.0.0.0.0.0.0.0.N.vXH.9.l.0.N.N.9.9.N.N.0.0.0.0.0.0.0.0.0.0.0.0.l.5.9.9.5.5.6.z.0.0.0.0.0.0.l.9.7XvXwXpXiXpXjXiXdXpXbXiXiXpXiXiXiXiXiXiXiXiXiXpXiX7X7XqX9X9XpXiXiXiXiXiXpXiXpXvXpXiXpXiXgXgXuXuXgXgXiXiXiXiXiXiXiXiXiXiXiXpXqXiX7XqX9XqXOX9XpXiXiXiXiXpXiXpXvXpXiXiXiXgXpXqXiXgXpXiXpXiXiXiXiXiXiXiXiXpXqX7XpX7XpX7XpXwXwXpXiXiXiXiXpXiX",
"aXJ.m oXaXiXiXiXiXiXiXiXiXiXiXiXiXiXiXpXiXaXhXN.0.l.N.3 * * * - 5.N.0.0.0.0.0.0.0.0.0.0.0.N.; < : 5.b : 4.N.0.0.0.0.0.l.9.qXqX9.0.N.5.- * * * 3 N.l.0.0.0.0.0.0.0.0.0.0.0.l.: b ; < ; a N.0.0.0.0.0.0.0.N.vXH.9.0.N.3.- * * = d N.0.0.0.0.0.0.0.0.0.0.0.l.b ; 4 b b ; 0.l.0.0.0.0.0.l.9.7XvXwXiXgXdX%.#.#.Q @.gXpXiXpXiXiXiXiXiXiXiXiXaXp.B.J.7.J.7.qXpXiXiXiXiXpXiXpXvXpXiXiXgX4X%.$.$.%.4XgXiXpXiXiXiXiXiXiXiXiXpXn J.b {.m B.B.7.hXwXiXiXiXpXiXpXvXpXiXpXpX=XZ.Z.Z.K.qXpXiXpXiXiXiXiXiXiXiXpXOX7.7.p.p.m 7Xn oXaXiXiXiXiXpXiX",
"aXB.J.B.vXwXiXiXiXiXiXiXiXiXiXiXiXiXiXpXiXaXhXN.0.z.- = 3.9.5.> + 4.N.0.0.0.0.0.0.0.0.0.N.b 4 : b b b b a N.0.0.0.0.0.l.9.qXqX9.N.3.+ 3 5.9.3.= - z.0.0.0.0.0.0.0.0.0.0.0.N.b < 3.4 b < 0.0.0.0.0.0.0.0.N.vXH.9.N.! > 3.9.8.2 + 2 N.0.0.0.0.0.0.0.0.0.0.z.0.< b < 5.< 0.0.0.0.0.0.0.l.9.7XvXwXpX8X#.&.yXyXL., Q pXiXiXiXiXiXiXiXiXiXpXqXm B.@X7.9XB.iXpXiXiXiXiXpXiXpXvXpXiXgX-X$.4XsXuX4X$.K.gXiXpXiXiXiXiXiXiXwXhXB.L.J.7.b G.L.J.hXiXiXiXiXpXiXpXvXpXiXpXK.Z.tXaXuX-XZ.dXpXiXiXiXiXiXiXiXiXiXpX7.7.7.b n 7.b @XaXiXiXiXiXpXiX",
"aXJ.m @XaXiXiXiXiXiXiXiXiXiXiXiXiXiXiXpXiXaXhXN.N.3 = D.D.F.D.H.3 = N.0.0.0.0.0.0.0.0.0.z.b : ; ; a a : 4.N.0.0.0.0.0.l.9.qXqX9.N.> 1 H.H.F.D.D.* 3 N.0.0.0.0.0.0.0.0.0.0.N.b b ; < ; < N.0.0.0.0.0.0.0.N.vXH.0.8.> q.m : D.H.5.+ 4.N.0.0.0.0.0.0.0.0.0.N.: < b < : < z.0.0.0.0.0.0.l.9.7XvXwXgX*.*XJXHXm '.KX% w.bXwXiXiXiXiXiXiXiXiXpXB.7.B.p.b B.pXiXiXiXiXiXpXiXpXvXpXpX8X$.yXJXbXFX0X4XR 8XgXiXiXiXiXiXiXiXwXvXG.{.J.7.7.B.B.qXpXiXiXiXiXpXiXpXvXiXgX=XZ.bXbXvXAXJX=XZ.pXiXiXiXiXiXiXiXiXpXoX7.G.7.p.7.p.m J.hXiXiXiXiXpXiX",
"pXiX7XpXiXiXiXiXiXiXiXiXiXiXiXiXiXiXiXpXiXaXhXN.0.* 3.H.F.N.N.N.F.* 3.N.0.0.0.0.0.0.0.0.0.N.N.0.5.9.9.5.z.0.0.0.0.0.0.l.9.qXqX0.3.1 z.O < F.N.D.3.* N.0.0.0.0.0.0.0.0.0.0.0.0.0.5.0.5.0.l.0.0.0.0.0.0.0.N.vXH.l.2 2 H.5.O 0.N.H.> 3 B.0.0.0.0.0.0.0.0.0.0.5.5.4.6.5.4.0.0.0.0.0.0.0.l.9.7XvXgX4X#.vXvXvX: {.LXL., pXiXiXiXiXiXiXiXiXiXpXqX9X7X9X7XOXwXpXiXiXiXiXpXiXpXvXpXgX*X*XJXaXSXB.4 fX@.@.bXiXiXiXiXiXiXiXiXpXwXqXoXpX7XqXwXpXiXiXiXiXiXpXiXpXvXpXpXZ.rXbXvXvXhXpXvXZ.8XpXiXiXiXiXiXiXiXpX9X7XqX9XpX+XhXpXiXpXpXiXiXiXpXiX",
"pXpXhXiXpXiXpXiXiXiXiXiXiXiXiXiXiXiXiXpXiXaXhXN.5.* 8.: 4 N.F.N.D.- 2 B.0.0.0.0.0.0.0.0.0.0.0.N.z.N.N.N.0.0.0.0.0.0.0.l.9.qX9X0.3.1 D.b ; F.N.F.9.* 8.z.0.0.0.0.0.0.0.0.0.0.z.z.N.l.N.l.0.0.0.0.0.0.0.0.N.vXH.l.1 3.D.N.0.N.N.D.2 - B.0.0.0.0.0.0.0.0.0.0.z.N.N.z.N.N.l.0.0.0.0.0.0.l.9.7XvXjXS.%.AXvXvXiXvXAXtX% dXpXiXiXiXiXiXiXiXiXpXpXaXhXpXaXvXaXpXiXiXiXiXpXiXpXvXpXgX&.4XbXvXAXJ.OXLXS.! bXiXiXiXiXiXiXiXiXpXaXpXhXpXhXpXpXpXiXiXiXiXiXpXiXpXvXpXqXZ.aXbXvXSXn O @XZ.K.cXiXiXiXiXiXpXiXpXhXpXpXpXpXaXpXiXpXiXpXiXiXiXpXiX",
"qXiX7XpX7XpXiXpXiXiXiXiXiXiXiXiXiXiXiXpXiXaXhXN.9.> 8.b b N.F.N.D.= 2 N.0.0.0.0.0.0.0.0.0.l.0.4.N.5.b 4.l.0.0.0.0.0.0.l.9.qX9X0.3.1 F.D.D.N.N.D.5.* 0.l.0.0.0.0.0.0.0.0.0.z.9.6.5.0.5.0.l.0.0.0.0.0.0.0.N.vXH.l.1 ! D.N.F.F.N.D.3 - B.0.0.0.0.0.0.0.0.0.0.z.5.9.0.b 3.0.l.0.0.0.0.0.l.9.7XvXgX4X*.bXvXvXZXvXAX8X% qXpXiXiXiXiXiXiXiXpXwXwXqX7XqX9X+X+XiXpXiXiXiXpXiXpXvXpXgX*X*XJXvXvXSXZXJXZ.@.bXiXiXiXiXiXiXiXpXiX+XpX7XiX9XqXpXqXpXiXiXiXiXpXiXpXvXpXiXZ.uXbXvXvXqX7XbX! K.vXiXiXiXiXiXiXpXqX+XpXwXwX7XpX7XpX7XpXiXpXiXiXpXiX",
"7.J.n p.n @XaXiXiXiXiXiXiXiXiXiXiXiXiXpXiXaXhXN.N.1 2 H.D.F.N.D.3.+ 0.l.0.0.0.0.0.0.0.0.0.N.< ; a : 4 < N.0.0.0.0.0.0.l.9.qXqX9.0.> w.D.N.N.N.H.> - N.0.0.0.0.0.0.0.0.0.l.9.: b < < < < N.0.0.0.0.0.0.0.N.vXH.0.3.> N.F.N.N.F.F.* 2 N.0.0.0.0.0.0.0.0.0.N.b ; < < 4 : 0.0.0.0.0.0.0.l.9.7XvXiXqX#.4XJXvXvXvXLX@.@.bXiXiXiXiXiXiXiXiXvXB.B.n G.p.n J.m 9XpXiXiXiXpXiXpXvXpXgX4X$.vXbXvXvXbXbXQ P.vXiXiXiXiXiXiXiXpXqXB.7.p.N.m J.B.B.vXwXiXiXiXpXiXpXvXiXpXK.-XSXvXvXZXLX=XW qXpXiXiXiXiXiXiXpX+X7.oX7.p.7.p.7.p.n @XaXiXiXiXpXiX",
"B.B.J.a {.B.vXwXiXiXiXiXiXiXiXiXiXiXiXpXiXaXhXN.l.9.> ! F.N.F.5.+ 2 N.0.0.0.0.0.0.0.0.0.l.9.; F.; < < b N.0.0.0.0.0.0.l.9.qXqX9.N.3.> 9.F.N.D.2 + 5.N.0.0.0.0.0.0.0.0.0.N.b : b b < 4.b N.0.0.0.0.0.0.0.N.vXH.9.N.1 1 N.N.N.N.- - N.0.0.0.0.0.0.0.0.0.0.N.; 0.b : < < N.0.0.0.0.0.0.l.9.7XvXwXgXK.O.tXbXvXSXS.% 7XpXiXiXiXiXiXiXiXiXaX@XB.OXp.n 7.7XB.aXiXiXiXiXpXiXpXvXpXiXgX&.%.vXvXvXvXQ @.gXiXiXiXiXiXiXiXiXiXhXJ.m B.b m 7.m B.vXwXiXiXiXpXiXpXvXpXpXqXZ.=XbXvXbX8X> K.cXiXpXiXiXiXiXpXiXhXG.p.b n {.< @Xa {.B.vXwXiXiXpXiX",
"B.J.n N.n @XaXiXiXiXiXiXiXiXiXiXiXiXiXpXiXaXhXN.0.N.4.3.N.l.N.3.2 N.0.0.0.0.0.0.0.0.0.0.0.N.< ; a b a 3.N.0.0.0.0.0.0.l.9.qXqX9.0.N.3.3.N.l.N.2 3.N.0.0.0.0.0.0.0.0.0.0.z.5.; < < ; 4 b z.0.0.0.0.0.0.0.N.vXH.9.z.0.2 0.N.N.9.3 0.l.0.0.0.0.0.0.0.0.0.0.N.b ; < b b b N.0.0.0.0.0.0.l.9.7XvXwXiXgXS.4XgXpXhXS..XgXiXpXiXiXiXiXiXiXiXaXOXB.oX7.7.p.B.{.hXiXiXiXiXpXiXpXvXpXiXpXuX*XuXpXaXqXw.iXpXiXiXiXiXiXiXiXiXpXqXB.B.B.7.7.7.7.7.vXwXiXiXiXpXiXpXvXpXiXpX8X=XpXpXvXL.K.vXiXpXiXiXiXiXiXwXhXB.m J.m 7.7.p.7.p.n @XaXiXiXiXpXiX",
"wXiX7XpX7XpXiXpXiXiXiXiXiXiXiXiXiXiXiXpXiXaXhXN.0.0.N.N.0.0.0.N.N.0.0.0.0.0.0.0.0.0.0.0.0.l.0.4.l.0.0.0.0.0.0.0.0.0.0.l.9.qXqX9.l.0.N.z.0.0.0.N.N.0.0.0.0.0.0.0.0.0.0.0.0.z.5.9.5.9.5.5.l.0.0.0.0.0.0.0.N.vXH.9.l.l.N.0.0.0.l.N.0.0.0.0.0.0.0.0.0.0.0.0.0.N.5.9.0.0.0.0.0.0.0.0.0.0.l.9.7XvXwXpXiXgXpXiXiXiXhXgXiXpXiXiXiXiXiXiXiXiXpXwXwX+XqXqX9XwXiXiXpXiXiXiXpXiXpXvXpXiXiXpXgXpXiXiXpXvXpXiXpXiXiXiXiXiXiXiXpXwXOXwX7XpX7XiXvXiXpXiXiXiXiXpXiXpXvXpXiXiXpXpXiXiXiXpXcXiXpXiXiXiXiXiXiXiXpX9XOXpXaXiX7XpX7XpX7XpXiXpXiXiXpXiX",
"iXwXpXwXpXwXwXwXwXwXwXwXwXwXwXwXwXwXwXiXiXaXhXN.0.0.0.0.0.0.0.0.0.0.0.0.0.0.0.0.0.0.0.0.0.0.0.z.0.0.0.0.0.0.0.0.0.0.0.l.9.qXqX9.l.0.0.0.0.0.0.0.0.0.0.0.0.0.0.0.0.0.0.0.0.0.l.0.z.0.z.l.0.0.0.0.0.0.0.0.N.vXH.9.0.0.0.0.0.0.0.0.0.0.0.0.0.0.0.0.0.0.0.0.0.0.z.0.0.0.0.0.0.0.0.0.0.0.l.9.7XvXwXiXiXuXiXiXiXiXuXuXiXiXiXiXiXiXiXiXiXiXiXiXiXpXpXpXpXiXiXiXiXiXiXiXiXiXpXvXpXiXiXuXuXiXiXiXiXuXiXiXiXiXiXiXiXiXiXiXiXiXaXiXpXiXpXiXuXiXiXiXiXiXiXiXiXpXvXpXiXiXiXiXiXiXiXiXiXiXiXiXiXiXiXiXiXiXiXpXaXiXiXiXpXiXpXiXpXiXiXiXiXiXiXiX",
"zXzXzXzXzXzXzXzXzXzXzXzXzXzXzXzXzXzXzXaXwXaXhXN.0.N.N.N.N.N.N.N.N.N.N.N.N.N.N.N.N.N.N.N.N.N.N.N.N.N.N.N.N.N.N.N.N.N.N.N.9.qXqX9.N.N.N.N.N.N.N.N.N.N.N.N.N.N.N.N.N.N.N.N.N.N.N.N.N.N.N.N.N.N.N.N.N.N.N.0.N.vXH.9.N.N.N.N.N.N.N.N.N.N.N.N.N.N.N.N.N.N.N.N.N.N.N.N.N.N.N.N.N.N.N.N.N.N.N.9.7XvXwXpXjXjXjXjXjXjXjXjXjXjXjXjXjXjXjXjXjXjXjXjXjXfXjXjXjXjXjXjXjXjXjXjXjXpXpXvXpXiXfXfXfXfXfXfXfXfXfXfXfXfXfXfXfXfXfXfXfXfXfXfXfXfXfXfXfXfXfXfXfXfXfXfXiXpXvXpXpXpXpXpXpXpXpXpXpXpXpXpXpXpXpXpXpXpXpXpXpXpXpXpXpXpXpXpXpXpXpXpXpXpXpXiX",
"|.|.|.|.|.|.|.|.|.|.|.|.|.|.|.|.|.|.|.|.pXaXhXN.0.3.3.3.3.3.3.3.3.3.3.3.3.3.3.3.3.3.3.3.3.3.3.3.3.3.3.3.3.3.3.3.3.3.3.8.9.qXqX9.8.3.3.3.3.3.3.3.3.3.3.3.3.3.3.3.3.3.3.3.3.3.3.3.3.3.3.3.3.3.3.3.3.3.3.0.N.vXH.0.5.3.3.3.3.3.3.3.3.3.3.3.3.3.3.3.3.3.3.3.3.3.3.3.3.3.3.3.3.3.3.3.3.3.8.0.7XvXwXrX3X3X3X3X3X3X3X3X3X3X3X3X3X3X3X3X3X3X3X3X3X3X3X3X3X3X3X3X3X3X3X3X3XuXpXvXpXpX4X6X6X6X6X6X6X6X6X6X6X6X6X6X6X6X6X6X6X6X6X6X6X6X6X6X6X6X6X6X6X6X6X4XpXpXvXpXiX2X2X2X2X2X2X2X2X2X2X2X2X2X2X2X2X2X2X2X2X2X2X2X2X2X2X2X2X2X2X2X2X2XtXpX",
"7 7 7 7 7 7 7 7 7 7 7 7 7 7 7 7 7 7 7 l zXpXhXN.9.= @ + + + + + + + + + + + + + @ @ @ @ + + + + + + + + + + + + + @ + 3.0.9X9X0.3.+ @ + + + + + + + + + + + + + @ @ @ + + + + + + + + + + + + + + @ = 9.N.vXH.l.1 @ + + + + + + + + + + + + + @ @ @ @ + + + + + + + + + + + + + @ + 3.0.7XvXfX3X+.I I I I I I I I I I I I I I I I I I I I I I I I I I I I I I I +.yXpXvXpXfX,.T T T T T T T T T T T T T T T T T T T T T T T T T T T T T T T T ,.fXpXvXpXsX) ~ ~ ~ ~ ~ ~ ~ ~ ~ ~ ~ ~ ~ ~ ~ ~ ~ ~ ~ ~ ~ ~ ~ ~ ~ ~ ~ ~ ~ ~ ~ ] 2XpX",
"6 q 7 6 6 6 6 6 6 6 6 6 6 6 6 6 6 6 6 J zXpXhXN.0.= .   . . . . . . . . . . . . X X X X . . . . . . . . . . . .   . @ 3.0.9X9X0.3.@ .   . . . . . . . . . . .   X X X   . . . . . . . . . . . .   . = 0.N.vXH.l.1 . . . . . . . . . . . . . . X X X X   . . . . . . . . . . .   . @ 3.0.7XvXfX3XI $ $ $ $ $ $ $ $ $ $ $ $ $ # I I I $ $ $ $ $ $ $ $ $ $ $ $ $ $ +.yXpXvXpXjX,.P P P P P P P P P P P P P P T T T U P P P P P P P P P P P P P P ,.jXpXvXpXsX) W W W W W W W W W W W W W E / / / E W W W W W W W W W W W W W ~ 2XpX",
"q 7 h h 6 6 6 6 6 6 6 6 6 6 6 6 6 6 6 l zXpXhXN.0.= .                           X X X X                             + 3.0.9X9X0.3.+                           X X X X X                           . = 0.N.vXH.l.1                             X X X X                             + 3.0.7XvXfX3XI $ # # # # # # # # # # # # I I +.+.I # # # # # # # # # # # # $ +.yXpXvXpXjX,.U P P P P P P P P P P P P U T T =.T P P P P P P P P P P P P P U ,.jXpXvXpXsX) W E E E E E E E E E E E E / ~ ~ ) ~ W E E E E E E E E E E E W ~ 2XpX",
"7 q 6 q 6 6 6 6 6 6 6 6 6 6 6 6 6 6 6 l zXpXhXN.0.= .                           X X   X                             + 3.0.9X9X0.3.+                             X X X X                           . = 0.N.vXH.l.1                               X   X                             + 3.0.7XvXfX3XI $ # # # # # # # # # # # $ I I I I I $ # # # # # # # # # # # $ +.yXpXvXpXjX,.U P P P P P P P P P P P P P T T U T P P P P P P P P P P P P P U ,.jXpXvXpXsX) W E E E E E E E E E E E E E ~ / / / E E E E E E E E E E E E W ~ 2XpX",
"6 6 6 6 6 6 6 6 6 6 6 6 6 6 6 6 6 6 6 l zXpXhXN.0.= . . . . . . . . . . . . . . . . . . . . . . . . . . . . . . . . @ 3.0.9X9X0.3.@ . . . . . . . . . . . . . . . . . . . . . . . . . . . . . . . . = 0.N.vXH.l.1 . . . . . . . . . . . . . . . . . . . . . . . . . . . . . . . . @ 3.0.7XvXfX3XI $ $ $ $ $ $ $ $ $ $ $ $ $ $ $ $ $ $ $ $ $ $ $ $ $ $ $ $ $ $ $ +.yXpXvXpXjX,.P P P P P P P P P P P P P P P P P P P P P P P P P P P P P P P P ,.jXpXvXpXsX) W W W W W W W W W W W W W W W W W W W W W W W W W W W W W W W ~ 2XpX",
"h h h h h h h h h h h h h h h h h h h  XaXpXhXN.9.> = = = = = = = = = = = = = = = = = = = = = = = = = = = = = = = = = 3.0.9X9X0.3.= = = = = = = = = = = = = = = = = = = = = = = = = = = = = = = = = > 9.N.vXH.0.2 = = = = = = = = = = = = = = = = = = = = = = = = = = = = = = = = = 3.0.7XvXfX3X+.+.+.+.+.+.+.+.+.+.+.+.+.+.+.+.+.+.+.+.+.+.+.+.+.+.+.+.+.+.+.+.=.yXpXvXpXfX,.=.=.=.=.=.=.=.=.=.=.=.=.=.=.=.=.=.=.=.=.=.=.=.=.=.=.=.=.=.=.=.=.,.fXpXvXpXuX;X) ) ) ) ) ) ) ) ) ) ) ) ) ) ) ) ) ) ) ) ) ) ) ) ) ) ) ) ) ) ) ' 2XpX",
"kXkXkXkXkXkXkXkXkXkXkXkXkXkXkXkXkXkXkXwXiXaXhXN.0.0.0.0.0.0.0.0.0.0.0.0.0.0.0.0.0.0.0.0.0.0.0.0.0.0.0.0.0.0.0.0.0.0.0.0.9.qXqX9.0.0.0.0.0.0.0.0.0.0.0.0.0.0.0.0.0.0.M.M.M.M.M.M.M.M.M.M.M.M.M.M.M.M.M.0.N.vXH.9.0.0.0.0.0.0.0.0.0.0.0.0.0.0.0.0.0.0.0.0.0.0.0.0.0.0.0.0.0.0.0.0.0.0.0.9.7XvXwXiXyXyXyXyXyXyXyXyXyXyXyXyXyXyXyXyXyXyXyXyXyXyXyXyXyXyXyXyXyXyXyXyXyXiXpXvXpXiXuXyXyXyXyXyXyXyXyXyXyXyXyXyXyXyXyXyXyXyXyXyXyXyXyXyXyXyXyXyXyXyXyXuXiXpXvXpXiXsXsXsXsXsXsXsXsXsXsXsXsXsXsXsXsXsXsXsXsXsXsXsXsXsXsXsXsXsXsXsXsXsXiXiX",
"7XwXwX7X7X7X7X7X7X9X7X7XdXdX9X7X7X7X7XqXiXaXhXN.0.6.6.6.6.6.6.6.6.6.6.6.6.6.6.6.6.l.9.5.6.6.6.6.6.6.6.6.6.6.6.6.6.6.5.0.9.qXqX9.0.5.6.6.6.6.6.6.6.6.6.6.6.6.6.5.9.l.t t t t t t t t t t t t t t t t t p.N.vXH.9.9.5.6.6.6.6.6.6.6.6.6.6.6.6.6.5.0.0.5.6.6.6.6.6.6.6.6.6.6.6.6.6.6.5.0.9.7XvXiXwX9X9X9X9X9X9X9X9X9X9X9X9X9X9X9XwXwX9X9X9X9X9X9X9X9X9X9X9X9X9X9X9X9XiXpXvXpXiX9X9X9X9X9X9X9X9X9X9X9X9X9X9X9X9XpX9X9X9X9X9X9X9X9X9X9X9X9X9X9X9X9X9XiXpXvXpXiX9X7X9X7X9X9X9X9X7X9X9X7X9X9X7X9XiX7X7X9X7X9X9X9X9X9X9X9X9X7X9X9X7XqXiX",
"9XqXqX9XwXwXwXqXqXqXqXqX7X9X9XwXwXwXqX7XpXaXhXN.0.5.0.0.0.0.6.6.6.0.9.5.0.0.0.0.5.0.5.9.0.0.0.9.0.9.0.6.5.6.9.0.0.0.6.9.9.qXqX9.9.6.0.0.0.9.6.5.9.0.6.6.0.0.0.9.5.x.7 o 5 5 5 5 5 5 5 5 5 5 5 5 5 o 7 p.N.vXH.9.6.9.0.0.0.6.6.5.0.0.5.0.0.0.0.6.9.9.6.0.0.0.9.0.9.0.6.5.6.9.0.0.0.6.9.9.7XvXiXqX9XiXwXwX9XqX7XwXwX7XqXwXwXiX9XqXqX9XiXwXwXqXwXqXqX9X7X7XqXwXwXwX7XwXpXvXpXpX7XqXwXwXqX9X9X9XwXqX7XiXwXwXwX7XiX7XqXwXwXwXqXqXqXqX7X7X9XwXwXwXqX7XpXpXvXpXwX7XwXwXwXqXqX7XqXwX9X9XiXwXwXqX7XiX7XwXwXwXqXqXqXqXqX7X7X9XwXwXiX9XqXpX",
"qXqXqXqXpXiXaXoXV.B.{.{.V.B.@XaXiXpXwX7XiXaXhXN.0.6.l.0.N.5.b b b 4.4.b 6.z.0.l.6.0.6.0.l.0.N.b b a 4.b a a 6.z.0.z.9.9.9.qXqX9.9.9.z.0.N.b b b b 5.b b 0.l.l.0.6.x.7 o o o o 5 5 5 5 5 5 5 o o o o 7 p.N.vXH.9.6.0.l.l.0.b b b b 5.b 4.N.0.z.9.9.9.9.z.0.N.b b a 4.b a a 6.z.0.z.9.9.9.7XvXiXqXqXpXpXwXG.J.J.J.+XG.@XaXiXpXqXqXqXqXpXiXaXJ.G.B.OXJ.C.B.9XpXiXpX7XwXpXvXpXpX7XwXpXaX+XG.J.G.@X@XV.9XpXiXpX7XwX9XwXpXpXwXV.V.J.oXJ.B.J.pXpXpXwX7XpXpXvXpXwX7XpXiXaXJ.J.J.J.+XJ.J.iXpXpXwX9XwX7XpXiXaXoXV.B.{.{.V.B.@XaXiXpXqXqXpX",
"qXqXqXqXpXiXpX7X7.B.J.J.oXB.{.aXiXpXwX7XiXaXhXN.0.6.l.0.l.0.< b b b b b 5.z.0.l.5.0.6.0.0.0.N.b ; a b b b < 6.l.0.l.9.9.9.qXqX9.9.9.l.0.z.5.< b a b b b 9.l.0.0.6.x.7 o o o o 5 6 5 5 5 5 5 o o o o 7 p.N.vXH.9.6.0.0.0.l.b < b a b b b z.0.l.9.9.9.9.l.0.N.b ; a b b b < 6.l.0.l.9.9.9.7XvXiXqXqXpXiXpXJ.B.J.B.J.J.J.pXiXpXqXqXqXqXpXwXaXJ.n V.J.@X{.B.9XpXiXpX7XwXpXvXpXpX7XwXpXpXqXB.G.J.G.J.J.+XpXiXpX7XwX9XwXpXiXiXB.p.J.J.oXJ.G.pXiXpXwX7XpXpXvXpXwX7XpXiXpX+Xp.J.B.J.J.J.qXpXpXwX9XwX7XpXiXpX7X7.B.J.J.oXB.{.aXiXpXqXqXpX",
"qXqXqXqXpXpXpXwX+X9XOX7XqXOX+XpXpXpXwX7XiXaXhXN.0.6.l.0.z.9.4.4.4.4.5.b 0.0.0.l.6.0.6.0.l.0.l.6.4.6.4.9.6.4.9.z.0.z.9.9.9.qXqX9.9.9.z.0.z.5.5.n 5.4.4.4.z.0.l.0.6.x.7 o o o o 5 5 5 5 o 5 5 o o o o 7 p.N.vXH.9.6.0.l.0.0.4.5.4.5.4.b 6.z.0.z.9.9.9.9.z.0.l.6.4.6.4.9.6.4.9.z.0.z.9.9.9.7XvXiXqXqXpXpXiXOX+X@X+XOX@XqXpXiXpXqXqXqXqXpXpXpX9XOX9X@XqX9X@XqXpXpXpX7XwXpXvXpXpX7XwXpXpXqXOXoXOXOXOX@XpXpXpXpX7XwX9XwXpXpXpX7X+X7XoXwX7XoXiXpXpXwX7XpXpXvXpXwX7XpXpXpX7X+X@X+XoXoXOXpXiXpXwX9XwX7XpXpXpXwX+X9XOX7XqXOX+XpXiXpXqXqXpX",
"9XqXqX9XiXwXwXwXpXiXpXpXwXpXpXwXwXwXqX7XiXaXhXN.0.5.0.0.0.0.l.l.l.l.l.z.0.0.0.0.5.0.5.9.0.0.0.0.l.0.z.0.0.l.0.0.0.0.6.9.9.qXqX9.9.6.0.0.0.0.0.z.0.l.l.l.0.0.0.9.5.x.7 o 5 5 5 5 5 5 5 5 5 5 5 5 5 o 7 p.N.vXH.9.6.9.0.0.0.l.l.z.0.l.z.0.0.0.0.6.9.9.6.0.0.0.0.l.0.z.0.0.l.0.0.0.0.6.9.9.7XvXiXqX9XiXwXwXpXpXpXpXpXpXiXwXwXiX9XqXqX9XiXwXwXiXpXiXpXiXiXpXiXwXwXwX7XwXpXvXpXpX7XqXwXwXiXpXpXpXpXpXpXwXwXwXwX7XwX7XqXwXwXwXpXpXpXpXwXpXpXwXwXwXqX7XpXpXvXpXwX7XwXwXwXpXpXpXpXpXpXpXwXwXwXqX7XwX7XwXwXwXwXpXiXpXpXwXpXpXwXwXiX9XqXpX",
"7XwXwX7X7X7X7X7X7X7X7X7X7X7X7X7X7X7X7X9XiXaXhXN.0.6.5.5.5.5.5.5.5.5.5.5.5.5.5.5.5.0.6.5.6.5.5.5.5.5.5.5.5.5.5.6.5.6.5.0.9.qXqX9.0.5.6.5.6.5.5.5.5.5.5.5.6.5.6.5.9.l.t t t t t t t t t t t t t t t t t p.N.vXH.9.9.5.6.5.5.5.5.5.5.5.5.5.6.5.6.5.0.0.5.6.5.5.5.5.5.5.5.5.5.5.6.5.6.5.0.9.7XvXiXqX7X7X7X7X7X7X7X7X7X7X7X7X7X7X7XwXwX7X7X7X7X7X7X7X7X7X7X7X7X7X7X7X7XiXpXvXpXpX9X7X7X7X7X7X7X7X7X7X7X7X7X7X7X7XiXqX7X7X7X7X7X7X7X7X7X7X7X7X7X7X7X9XpXpXvXpXiX7X7X7X7X7X7X7X7X7X7X7X7X7X7X7XqXiX7X7X7X7X7X7X7X7X7X7X7X7X7X7X7X7XqXiX",
"pXpXiXiXiXpXpXpXpXpXpXpXpXpXpXpXpXpXpXpXiXaXhXN.0.l.l.0.0.0.0.0.l.l.l.l.l.l.l.l.l.0.0.0.0.0.l.l.l.l.l.l.l.l.l.l.l.l.l.l.9.qXqX9.l.l.l.0.0.0.0.0.l.l.l.l.l.l.l.l.l.0.M.M.M.M.M.M.M.M.M.M.M.M.M.M.M.M.M.0.N.vXH.9.z.l.l.0.0.0.0.l.l.l.l.l.l.l.l.l.0.0.0.0.0.l.l.l.l.l.l.l.l.l.l.l.l.l.l.9.7XvXwXpXpXpXpXiXiXiXpXpXpXpXpXpXpXpXpXpXiXiXiXpXpXpXpXpXpXpXpXpXpXpXpXpXpXiXpXvXpXiXpXpXpXpXiXiXpXpXpXpXpXpXpXpXpXpXiXiXiXiXpXpXpXpXpXpXpXpXpXpXpXpXpXpXiXpXvXpXiXpXpXpXiXiXiXpXpXpXpXpXpXpXpXpXpXiXiXiXpXpXpXpXpXpXpXpXpXpXpXpXpXpXpXiX",
"iXiXaXvXvXpXwXiXiXiXiXiXiXiXiXiXpXpXiXiXiXaXhXN.0.0.0.0.N.B.N.l.0.0.0.0.0.0.0.0.0.l.N.B.N.0.0.0.0.0.0.0.0.0.0.0.l.0.0.l.9.qXqX9.l.0.0.l.N.B.N.0.0.0.0.0.0.0.0.0.0.N.N.N.z.0.0.0.0.0.0.0.0.0.0.0.l.0.0.0.N.vXH.9.l.0.0.N.N.N.N.0.0.0.0.0.0.0.0.0.0.N.B.N.l.0.0.0.0.0.0.0.0.0.0.0.l.0.l.9.7XvXwXpXiXwXpXvXbXgXiXiXiXiXiXiXiXiXiXiXgXbXvXpXwXiXiXiXiXiXiXiXiXiXpXpXiXiXpXvXpXiXpXiXiXpXvXvXpXiXiXiXiXiXiXiXiXiXpXvXbXgXiXiXiXiXiXiXiXiXiXiXiXpXiXiXiXpXvXpXiXiXiXiXgXvXcXpXiXiXiXiXiXiXiXiXiXpXvXvXpXiXiXiXiXiXiXiXiXiXiXpXpXiXiXiX",
"aXaX{.n.G.qXvXiXiXiXpXiXaXpXiXaXwXqXaXpXwXaXhXN.0.0.N.N.3.2 2 9.N.0.0.0.0.0.0.0.N.0.2 2 3.N.N.0.0.0.0.0.N.0.0.N.0.0.N.l.9.qXqX9.l.0.N.0.2 2 3.N.N.0.0.0.0.0.0.0.N.5.2 2 5.N.l.0.0.0.0.z.N.0.z.z.9.z.z.0.N.vXH.9.0.0.N.5.2 2 5.N.l.0.0.0.0.0.0.N.N.3.2 2 9.N.0.0.0.0.0.N.l.0.N.0.0.N.z.9.7XvXwXpXiXhXqXK.S.L.gXgXiXpXiXiXpXiXgXgXL.S.S.qXhXiXiXiXiXpXaXiXpXaXqXiXaXiXpXvXpXiXiXpXvX8XS.S.8XvXpXiXpXiXiXpXiXvXqXP.S.L.pXgXiXpXpXiXpXpXwXpXpXqXpXpXiXaXvXpXpXiXpXaXL.F.P.qXcXiXiXiXiXpXiXpXvX8XK.K.8XcXpXiXpXpXiXaXpXiXaXwXqXaXpXiX",
"+Xy r s y r V.zXwXpXiXaXJ.p.7X9X9X7X9XqXpXaXhXN.0.N.5.= * - = + 2 N.0.0.0.0.0.N.2 + = - * * 5.N.0.0.0.l.< a 9.6.5.6.5.l.9.qXqX9.0.N.2 + = - * * 5.N.0.0.0.0.l.l.> * = = + > l.l.0.0.z.6.< b 9.6.5.6.5.0.N.vXH.9.z.l.> * = = + > l.l.0.0.0.0.N.5.= * - = + 2 N.0.0.0.N.b < 5.6.6.5.6.9.9.7XvXwXiXvXS.% , Q % , 8XgXiXpXpXiXgX8X, % Q , % S.hXiXiXiXpXB.B.qX9X7X9X7XiXpXvXpXiXpXpX@., Q Q % @.pXpXiXiXpXiXvXS., Q Q Q Q 8XgXiXiXpX9Xp.J.qXqX7X9X7XpXpXvXpXiXgX8X! ! ! ! > K.cXiXiXiXiXpXpX{ W ! ! > { pXpXiXiXaXJ.p.7X9X9X7X9XqXpX",
"r i.vXSXAX{.4 V.vXwXpXwX7.@X@XB.7.B.n N.pXaXhXN.l.5.+ 1 F.D.D.3.+ 2 N.0.0.0.N.2 + 3.D.D.N.3 + 5.z.0.N.b < 4.3.; < < : b 0.9XqX6.N.2 + 3.D.D.N.3 + 5.z.0.0.0.N.- = q.D.D.q.= - N.0.0.N.< b 3.b : < ; ; 5.N.vXH.9.N.- = q.D.D.q.= - N.0.0.0.N.5.+ 1 F.D.D.3.+ 2 N.0.l.0.; 4.3.< ; < : < 0.7XvXwXvXS.% .XSXSXvXw.% 8XpXiXiXpX8X% w.bXJXAX.X& S.vXwXhXJ.B.@X@X7.p.p.m J.hXvXpXiXgX! Q pXSXSXuXQ ! gXiXiXiXvXS.% 4XSXSXvXZ.% dXpXwXvXB.J.{.J.m B.7.7.7XhXvXiXpX8X> Z.bXSXAX=X> K.cXiXiXiXgX! ! pXSXSXpX! ! gXiXpXwX7.@X@XB.7.B.n N.pX",
"B PXvXvXvXKX{.r wXpXiXiXp.B.b m b 7.J.N.qXaXhXN.N.- > H.N.N.N.H.3.+ 0.l.0.l.9.+ 3.H.N.N.N.H.> - B.0.N.4.< < : 4 : < b < 0.9XqX9.0.+ 3.H.N.N.N.H.> - B.0.0.N.2 * F.D.N.N.D.F.* d N.0.N.a < : : 4 : < a b N.vXH.l.2 * F.D.N.N.D.F.* d N.0.0.N.- > H.N.N.N.H.3.+ 0.l.0.0.< < 4 : 4 ; b < 6.7XvXiXqX% .XLXaXvXvXLX@.@.bXwXiXbX@.@.LXvXvXvXLXL.% wXpXaXoXp.p.b b b 7.J.B.vXvXpXgXK.Q bXAXvXvXSXbXQ P.vXiXpXqX, 4XLXvXvXvXLX@.@.bXwXhXB.B.m m b n B.B.J.vXvXiXvX! w.LXvXvXvXKX=XW wXpXiXcXP.Q vXAXvXvXSXbXW P.cXiXiXp.B.b m b 7.J.N.qX",
"7XAXvXAXvXvXSXy G.vXwXpX7XB.@XJ.@XoX7X+XwXaXhXN.9.* 5.F.N.F.N.N.D.= d N.0.N.2 = D.N.F.F.N.D.5.* 0.l.0.N.b b 3.b 4.4.5.5.9.qX9Xl.2 = D.N.F.F.N.D.5.* 0.l.0.B.- 3 D.N.F.N.N.D.3 - B.0.0.0.b b b b 4.5.5.6.N.vXH.N.- 3 D.N.F.N.N.D.3 - B.0.l.0.* 5.F.N.F.N.N.D.= d N.0.z.5.a 3.b 3.4.5.5.9.7XvXgXS., AXZXFXvXvXSX8X% wXpXpXqX% 8XFXFXZXvXvXSX, P.hXwXpXL.G.{.J.oXoX7X7XpXvXpXbX@.Z.JXZXSXvXvXJXZ.@.bXqXvXK.Q AXpXpXvXvXAX8XQ wXpXpXiXG.J.J.J.oX+X+X9XaXvXpXqXQ 8XFXFXvXvXvXSX! P.cXwXvX! Z.LXAXvXvXhXHXZ.{ vXwXpX7XB.@XJ.@XoX7X+XwX",
"qXSXpXqXZXvXSXs b.vXwXiXpXvXaXhXaXaXpXpXiXaXhXN.5.* 9.D.N.6.F.N.D.- 2 B.0.B.2 - D.F.9.l.F.F.0.* 6.z.0.0.N.N.N.N.N.N.z.N.9.qX9XN.2 - D.F.9.l.F.F.0.* 6.z.0.B.- 2 D.N.6.N.N.D.2 - B.0.0.0.N.N.N.N.N.z.z.0.N.vXH.N.- 2 D.N.6.N.N.D.2 - B.0.z.8.* 9.D.N.6.F.N.D.- 2 B.0.0.z.N.N.N.N.N.z.N.9.7XvXvXS.Q HX9XB.vXvXbXuX% dXpXpXdX% uXeXm 9XAXvXJXQ S.bXiXiXaXhXaXhXaXaXpXpXpXvXpXbXQ S.LX@XJ.SXvXJXS.Q bXqXbXS.@.+X4 m SXvXbXuXQ dXpXiXpXvXhXhXaXaXpXpXpXpXvXpX9XQ uXOXm qXAXvXSX! F.vXqXvX! K.@X: J.SXhXSXK.! vXiXiXpXvXaXhXaXaXpXpXiX",
"{.PXb m FXvXvXr '.zXiXpXiXwXiXwXiXiXiXiXiXaXhXN.0.* 3.H.4 : D.N.F.* 3.N.0.N.3.* F.l.O m F.D.3.* l.0.0.0.0.0.0.0.0.0.0.l.9.qX9X0.3.* F.l.O m F.D.3.* l.0.0.B.> > H.a O N.N.H.> > B.0.0.0.0.0.0.0.0.0.0.0.N.vXH.N.> > H.a O N.N.H.> > B.0.0.l.* 3.H.4 : D.N.F.* 3.N.0.0.0.0.0.0.0.0.0.l.9.7XvXgXL.% hX; m AXvXJX.X% pXiXiXpX% .Xm b aXvXvXvX% L.gXiXpXiXwXiXwXiXiXiXiXpXvXpXbX@.@.fXO C.SXaXLX@.@.bXwXgX4X1.pX+XpXvXvXJX=XQ pXpXiXiXwXwXiXwXiXiXiXiXaXvXpXpXQ =Xm m aXvXvXvXQ L.gXwXcXZ.K.@XB.pXvXhXKXw.w.vXiXpXiXwXiXwXiXiXiXiXiX",
"r hXm qXZXFXi.y aXiXiXiXiXiXiXiXiXiXiXpXiXaXhXN.N.3 * N.: 9.F.D.3 = N.0.0.0.N.* 1 7.; F.N.F.= 3 N.0.0.0.0.0.0.0.0.0.0.l.9.qXqX9.N.* 1 7.; F.N.F.= 3 N.0.0.N.3.+ 8.a b D.D.5.+ 4.N.0.0.0.0.0.0.0.0.0.0.0.N.vXH.0.3.+ 8.a b D.D.5.+ 4.N.0.0.N.3 * N.: 9.F.D.3 = N.0.0.0.0.0.0.0.0.0.0.l.9.7XvXwXgX, S.fXAXvXvXAX, w.bXwXiXgXS.#.vXFXZXvXJXw., gXiXiXiXiXiXiXiXiXiXiXiXpXvXpXgX4XR 4X9XSXvXSX8X% 8XgXiXiXpX%.*XJXvXvXvXAXQ w.bXiXiXiXiXiXiXiXiXiXpXiXpXvXiXgXK.Z.AXFXZXvXJXZ.! gXiXiXpXqXZ.sXKXZXvXSX8X> 8XpXiXiXiXiXiXiXiXiXiXpXiX",
"s v.HXvXAX'.r +XaXiXiXpXuXtXtXuXuXtXtXuXiXaXhXN.0.z.= 1 D.N.D.3.+ 5.N.0.0.0.N.3.* w.D.N.D.> = N.0.0.0.0.9.8.8.9.9.8.8.0.9.qXqX9.N.3.* w.D.N.D.> = N.0.0.0.0.N.3 = F.F.N.z.* 2 N.0.0.0.0.8.8.9.9.8.8.9.0.N.vXH.9.B.3 = F.F.N.z.* 2 N.0.0.0.0.z.= 1 D.N.D.3.+ 5.N.0.0.0.0.8.8.9.9.8.8.0.9.7XvXwXgX8XO.4XbXzXSX@., gXiXiXiXiXgX*.&.bXaXSXP.% 8XgXiXpXiXuXtXtXuXtXtXtXiXpXvXpXiXgXK.$.vXvXvXpXQ S.vXiXpXiXpX8X$.4XbXvXSX@.Q pXiXiXpXiXtXtXtXuXtXtXuXiXpXvXpXiXaXK.-XvXhXAXL.> 8XpXiXiXiXpX=XZ.pXvXvXpXQ A.cXiXiXpXuXtXtXuXuXtXtXuXiX",
"iX0XwXwXpX7X+XaXiXpXiXpXuXtXtXtXtXtXtXuXiXaXhXN.0.l.0.5.0.0.z.5.5.N.0.0.0.0.0.N.8.8.0.0.l.3.0.z.0.0.0.0.9.8.8.9.9.8.8.0.9.qXqX9.0.N.8.8.0.0.l.3.0.z.0.0.0.0.0.N.5.0.0.0.9.3.N.0.0.0.0.0.8.8.9.9.8.8.9.0.N.vXH.9.0.N.5.0.0.0.9.3.N.0.0.0.0.0.l.0.5.0.0.z.5.5.N.0.0.0.0.9.8.8.9.9.8.8.0.9.7XvXwXiXgXdXdXpXiXpX.XqXpXiXpXiXiXpXqX4XiXiXpX8X8XgXiXpXiXiXtXtXtXuXtXtXtXiXpXvXpXiXiXpX8XqXwXiXqX4XpXiXpXiXpXiXpXdXdXiXiXpX4XqXpXiXiXpXiXtXtXtXuXtXtXuXiXpXvXpXiXpXwX8XpXiXpX8X8XgXiXpXiXpXiXpX8XwXiXpXqX1XpXiXpXiXpXuXtXtXtXtXtXtXuXiX",
"hXpXaXaXaXvXvXaXiXpXiXpXuXtXtXtXtXtXtXuXiXaXhXN.0.N.N.l.N.N.N.N.N.N.0.0.0.0.0.N.N.l.N.z.N.N.N.z.0.0.0.0.9.8.8.9.9.8.8.0.9.qXqX9.l.N.N.l.N.z.N.N.N.z.0.0.0.0.z.N.N.z.N.z.N.N.N.0.0.0.0.0.8.8.9.9.8.8.9.0.N.vXH.9.z.N.N.z.N.z.N.N.N.0.0.0.0.0.N.N.l.N.N.N.N.N.N.0.0.0.0.9.8.8.9.9.8.8.0.9.7XvXwXpXaXgXpXhXpXhXhXhXpXiXpXpXiXaXhXpXaXaXaXvXhXaXiXpXiXiXtXtXtXuXtXtXtXiXpXvXaXiXpXhXpXaXvXaXhXhXhXpXiXpXiXiXhXgXpXhXpXhXvXhXpXiXiXpXiXtXtXtXuXtXtXuXiXpXvXpXiXiXaXhXwXaXpXhXvXwXpXiXpXiXpXhXpXpXhXpXvXcXaXiXpXiXpXuXtXtXtXtXtXtXuXiX",
"J.hX{.{.@XL.@XJ.aXiXiXpXuXtXtXtXtXtXtXuXiXaXhXN.z.3.b N.b b 4.b 4.b N.0.0.0.l.b 5.N.b 5.b 5.b 5.z.0.0.0.9.8.8.9.9.8.8.0.9.qXqX9.z.b 5.N.b 5.b 5.b 5.z.0.0.z.6.b 0.6.b 5.b 5.b 0.0.0.0.0.8.8.9.9.8.8.9.0.N.vXH.0.6.b 0.6.b 5.b 5.b 0.0.0.0.N.b b N.b b 4.b 4.b N.0.0.0.0.8.8.9.9.8.8.0.9.7XvXwXpXJ.7XpXJ.+XJ.7XJ.+XpXiXiXaX{.J.hX{.{.@XL.@XJ.aXiXiXiXtXtXtXuXtXtXtXiXpXvXpXpX9XG.pXoXB.{.J.7XG.wXpXiXiXpXJ.+XaXG.7XJ.7X{.qXpXiXpXiXtXtXtXuXtXtXtXiXpXvXpXiXpXoXoXhX@X+X@XJ.aXiXiXiXpX9XG.iX9XJ.7XJ.9XJ.pXiXiXpXuXtXtXtXtXtXtXuXiX",
"p.7XB.7.7.7.n p.7XpXiXiXsXNXNXMXMXNXNXsXwXaXhXN.9.< < 5.< ; ; ; : < 5.z.0.N.3.; a 4.< : < : < < z.0.0.0.9.8.8.9.8.8.8.0.9.qXqX0.4.; a 4.< : < : < < z.0.0.N.a ; 3.b < : < : < b N.0.0.0.8.8.8.9.8.8.9.0.N.vXH.0.a ; 3.b < : < : < b N.0.l.0.< < 5.< ; ; ; : < 5.z.0.l.9.8.8.9.9.8.8.0.9.7XvXaX@X7.B.9Xb m B.m 7.B.pXiXpXqXp.p.7XB.7.7.7.n p.7XpXiXiXMXNXNXMXNXNXNXpXpXvXpXaXB.7.J.aXp.m B.m p.J.hXwXaX@X7.B.oXp.m 7.B.n @XaXiXiXpXNXNXNXMXNXNXMXiXpXvXpXwXhXB.N.SXB.p.B.7.7XpXiXwXaXB.7.{.J.p.m B.B.n pXiXiXiXsXNXNXMXMXNXNXsXwX",
"B.J.V.7.7.N.7.B.oXaXwXaX^.F F F F F F ^.aXpXhXN.6.< < b a < ; < ; a 4.N.0.N.b a < b b 4 b 4 a < 0.0.0.0.7.7.7.0.7.7.7.l.9.qX9X0.b a < b b 4 b 4 a < 0.0.0.N.< a a a b 4 b 4 b a N.0.0.0.7.7.7.0.7.7.0.0.N.vXH.0.a a a a b 4 b 4 b a N.0.z.6.< < b a < ; < ; a 4.N.0.0.0.7.7.7.7.7.7.l.9.7XvXaXJ.B.B.@Xn b J.b B.B.pXiXpX9XB.B.J.V.7.7.N.7.B.oXaXiXwXF F F F F F F $XaXvXpXaXB.B.B.pXB.B.G.b J.B.vXwXhXJ.B.B.J.J.b B.B.B.{.hXwXaX$XF F F F F F F wXaXvXpXiXaXOXB.hXOXp.G.B.OXaXiXiXaXB.B.G.G.G.b J.G.B.wXpXwXaX^.F F F F F F ^.aX",
"N.J.B.B.B.B.V.B.pXiXwXaXC.m m D D m m C.aXpXhXN.z.a < b < < a < a < l.0.0.l.0.< a b < b < b < b N.0.0.0.7.7.7.0.7.7.7.l.9.qXqX9.0.< a b < b < b < b N.0.0.N.4.; b b < b < b ; 5.z.0.0.0.7.7.7.0.7.7.0.0.N.vXH.0.4.; b b < b < b ; 5.z.0.0.N.a < b < < a < a < l.0.0.0.0.7.7.7.7.7.7.l.9.7XvXiXwXp.V.J.B.G.p.J.p.J.aXiXiXaXB.N.J.B.B.B.B.V.B.pXiXpXwXD m m D m m m OXaXvXpXpX@X7.J.J.{.+X7.J.7.7XpXiXpXqXp.B.{.p.J.p.L.{.+XpXwXaXOXm m m D m m D wXaXvXpXiXpX7XJ.{.OX{.G.N.pXiXiXiXaX@X7.J.J.p.J.7.7XJ.iXpXwXaXC.m m D D m m C.aX",
"aXpXpXaXaXaXaXaXpXiXiXfX,X<.<.>X>X<.<.,XfXaXhXN.0.N.N.z.N.N.N.N.N.N.0.0.0.0.l.N.N.z.N.N.N.N.N.z.0.0.0.0.9.8.8.9.8.8.8.0.9.qXqX9.z.N.N.z.N.N.N.N.N.z.0.0.0.0.z.N.z.z.N.N.N.N.N.z.0.0.0.0.8.8.8.9.8.8.9.0.N.vXH.9.N.N.z.z.N.N.N.N.N.z.0.0.0.0.N.N.z.N.N.N.N.N.N.0.0.0.l.9.8.8.9.9.8.8.0.9.7XvXwXpXaXpXaXpXaXaXaXaXpXiXpXiXiXpXaXpXpXaXaXaXaXaXpXiXpXiX>X<.<.>X<.<.<.rXpXvXaXiXpXaXpXpXpXpXaXaXaXpXiXpXiXpXaXaXpXaXaXaXpXpXpXiXiXpXrX<.<.<.>X<.<.>XiXpXvXpXiXiXpXpXpXpXpXpXaXpXiXiXpXiXpXaXpXpXaXaXaXpXpXpXiXiXfX,X<.<.>X>X<.<.,XfX",
"iXiXiXiXiXiXiXiXiXpXiXfX,X<.<.>X>X<.<.,XpXaXhXN.0.0.0.0.0.0.0.0.0.0.0.0.0.0.0.0.0.0.0.0.0.0.0.0.0.0.0.0.9.8.8.9.9.8.8.0.9.qXqX9.l.0.0.0.0.0.0.0.0.0.0.0.0.0.0.0.0.0.0.0.0.0.0.0.0.0.0.0.8.8.9.9.8.8.9.0.N.vXH.9.l.0.0.0.0.0.0.0.0.0.0.0.0.0.0.0.0.0.0.0.0.0.0.0.0.0.0.0.8.8.9.9.8.8.0.9.7XvXwXiXiXiXiXiXiXiXiXiXiXpXiXiXiXiXiXiXiXiXiXiXiXiXiXiXpXiX>X<.<.>X<.<.<.rXpXvXpXiXiXiXiXiXiXiXiXiXiXiXpXiXpXiXiXiXiXiXiXiXiXiXiXpXiXpXrX<.<.<.>X<.<.>XiXpXvXpXiXpXiXiXiXiXiXiXiXiXpXiXiXpXiXiXiXiXiXiXiXiXiXiXiXiXfX,X<.<.>X>X<.<.,XfX",
"pXiXwXwXwXwXiXiXiXiXiXfX,X<.<.>X>X<.<.,XfXaXhXN.0.0.0.0.0.0.0.0.0.0.0.0.0.0.0.0.0.0.0.0.0.0.0.0.0.0.0.0.9.8.8.9.9.8.8.0.9.qXqX9.l.0.0.0.0.0.0.0.0.0.0.0.0.0.0.0.0.0.0.0.0.0.0.0.0.0.0.0.8.8.9.9.8.8.9.0.N.vXH.9.l.0.0.0.0.0.0.0.0.0.0.0.0.0.0.0.0.0.0.0.0.0.0.0.0.0.0.9.8.8.9.9.8.8.0.9.7XvXwXpXiXiXiXwXwXwXiXpXiXiXiXiXiXiXpXiXwXwXwXiXiXpXiXiXpXiX>X<.<.>X<.<.<.rXpXvXpXiXpXpXiXiXiXiXiXiXpXiXiXiXiXiXiXiXiXiXiXiXiXpXiXiXiXpXrX<.<.<.>X<.<.>XiXpXvXpXiXpXpXiXiXiXiXiXiXiXiXiXiXiXiXpXiXiXiXiXiXiXpXiXiXiXfX,X<.<.>X>X<.<.,XfX",
"wXaXvXvXvXvXiXiXpXiXiXfX,X<.<.>X>X<.<.,XfXaXhXN.0.0.0.N.B.B.B.N.0.0.0.0.0.0.0.0.0.N.B.B.B.N.0.0.0.0.0.0.9.8.8.9.9.8.8.0.9.qXqX9.l.0.0.N.B.B.B.N.0.0.0.0.0.0.0.0.l.B.B.B.B.l.0.0.0.0.0.0.8.8.9.9.8.8.9.0.N.vXH.9.l.0.l.B.B.B.B.l.0.0.0.0.0.0.0.0.N.B.B.B.N.0.0.0.0.0.0.9.8.8.9.9.8.8.0.9.7XvXwXpXiXiXvXbXbXbXgXwXpXiXiXiXiXpXiXgXbXbXbXvXiXiXpXiXpXiX>X<.<.>X<.<.<.rXpXvXpXiXpXiXpXbXbXbXbXpXiXpXiXiXiXpXiXiXvXbXbXbXgXiXpXiXiXpXrX<.<.<.>X<.<.>XiXpXvXpXiXpXiXaXvXvXvXcXiXiXpXiXiXiXpXiXpXvXvXvXvXpXiXpXiXiXfX,X<.<.>X>X<.<.,XfX",
"vXoXB s s G.aXpXiXpXiXfX,X<.<.>X>X<.<.,XpXaXhXN.0.0.N.3.3 - - 2 N.l.0.0.0.0.0.l.N.2 - - > 3.N.0.0.0.0.0.9.8.8.9.9.8.8.0.9.qXqX9.0.l.N.2 - - > 3.N.0.0.0.0.0.0.N.0.1 - - 3 9.N.0.0.0.0.0.8.8.9.9.8.8.9.0.N.vXH.9.0.N.0.1 - - 3 9.N.0.0.0.0.0.0.N.3.3 - - 2 N.l.0.0.0.0.9.8.8.9.9.8.8.0.9.7XvXwXiXpXgXK.@.Q @..XvXiXpXiXiXpXiXvX4X@.Q @.S.gXpXiXiXpXiX>X<.<.>X<.<.<.rXpXvXpXiXiXgXqXS.! ! Z.qXgXiXpXiXpXiXpXgXP.@.Q @.4XvXiXpXiXpXrX<.<.<.>X<.<.>XiXpXvXpXiXiXcX8Xw.! ! P.gXpXiXpXiXpXiXgXqXZ.! ! Z.qXgXiXpXiXfX,X<.<.>X>X<.<.,XfX",
"b.r B n.r.r s pXpXiXiXfX,X>.<.<.<.<.>.,XfXaXhXN.0.N.2 + > 2 3 + - l.l.0.0.0.0.l.- * 1 2 > + 2 N.0.0.0.0.9.8.8.9.9.8.8.0.9.qXqX9.l.l.- * 1 2 > + 2 N.0.0.0.0.N.3.* - 2 2 = * 3.N.0.0.0.0.8.8.9.9.8.8.9.0.N.vXH.9.N.3.* - 2 2 = * 3.N.0.0.0.0.N.2 + > 2 3 + - l.l.0.0.0.9.8.8.9.9.8.8.0.9.7XvXwXpXpX@.% w.S.@.& S.hXiXiXpXiXhXS.% @.S.@.% @.pXpXiXpXiXtXtXtXtXtXtXtXuXpXvXpXwXgX8X, ! S.S.Q , 8XgXiXpXiXpXpX@.Q Z.S.@.% S.gXiXiXpXuXtXrXuX,X>.<.>XiXpXvXpXiXcXA.> w.K.Z.W ! pXpXiXpXiXaX8XW ! K.A.! W 8XaXiXiXfX,X<.<.>X>X<.<.,XfX",
"r 9XKXFXHXAXy s vXwXiXpXrX5X4X4X4X4X5XrXpXaXhXN.N.b + 5.H.D.D.F.= > N.0.0.0.N.> = F.D.D.H.5.+ b N.0.0.0.9.8.8.9.9.8.8.0.9.qXqX6.N.> = F.D.D.H.5.+ b N.0.0.l.0.* 2 H.D.D.H.1 + 0.l.0.0.0.8.8.9.9.8.8.9.0.N.vXH.9.0.* 2 H.D.D.H.1 + 0.l.0.0.N.d + 5.H.D.D.F.= > N.0.0.0.9.8.8.9.9.8.8.0.9.7XvXwXvX@., AXJXJXLX8X& P.gXiXiXgXP.% 8XLXJXJXAX, @.bXiXiXiXuXtXtXuXtXtXtXiXpXvXpXpXqX, S.LXJXJXLXS., wXpXiXiXvX@.Q AXJXJXLX8X% P.gXiXpXiXtXtXuXrX4X4X4XiXpXvXiXcXP.> 8XKXSXJXAX! { vXiXiXpXqXW A.HXFXFXKXZ.W wXpXiXfX,X>.<.<.<.<.>.,XfX",
"V.KXhXhXhXSXwXr 9XpXiXpXuXuXuXuXuXuXuXuXiXaXhXN.N.= 2 H.N.N.N.D.q.+ 5.N.0.N.4.+ q.D.N.N.N.H.2 = N.0.0.0.9.8.8.9.9.8.8.0.9.qXqX0.5.+ q.D.N.N.N.H.2 = N.0.0.N.3 - H.N.N.N.N.H.= 1 N.0.0.0.8.8.9.9.8.8.9.0.N.vXH.N.1 - H.N.N.N.N.H.= 1 N.0.0.N.= 2 H.N.N.N.D.q.+ 5.N.0.0.9.8.8.9.9.8.8.0.9.7XvXpX8X% uXSXaXvXaXLXS., vXiXiXgX, S.LXaXvXzXSXuX% 8XpXiXiXtXtXtXuXtXtXtXiXpXvXpXvXZ.Q JXvXaXvXvXLXQ S.bXwXpX8X, uXSXaXvXaXLXS.Q vXiXpXiXtXtXtXuXuXuXuXiXpXvXiXgX! K.KXaXhXhXSXuXW 8XpXwXvXZ.! JXvXvXvXvXHX! A.vXiXpX4X>X>X,X,X>X>X4XpX",
"0XZXAXSXvXvXSXy V.vXwXpXuXtXtXtXtXtXtXuXiXaXhXN.8.* 8.F.F.D.N.N.D.= 2 N.0.N.2 = D.N.D.F.N.F.9.* 9.z.0.0.9.8.8.9.9.8.8.0.9.qX9Xz.2 = D.N.D.F.N.F.9.* 9.z.0.B.- 2 D.N.D.F.N.D.2 - B.0.0.0.8.8.9.9.8.8.9.0.N.vXH.N.- 2 D.N.D.F.N.D.2 - B.0.z.9.* 8.F.F.D.N.N.D.= 2 N.0.0.9.8.8.9.9.8.8.0.9.7XvXvXS., SXvXSXAXvXAXdX% qXpXpXdX% dXbXAXSXvXvXSXQ S.bXiXiXtXtXtXuXtXtXtXiXpXvXpXbX! S.JXvXFXvXvXJXS.@.bXqXvXS.Q SXvXSXAXvXAXtXQ qXpXiXiXtXtXtXuXtXtXtXiXpXvXpXqXW tXbXAXSXvXvXSX! K.vXwXvX! A.KXwXiXZXvXFXA.! vXiXpXiXuXuXuXuXuXuXiXiX",
"0XFXoXJ.SXvXSXy V.vXwXpXuXtXtXtXtXtXtXuXiXaXhXN.8.* 8.D.4.b D.N.D.= 2 N.0.N.2 = D.F.b 5.F.F.9.* 9.z.0.0.9.8.8.9.9.8.8.0.9.qX9Xz.2 = D.F.b 5.F.F.9.* 9.z.0.B.- 2 H.z.< N.N.D.2 - B.0.0.0.8.8.9.9.8.8.9.0.N.vXH.N.- 2 H.z.< N.N.D.2 - B.0.z.9.* 8.D.4.b D.N.D.= 2 N.0.0.9.8.8.9.9.8.8.0.9.7XvXgXS.Q SXAXG.+XAXbXdX% dXpXpXdX% dXFXoXJ.SXvXSX, S.bXwXiXtXtXtXuXtXtXtXiXpXvXpXbX! S.KXpXC.vXvXJXS.! bXqXvXS.Q SXAXG.+XAXbXtXQ dXpXiXiXtXtXtXuXtXtXuXiXpXvXpXqXQ qXFXoXJ.SXvXSX! K.vXqXvX! K.J.O J.SXhXFXK.! vXiXpXuXrXtXtXtXtXrXuXiX",
"n.KX: p.FXAXiXr +XaXiXpXuXtXtXtXtXtXtXuXiXaXhXN.N.= 2 H.O < D.D.q.+ 5.N.0.N.4.+ q.7.O 5.F.H.2 = N.0.0.0.9.8.8.9.9.8.8.0.9.qXqX0.5.+ q.7.O 5.F.H.2 = N.0.0.N.3 = H.; O F.N.H.- 3 N.0.0.0.8.8.9.9.8.8.9.0.N.vXH.N.3 = H.; O F.N.H.- 3 N.0.0.N.= 2 H.O < D.D.q.+ 5.N.0.0.9.8.8.9.9.8.8.0.9.7XvXpX8X% sX9XO 7XZXLXS., gXiXiXgX, S.LX: p.FXAXuX% 8XgXiXiXtXtXtXuXtXtXtXiXpXvXpXvXZ.Q PXD ; AXvXLXQ Z.bXwXpX8X% aX$XO 7XZXLXS.Q gXiXpXiXtXtXtXuXtXtXuXiXpXvXiXgX! K.LX: p.FXAXpXW 8XpXwXcXA.Z.9XoXvXvXvXKX! Z.vXiXpXuXtXtXtXtXtXtXuXiX",
"4 +X{.vXZXvXy s vXwXiXpXuXtXtXtXtXtXtXuXiXaXhXN.N.d + 5.m N.F.N.= > N.0.0.0.N.- = 6.m D.F.5.+ b N.0.0.0.9.8.8.9.9.8.8.0.9.qXqX6.B.- = 6.m D.F.5.+ b N.0.0.l.0.+ 2 7.6.F.F.1 * 0.l.0.0.0.8.8.9.9.8.8.9.0.N.vXH.9.0.+ 2 7.6.F.F.1 * 0.l.0.0.N.d + 5.m N.F.N.= > N.0.0.0.9.8.8.9.9.8.8.0.9.7XvXwXbX@.Q qX@XSXbX8X% P.gXiXiXgXP.& 4X{.vXZXvX, @.bXiXiXiXtXtXtXuXtXtXtXiXpXvXpXpXqX% S.OX9XSXAXS., wXpXiXiXvX@.Q qX@XSXbX8X% P.gXiXpXiXtXtXtXuXtXtXuXiXpXvXiXcXP.> 8X{.vXZXvX! { vXiXiXpXpXZ.=XFXvXvXSXA.W wXpXiXpXuXtXtXtXtXtXtXuXiX",
"b.E.SXaXZXG.s pXpXiXiXpXuXtXtXtXtXtXtXuXiXaXhXN.0.N.1 1 D.N.F.2 - z.0.0.0.0.l.0.> 3.D.z.B.> 3 N.0.0.0.0.9.8.8.9.9.8.8.0.9.qXqX9.z.0.> 3.D.z.B.> 3 N.0.0.0.0.N.3.> N.N.N.0.= 3.N.0.0.0.0.8.8.9.9.8.8.9.0.N.vXH.9.N.3.> N.N.N.0.= 3.N.0.0.0.0.N.1 1 D.N.F.2 - z.0.0.0.0.9.8.8.9.9.8.8.0.9.7XvXwXpXwX*.4XSXpXbX@.w.bXiXpXiXiXgXS.&.JXaXbXK.@.pXpXiXiXiXtXtXtXuXtXtXtXiXpXvXpXwXgXL.*.zXvXvXqXQ 4XgXiXpXiXpXwX*.4XSXaXbX@.Z.vXiXiXpXiXtXtXtXuXtXtXuXiXpXvXpXiXcXA.K.SXaXbXP.! pXpXiXiXiXpX8XZ.iXhXvXqX! 1XgXiXiXpXuXtXtXtXtXtXtXuXiX",
"aXpXwXwXwXwXpXpXiXpXiXpXuXtXtXtXtXtXtXuXiXaXhXN.0.0.N.l.0.0.0.0.N.l.0.0.0.0.0.l.N.0.0.0.0.0.N.0.0.0.0.0.9.8.8.9.9.8.8.0.9.qXqX9.0.0.N.0.0.0.0.0.N.0.0.0.0.0.0.N.N.0.0.0.0.l.z.0.0.0.0.0.8.8.9.9.8.8.9.0.N.vXH.9.0.N.N.0.0.0.0.l.z.0.0.0.0.0.0.N.l.0.0.0.0.N.l.0.0.0.0.9.8.8.9.9.8.8.0.9.7XvXwXiXpXgXiXwXwXwXiXgXiXpXiXiXiXwXgXpXwXwXwXwXpXpXiXpXiXiXtXtXtXuXtXtXtXiXpXvXpXiXiXpXpXwXwXwXwXpXpXiXpXiXpXiXpXgXiXwXwXwXiXgXiXpXiXpXiXtXtXtXuXtXtXuXiXpXvXpXiXiXgXpXwXwXwXwXpXpXiXpXiXpXiXpXpXiXiXwXwXpXpXiXpXiXpXuXtXtXtXtXtXtXuXiX",
"pXpXpXaXaXaXaXpXpXiXiXpXuXtXtXtXtXtXtXuXiXaXhXN.0.N.z.0.N.N.N.N.N.z.0.0.0.0.0.z.z.l.N.N.N.N.z.N.0.0.0.0.9.8.8.9.9.8.8.0.9.qXqX9.z.N.l.l.N.N.N.N.z.z.0.0.0.0.l.z.z.l.N.N.N.N.z.z.0.0.0.0.8.8.9.9.8.8.9.0.N.vXH.9.N.z.0.z.N.N.N.N.z.z.0.0.0.0.z.z.l.z.N.N.N.N.z.z.0.0.0.9.8.8.9.9.8.8.0.9.7XvXwXpXaXpXpXaXaXaXaXpXpXiXpXiXpXaXpXpXaXaXaXaXaXpXpXiXiXiXtXtXtXuXtXtXtXiXpXvXaXiXpXaXpXpXaXaXaXaXpXpXiXpXiXpXaXpXpXaXaXaXaXpXpXiXiXpXiXtXtXtXuXtXtXuXiXpXvXpXiXaXpXpXaXaXaXaXaXpXpXiXiXpXiXpXhXiXpXpXaXaXpXiXpXiXpXuXtXtXtXtXtXtXuXiX",
"7.qX@X7.J.p.J.7.9XpXiXpXuXtXtXtXtXtXtXuXiXaXhXN.z.a < N.< < a < a < z.0.0.0.N.a < N.< < a < a < z.0.0.0.9.8.8.9.9.8.8.0.9.qXqX9.0.; b 0.; b < b < b N.0.0.l.0.; b 0.; b < b < b N.0.0.0.8.8.9.9.8.8.9.0.N.vXH.0.4.; 9.4.; b < b ; 6.z.0.0.N.4.; 9.4.; b < b ; 6.z.0.0.9.8.8.9.9.8.8.0.9.7XvXiXqX7.J.iX7.J.p.J.p.J.aXiXiXaXB.B.aXB.B.B.B.B.B.pXiXiXiXtXtXtXuXtXtXtXiXpXvXpXpX@X7.qX@X7.J.p.J.7.9XpXiXpXqX7.J.iX7.J.p.J.p.J.aXiXpXiXtXtXtXuXtXtXuXiXpXvXiXaXB.B.aXB.B.B.B.B.B.pXiXiXiXpX+Xp.aX@XB.J.7.9XpXiXiXpXuXtXtXtXtXtXtXuXiX",
"B.J.G.G.a J.a J.G.vXwXpXuXtXtXtXtXtXtXuXiXaXhXN.5.< < 3.a < ; < : a 4.N.0.z.6.< < 3.a < ; < : a 4.N.0.0.9.8.8.9.9.8.8.0.9.qX9X0.b < a b b 4 b 4 a < 0.0.0.N.b < a b b 4 b 4 a < 0.0.0.0.8.8.9.9.8.8.9.0.N.vXH.0.< a b b a 4 b 4 b a N.0.0.N.< a b b a 4 b 4 b a N.0.0.9.8.8.9.9.8.8.0.9.7XvXaXJ.B.B.J.G.b J.b B.B.pXiXpX9XB.B.@XB.p.7.N.n B.oXaXiXiXtXtXtXuXtXtXtXiXpXvXpXaXB.B.J.G.G.a J.a J.G.vXwXhXJ.B.B.J.G.b J.b B.B.pXiXpXiXtXtXtXuXtXtXuXiXpXvXpX9XB.B.@XB.p.7.N.n B.oXaXiXiXpX9X7.aXiX7.m J.G.vXwXiXpXuXtXtXtXtXtXtXuXiX",
"7.B.B.p.m B.m p.J.hXwXpXuXtXtXtXtXtXtXuXiXaXhXN.9.< ; b < ; ; ; ; < 5.z.0.l.0.< ; b < ; ; ; ; < 5.z.0.0.9.8.8.9.9.8.8.0.9.qXqX0.4.< < b < : < : < < z.0.0.N.4.< < b < : < : < < z.0.0.0.8.8.9.9.8.8.9.0.N.vXH.0.b ; a a < : < : < b N.0.0.N.a ; a a < : < : < b N.0.0.9.8.8.9.9.8.8.0.9.7XvXpX@X7.N.J.N.m B.m p.B.pXiXpXqXN.7.J.B.7.7.7.7.p.7XpXiXiXtXtXtXuXtXtXtXiXpXvXpXaXG.7.B.B.p.m B.m p.J.hXwXaX@X7.N.J.N.m B.m p.B.pXiXpXiXtXtXtXuXtXtXuXiXpXvXpXqXN.7.J.B.7.7.7.7.p.7XpXiXpXiXpXN.OXoXp.m p.J.hXwXiXpXuXtXtXtXtXtXtXuXiX",
"J.OXOXJ.7XJ.7XG.wXpXiXpXuXtXtXtXtXtXtXuXiXaXhXN.z.3.b 5.b b 4.b 4.b N.0.0.0.N.3.b 5.b b 4.b 4.b N.0.0.0.9.8.8.9.9.8.8.0.9.qXqX9.z.b 3.5.b 5.b 5.b 5.z.0.0.0.l.b 3.5.b 5.b 5.b 5.z.0.0.0.8.8.9.9.8.8.9.0.N.vXH.0.6.b 4.4.b 5.b 6.b 0.0.0.0.z.6.b 4.4.b 5.b 6.b 0.0.0.0.9.8.8.9.9.8.8.0.9.7XvXwXpXJ.@X7XJ.7XJ.7XJ.+XpXiXiXaX@XJ.+X{.{.@XL.oXJ.aXiXiXiXtXtXtXuXtXtXtXiXpXvXpXpX9XJ.OXOXJ.7XJ.7XG.wXpXiXiXpXJ.@X7XJ.7XJ.7XJ.+XpXiXpXiXtXtXtXuXtXtXuXiXpXvXiXaX@XJ.+X{.{.@XL.oXJ.aXiXiXiXpXiX+X+XJ.J.7XG.wXpXiXiXpXuXtXtXtXtXtXtXuXiX",
"hXaXpXhXpXhXpXvXpXiXiXpXuXtXtXtXtXtXtXuXiXaXhXN.0.N.N.z.N.N.N.N.N.N.0.0.0.0.0.N.N.z.N.N.N.N.N.N.0.0.0.0.9.8.8.9.9.8.8.0.9.qXqX9.l.N.N.z.N.z.N.z.N.z.0.0.0.0.0.N.N.z.N.z.N.z.N.z.0.0.0.0.8.8.9.9.8.8.9.0.N.vXH.9.z.N.N.N.N.z.N.z.N.0.0.0.0.0.z.N.N.N.N.z.N.z.N.0.0.0.0.9.8.8.9.9.8.8.0.9.7XvXwXiXhXaXpXhXpXhXpXhXpXiXpXpXiXaXhXpXaXaXaXaXaXhXiXpXiXiXtXtXtXuXtXtXtXiXpXvXaXiXpXhXaXpXhXpXhXpXvXpXiXpXiXiXhXaXpXhXpXhXpXhXpXiXpXpXiXtXtXtXuXtXtXuXiXpXvXpXiXaXhXpXaXaXaXaXaXhXiXpXiXiXiXpXpXpXaXhXpXvXpXiXpXiXpXuXtXtXtXtXtXtXuXiX",
"wXiXiXwXiXwXiXwXiXpXiXpXuXtXtXtXtXtXtXuXiXaXhXN.0.0.0.0.0.0.0.0.0.0.0.0.0.0.0.0.0.0.0.0.0.0.0.0.0.0.0.0.9.8.8.9.9.8.8.0.9.qXqX9.l.0.0.0.0.0.0.0.0.0.0.0.0.0.0.0.0.0.0.0.0.0.0.0.0.0.0.0.8.8.9.9.8.8.9.0.N.vXH.9.l.0.0.0.0.0.0.0.0.0.0.0.0.0.0.0.0.0.0.0.0.0.0.0.0.0.0.9.8.8.9.9.8.8.0.9.7XvXwXpXwXiXiXwXiXwXiXwXiXpXiXiXpXiXwXiXiXwXiXiXiXwXpXiXiXiXtXtXtXuXtXtXtXiXpXvXpXiXiXwXiXiXwXiXwXiXwXiXpXiXiXiXwXiXiXwXiXwXiXwXiXpXiXpXiXtXtXtXuXtXtXuXiXpXvXpXiXiXwXiXiXwXiXiXiXwXpXiXiXiXiXiXiXiXwXwXiXwXiXpXiXiXpXuXtXtXtXtXtXtXuXiX",
"iXiXiXpXpXiXiXpXiXiXiXpXuXtXtXtXtXtXtXuXiXaXhXN.0.0.0.0.0.z.l.0.0.0.0.0.0.0.0.0.0.0.l.l.0.0.0.0.0.0.0.0.9.8.8.9.9.8.8.0.9.qXqX9.l.0.0.0.l.z.0.0.0.0.0.0.0.0.0.0.0.0.l.l.0.0.0.0.0.0.0.0.8.8.9.9.8.8.9.0.N.vXH.9.l.0.0.0.z.z.0.0.0.0.0.0.0.0.0.0.0.0.l.l.0.0.0.0.0.0.0.9.8.8.9.9.8.8.0.9.7XvXwXpXpXiXwXpXpXpXwXiXpXiXiXiXiXpXiXiXpXpXpXwXiXpXiXiXiXiXtXtXtXuXtXtXtXiXpXvXpXiXpXpXiXiXpXpXiXiXpXiXiXiXiXiXpXiXiXpXpXpXiXiXpXiXiXpXiXtXtXtXuXtXtXuXiXpXvXpXiXpXiXiXiXpXpXiXiXpXiXiXiXiXiXpXiXiXpXpXiXiXpXiXiXiXpXuXtXtXtXtXtXtXuXiX",
"iXaXpXqXwXzXpXiXpXiXiXpXuXtXtXtXtXtXtXuXiXaXhXN.0.0.0.B.z.6.0.B.z.0.0.0.0.0.0.0.z.N.0.9.l.N.0.0.0.0.0.0.9.8.8.9.9.8.8.0.9.qXqX9.l.0.N.B.0.6.z.B.0.0.0.0.0.0.0.0.N.N.9.9.N.N.0.0.0.0.0.0.8.8.9.9.8.8.9.0.N.vXH.9.l.0.N.N.9.9.N.N.0.0.0.0.0.0.0.0.N.l.9.0.N.z.0.0.0.0.0.9.8.8.9.9.8.8.0.9.7XvXwXpXiXpXbXwXdXpXbXiXiXpXiXiXpXiXiXjXpXdXqXbXpXiXpXiXiXiXtXtXtXuXtXtXtXiXpXvXpXiXpXiXgXgXqXqXgXgXiXpXiXiXiXpXiXpXbXwXdXpXbXiXiXpXiXpXiXtXtXtXuXtXtXuXiXpXvXpXiXiXpXvXpX9XwXvXpXiXpXiXiXiXpXiXcXcXqXqXcXcXiXpXiXiXpXuXtXtXtXtXtXtXuXiX",
"pX`.I.G C W.qXpXiXpXiXpXuXtXtXtXtXtXtXuXiXaXhXN.0.l.z.3 * * * - 5.N.0.0.0.0.0.N.9.1 > > > 2 z.l.0.0.0.0.9.8.8.9.9.8.8.0.9.qXqX9.0.N.5.- * * * 3 N.l.0.0.0.0.0.N.3.1 > > 3 3.N.0.0.0.0.0.8.8.9.9.8.8.9.0.N.vXH.9.0.N.d = * * = d N.0.0.0.0.0.l.z.2 > > > - 5.N.0.0.0.0.9.8.8.9.9.8.8.0.9.7XvXwXiXgX8X@.% % % @.gXpXiXpXpXiXpXpXS.Q % % @.8XgXiXpXiXiXtXtXtXuXtXtXtXiXpXvXpXiXiXgXP.Q Q Q Q P.vXiXpXiXpXiXgX8X@.Q Q Q w.gXpXiXiXpXiXtXtXtXuXtXtXuXiXpXvXpXiXpXpXZ.! Q Q ! 7XgXiXpXiXiXiXvXP.! Q W ! P.vXiXpXiXpXuXtXtXtXtXtXtXuXiX",
"U.I.0XgXwX!.Z 0XpXiXiXpXuXtXtXtXtXtXtXuXiXaXhXN.0.N.- = 3.9.5.> + 4.N.0.0.0.z.5.> 2 9.q.w.1 1 z.0.0.0.0.9.8.8.9.9.8.8.0.9.qXqX9.N.5.+ 3 8.9.3.= - z.0.0.0.0.N.! > 3.q.q.3.> 3.N.0.0.0.0.8.8.9.9.8.8.9.0.N.vXH.9.N.2 + 2 8.8.2 + 2 N.0.0.0.0.l.1 1 8.q.9.> + 4.N.0.0.0.9.8.8.9.9.8.8.0.9.7XvXwXgX8X% @.8XdXL., Q pXiXiXiXiXpX%.*.4XuX4X@.% 4XgXiXpXiXtXtXtXuXtXtXtXiXpXvXpXwXgXS.% K.dXdXS.% S.vXiXpXiXpX8X% @.8XuX=XQ Q pXiXiXpXiXtXtXtXuXtXtXuXiXpXvXpXiXpX! ! 1XuX8Xw.> 8XpXiXiXiXgXq.> K.qXtXK.> A.cXiXiXpXuXtXtXtXtXtXtXuXiX",
"I.GXGXvXZXIX`.I.pXiXiXpXuXtXtXtXtXtXtXuXiXaXhXN.N.2 > 6.N.D.F.H.3 = N.0.0.0.N.3 ! D.F.F.D.F.3 ! N.0.0.0.9.8.8.9.9.8.8.0.9.qXqX9.N.> 2 7.D.D.D.D.* 3 N.0.0.N.5.> 9.D.N.D.H.9.- 4.N.0.0.0.8.8.9.9.8.8.9.0.N.vXH.0.8.> 3.0.D.F.H.5.+ 4.N.0.0.N.2 1 F.D.9.4 G.3 = N.0.0.0.9.8.8.9.9.8.8.0.9.7XvXwXgX*.S.0XSXSXJXSX% w.bXwXiXjXS.*.KXp.C.KXLX@., gXiXiXiXtXtXtXuXtXtXtXiXpXvXpXpX8X$.4XeXHXbXLX8X% 8XgXiXiXgXQ Z.PXKXbXJXSXQ Z.bXiXpXiXtXtXtXuXtXtXuXiXpXvXiXgX=XZ.9XgXFXbXLXZ.! gXiXiXpXdX! 8XLXFXbXLX8X> 8XpXiXpXuXtXtXtXtXtXtXuXiX",
"0XGXvXvXvXvXvXI.#XpXiXpXuXtXtXtXtXtXtXuXiXaXhXN.0.> q.b O 6.F.N.F.* 3.N.0.N.3.> N.N.N.F.D.H.5.> z.0.0.0.9.8.8.9.9.8.8.0.9.qXqX0.3.> D.4 4 F.N.D.3.* N.0.0.N.2 2 D.N.F.5.O m 3 3 B.0.0.0.8.8.9.9.8.8.9.0.N.vXH.l.2 ! N.O < D.N.H.> 3 B.0.0.l.> 8.D.D.< 4 D.N.* 3.N.0.0.9.8.8.9.9.8.8.0.9.7XvXgX4X#.SXa a vXaXJXL., pXiXiXpX#.4XLXB.a SXvXvX% L.gXiXiXtXtXtXuXtXtXtXiXpXvXpXgX*X*XfXO B.SXaXLX@.@.bXwXgX4X$.9Xm J.vXaXJX=XQ pXiXpXiXtXtXtXuXtXtXuXiXpXvXpXpXZ.sXV.O 9XZXvXvXQ L.gXiXgXK.-X{.4 OXAXaXKXw.w.vXiXpXuXtXtXtXtXtXtXuXiX",
"fXvXvXvXZXvXGXY.'.aXiXpXuXtXtXtXtXtXtXuXiXaXhXN.9.> q.D.b 5.F.N.D.- 2 B.0.N.3.1 D.N.F.z.; b q.> 9.l.0.0.9.8.8.9.9.8.8.0.9.qX9X0.3.1 D.z.a N.N.F.9.* 8.z.0.N.1 3.D.N.D.b : B.2 - B.0.0.0.8.8.9.9.8.8.9.0.N.vXH.l.1 3.H.4.b D.N.D.2 - B.0.l.9.> q.F.F.0.0.F.D.- 2 B.0.0.9.8.8.9.9.8.8.0.9.7XvXjXS.%.JXpXC.vXvXbXtX% dXpXpXdX#.yXAXaXwXvXvXSXQ S.bXwXiXtXtXtXuXtXtXtXiXpXvXpXgX&.-XHXoXJ.SXvXJXS.Q bXwXgX-X&.bXp.n AXvXbXuXQ dXpXiXiXtXtXtXuXtXtXuXiXpXvXpXqXZ.sXSXG.7XAXvXSX! F.vXwXgXK.=XbXp.J.SXvXSXK.! vXiXpXuXtXtXtXtXtXtXuXiX",
"wXvXSX@Xm vXZXI.}.aXiXpXuXtXtXuXuXtXtXuXiXaXhXN.0.> 9.F.D.F.N.N.D.= 2 N.0.N.3.1 F.N.F.N.: 4 8.> 0.l.0.0.9.8.8.9.9.8.8.0.9.qX9X0.3.1 F.F.D.F.N.D.5.* 0.l.0.N.1 ! D.N.N.F.D.H.3 - B.0.0.0.8.8.9.9.8.8.9.0.N.vXH.l.1 ! D.F.D.N.N.D.3 - B.0.l.0.> 9.F.N.F.F.N.D.= 2 N.0.0.0.8.8.9.9.8.8.0.9.7XvXgX4X*.bXvXFXvXvXAX8X% qXpXpXuX#.yXbXvXAXvXvXSX, S.vXiXiXuXtXtXuXtXtXtXiXpXvXpXgX*X*XSXZXSXvXvXJXZ.@.bXwXgX4X%.AXFXSXvXvXAX8XQ qXpXiXiXtXtXtXuXtXtXuXiXpXvXpXiXZ.uXbXSXAXvXvXSX! P.vXwXgXK.=XSXFXSXvXvXHXZ.! vXiXpXuXtXtXuXuXtXtXuXiX",
"!.FXvXaX: OXkXC wXpXiXpXuXtXtXtXtXtXrXuXiXaXhXN.N.1 2 D.N.N.N.D.3.+ 0.l.0.l.0.> w.D.N.F.D.H.> - N.0.0.0.9.8.8.9.8.8.8.0.9.qXqX9.0.> w.D.N.N.N.H.> - N.0.0.N.3.> N.F.N.N.N.F.* 2 N.0.0.0.8.8.8.9.8.8.9.0.N.vXH.0.3.> N.N.N.N.F.F.* 2 N.0.0.N.1 2 D.N.N.N.D.3.+ 0.l.0.l.9.8.8.9.9.8.8.0.9.7XvXiXqX#.4XJXvXvXvXLX@.@.bXiXiXjX%.&.JXvXvXvXJX.X% qXpXiXiXtXtXtXuXtXtXtXiXpXvXpXgX4X$.vXbXvXvXbXbXQ P.vXiXpXuX$.4XbXvXvXvXLX@.@.bXiXpXiXtXtXtXuXtXtXtXiXpXvXiXpXK.-XSXvXvXvXHX=XW qXpXiXpX1XZ.vXvXvXvXbXbXW P.cXiXpXuXtXtXtXtXtXrXuXiX",
"f ].ZXAXaX0XC }.aXiXiXpXiXuXuXiXiXuXiXiXiXaXhXN.l.9.> ! D.N.F.5.+ 2 N.0.0.0.N.3.> 9.F.N.D.2 + 5.N.0.0.0.0.0.0.0.0.0.0.l.9.qXqX9.N.3.> 9.F.N.D.2 + 5.N.0.0.0.N.1 1 N.N.N.N.- - N.0.0.0.0.0.0.0.0.0.0.0.0.N.vXH.9.N.1 1 N.N.N.N.- - N.0.0.0.z.9.> ! D.N.F.5.+ 2 N.0.0.0.0.0.0.0.0.0.0.0.9.7XvXwXgXK.O.tXbXvXSXS.% 7XpXiXiXpXdXO.3XbXvXAX8X% S.vXiXpXiXuXuXiXiXiXuXiXiXpXvXpXiXgX&.%.vXvXvXvXQ @.gXiXiXiXgX-X$.tXbXvXSXS.% dXpXiXpXiXuXiXuXiXiXiXiXiXpXvXpXpXqXZ.=XbXvXAX8X> K.cXiXiXiXpXK.K.vXvXvXvX! ! gXiXiXpXiXuXiXuXiXuXiXiXiX",
"#X'.aXpXvX#X'.aXiXpXiXiXpXpXiXiXuXpXuXpXiXaXhXN.0.N.4.3.N.0.N.3.2 N.0.0.0.0.0.N.3.3.N.l.N.2 3.N.0.0.0.0.0.0.0.0.0.0.0.l.9.qXqX9.0.N.3.3.N.l.N.2 3.N.0.0.0.0.l.0.2 0.N.N.9.3 0.l.0.0.0.0.0.0.0.0.0.0.l.0.N.vXH.9.z.0.2 0.z.N.9.3 0.l.0.0.0.0.N.4.{ N.0.N.3.2 N.0.0.0.0.0.l.0.0.0.0.l.l.9.7XvXwXiXgXS.4XgXpXgXS..XgXiXpXpXiXgX4XS.gXpXvXL.S.vXiXpXiXiXpXiXuXpXuXpXuXpXpXvXpXiXpXuX*XuXpXaXqXw.wXpXiXiXiXiXgX-X4XgXpXgXS..XgXiXpXiXiXpXuXiXpXuXuXiXiXpXvXpXiXpX8X=XpXpXvXL.K.cXiXpXiXiXpXiX=XuXpXaXqXZ.iXpXiXiXiXpXpXuXpXiXpXuXpXiX",
"pXaXiXpXwXaXaXiXpXiXiXiXpXuX5X4X4XtX,XtXpXaXhXN.0.l.N.N.l.l.0.N.N.l.0.0.0.0.0.0.N.N.z.l.0.N.N.0.0.0.0.0.0.0.0.0.0.0.0.l.9.qXqX9.l.z.N.l.z.0.z.N.N.0.0.0.0.0.0.z.B.l.0.0.l.B.0.0.0.0.0.0.0.0.0.0.0.0.0.0.N.vXH.9.l.N.N.l.z.0.N.N.N.0.0.0.0.0.0.N.N.z.N.0.N.N.0.0.0.0.0.0.0.0.0.0.0.0.l.9.7XvXwXiXpXgXpXpXiXpXhXhXiXiXiXiXpXiXpXgXpXpXwXgXvXwXpXiXiXiXpX4X5XtX,X4X4XpXpXvXpXiXiXpXgXpXpXiXaXvXpXiXpXiXiXiXiXvXpXpXpXwXbXgXiXpXiXiXpXiX,XrX4X4X5X4XpXpXvXpXiXpXaXpXpXpXiXhXvXpXiXpXiXpXiXpXvXpXpXiXpXbXiXiXpXiXiXpXuX5XuX5XtX,XuXpX",
"pXqXpX7XiX9XwXpXiXiXiXpXuXrX4X4X5XrX,XrXpXaXhXN.0.9.6.N.9.9.0.6.9.6.z.0.0.0.0.l.5.0.5.6.N.5.0.l.0.0.0.0.0.0.0.0.0.0.0.l.9.qXqX9.N.5.0.z.5.0.6.0.5.0.l.0.0.0.l.6.4.0.0.0.0.5.l.0.0.0.0.0.0.0.0.0.0.0.0.0.N.vXH.9.l.5.0.0.5.l.5.0.5.z.0.0.0.0.l.6.5.5.5.l.9.6.z.0.0.0.0.0.0.0.0.0.0.0.l.9.7XvXwXpX7XqXpX7XiX7XwX7XwXpXiXiXpXiXpXqX7X9XaXqX7XpXiXiXiXpXtX4X,XrX,X,X,XiXpXvXpXiXiX7XpXiX7XpX7XiX7XpXiXpXiXpXiXOXiX9XqXpX7XqXpXiXiXpXiXrX,X4X4X,X,X4XpXpXvXpXpXqX9XaXqXqXqXqXqX9XpXiXpXiXpXqX7XpX7XpXiX7XpXiXiXiXpXuXrX4X4X,XrX,XrXpX",
"pXn J.7.p.7.B.aXiXiXiXiXiXiXuXtXrXuXrXpXiXaXhXN.0.< ; 0.< ; ; ; ; ; 0.l.0.0.z.5.: < 4 5.5.: a N.0.0.0.0.0.0.0.0.0.0.0.l.9.qXqX0.5.: b 6.: < ; < ; a N.0.0.0.l.5.; < ; N.b : 4.N.0.0.0.0.0.0.0.0.0.0.0.0.N.vXH.0.b : 5.b : < ; < : 4.N.0.0.0.N.: a b : 6.< ; 0.l.0.0.0.0.0.0.0.0.0.0.l.9.7XvXpX7Xm G.9Xn p.7.p.7.B.aXiXiXiXaX+Xm J.7.wXp.7.wXpXiXiXiXpXuXtXuXrXtXrXpXpXvXpXaXJ.m +XJ.n p.7.p.n @XaXiXiXpXqXB.7.m B.9Xm B.aXiXiXiXiXpXrXuXtXrXtXuXiXpXvXpXpXp.7.wXp.7.7.7.7.7.qXpXiXiXpXOX7.p.n +XJ.m oXaXiXiXiXiXpXuXuXrXuXrXiXiX",
"hXG.p.@Xb J.B.iXiXiXiXiXpXiXiXiXiXpXuXpXiXaXhXN.5.a a b b < ; < ; b 4.N.0.0.z.5.4 < b b b b < 0.0.0.0.0.0.0.0.0.0.0.0.l.9.qX9X0.b b a b b 4 b 4 b < 0.0.0.0.0.N.< 6.< N.< b a N.0.0.0.0.0.0.0.0.0.0.0.0.N.vXH.0.< b b b b 4 4.4 b a N.0.0.0.l.b < 5.< 0.< a 4.N.0.0.0.0.0.0.0.0.0.0.l.9.7XvXaXJ.J.B.J.J.b J.b J.B.iXiXiXpXiX7.m +Xn 7XB.B.@XaXiXiXiXpXiXiXpXiXuXiXpXpXvXpXpXB.J.J.G.J.a @Xa {.B.vXwXpXwXhXoXB.m G.{.G.B.iXiXiXiXiXiXiXiXuXpXuXiXiXpXvXpX7XB.G.J.J.p.7.B.7.G.@XaXiXiXiXpX7.m J.J.J.J.B.vXwXiXiXpXiXiXiXiXiXuXpXiX",
"hXG.J.7.p.7.B.aXiXiXiXiXpXuX5X4X4XtX,XtXpXaXhXN.0.< ; b < ; < ; < ; 0.l.0.0.N.4.; < b < b ; a N.0.0.0.0.0.0.0.0.0.0.0.l.9.qXqX0.6.; < b ; < ; < ; < N.0.0.0.N.4.< N.< 4.< : 4.N.0.0.0.0.0.0.0.0.0.0.0.0.N.vXH.0.b : a a ; < ; < : 3.N.0.0.0.0.b < < b b < ; 0.l.0.0.0.0.0.0.0.0.0.0.l.9.7XvXpX7X7.N.J.7.p.7.p.7.B.aXiXiXpXwXB.b V.7.G.N.7.qXpXiXiXiXpX4X5XtX,XrX4XpXpXvXpXaXJ.n B.B.7.p.7.p.n @XaXiXiXpX7Xb B.7.7.J.7.B.aXiXiXiXiXpX5XtX4XtX,XtXpXpXvXpXpXN.7.J.p.7.p.7.p.7.qXpXiXiXpXoX7.7.7.B.V.m @XaXiXiXiXpXuX4X4X4XpX5XtXpX",
"pXwXpX7XiX9XwXpXiXpXiXpXuXrX4X4X4XrX,XrXpXaXhXN.l.9.6.0.9.9.0.9.0.6.z.0.0.0.0.z.5.9.5.0.0.6.0.l.0.0.0.0.0.0.0.0.0.0.0.l.9.qXqX9.N.6.9.0.6.0.6.0.6.0.l.0.0.0.l.0.0.l.0.9.0.5.z.0.0.0.0.0.0.0.0.0.0.0.l.0.N.vXH.9.l.5.0.0.5.l.5.l.5.z.0.0.0.0.l.5.9.0.0.9.9.6.z.0.0.0.0.0.0.0.0.0.0.0.l.9.7XvXwXpX7XqXwX7XiX7XiX9XwXpXiXpXiXpXvXpX+X9XwXqX9XpXiXpXiXpXtX4X,XrX,X4X4XpXpXvXpXiXiX7XqXqX7XpX7XpX7XpXiXpXiXpXqX+X9X7XqXwX7XwXpXiXiXpXuXrX4XrX4XuX4X4XpXpXvXpXpXqX9XwXqXqXqXqXqX9XpXiXpXiXpX9X+XpX7XqXqX7XpXiXpXiXpXuXrX4XrX,XuX5XuXiX",
"iXpXiXpXiXpXpXiXiXiXiXiXiXiXuXtXrXuXrXpXiXaXhXN.0.0.0.0.0.0.0.0.0.0.0.0.0.0.0.0.l.0.z.0.0.l.0.0.0.0.0.0.0.0.0.0.0.0.0.0.6.qXqX6.0.l.0.0.l.0.l.0.l.0.0.0.0.0.0.0.0.0.0.0.0.l.0.0.0.0.0.0.0.0.0.0.0.0.0.0.z.vXH.9.0.l.0.0.l.0.l.0.z.0.0.0.0.0.0.z.0.0.0.0.0.0.0.0.0.0.0.0.0.0.0.0.0.0.0.9.7XvXwXiXpXpXpXpXpXpXpXpXpXiXiXiXiXiXwXiXpXpXpXpXpXiXiXiXiXiXpXuXtXuXrXrXrXpXpXvXpXiXpXpXpXpXpXiXpXiXpXiXiXiXiXiXpXaXpXpXpXpXpXpXiXiXiXiXiXpXuXtX4XuXrXtXiXpXvXpXiXpXpXpXpXpXpXpXpXpXiXiXiXiXiXpXpXiXpXpXpXpXiXiXiXiXiXiXiXuXtXrXrX4XiXiX",
"pXpXpXiXpXpXpXpXpXpXpXpXpXpXpXpXpXpXpXpXiXaXhXN.N.N.N.N.N.N.N.N.N.N.N.N.N.N.N.N.N.N.N.N.N.N.N.N.N.N.N.N.N.N.N.N.N.N.N.N.0.qXqX0.N.N.N.N.N.N.N.N.N.N.N.N.N.N.N.N.N.N.N.N.N.N.N.N.N.N.N.N.N.N.N.N.N.N.N.N.N.vXH.0.N.N.N.N.N.N.N.N.N.N.N.N.N.N.N.N.N.N.N.N.N.N.N.N.N.N.N.N.N.N.N.N.N.N.N.0.7XvXiXpXiXpXpXiXpXpXpXpXpXpXpXpXpXpXpXpXiXpXpXpXpXpXpXpXpXpXpXpXpXpXpXpXpXpXpXvXaXiXpXiXpXpXiXpXiXpXiXpXpXpXpXpXpXiXpXiXpXpXiXpXpXpXpXpXpXpXpXpXgXpXpXpXiXaXvXpXpXpXpXpXpXpXpXpXpXpXpXpXpXpXpXpXiXpXiXpXpXiXpXpXpXpXpXpXpXpXpXpXpXgXpXiX",
"vXvXvXvXvXvXvXvXvXvXvXvXvXvXvXvXvXvXvXvXvXvXvXvXhXhXhXhXhXhXhXhXhXhXhXhXhXhXhXhXhXhXhXhXhXhXhXhXhXhXhXhXhXhXhXhXhXhXhXhXhXvXvXhXhXhXhXhXhXhXhXhXhXhXhXhXhXhXhXhXhXhXhXhXhXhXhXhXhXhXhXhXhXhXhXhXhXhXhXhXvXvXvXhXhXhXhXhXhXhXhXhXhXhXhXhXhXhXhXhXhXhXhXhXhXhXhXhXhXhXhXhXhXhXhXhXhXhXhXhXvXvXvXvXvXvXvXvXvXvXvXvXvXvXvXvXvXvXvXvXvXvXvXvXvXvXvXvXvXvXvXvXvXvXvXvXvXvXvXvXvXvXvXvXvXvXvXvXvXvXvXvXvXvXvXvXvXvXvXvXvXvXvXvXvXvXvXvXvXvXvXvXvXvXvXvXvXvXvXvXvXvXvXvXvXvXvXvXvXvXvXvXvXvXvXvXvXvXvXvXvXvXvXvXvXvXvXvXvXvXvXvXvXvXvXvX",
"pXpXpXpXhXaXaXhXhXpXpXaXpXpXaXpXpXpXpXpXpXpXpXaXaXaXaXaXaXaXaXaXaXaXaXaXaXaXaXaXaXaXaXaXaXaXaXaXaXaXaXaXaXaXaXaXaXaXaXaXaXaXaXaXaXaXaXaXaXaXaXaXaXaXaXaXaXaXaXaXaXaXaXaXaXaXaXaXaXaXaXaXaXaXaXaXaXaXaXaXaXpXaXaXaXaXaXaXaXaXaXaXaXaXaXaXaXaXaXaXaXaXaXaXaXaXaXaXaXaXaXaXaXaXaXaXaXaXaXaXaXpXpXpXpXpXpXpXpXpXpXpXpXpXpXpXpXpXpXpXpXpXpXpXpXpXpXpXpXpXpXpXpXpXpXpXpXpXpXpXpXpXpXpXpXpXpXpXpXpXpXpXpXpXpXpXpXpXpXpXpXpXpXpXpXpXpXpXpXpXpXpXpXpXpXpXpXpXpXpXpXpXpXpXpXpXpXpXpXpXpXpXpXpXpXpXpXpXpXpXpXpXpXpXpXpXpXpXpXpXpXpXpXpXpXpX",
"iXiXiXpXL.H.L.P.8XpXiXwXpXpXwXiXiXwXwXiXiXiXiXiXiXiXiXiXiXiXiXiXiXiXiXiXiXiXiXiXiXiXiXiXiXiXiXiXiXiXiXiXiXiXiXiXiXiXiXiXiXiXiXiXiXiXiXiXiXiXiXiXiXiXiXiXiXiXiXiXiXiXiXiXiXiXiXiXiXiXiXiXiXiXiXiXiXiXiXiXiXiXiXiXiXiXiXiXiXiXiXiXiXiXiXiXiXiXiXiXiXiXiXiXiXiXiXiXiXiXiXiXiXiXiXiXiXiXiXiXiXiXiXiXiXiXiXiXiXiXiXiXiXiXiXiXiXiXiXiXiXiXiXiXiXiXiXiXiXiXiXiXiXiXiXiXiXiXiXiXiXiXiXiXiXiXiXiXiXiXiXiXiXiXiXiXiXiXiXiXiXiXiXiXiXiXiXiXiXiXiXiXiXiXiXiXiXiXiXiXiXiXiXiXiXiXiXiXiXiXiXiXiXiXiXiXiXiXiXiXiXiXiXiXiXiXiXiXiXiXiXiXiXiXiXiX",
"iXpXiXpXP.! ! 2 P.vXwXvX.X.XvXiXpXgXgXpXpXpXpXpXpXpXpXpXpXpXpXpXpXpXpXpXpXpXpXpXpXpXpXpXpXpXpXpXpXpXpXpXpXpXpXpXpXpXpXpXpXpXpXpXpXpXpXpXpXpXpXpXpXpXpXpXpXpXpXpXpXpXpXpXpXpXpXpXpXpXpXpXpXpXpXpXpXpXpXpXpXpXpXpXpXpXpXpXpXpXpXpXpXpXpXpXpXpXpXpXpXpXpXpXpXpXpXpXpXpXpXpXpXpXpXpXpXpXpXpXpXpXpXpXpXpXpXpXpXpXpXpXpXpXpXpXpXpXpXpXpXpXpXpXpXpXpXpXpXpXpXpXpXpXpXpXpXpXpXpXpXpXpXpXpXpXpXpXpXpXpXpXpXpXpXpXpXpXpXpXpXpXpXpXpXpXpXpXpXpXpXpXpXpXpXpXpXpXpXpXpXpXpXpXpXpXpXpXpXpXpXpXpXpXpXpXpXpXpXpXpXpXpXpXpXpXpXpXpXpXpXpXpXpXpXpX",
"pXiXiXpXL.qX! M.8XpXpX8X1 1 8XhXD.@.w.wXpXiXiXiXiXiXiXiXiXiXiXiXiXiXiXiXiXiXiXiXiXiXiXiXiXiXiXiXiXiXiXiXiXiXiXiXiXiXiXiXiXiXiXiXiXiXiXiXiXiXiXiXiXiXiXiXiXiXiXiXiXiXiXiXiXiXiXiXiXiXiXiXiXiXiXiXiXiXiXiXiXiXiXiXiXiXiXiXiXiXiXiXiXiXiXiXiXiXiXiXiXiXiXiXiXiXiXiXiXiXiXiXiXiXiXiXiXiXiXiXiXiXiXiXiXiXiXiXiXiXiXiXiXiXiXiXiXiXiXiXiXiXiXiXiXiXiXiXiXiXiXiXiXiXiXiXiXiXiXiXiXiXiXiXiXiXiXiXiXiXiXiXiXiXiXiXiXiXiXiXiXiXiXiXiXiXiXiXiXiXiXiXiXiXiXiXiXiXiXiXiXiXiXiXiXiXiXiXiXiXiXiXiXiXiXiXiXiXiXiXiXiXiXiXiXiXiXiXiXiXiXiXiXiXiXiX",
"pXiXiXpXH.vX! q.8XpXiXpXM.M.pXpXdX8X8XiXpXiXiXiXiXiXiXiXiXiXiXiXiXiXiXiXiXiXiXiXiXiXiXiXiXiXiXiXiXiXiXiXiXiXiXiXiXiXiXiXiXiXiXiXiXiXiXiXiXiXiXiXiXiXiXiXiXiXiXiXiXiXiXiXiXiXiXiXiXiXiXiXiXiXiXiXiXiXiXiXiXiXiXiXiXiXiXiXiXiXiXiXiXiXiXiXiXiXiXiXiXiXiXiXiXiXiXiXiXiXiXiXiXiXiXiXiXiXiXiXiXiXiXiXiXiXiXiXiXiXiXiXiXiXiXiXiXiXiXiXiXiXiXiXiXiXiXiXiXiXiXiXiXiXiXiXiXiXiXiXiXiXiXiXiXiXiXiXiXiXiXiXiXiXiXiXiXiXiXiXiXiXiXiXiXiXiXiXiXiXiXiXiXiXiXiXiXiXiXiXiXiXiXiXiXiXiXiXiXiXiXiXiXiXiXiXiXiXiXiXiXiXiXiXiXiXiXiXiXiXiXiXiXiXiXiX",
"iXpXiXpXL.L.F.D.7XpXiXpXpXpXpXiXpXpXpXpXiXiXiXiXiXiXiXiXiXiXiXiXiXiXiXiXiXiXiXiXiXiXiXiXiXiXiXiXiXiXiXiXiXiXiXiXiXiXiXiXiXiXiXiXiXiXiXiXiXiXiXiXiXiXiXiXiXiXiXiXiXiXiXiXiXiXiXiXiXiXiXiXiXiXiXiXiXiXiXiXiXiXiXiXiXiXiXiXiXiXiXiXiXiXiXiXiXiXiXiXiXiXiXiXiXiXiXiXiXiXiXiXiXiXiXiXiXiXiXiXiXiXiXiXiXiXiXiXiXiXiXiXiXiXiXiXiXiXiXiXiXiXiXiXiXiXiXiXiXiXiXiXiXiXiXiXiXiXiXiXiXiXiXiXiXiXiXiXiXiXiXiXiXiXiXiXiXiXiXiXiXiXiXiXiXiXiXiXiXiXiXiXiXiXiXiXiXiXiXiXiXiXiXiXiXiXiXiXiXiXiXiXiXiXiXiXiXiXiXiXiXiXiXiXiXiXiXiXiXiXiXiXiXiXiXiX",
"iXiXiXiXpXpXhXaXpXiXpXiXpXpXiXpXiXiXiXiXiXiXiXiXiXiXiXiXiXiXiXiXiXiXiXiXiXiXiXiXiXiXiXiXiXiXiXiXiXiXiXiXiXiXiXiXiXiXiXiXiXiXiXiXiXiXiXiXiXiXiXiXiXiXiXiXiXiXiXiXiXiXiXiXiXiXiXiXiXiXiXiXiXiXiXiXiXiXiXiXiXiXiXiXiXiXiXiXiXiXiXiXiXiXiXiXiXiXiXiXiXiXiXiXiXiXiXiXiXiXiXiXiXiXiXiXiXiXiXiXiXiXiXiXiXiXiXiXiXiXiXiXiXiXiXiXiXiXiXiXiXiXiXiXiXiXiXiXiXiXiXiXiXiXiXiXiXiXiXiXiXiXiXiXiXiXiXiXiXiXiXiXiXiXiXiXiXiXiXiXiXiXiXiXiXiXiXiXiXiXiXiXiXiXiXiXiXiXiXiXiXiXiXiXiXiXiXiXiXiXiXiXiXiXiXiXiXiXiXiXiXiXiXiXiXiXiXiXiXiXiXiXiXiXiXiX"
};
