/* XPM */
static char *mb_ringmod_sc_mono[] = {
/* columns rows colors chars-per-pixel */
"256 256 256 2 ",
"   c #0B0B0B",
".  c #050608",
"X  c #140909",
"o  c #0B0C12",
"O  c #060A13",
"+  c #0C1216",
"@  c #131314",
"#  c #15151B",
"$  c #1C151B",
"%  c #17181E",
"&  c #1B1A1D",
"*  c #1A1715",
"=  c #151011",
"-  c #230909",
";  c #28181A",
":  c #321A1E",
">  c #37161B",
",  c #32110E",
"<  c #1A2714",
"1  c #142F12",
"2  c #262718",
"3  c #352B19",
"4  c #34331D",
"5  c #2B3416",
"6  c #151C23",
"7  c #1B1C22",
"8  c #181826",
"9  c #1C1D36",
"0  c #1D1E38",
"q  c #121333",
"w  c #0D132E",
"e  c #221D21",
"r  c #291D21",
"t  c #251B32",
"y  c #1F2025",
"u  c #1B2D2D",
"i  c #17282C",
"p  c #182935",
"a  c #0A3536",
"s  c #1D3333",
"d  c #163537",
"f  c #0F2B2B",
"g  c #232324",
"h  c #23242A",
"j  c #252A2E",
"k  c #2B2B2C",
"l  c #282924",
"z  c #34342C",
"x  c #2C2D32",
"c  c #232434",
"v  c #213535",
"b  c #2D3135",
"n  c #243A3A",
"m  c #293D3D",
"M  c #313235",
"N  c #34353A",
"B  c #3A3B3D",
"V  c #373939",
"C  c #303029",
"Z  c #540708",
"A  c #590809",
"S  c #511210",
"D  c #6D0709",
"F  c #680404",
"G  c #7B0708",
"H  c #750607",
"J  c #641909",
"K  c #641907",
"L  c #74140F",
"P  c #482917",
"I  c #582A18",
"U  c #5B361A",
"Y  c #4E330F",
"T  c #6A270B",
"R  c #712306",
"E  c #732509",
"W  c #752A0C",
"Q  c #7A2C0A",
"!  c #752C04",
"~  c #6C360D",
"^  c #6E390E",
"/  c #65360C",
"(  c #7A350B",
")  c #77370B",
"_  c #692612",
"`  c #792C12",
"'  c #623112",
"]  c #613C1E",
"[  c #6B3815",
"{  c #763814",
"}  c #46342A",
"|  c #5D3425",
" . c #593829",
".. c #573835",
"X. c #4F2E2C",
"o. c #623E22",
"O. c #633A2B",
"+. c #633829",
"@. c #6E322B",
"#. c #5C1E23",
"$. c #2D4F0F",
"%. c #396E07",
"&. c #2C4D30",
"*. c #554914",
"=. c #75430D",
"-. c #795709",
";. c #6B441B",
":. c #774415",
">. c #6D500A",
",. c #44760F",
"<. c #534834",
"1. c #654225",
"2. c #6A4629",
"3. c #6A482A",
"4. c #6A4232",
"5. c #654B33",
"6. c #675436",
"7. c #73502C",
"8. c #726718",
"9. c #143948",
"0. c #3C3D41",
"q. c #3C3E48",
"w. c #20205B",
"e. c #1D1D55",
"r. c #104A51",
"t. c #2C4242",
"y. c #244545",
"u. c #3A4345",
"i. c #2A5954",
"p. c #0E556D",
"a. c #077779",
"s. c #096A6E",
"d. c #2A6969",
"f. c #206D51",
"g. c #424245",
"h. c #44454A",
"j. c #4A4B4D",
"k. c #48484A",
"l. c #4D4D52",
"z. c #474955",
"x. c #535355",
"c. c #555559",
"v. c #5A5B5E",
"b. c #57585A",
"n. c #505052",
"m. c #637357",
"M. c #5D5D61",
"N. c #5F6064",
"B. c #636364",
"V. c #646569",
"C. c #6B6B6C",
"Z. c #67686B",
"A. c #6D6E72",
"S. c #737374",
"D. c #7C7C7D",
"F. c #75767A",
"G. c #6F7073",
"H. c #69594A",
"J. c #880608",
"K. c #9A0708",
"L. c #911512",
"P. c #A40607",
"I. c #B70404",
"U. c #B01914",
"Y. c #87370A",
"T. c #9A380A",
"R. c #823B14",
"E. c #902914",
"W. c #A33A09",
"Q. c #B22D13",
"!. c #8F2B27",
"~. c #AF2825",
"^. c #931F23",
"/. c #C60607",
"(. c #D71B19",
"). c #CC1511",
"_. c #FA1A1A",
"`. c #E81A17",
"'. c #CB2A14",
"]. c #D32424",
"[. c #C62624",
"{. c #E7211E",
"}. c #8E4C11",
"|. c #AA470D",
" X c #87670A",
".X c #916E09",
"XX c #A57903",
"oX c #96582C",
"OX c #C64709",
"+X c #E1622F",
"@X c #906A4F",
"#X c #B6734D",
"$X c #976F5D",
"%X c #C77857",
"&X c #498D06",
"*X c #57AE01",
"=X c #61BD06",
"-X c #64C802",
";X c #5FC100",
":X c #3F9055",
">X c #B48702",
",X c #A0A00E",
"<X c #C59401",
"1X c #CC803D",
"2X c #C7C908",
"3X c #B08A71",
"4X c #958863",
"5X c #D2926C",
"6X c #E7A679",
"7X c #D6986A",
"8X c #086F91",
"9X c #067CA4",
"0X c #7C7D81",
"qX c #1818BA",
"wX c #068688",
"eX c #069495",
"rX c #0789B1",
"tX c #02AFAF",
"yX c #21AE8F",
"uX c #7F8084",
"iX c #0598C9",
"pX c #04A7D8",
"aX c #01B3ED",
"sX c #01C7C8",
"dX c #08CBF9",
"fX c #44F3F3",
"gX c #838384",
"hX c #8B8B8B",
"jX c #858689",
"kX c #8A8E92",
"lX c #8D9093",
"zX c #949395",
"xX c #97989C",
"cX c #98999B",
"vX c #918F91",
"bX c #9D9EA1",
"nX c #A8A9A9",
"mX c #B7B7B7",
"MX c #AEAFB0",
"NX c #AF9E8E",
"BX c #C69D8B",
"VX c #D2AE93",
"CX c #EEAD8A",
"ZX c #DCB3A3",
"AX c #E3BBA9",
"SX c #EB9E82",
"DX c #EBC4AF",
"FX c #D4C0A7",
"GX c #BCBDC1",
"HX c #C6C6C6",
"JX c #D4D5D6",
"KX c #E6E7E9",
"LX c #F9FAFB",
"PX c #EEEFF1",
"IX c #DEDFE1",
"UX c #BFC0C3",
/* pixels */
"7 7 7 7 7 7 7 7 7 7 7 7 7 7 7 7 7 7 7 7 7 7 7 7 7 7 7 7 7 7 7 7 7 7 7 7 7 7 7 7 7 7 7 7 7 7 7 7 7 7 7 7 7 7 7 7 7 7 7 7 7 7 7 7 7 7 7 7 7 7 7 7 7 7 7 7 7 7 7 7 7 7 7 7 7 7 7 7 7 7 7 7 7 7 7 7 7 7 7 7 7 7 7 7 7 7 7 7 7 7 7 7 7 7 7 7 7 7 7 7 7 7 7 7 7 7 7 7 7 7 7 7 7 7 7 7 7 7 7 7 7 7 7 7 7 7 7 7 7 7 7 7 7 7 7 7 7 7 7 7 7 7 7 7 7 7 7 7 7 7 7 7 7 7 7 7 7 7 7 7 7 7 7 7 7 7 7 7 7 7 7 7 7 7 7 7 7 7 7 7 7 7 7 7 7 7 7 7 7 7 7 7 7 7 7 7 7 7 7 7 7 7 7 7 7 7 7 7 7 7 7 7 7 7 7 7 7 7 7 7 7 7 7 7 7 7 7 7 7 7 7 7 7 7 7 7 ",
"7 7 7 7 7 7 7 7 & & & 7 7 7 7 7 7 7 7 7 7 7 7 7 7 7 7 7 7 7 7 7 7 7 7 7 7 7 7 7 7 7 7 7 7 7 7 7 7 7 7 7 7 7 7 7 7 7 7 7 7 7 7 7 7 7 7 7 7 7 7 7 7 7 7 7 7 7 7 7 7 7 7 7 7 7 7 7 7 7 7 7 7 7 7 7 7 7 7 7 7 7 7 7 7 7 7 7 7 7 7 7 7 7 7 7 7 7 7 7 7 7 7 7 7 7 7 7 7 7 % % % % 7 % 7 7 7 7 7 7 7 7 7 % 7 7 7 7 % 7 % 7 7 7 7 7 7 % 7 7 7 7 7 7 7 7 % 7 7 % 7 7 7 7 7 7 7 7 7 7 7 % % 7 % % 7 % 7 7 7 7 % 7 % 7 % 7 7 7 # 7 7 % 7 7 7 7 7 7 7 % 7 7 7 7 7 7 7 7 7 7 7 % 7 7 7 7 7 7 % 7 7 7 % 7 7 7 7 7 7 7 & 7 7 & 7 7 7 7 7 7 7 & ",
"$ & 7 7 7 7 & $ i i i y & 7 7 7 7 7 7 7 7 7 7 7 7 7 7 7 7 7 7 7 7 7 7 7 7 7 7 7 7 7 7 7 7 7 7 7 7 7 7 7 7 7 7 7 7 7 7 7 7 7 7 7 7 7 7 7 7 7 7 7 7 7 7 7 7 7 7 7 7 7 7 7 7 7 7 7 7 7 7 7 7 7 7 7 7 7 7 7 7 7 7 7 7 7 7 7 7 7 7 7 7 7 7 7 7 7 7 7 7 7 7 7 7 7 7 7 7 7 x x x j 7 x h % 7 7 7 7 7 y 7 x 7 % 7 h x # j h 7 % g % 7 b 7 7 7 7 7 7 7 7 x # h x # 7 7 7 7 7 7 7 7 7 h x x h b j h x # 7 % y x h j 7 x 7 % j N % 7 x 7 7 7 7 7 7 7 j h 7 7 y 7 7 7 7 7 7 # x # 7 % 7 7 # x % 7 7 x 7 7 7 7 7 7 7 p 7 & p y & 7 7 7 7 7 p ",
"9.p $ 7 7 & i p.8XrXrXs.r.y & 7 7 7 7 7 7 7 7 7 7 7 7 7 7 7 7 7 7 7 7 7 7 7 7 7 7 7 7 7 7 7 7 7 7 7 7 7 7 7 7 7 7 7 7 7 7 7 7 7 7 7 7 7 7 7 7 7 7 7 7 7 7 7 7 7 7 7 7 7 7 7 7 7 7 7 7 7 7 7 7 7 7 7 7 7 7 7 7 7 7 7 7 7 7 7 7 7 7 7 7 7 7 7 % x nX# hXZ.A.j A.c.M.# gXnXZ.kXg.zXhXh n.jX7 nXM Z.V.zX0Xh @ F.lXM.hXk.zXk.V.0.uXD.B o B.hX# nXV 0XzXn.A.zXG.B A.M Z.N.k.O x.hXj nXjXZ.zXh.jXlXV.+ x zXv.A.S.b.xXuXj zXG.B kXA.A.0.x.j.B zXh bX0.bXM S.% B nX+ xXl.Z.lXV.M.gX0.v.M.kXD.7 % g.j = p.8X7 9Xr.8X8Xd 8X8Xr.9X& 8Xp.8Xp.",
"aXaXp.$ 7 i p.aXpXeXrXsXpXp.i & 7 7 7 7 7 7 7 7 7 7 7 7 7 7 7 7 7 7 7 7 7 7 7 7 7 7 7 7 7 7 7 7 7 7 7 7 7 7 7 7 7 7 7 7 7 7 7 7 7 7 7 7 7 7 7 7 7 7 7 7 7 7 7 7 7 7 7 7 7 7 7 7 7 7 7 7 7 7 7 7 7 7 7 7 7 7 7 7 7 7 7 7 7 7 7 7 7 7 7 7 7 7 % x mXx.nXC.uX7 0XM.B.. 0.F.7 D.0.bXbXx jXmXB nX0XA.F.x Z.N.. gXzXV.A.B kXkXS.D.B.c.v.. B.nXx.nXG.Z.o lXgXy F.A.A.x F.A.h.. jXUX7 V.k.v.xX0.gX# zXj h lXh.x.b.Z.N N.Z.zXb.F.M.. C.xXnXk.A.HXN F.M nX0X0X% B mXl.nXA.jX. jXF.bXF.A.kX. jXk.o g.h = p.9Xr.rXr.8X8X9.8X8Xr.rXr.rXp.8Xr.",
"iXaXaXd $ p.pXeXy = = y eXrXp.7 7 7 7 7 7 7 7 7 7 7 7 7 7 7 7 7 7 7 7 7 7 7 7 7 7 7 7 7 7 7 7 7 7 7 7 7 7 7 7 7 7 7 7 7 7 7 7 7 7 7 7 7 7 7 7 7 7 7 7 7 7 7 7 7 7 7 7 7 7 7 7 7 7 7 7 7 7 7 7 7 7 7 7 7 7 7 7 7 7 7 7 7 7 7 7 7 7 7 7 7 7 7 # B hXxXkXB.gXN.0Xb.hXh h.gXx zXk.zXjXA.xXzXkXZ.0XnXS.C.jXk.O jXnXM.jXl.F.M.GXM.0XF.gX. B.lXxXgXV.gXc.0XgXB.hXj.jXZ.A.G.A.0.nXcXV.Z.x.B.jXb zXv.zX7 y l.bXF.Z.Z.G.jXn.xXh.N.jXk F.v.Z.A.zXzXjXhXh.S.S.mXo h.kXcXhXB.jXl.jXS.c.MXS.jXl.zXN # g.j * p.8X9X8Xp.8X8Xr.8X8Xr.8X9X8Xp.d 9X",
"& rXaX9.p rXrXX 7 7 i r.* rX8Xp & 7 7 7 7 7 7 7 7 7 7 7 7 7 7 7 7 7 7 7 7 7 7 7 7 7 7 7 7 7 7 7 7 7 7 7 7 7 7 7 7 7 7 7 7 7 7 7 7 7 7 7 7 7 7 7 7 7 7 7 7 7 7 7 7 7 7 7 7 7 7 7 7 7 7 7 7 7 7 7 7 7 7 7 7 7 7 7 7 7 7 7 7 7 7 7 7 7 7 7 7 7 % x h.k.h.N V D.M x 0Xx.j h.M C.x S.b.u.B % M.0.j c.0.0Xl.% % k.j c.Z.0.h.7 M.y x.F.B @ 0.h.k.h.h n.F.h j.0Xh.+ n.F.h g.D.B.N 7 l.0.M N F.g.v.F.M # j A.k.l.b.B 0Xl.# V.C.h N.V.h.x M x.0.@ M.C.N g.h M.# x h.k.h.b 0.D.V B x h.u.x D.k.# 7 V h $ 9.9.9.9.d p.r.i 9.p r.9.9.9.9.p.r.",
"= rXaX9.9.rX9Xr.7 & 9.r.= p.9X9.& 7 7 7 7 7 7 7 7 7 7 7 7 7 7 7 7 7 7 7 7 7 7 7 7 7 7 7 7 7 7 7 7 7 7 7 7 7 7 7 7 7 7 7 7 7 7 7 7 7 7 7 7 7 7 7 7 7 7 7 7 7 7 7 7 7 7 7 7 7 7 7 7 7 7 7 7 7 7 7 7 7 7 7 7 7 7 7 7 7 7 7 7 7 7 7 7 7 7 7 7 7 7 7 # # # % % o % % o # 7 # % + % o @ # % 7 @ # 7 @ # o # 7 7 # 7 # + % # 7 @ 7 @ o # 7 % # # # 7 # o 7 # o # 7 # o 7 # o @ % 7 # # % % o # @ o % 7 7 o # # # % o # 7 + + 7 + @ # % % # # 7 @ + % # 7 @ 7 % # # # 7 # o # % % # # % o # 7 7 7 7 7 & $ $ $ & * $ & & & $ & $ $ $ $ $ ",
"9XaXaX9.* 9.aXiX* y 7 $ $ r.iX9.& 7 7 7 7 7 7 7 7 7 7 7 7 7 7 7 7 7 7 7 7 7 7 7 7 7 7 7 7 7 7 7 7 7 7 7 7 7 7 7 7 7 7 7 7 7 7 7 7 7 7 7 7 7 7 7 7 7 7 7 7 7 7 7 7 7 7 7 7 7 7 7 7 7 7 7 7 7 7 7 7 7 7 7 7 7 7 7 7 7 7 7 7 7 7 7 7 7 7 7 7 7 7 7 7 7 7 7 7 7 7 7 7 7 7 7 7 7 7 7 7 7 7 7 7 7 7 7 7 y 7 7 7 7 7 7 7 7 7 7 7 7 7 7 7 7 7 7 7 7 7 7 y 7 7 7 7 7 7 7 7 7 7 7 7 7 7 7 7 7 7 7 7 7 7 7 7 7 7 7 7 7 7 7 7 7 7 7 7 7 7 7 7 7 7 7 7 7 7 7 7 7 7 7 7 7 7 $ 7 y 7 7 7 7 7 7 7 7 7 7 7 7 7 7 7 7 7 7 7 7 7 7 7 7 7 7 7 7 7 7 ",
"dXaX9X= p.aXaXpXd = $ y = p.8X9.$ 7 7 7 7 7 7 7 7 7 7 7 7 7 7 7 7 7 7 7 7 7 7 7 7 7 7 7 7 7 7 7 7 7 7 7 7 7 7 7 7 7 7 7 7 7 7 7 7 7 7 7 7 7 7 7 7 7 7 7 7 7 7 7 7 7 7 7 7 7 7 7 7 7 7 7 7 7 7 7 7 7 7 7 7 7 7 7 7 7 7 7 7 7 7 7 7 7 7 7 7 7 7 & 7 7 7 7 7 7 7 7 7 7 7 7 7 7 7 7 7 7 7 7 7 7 7 7 7 % 7 7 % 7 y 7 7 7 % # 7 7 % 7 7 7 7 7 7 7 7 7 % % 7 7 7 7 7 7 7 7 7 7 7 7 7 7 7 7 7 7 7 7 7 7 7 7 & 7 7 7 7 7 7 7 7 7 7 7 7 7 7 < 7 7 7 7 7 7 7 7 7 7 7 & s r.i 7 7 7 7 7 7 7 7 7 7 7 & $ $ & 7 # 7 % % 7 7 # 7 7 % 7 % 7 7 7 ",
"p.9.& $ d r.8XdXpXp.9.= i iX8Xp & 7 7 7 7 7 7 7 7 7 7 7 7 7 7 7 7 7 7 7 7 7 7 7 7 7 7 7 7 7 7 7 7 7 7 7 7 7 7 7 7 7 7 7 7 7 7 7 7 7 7 7 7 7 7 7 7 7 7 7 7 7 7 7 7 7 7 7 7 7 7 7 7 7 7 7 7 7 7 7 7 7 7 7 7 7 7 7 7 7 7 7 7 7 7 7 7 7 7 7 7 7 $ p i & 7 7 7 7 7 7 7 7 7 7 7 7 7 7 7 7 7 7 7 7 7 7 % 0.l.h y x h.7 7 7 x h.h 7 x y y h h 7 h h y 7 0.x % 7 7 7 7 7 7 7 7 7 7 7 7 7 7 7 7 7 7 7 7 7 7 y p & 7 7 7 7 7 7 7 7 7 7 7 8 1 &X7 7 7 7 $ = $ & & 7 7 = wXeXeX$ 7 7 7 7 7 7 7 7 7 & 9.r.r.9.& b.7 g.g.l.B x.x N g.h B j 7 & ",
"* $ 7 7 $ y aXiXpXdXiXd rX8Xr.& 7 7 7 7 7 7 7 7 7 7 7 7 7 7 7 7 7 7 7 7 7 7 7 7 7 7 7 7 7 7 7 7 7 7 7 7 7 7 7 7 7 7 7 7 7 7 7 7 7 7 7 7 7 7 7 7 7 7 7 7 7 7 7 7 7 7 7 7 7 7 7 7 7 7 7 7 7 7 7 7 7 7 7 7 7 7 7 7 7 7 7 7 7 7 7 7 7 7 7 7 7 & p r.7 7 7 7 7 7 7 7 7 7 7 7 7 7 7 7 7 7 7 7 7 7 7 7 # x.g.N Z.v.x.N.M.x.h.C.y B M.j.v.j.B.M.N.B b.B.C.B % 7 7 7 7 7 7 7 7 7 7 7 7 7 7 7 7 7 7 7 7 7 7 & 9.9.& 7 7 7 7 7 7 7 7 7 y 8 %.*X$.8 y $ r.wXwXtXy.$ y = wXeXeX& 7 7 7 7 7 7 7 7 7 & r.p.p.9.$ G.0.N.x.B.N M.v.h.v.h j.b % & ",
"7 7 7 7 7 p 8Xp pXrX9X9X9Xr.7 7 7 7 7 7 7 7 7 7 7 7 7 7 7 7 7 7 7 7 7 7 7 7 7 7 7 7 7 7 7 7 7 7 7 7 7 7 7 7 7 7 7 7 7 7 7 7 7 7 7 7 7 7 7 7 7 7 7 7 7 7 7 7 7 7 7 7 7 7 7 7 7 7 7 7 7 7 7 7 7 7 7 7 7 7 7 7 7 7 7 7 7 7 7 7 7 7 7 7 7 7 7 & p r.y 7 7 7 7 7 7 7 7 7 7 7 7 7 7 7 7 7 7 7 7 7 7 7 7 y x.A.b.h.Z.B.j.v.7 c.# g.h.x.b.V Z.0.g.M.C.g.b.j % 7 7 7 7 7 7 7 7 7 7 7 7 7 7 7 7 7 7 7 7 7 7 7 9.d & 7 7 7 7 7 7 7 7 7 7 < &X%.%.8 7 & d r.r.a.p & y = wXwXeX7 7 7 7 7 7 7 7 7 7 & r.p.p.9.; x.B.v.j.v.x j.j.C.l.N n.x 7 & ",
"7 7 7 7 7 7 = 7 rX9.r.s.d 7 7 7 7 7 7 7 7 7 7 7 7 7 7 7 7 7 7 7 7 7 7 7 7 7 7 7 7 7 7 7 7 7 7 7 7 7 7 7 7 7 7 7 7 7 7 7 7 7 7 7 7 7 7 7 7 7 7 7 7 7 7 7 7 7 7 7 7 7 7 7 7 7 7 7 7 7 7 7 7 7 7 7 7 7 7 7 7 7 7 7 7 7 7 7 7 7 7 7 7 7 7 7 7 7 & i i 7 7 7 7 7 7 7 7 7 7 7 7 7 7 7 7 7 7 7 7 7 7 7 7 B k.x k.N N h.N 0.g.h.j B Z.N N g h.V g.0.0.0.B 0.% 7 7 7 7 7 7 7 7 7 7 7 7 7 7 7 7 7 7 7 7 7 7 y p & 7 7 7 7 7 7 7 7 7 7 7 i 1 8 1 7 7 7 $ $ $ = & 7 7 & d p.s & 7 7 7 7 7 7 7 7 7 & 9.9.9.d 7 N 0.N M l.0.V g j.j l.u.7 7 & ",
"7 7 7 7 7 7 y 7 $ 7 7 7 & 7 7 7 7 7 7 7 7 7 7 7 7 7 7 7 7 7 7 7 7 7 7 7 7 7 7 7 7 7 7 7 7 7 7 7 7 7 7 7 7 7 7 7 7 7 7 7 7 7 7 7 7 7 7 7 7 7 7 7 7 7 7 7 7 7 7 7 7 7 7 7 7 7 7 7 7 7 7 7 7 7 7 7 7 7 7 7 7 7 7 7 7 7 7 7 7 7 7 7 7 7 7 7 7 7 7 7 7 7 7 7 7 7 7 7 7 7 7 7 7 7 7 7 7 7 7 7 7 7 7 7 7 7 7 7 7 7 7 7 7 % 7 7 % 0.N # 7 7 7 7 7 % 7 7 7 7 7 7 7 7 7 7 7 7 7 7 7 7 7 7 7 7 7 7 7 7 7 7 7 7 7 7 7 7 7 7 7 7 7 7 7 7 7 7 7 y 8 7 7 7 7 y y y 7 7 7 7 & $ 7 7 7 7 7 7 7 7 7 7 7 7 7 & & 7 7 7 % 7 7 % 7 7 7 % 7 % 7 7 7 7 ",
"o o o o o o o o + o o o o o o o o o o o o o o o o o o o o o o o o o o o o o o o o o o o o o o o o o o o o o o o o o o o o o o o o o o o o o o o o o o o o o o o o o o o o o o o o o o o o o o o o o o o o o o o o o o o o o o o o o o o o o o o o o o o o o o o o o o o o o o o o o o o o o o o o o o o o o o o o o o o o o o o o o + o o o o o o o o o o o o o o o o o o o o o o o o o o o o o o o o o o o o o o o o o o o o o o o + o o o o o o o o o o o + + o o o o o o o o o o o o o o o o o o o o o + o o o + o + o o o o ",
"v.v.v.v.v.v.v.v.v.v.v.v.v.v.v.v.v.v.v.v.v.v.v.v.v.v.v.v.v.v.v.v.v.v.v.v.v.v.v.v.v.v.v.v.v.v.v.v.v.v.v.v.v.v.v.v.v.v.v.v.v.v.v.v.v.v.v.v.v.v.v.v.v.v.v.v.v.v.v.v.v.v.v.v.v.v.v.v.v.v.v.v.v.v.v.v.v.v.v.v.v.v.v.v.v.v.v.v.v.v.v.v.v.v.v.v.v.v.v.v.v.v.v.v.v.v.v.v.v.v.v.v.v.v.v.v.v.v.v.v.v.v.v.v.v.v.v.v.v.v.v.v.v.v.v.v.v.v.v.v.v.v.v.v.v.v.v.v.v.v.v.v.v.v.v.v.v.v.v.v.v.v.v.v.v.v.v.v.v.v.v.v.v.v.v.v.v.v.v.v.v.v.v.v.v.v.v.v.v.v.v.v.v.v.v.v.v.v.v.v.v.v.v.v.v.v.v.v.v.v.v.v.v.v.M.M.M.M.M.M.M.M.M.M.M.M.M.M.M.M.M.M.M.M.M.M.",
"0X0X0X0X0X0X0X0X0X0X0X0X0X0X0X0X0X0X0X0X0X0X0X0X0X0X0X0X0X0X0X0X0X0X0X0X0X0X0X0X0X0X0X0X0X0X0X0X0X0X0X0X0X0X0X0X0X0X0X0X0X0X0X0X0X0X0X0X0X0X0X0X0X0X0X0X0X0X0X0X0X0X0X0X0X0X0X0X0X0X0X0X0X0X0X0X0X0X0X0X0X0X0X0X0X0X0X0X0X0X0X0X0X0X0X0X0X0X0X0X0X0X0X0X0X0X0X0X0X0X0X0X0X0X0X0X0X0X0X0X0X0X0X0X0X0X0X0X0X0X0X0X0X0X0X0X0X0X0X0X0X0X0X0X0X0X0X0X0X0X0X0X0X0X0X0X0X0X0X0X0X0X0X0X0X0X0X0X0X0X0X0X0X0X0X0X0X0X0X0X0X0X0X0X0X0X0X0X0X0X0X0X0X0X0X0X0X0X0X0X0X0X0X0X0X0X0X0X0X0X0X0X0XD.S.S.S.S.S.S.S.S.S.S.S.S.S.S.S.S.A.A.A.A.A.A.",
"o o o o o o o o o o o o o o o o o o o o o o o o o o o o o o o o o o o o o o o o o o o o o o o o o o o o o o o o o o o o o o o o o o o o o o o o o o o o o o o o o o o o o o o o o o o o o o o o o o o o o o o o o o o o o o o o o o o o o o o o o o o o o o o o o o o o o o o o o o o o o o o o o o o o o o o o o o o o o o o o o o o o o o o o o o o o o o o o o o o o o o o o o o o o o o o o o o o   o     o o o o o o o o o o o o o o o o o o o o o o o o o o o o o o o o o O 7 k.h.h.h.h.h.h.h.h.h.h.h.h.h.h.k.c.c.c.c.c.c.",
"7 % % 7 7 7 % 7 7 7 7 y 7 7 7 7 7 7 7 7 7 7 7 7 7 7 7 7 7 7 7 7 7 7 7 7 7 7 7 7 7 7 7 7 7 7 7 7 7 7 7 7 7 7 7 7 7 7 7 7 7 7 7 7 7 7 7 7 7 7 7 7 7 7 7 7 7 7 7 7 7 7 7 7 7 7 7 7 7 7 7 7 7 7 7 7 7 7 7 7 7 7 7 7 7 7 7 7 7 7 7 7 7 7 7 7 7 7 7 7 7 7 7 7 7 7 7 7 7 7 7 7 7 7 7 7 7 7 7 7 7 7 7 7 7 7 7 7 7 7 7 7 7 7 7 7 7 7 7 7 7 7 7 7 7 7 7 7 7 7 7 7 7 7 7 7 7 7 7 7 7 7 7 7 7 7 7 7 7 7 7 7 7 7 y j h j j 7 y 7 7 7 7 7 7 % 7 y y 7 7 7 7 y 7 % 7 % 7 y 7 7 y 7 # 7 y y 7 h # M.LXLXLXLXLXLXLXLXLXLXLXLXLXLXLXKXF.F.F.F.F.F.",
"M 0.0.y N j k.x h h j 7 7 7 7 7 7 7 7 7 7 7 7 7 7 7 7 7 7 7 7 7 7 7 7 7 7 7 7 7 7 7 7 7 7 7 7 7 7 7 7 7 7 7 7 7 7 7 7 7 7 7 7 7 7 7 7 7 7 7 7 7 7 7 7 7 7 7 7 7 7 7 7 7 7 7 7 7 7 7 7 7 7 7 7 7 7 7 7 7 7 7 7 7 7 7 7 7 7 7 7 7 7 7 7 7 7 7 7 7 7 7 7 7 7 7 7 7 7 7 7 7 7 7 7 7 7 7 7 7 7 7 7 7 7 7 7 7 7 7 7 7 7 7 7 7 7 7 7 7 7 7 7 7 7 7 7 7 7 7 7 7 7 7 7 7 7 7 7 7 7 7 7 7 7 7 7 7 7 7 7 7 7 % x M.lXS.x.y 7 7 7 7 7 7 7 g.7 % 7 7 7 7 7 7 x u.h j.x % 7 7 % x l.h % % h h + c.LXKXUXJXKXPXPXPXPXKXPXGXKXKXPXHXo o o o o o ",
"N Z.B.0.A.g.S.B.x.c.0.# 7 7 7 7 7 7 7 7 7 7 7 7 7 7 7 7 7 7 7 7 7 7 7 7 7 7 7 7 7 7 7 7 7 7 7 7 7 7 7 7 7 7 7 7 7 7 7 7 7 7 7 7 7 7 7 7 7 7 7 7 7 7 7 7 7 7 7 7 7 7 7 7 7 7 7 7 7 7 7 7 7 7 7 7 7 7 7 7 7 7 7 7 7 7 7 7 7 7 7 7 7 7 7 7 7 7 7 7 7 7 7 7 7 7 7 7 7 7 7 7 7 7 7 7 7 7 7 7 7 7 7 7 7 7 7 7 7 7 7 7 7 7 7 7 7 7 7 7 7 7 7 7 7 7 7 7 7 7 7 7 7 7 7 7 7 7 7 7 7 7 7 7 7 7 7 7 7 7 7 7 7 % x zXB B.B.7 7 7 7 7 7 7 7 v.l.M.j % 7 7 7 # v.l.l.g.h 7 7 7 7 v.0.M.B N S.0.o c.LXJXzXJXGXnXMXnXMXJXnXnXKXKXPXJXg 7 y 7 7 7 ",
"N.G.M.v.G.Z.x.x V.B.B # 7 7 7 7 7 7 7 7 7 7 7 7 7 7 7 7 7 7 7 7 7 7 7 7 7 7 7 7 7 7 7 7 7 7 7 7 7 7 7 7 7 7 7 7 7 7 7 7 7 7 7 7 7 7 7 7 7 7 7 7 7 7 7 7 7 7 7 7 7 7 7 7 7 7 7 7 7 7 7 7 7 7 7 7 7 7 7 7 7 7 7 7 7 7 7 7 7 7 7 7 7 7 7 7 7 7 7 7 7 7 7 7 7 7 7 7 7 7 7 7 7 7 7 7 7 7 7 7 7 7 7 7 7 7 7 7 7 7 7 7 7 7 7 7 7 7 7 7 7 7 7 7 7 7 7 7 7 7 7 7 7 7 7 7 7 7 7 7 7 7 7 7 7 7 7 7 7 7 7 7 7 % x kX0.gXgX% 7 7 7 7 7 7 7 c.b.x.g.# 7 7 7 7 h M.G.j % 7 7 7 y M.h Z.c.b.Z.x o c.LXKXmXlXlXmXxXnXnXbXD.xXPXKXPXHX% 7 7 7 7 7 ",
"n.V 0.l.7 c.j h N x M 7 y y y y y y y y y y y y y y y y y y y y y y y y y y y y y y y y y y y y y y y y y y y y y y y y y y y y y y y y y y y y y y y y y y y y y y y y y y y y y y y y y y y y y y y y y y y y y y y y y y y y y y y y y y y y y y y y y y y y y y y y y y y y y y y y y y y y y y y y y y y y y y y y y y y y y y y y y y y y y y y y y y y y y y y y y y y y y y 7 7 7 7 7 7 7 % x M.F.MXmX# 7 7 7 7 7 7 y n.0.N x % 7 7 7 % N l.N b.x % 7 7 % V M.x h.x.g.0.o c.LXIXMXmXHXxXzXJXHXMXMXUXPXPXLXD.o 7 7 7 7 7 ",
". . . . o . o o       o o o o o o o o o o o o o o o o o o o o o o o o o o o o o o o o o o o o o o o o o o o o o o o o o o o o o o o o o o o o o o o o o o o o o o o o o o o o o o o o o o o o o o o o o o o o o o o o o o o o o o o o o o o o o o o o o o o o o o o o o o o o o o o o o o o o o o o o o o o o o o o o o o o o o o o o o o o o o o o o o o o o o o o o o o o o o o o o % 7 7 7 7 7 7 7 x h g h 7 7 7 7 7 7 7 7 # % % & 7 7 7 7 7 7 % % # 7 7 7 7 7 % # % % # % 7 @ c.LXPXLXLXPXmXJXLXLXLXLXLXPXKXlX% 7 7 7 7 7 7 ",
"0X0X0X0XD.0XD.D.0X0X0XD.D.0XF.F.F.D.D.D.D.D.D.D.D.D.D.0XD.D.D.D.D.D.D.D.D.D.D.D.D.D.D.D.D.D.D.D.D.D.D.D.D.D.D.D.D.D.D.D.D.D.D.D.D.D.D.D.D.D.D.D.D.D.D.D.D.D.D.D.D.D.D.D.D.D.D.D.D.D.D.D.D.D.D.D.D.D.D.D.D.D.D.D.D.D.D.D.D.D.D.D.D.D.D.D.D.D.D.D.D.D.D.D.D.D.D.D.D.D.D.D.D.D.D.D.D.D.D.D.D.D.D.D.D.D.D.D.D.D.D.D.D.D.D.D.D.D.D.D.D.D.D.D.D.D.D.D.D.D.D.D.D.D.D.D.D.D.D.D.D.D.D.D.D.D.C.h # 7 7 7 7 7 7 h c h.0.% 7 7 7 7 7 7 7 7 7 7 7 7 7 7 7 7 7 7 7 7 7 7 7 7 7 7 7 7 7 7 7 7 o N.lXN h.g.h.j.k.g.h.g.g.h.h.M # 7 7 7 7 7 7 7 ",
"g.g.g.g.g.g.g.g.g.g.h.h.g.j.4.H.4.5.h.h.j.j.h.k.k.k.h.h.k.k.k.h.k.k.k.k.k.k.k.k.k.k.k.k.k.k.j.j.k.j.k.k.j.j.j.j.j.j.j.j.j.j.j.j.j.j.j.j.j.j.j.j.j.j.j.j.j.j.j.j.j.j.j.j.j.j.j.j.j.j.j.l.j.j.x.x.j.x.x.n.x.x.x.x.x.x.x.x.x.x.x.x.x.x.x.x.x.x.x.x.x.x.x.x.x.x.x.x.x.x.x.x.x.x.x.c.c.c.c.x.c.c.c.c.c.x.c.b.b.c.c.b.b.b.b.b.b.b.b.b.b.b.b.b.b.b.b.b.b.b.b.b.v.v.v.v.v.v.v.v.v.v.v.v.v.v.S.nXb # 7 7 7 7 % A.GXJX0X# 7 7 7 7 7 e r r r r r r 7 7 7 e r r r r r e 7 7 7 r r r r r r e o V.G.. # # # @ @ # # # # # # % 7 7 7 7 7 7 7 7 ",
"                @ @   = O G H - > ;   O Z G + @ = O Y Y * * = * @ @ @ & @ @ & @ * & @ @ @ @ @ @ @ o 5 $.< < * * @ @ @ & * @ @ @ @ * * * * @ & * * * * * @ & & * * * * & g * & * & y s.d s u & & g & & g & & l & & & & & & & & & & & & & & & & & g g & & & & & & g g & l g & g g g g g k g g g g g k g g g l k g g g k g g k g g k l g k l g g g g g g g l l l l l l l l l k k l l k & b.vXo 7 7 7 7 # G.IXJXM.# 7 7 7 7 7 r : : : : : : e 7 7 : : : : : : : 7 7 e : : : : : : r o V.F.o g 7 7 7 7 7 7 y 7 7 7 7 7 7 7 7 7 7 7 7 ",
". .           . @ & .   . J.S . # @   . S G # @   . >.;.* * = ; @   @ g     g   @ g         @ @ @ O $.%.< < * @ @ @ @ g @ @ @ @ @ @ @ @ @ @ g @ @ @ @ @ @ & g @ @ @ @ & g @ * @ ; g wXd n u % * k * @ l & @ k & * * * * * & & & & & & & & & & * g l & & & & & & & & & k g & & & & & & k & & & & g k & g & l k & g g M & g M g & M l & M l g g g g g g g g g g g g g g g g k M g g g g k cX% 7 7 7 7 # A.JXHXz.# 7 7 7 7 7 r : : : : : : e 7 7 : : : : : : : 7 7 7 : : : : : : r o V.F.o 7 7 7 7 7 7 & * & 7 7 $ $ 7 7 7 7 7 7 = ",
"              . @ * .   . J.Z . * @ . . S J.# @   . >.*.* * = & @   + &     ;   * &   @   @ @ @ @ O $.%.< < * @ @ @ @ g @ @ @ @ @ @ @ @ @ @ g @ @ @ @ @ @ & g @ * @ @ & g @ * @ ; g a.d v u % & l * * l & * k & & & & & & & & & & & & & & & & & g l & & & & & & & & & k g & & & & & & k & g g & g k & g & l k & g g M g g M g & k l & M l g g g g g g g g g g g g g g g g k M g l l g k cX% 7 7 7 7 % A.HXGXz.# 7 7 7 7 7 r : : : : : : e 7 7 : : : : : : : 7 7 e : : : : : : r o V.F.o 7 7 7 7 7 $ p 8XrXiXiX8X9.$ 7 7 7 & i a.",
". .           . @ * .   . J.Z . * ; , , L J.# @   . >.*.* * = & @   - > , - &   @ &   @     @ @ @ O $.%.< < * @ @ @ @ g @ @ @ @ @ @ @ @ @ @ g @ @ @ @ @ @ & g @ @ @ @ & g @ * @ & g a.d v u % * l * * l & @ k & * & & & & & & & & & & & & & & & g l & & & & & & & & & k g & & & & & & k & & & & g k & g & l k & g g M g g M g & k l & M l g g g g g g g g g g g g g g g g k M g g g g k cX% 7 7 7 7 7 z.N q.q.% 7 7 7 7 7 r : : : : : : e 7 7 : : : : : : : 7 7 e : : : : : : r o V.F.o 7 7 7 7 * p.iXaXpX8XiXaX9Xp.7 7 7 $ a fX",
". .           . @ * .   . J.S . @ ; J S L.J.# @   . >.*.* * = ; + - I.L.L.I.#.O * &   @   = @ @ @ O $.%.< < * @ @ @ @ g @ @ @ @ @ @ @ @ @ @ g @ @ @ @ @ @ & g @ @ @ @ & g @ * @ & g a.d v u % * l * * l & @ k & * & & & * & & & & & & & & & & & g l & & & & & & & & & k g & & & & & & k & & & & g k & g & l k & g g M g g M g & k l & M l g g g g g g g g g g g g g g g g k M g g g g k cX% 7 7 7 7 7 x.. & j.# 7 7 7 7 7 r : : : : : : e 7 7 : : : : : : : 7 7 e : : : : : : r o V.F.o 7 7 7 * p.pXpXp + X   6 p.iX8X& 7 $ a fX",
". .           . @ * .   . J.Z   ; > S S L J.# @   . >.*.* * = ; + S L.+ O L _ O * &   @     o @ @ O $.%.< < * @ @ @ @ g @ @ @ @ @ @ @ @ @ @ g @ @ @ @ @ @ & g @ @ @ @ & g @ * @ & g a.d v u % * l * * l & @ k & * & & & & & & & & & & & & & & & g l & & & & & & & & & k g & & & & & & k & & & & g k & g & l k & g g M g g M g & k l & M l g g g g g g g g g g g g g g g g k M g g g g k cX% 7 7 7 7 7 c.. g l.# 7 7 7 7 7 r : : : : : : e 7 7 : : : : : : : 7 7 e : : : : : : r o V.F.o 7 7 & p rXiXi X g l D.B . p.9X9.& $ a fX",
". .           . @ * .   . J.L.S _ I S S L K.# @   . >.*.* * = ; + S L.% O L _ O * &   @   = , @ @ O $.%.< < * @ @ @ @ g @ @ @ @ @ @ @ @ @ @ g @ @ @ @ @ @ & g @ @ @ @ & g @ * @ & g a.d v u % * l * * l & @ k & * & & & & & & & & & & & & & & & g l & & & & & & & & & k g & & & & & & k & & & & g k & g & l k & g g M g g M g & k l & M l g g g g g g g g g g g g g g g g k M g g g g k cX% 7 7 7 7 7 c.. g l.# 7 7 7 7 7 r : : : : : : e 7 7 : : : : : : : 7 7 e : : : : : : r o V.F.o 7 7 $ p.dX9.X x V x.KXx.@ = 9X8X& $ a fX",
". .           . @ * .   . J.L S I I S S L K.# =   . >.*.* * = ; O Z L % O D ` O * &   @ O J (.S +   $.%.< < * @ @ @ @ g @ @ @ @ @ @ @ @ @ @ g @ @ @ @ @ @ & g @ @ @ @ & g @ * @ & g a.d v u % * l * * l & @ k & * & & & * & & & & & & & & & & & g l & & & & & & & & & k g & & & & & & k & & & & g k & g & l k & g g M g g M g & k l & M l g g g g g g g g g g g g g g g g k M g g g g k cX% 7 7 7 7 7 b.. g l.# 7 7 7 7 7 r : : : : : : e 7 7 : : : : : : : 7 7 e : : : : : : r o V.F.o 7 7 $ 9XaX6 * V k F.nXV M X s.rXp $ a fX",
". .           . @ * .   . J.L.S I I S S L K.+ O . . >.*.* * = ; @ G L % O J ^.O * &   @ O L P.J O   $.%.< < * @ @ @ @ g @ @ @ @ @ @ @ @ @ @ g @ @ @ @ @ @ & g @ @ @ @ & g @ * @ & g a.d v u % % l * * l & @ k & * & & & * & & & & & & & & & & & g l & & & & & & & & & k g & & & & & & k & & & & g k & g & l k & g g M g g M g & k l & M l g g g g g g g g g g g g g g g g k M g g g g k cX% 7 7 7 7 7 b.. g l.# 7 7 7 7 7 r : : : : : : e 7 7 : : : : : : : 7 7 e : : : : : : r o V.F.o 7 7 $ 9XrX  & V V V B B V X 9.9Xp $ i s.",
". .           . @ * .   . J.L S I I S S J /.L.L.S . >.*.* * = : U.K., % O S ^.O * &   @ O L L.J O   $.%.< < * @ @ @ @ g @ @ @ @ @ @ @ @ @ @ g @ @ @ @ @ @ & g @ @ @ @ & g @ * @ & g a.d v u % % l * * l & @ k & * & & & * & & & & & & & & & & & g l & & & & & & & & & k g & & & & & & k & & & & g k & g & l k & g g k g g M g & k l & M l g g g g g g g g g g g g g g g g k M g g g g k cX% 7 7 7 7 7 b.. g l.# 7 7 7 7 7 r : : : : : : e 7 7 : : : : : : : 7 7 e : : : : : : r o V.F.o 7 7 $ 9XaX6 * M M V V B C X s.rXp & 7 $ ",
". .           . @ * .   . J.L S I I S S S , S L K.. >.*.* *   P L.. = 3   A U.  * &   @ O L.L L O   $.%.< < * @ @ @ @ g @ @ + + @ @ @ @ @ @ g @ @ @ ; @ @ & g @ @ @ @ & g @ * @ & g a.d v u % % l * * l & @ k & * & & & & & & & & & & & & & & & g l & & & & & & & & & k g & & & & & & k & & & & g k & g & l k & g g k & g M g & k l & M l g g g g g g g g g g g g g g g g k M g g g g k cX% 7 7 7 7 7 b.. g n.# 7 7 7 7 7 r : : : : : : e 7 7 : : : : : : : 7 7 e : : : : : : r o V.F.o 7 7 * p.dX9.. l M V V V @ X 9X8X$ 7 7 7 ",
"              . @ * .   . K.L S I I S S J X + , L.. >.*.* *   P L.. S _ S J U.P.@ ;   = P.K.S J.O o $.%.< < * @ @ @ @ g @ + , , + @ @ @ @ @ g @ @ * ).> + & g @ @ @ @ & g @ * @ & g a.d v u % % l * * l & @ k & * & & & & & & & & & & & & & & & g l & & & & & & & & & k g & & & & & & k & & & & g k & g & l k & g g b & g M g & k l & M l g g g g g g g g g g g g g g g g k M g g g g k cX% 7 7 7 7 7 b.. g n.# 7 7 7 7 7 r : : : : : : e 7 7 : : : : : : : 7 7 e : : : : : : r o V.F.o 7 7 & p rXiX6   & l g @   p.9Xr.$ 7 7 7 ",
". . . . . . . . o # .   . K.L S _ I S S J - # , K.. >.*.* *   S L.. S _ J S 2 P.; ;   , P.  , U.* O $.%.< < * @ @ @ @ g + S U.U., + @ @ @ = g @ + ; _.S o & g @ * * @ & g @ * @ & g a.d v u % * l * * l & * k & * * * * * * * * * * * * * * * * g g * $ $ $ $ $ $ & * k ; $ & & & & & k & & & & ; k & ; & g k & ; ; k & ; C g & k l & z g ; ; ; ; ; ; g g g g g g g g g ; l C ; g g ; k cX% 7 7 7 7 7 v.. g x.# 7 7 7 7 7 r : : : : : : e 7 7 : : : : : : : 7 7 e : : : : : : r o V.F.o 7 7 7 * p.aXpX6 o   o = p.iX8X& 7 7 7 7 ",
", , , , , , , - , > - - X K.L S I I S S J - # , K.. >.*.* *   S L . P I S P y L.* 6 . , J.O O L.S O $.%.< < * @ @ @ = e = U., L J + * * * * l * * > _.S + 2 e = = @ + $ g @ * * ; g a.d n j & & l * @ g * @ k & & y y y y y i i i i i i i i u i v v i u u u u u u u u m j u u u u u u m u u u u v m u j u v m u j v m u j m v u m v u m v j j j j j j v v v v v v v v v j b m j v v v b cX% 7 7 7 7 7 v.. g x.# 7 7 7 7 7 r : : : : : : e 7 7 : : : : : : : 7 7 e : : : : : : r o V.F.o 7 7 7 7 = p.rX& y 7 y & r.8X$ 7 7 7 7 7 ",
"P.P.P.P.P.P.P.P.P.U.P.P.K.).).U.U.Q.E.` I 2 i : L.+ 8.*.l 3 3 ^.U.#.^.~.~.Q.!.).^.!.!.U.U._ E.U.^.#.*.8.z z C l y y u &.*.Q.$.:.T.$.$.$.$.$.,.$.$.*.`.;.$.&.&.$.&.&.} s v i i i u v wXr.y.m v j M j y.i.i.i.d.d.d.d.d.d.d.d.d.d.d.d.d.d.d.d.d.d.d.d.d.d.d.d.d.d.d.d.d.d.d.d.d.d.d.d.d.d.d.d.d.d.d.d.d.d.d.d.d.d.d.d.d.d.d.d.d.d.d.d.d.d.d.d.d.d.d.d.d.d.d.d.d.d.d.d.d.d.d.d.d.d.d.d.d.i.zX% 7 7 7 7 7 v.. g x.# 7 7 7 7 7 r : : : : : : e 7 7 : : : : : : : 7 7 e : : : : : : r o V.F.o 7 7 7 7 7 & $ * $ $ * $ $ 7 7 7 7 7 7 $ ",
". . . . . . . . o # .     P.L J ` E.L.U.U.S ; S I.D Q.'.).).).).`.`.(.(.).).U.`.).).U.).`.'.).).`.).(.`.(.(.).).).).'.'.'.`.'.).`.U.).).U.U.).).U.)._.(.U.U.Q.Q.Q.'.{.Q.U.L.L.L.L.L v.X.X.z ; g i.i.i.i.y.d y.d u u u u u u u u u u u u u u u i v n i u u u u u u u u m s u s u s s s t.s s s s v t.s s s n m s s v t.s s t.v s t.n s t.n s v v v v v v v v v v v v v v s n t.s v v s b cX% 7 7 7 7 7 v.. g x.# 7 7 7 7 7 r : : : : : : e 7 7 : : : : : : : 7 7 e : : : : : : r o V.F.o 7 7 7 7 7 $ 7 r.8X8X9Xp.p $ 7 7 7 7 i r.",
"I.I.I.I.I.I.I.I.I.I.I.I.I.`.).).).).).)._.`.`.`.`.P.Q.T.S U.T *.^ T ' [ I ' u L.P f @ L.E *.=.E L O $.,.3 2 3 >./ I J _ L.U.I E.).E _ _ _ _ ` ` _ U.`.U._ ` E.L _ U.(.E.E.W.Q.U.U.U.[.[.(.(.].].].(.(.(.(.(.(.(.(.(.(.(.(.(.(.(.(.(.(.(.(.].].].].].].].].].].].].].].].].].].].].].].].].].].].].].].].].].].].].].].].].].].].].].].].].].].].].].].].].].].].].].].].].].].].].].].!.lX% 7 7 7 7 7 v.. g x.# 7 7 7 7 7 l 4 3 3 3 3 3 g 7 7 3 4 3 3 3 4 3 7 7 g 4 4 4 4 4 4 l o V.F.o 7 7 7 7 * 9.9XaXaXrXaXaX8Xr.$ 7 7 $ a fX",
"J.J.J.J.J.J.J.J.J.L.G G G /.U.K.U.L.L.L.L L E.(.P.. *.*.+ U.=.4 I T _ { T T P L.U.E.U.L.; > ~ T.L.O $.%.1 I :.1 < 1 1 f E.I 1 3 U.< 1 1 1 1 s 1 1 _ '._ 1 1 1 1 1 E.).1 u 1 $.$.# i wXa b x.y.k } z z ..} } ..X.X.X.X.X.X.X.X.X.X.X.X.X.X.X.X.X.....X.X.X.X.X.X.X.X.X...X.X.X.X.X.X.X...X.X.X.X.....X.X.X.....X.X.....X.X.....X.....X.....X...........................................} zX% 7 7 7 7 7 v.. g x.# 7 7 7 7 7 l 4 4 4 4 4 4 g 7 7 4 4 4 4 4 4 4 7 7 y 4 4 4 4 4 4 l o V.F.o 7 7 7 $ 9.iXaXp.p @ 6 9.8XiXp.& 7 $ a fX",
"      X X X X   = ; X X   P.J S _ _ J J J J _ E `.- *.*.Y '., 3 I T _ { T T { P 3 _ J < P _ I J Q.L.Q.%.P `.U.< 2 2 2 5 U.3 3 U U.3 < 2 2 2 C 2 1 ` '.E.1 4 4 2 1 E.(.1 z 2 2 $.*.e a.a !._.s f n f f d d f y.a f a a a a a a a a a a a a a a f d d f a d d d d d d a y.d d d d d d d y.d d d d d y.d d d d y.d d d y.d d y.d d y.d d y.d d d d d d d d d d d d d d d d d y.y.d d d d n cX% 7 7 7 7 7 v.. l x.# 7 7 7 7 7 l 4 4 4 4 4 4 g 7 7 4 4 4 4 4 4 4 7 7 l *.*.*.*.*.*.z o V.F.o 7 7 7 7 9XaX9.X * & x.l o 8XrXd & $ a fX",
"- - - - - - - - - ; - - X I.L J _ _ J J J J _ J ).P.>.8.>.U.3 4 ' T _ { T T { P 2 5 < 2 I _ ' ` U.Q.'.,.Q._ E.2 < 2 1 ` U.5 ' U U.3 < 2 < < 4 2 1 E.Q.E.1 5 5 2 1 U.(.5 4 < 5 < $.$.a.s.4.(.z f m u u m s u m s u s s s s s s s s s s s s s s u n n u s s s s s s s s t.v s s s s s v t.v v v s v t.s v v n t.s v n t.v v t.n v t.m v t.n v v v n n n n n n n n n n n n n m t.v n n n b cX% 7 7 7 7 7 M.. l x.# 7 7 7 7 7 l 4 4 4 4 4 4 g 7 7 4 4 4 4 4 4 4 7 8 *.2X2X2X2X2X2X,XO V.F.o 7 7 * r.aXp.. l V k.IXb.  % 9X8X$ $ a fX",
"- - - - - - - X Z U.K.P.P.I.J J _ _ J J J J _ E P.A '.8.Y U.2 3 ' T _ [ T T { P 2 4 2 2 I _ ' E.(.E.W.|.W.5 U.5 < 2 1 L.P 3 ~ Y U.I 1 2 < < 4 < 1 E.Q.E.1 5 5 2 1 U.(.5 4 2 1 < l ,.yXs.!.~.X.a m u i m s i m s u u s s s s s s s s s s s s s u n n u s s s s s s s s t.v s s s s s s t.s s s s v t.s v s n t.s s n t.s s t.v s t.m s t.n v v v v v n n n n n n n n n n v m t.v n n n b cX% 7 7 7 7 7 M.. l c.# 7 7 7 7 7 l 4 4 4 4 4 4 g 7 7 4 4 4 4 4 4 4 7 8 *.2X2X2X2X2X2X,XO V.F.o 7 7 $ 8XaXf = V k D.mXV b X 8X9Xi $ a fX",
"- - - - - - -   G J.- , , S J J _ _ J J J J _ E I.X |.'.U.U.P Y ' T _ [ T T { I 2 4 2 2 I _ _ _ _ , ,.+XI.5 U.2 < 2 1 L.P P ' U E.L.1 2 2 2 5 I _ U.E.E.1 5 5 2 1 E.(.4 4 < _ 3 5 &.yXr.!.~.| a m u i m s i m s u u s s s s s s s s s s s s s u n n u s s s s s s s s t.v s s s s s s t.s s s s v t.s v s n t.s s v t.s s t.v s t.m s t.n v v v v v v n n n n n n n n n v m t.v n n v b cX% 7 7 7 7 7 N.. l c.# 7 7 7 7 7 l 4 4 4 4 4 4 g 7 7 4 4 4 4 4 4 4 7 8 *.2X2X2X2X2X2X,XO V.F.o 7 7 $ 9XrX  & V M k.j.B V X r.9Xp $ d eX",
"- - - - - - - X G D   - X , J J _ _ J J J J _ E I., XX`.Y Y W { _ T _ [ T T { I 2 4 2 2 ' _ _ ' 2 2 &X,XU 1 U.I U.L.1 L.3 P ' U W L.1 2 < 2 u U._._ ` U.1 5 5 < < E.(.P 5 1 U.I 5 d.yXf.!.!.@.a m u i n s i m s u u s s s s s s s s s s s s s u n n u s s s s s s s s t.v s s s s s s t.s s s s v t.s v s n t.s s v t.s s t.v s t.n s t.n v v v v v v v v n n n n n n n v m t.v n n v b cX% 7 7 7 7 7 B.. l c.# 7 7 7 7 7 l 4 4 4 4 4 4 g 7 7 4 4 4 4 4 4 4 7 8 *.2X2X2X2X2X2X,XO V.F.o 7 7 $ rXpX+ * M V M V B M X p.rXp & 7 = ",
"- - - - - - - X J.D X - X , J J _ _ J J J J _ J I./ }._.E.3 W [ _ T _ [ T T { I 3 4 2 I _ _ _ _ ; $.,.&X*.5 I (.).L.1 U.3 I ' ' I U.3 < 2 2 5 U.E 1 ` U.1 5 5 2 < E.).P 5 < U.I &.d.wX:X!.!.@.a m u i n s i m s u u s s s s s s s s s s s s s u n n u s s s s s s s s t.s s s s s s s t.s s s s v t.s s s n t.s s v t.s s t.v s t.n s t.n v v v v v v v v v n n n n n n v m t.v n n v b cX% 7 7 7 7 7 B.. l c.# 7 7 7 7 7 l 4 4 4 4 4 4 g 7 7 4 4 4 4 4 4 4 7 8 *.2X2X2X2X2X2X,XO V.F.o 7 7 $ p.dX9.X k V V V V & X 9X8X7 7 7 7 ",
"- - - - - - - X J.D X - X , J J _ _ J J J J _ J ).Y }.'.U.T T { _ T _ [ T T { T _ ' I _ _ _ _ _ 4 ,.,.,.*.=.5 P I U.U.E.2 ' ' ' Y L.P I (.2 C U.2 2 ` U.< 5 5 U.3 E.Q._ 5 < ).I f.y.wXf.~.!.!.a m u i n s i m s u u u s s s s s s s s s s s s u n n u s s s s s s s s t.s s s s s s s t.s s s s v t.s s s n t.s s v t.s s t.v s t.n s t.n v v v v v v v v v v v n n n n v m t.v n n v b cX% 7 7 7 7 7 B.. l c.# 7 7 7 7 7 g g g g g g g 7 7 7 l l l l l l l 7 8 *.2X2X2X2X2X2X,XO V.F.o 7 7 $ 9.iX9X    l k k & X 9.9Xp.$ 7 7 7 ",
"- - - - - - - X J.A X - X , J J _ _ J J J J _ _ )., T.Q.Q Q.' { _ T _ [ T T { T _ { T _ _ _ _ _ *.*.8.&X*.}.Y 1 1 E E 5 P ' ' ' Y E.I E.(.2  .U.1 2 ` U.< 5 ] `.P E.E.E.u 2 (. .f. .:Xi.~.!.^.a m f i n d i m s u u u s s s s s s s s s j s s u n n u s s s s s s s s t.s s s s s s s t.s s s s v t.s s s n t.s s v t.s s t.v s t.n s t.n s v v v v v v v v v v v v n n v m t.v n n v b cX% 7 7 7 7 7 B.. l b.# 7 7 7 7 8 8.,X,X,X,X,X,X*.8 e Y.|.|.|.|.|.T.e 6 P '.'.'.'.'.'.T.O V.F.o 7 7 7 = 8XdXrX#     o   r.rX8X7 7 7 7 7 ",
"- - - X X X -   K.L , S , S J J _ _ J J J J _ ( '.P.).Q.3 Q.Q [ _ T _ [ T T { T _ [ T _ _ _ _ ~ ,.I 8.&X*.}.*.< 2 1 1 z ' ' ' ' Y W U.L.L._ U.` < 3 ` U.2 1 !.U._ U.E.E.5 2 `.b.r.!.C.f.~.oX^.a m C f m M u m s u j ~.j s s s s s s a | ^.a s u n n u s s s s s s s s t.v s s s s s s t.d s s s v t.s s s n t.s s v t.s s t.n s t.m s t.n s v v v v v v v v v v v v v n v m t.v n n v b cX% 7 7 7 7 7 B.. l b.# 7 7 7 7 6 -.>X>X>X>X>X>XY 6 e |.OXOXOXOXOXOXr 6 S /./././././.L.O V.F.o 7 7 7 7 $ 8XpX7 7 7 7 $ p.9X7 7 7 7 7 7 ",
"X X X - , - , - P.L.K J J J J K _ J J J J J _ }.T , }.}.Y T.Q.' _ T T [ T T [ T _ [ T _ T T T =.>.' }.8.U }.>.< < < < 4 ' ' ' ' ' 2 `.L.P ).).3 Y 3 ~ U.2 5 ^._ U.U.` ~.u 2 _.5.a ~.@Xf.~.oX~.a V (.X.N (.k n u f u (.C f u u f u u a ^.~.a u i v n u s u u u u s s u m s u s s s s s t.} s s s s t.s s s n m s s v t.s s t.v s t.n s t.n s s s s s s s s s s s s s s v s n t.s v v s b cX% 7 7 7 7 7 B.. l b.# 7 7 7 7 6 A J.G G G G J.> 6 e |.OXOXOXOXOX|.r 6 P /./././././.L.O V.F.o 7 7 7 7 & y i $ $ * * $ 7 i & 7 7 7 7 7 ",
"> ; L I.P.P.P.P.U.` _ _ _ _ _ _ ` ` _ _ _ _ R.}.' 3  X}.R.Y.'.{ { [ { { [ [ { [ { { [ { [ [ {  X:.{  X X:.:. X*.4 4 5 <.[ [ [ [ [ z ).E.4 `.!.5 [ U [ Q.z z ~.z `.'.{ ~.&.E._.O.r.~._.].~.7.~.d u._.!.u._.V y.m n V `...d m V @.m m y.~.~.y.m m t.t.m m m m m m m t.m u.t.m t.t.t.t.t.u.].B y.t.t.u.t.t.t.t.u.t.t.t.u.t.t.u.t.t.u.t.t.u.t.t.t.t.t.t.t.t.t.t.t.t.t.t.t.t.t.u.u.t.t.t.t.b zX% 7 7 7 7 7 B.. l b.# 7 7 7 7 6 S J.J.J.J.J.J.> 6 e |.OXOXOXOXOX|.r 6 S /./././././.L.O V.F.o 7 7 7 7 7 $ $ i r.p.p.d 7 $ 7 7 7 7 7 7 ",
"- X K.A X - - - , _ J J J J J J _ _ J J J J Y.Y.I , }.}.Y.) Q.W.' T _ { _ _ { _ _ { _ _ _ _ =.-.^ ^ -. X:.=.}.*.3 3 < } [ ' ' ' ' Y 2 3 P `.!.5 [ ' ' U.2 P U.2 `.` [ ~.| _._.+.y.[.`.`.[.5.~.d B _.` B _.z y.v d M _.X.d d } ~.d v a ~.[.a v s n m s s s s s s s s s t.n s v s s v s u.].].@.s n t.s v s m t.s n n t.v v t.n v t.m v t.m n n n n n n n n n n n n n n n n m t.n n n n b zX% 7 7 7 7 7 V.. l b.# 7 7 7 7 6 S J.J.J.J.J.J.> 6 e |.OXOXOXOXOX|.r 6 S /./././././.L.O V.F.o 7 7 7 7 $ p p.aXdXpXaXaX8Xd & 7 7 7 7 7 ",
"- X K.Z X - - X , _ K J J J J J _ _ J J J R }.W J , -.}.Q ( E.'.' T T [ T T [ T _ [ T _ _ _ -.^ ^ ~ -. X=.=.=.-.I 3 < U ' ' ' ' ' I < 2 Y (.` 3 ' ' U )._ L.` < ).I [ Q.!._.(.@.d ].@X~.[.5.Q.&.} _.^.V _.z d s f C _.X.a f X.[.f u a ~.[.a u u v n u s s s s s s s u m s s s s s s d ..!.[._.~.d t.s s s n m s s v t.s s t.v s t.n s t.n s s s s s s s s v v v v v v v s m t.s v v s b cX% 7 7 7 7 7 V.. l v.# 7 7 7 7 6 S J.J.J.J.J.J.> 6 e |.OXOXOXOXOX|.r 6 S /./././././.L.O V.F.o 7 7 7 & i rXaX8Xp.i 9.p.8XrX9.& 7 7 7 7 ",
"- X K.Z X - - X , _ K J J J J J _ _ J J J Y.R.W T , -.}.Q ( W Q.Y.' _ [ T T { T _ [ T _ _ ^ -.~ ^ ~ -. X=.=.^ }.:.P P ] ' ' ' ' ' ' 5 3 U _ } P ' ' ' _ ).[.4 P I P ' (._.oX!.`.&.~.:X~.[.<.Q.&..._.^.} _.X.y.s f } `.#.@.a | (.u s f ~.~.a s u n n u s s s s a s s s t.v s M v s s d ..!.@._.].d t.s s s n t.s v v t.s s t.v s t.n s t.n s v v v v v v v v v v v v v v v m t.s v v s b cX% 7 7 7 7 7 V.. k v.# 7 7 7 7 6 S J.J.J.J.J.J.> 6 e |.OXOXOXOXOX|.r 6 S /./././././.L.O V.F.o 7 7 7 $ 8XaXp.X X = C ; f rX9Xi & 7 7 7 ",
"- X K.Z X - - X , _ K J J J J J _ _ J J J Y.` W T S }.}.( ( W T.Q.I T [ T T { T _ [ T _ _ =.=.~ ^ ~ -. X=.=.=.=.}.I ' [ ' ' ' ' ' ' 3 P ~ 2 } I ' ' [ 5 L ~.4 I < P ' (._.u. .Q. .~.:X~.~.<.~.~.!.`.^.X._.#.y.v a X.`.@.(.u | `.s u u ~.~.u s u d !.@.a s s v | s s u t.v d ~.z d v d ..!.a ].].d t.s s s n m s d v t.s s t.v s t.n s t.n s v v v v v v v v v v v v v v v m t.s v v s b cX% 7 7 7 7 7 Z.. k v.# 7 7 7 7 6 S J.J.J.J.J.J.> 6 e |.OXOXOXOXOX|.r 6 S /./././././.L.O V.F.o 7 7 $ r.pXp.X & V B HXb.. p 9Xs.$ 7 7 7 ",
"X   P., X X - X , _ K J J J J J _ J J J W Y.` W W E |.|.( ( W R.'.T _ [ T T { T _ [ T _ ~ -.^ ^ ^ ~ -. X=.=.=.^ }.^ I [ ' ' ' ' ' ' Y U ' 3 U [ ' ' ' P < 5 4 ' 3 Y U ).H.&. .!.@.~.:X!.~.<.!.`.~.~.!...{.#.d s f @.(.^._.k @.`.j d u ~.~.u s u v {.!.a v d X.{.v d f m v d ~.| @.s a ..!.a !._.M y.s v d n y.} @.d t.s v t.v s t.n s t.n s v v v v v v v v v v v v v v s n t.s v v s b cX% 7 7 7 7 7 Z.. k v.# 7 7 7 7 6 S J.J.J.J.J.J.> 6 e |.OXOXOXOXOX|.r 6 S /./././././.L.O V.F.o 7 7 $ 8XdXd X V C S.JX<.k X 8X9X7 7 7 7 ",
"K.K./.A S S S S J _ K J J J J J _ J J J Y.Q ` W W T |.|.( ( Q { Q.E.' { T T { T _ [ T _ =.=.~ ^ ^ ~ -. X=.=.=.^ :.:.I [ ' ' ' ' ' ' Y U ' 3 U ' ' ' ' P < 4 U ' P I ' +.d.z <.!.^.~.:X~.~.<.@._.'.^.^.@.(.#.y.a } `.[.(.(.C #.`.j d k ~.~.j s u b ].^.X.d a | _.s b z y.v s [.@.~.s s [.!.a !._.!.y.v d X.} y.@.~.a t.s d y.v s t.n s t.n s s v v v v v v v v v v v v v s n t.s v v s b zX% 7 7 7 7 7 Z.. k v.# 7 7 7 7 6 S J.J.J.J.J.J.> 6 e |.OXOXOXOXOX|.r 6 S /./././././.L.O V.F.o 7 7 $ rXiX+ & V M b.B.V V X r.9Xp & 7 7 ",
"Z Z S K K J J K J _ K J J J J J _ _ J T Y.E ` W E T |.|.( ( Q ` E.Q.' { T T { T _ [ T _ -.^ ^ ^ ^ ~ -. X=.=.=.^ ^ }.' [ ' ' ' ' ' ' U U ' P ] ' ' ' ' I 2 3 ] ' Y U T &.f.z <.!.[.!.:XoXoX5.O._.{.!.^.@.].#...z } _.~.(.~.X.^.{.k C ~.~.~.k !.u b [.~.[.@.@.@._.| !.~.n d s ].!.].!.} ~.} V !._.!.y.v a ~.@.r.@.~.d t.d X...d s t.n s t.n s s s s v v v v v v v v v v v s n t.s v v s b zX% 7 7 7 7 7 Z.. k v.# 7 7 7 7 6 S J.J.J.J.J.J.> 6 e |.OXOXOXOXOX|.r 6 S /./././././.L.O V.F.o 7 7 $ rXiXo & V V M M B M X r.rXp & 7 7 ",
"X X - K K J J J J _ K J J J J J _ _ J ( Y.R ` W E T |.|.( ( Q ` W '.W [ T T { T _ [ T ~ -.~ ^ ^ ^ ~ -. X=.=.=.^ ~ }.^ [ ' ' ' ' ' ' ' ' ' I [ ' ' ' ' I 2 3 [ ' ' ' ' i.&.} 1.{ _.2.m.6.6.5.1._._.7.^.!.[.@.@.(.!._.~.`.^.^.`.(.z z (.~.~.z ~.k !.[.~.{.{.~.@._.(.^.(.[.| s ].^.{.[.@.!.z  .!._.~.y.s s {.!.r.@.].!.t.b {.!.d v t.n s t.n s s s s s s v v v v v v v v v s n t.s v v s b zX% 7 7 7 7 7 Z.. k M.# 7 7 7 7 6 S J.J.J.J.J.J.> 6 e |.OXOXOXOXOX|.r 6 S /./././././.L.O V.F.o 7 7 $ s.dXp X M M V V B g X 9X9Xy 7 7 7 ",
"- X , K K J J K J _ K J J J J J _ _ J Y.Q E ` W E T |.|.( ( Q ` _ Q.W.' T T { T _ { T =.=.~ ^ ^ ^ ~ -. X=.=.=.^ ^ =.}.[ ' ' ' ' ' ' ' ' ' ' [ ' ' ' ' I P U [ ' ' ' ] x.<.} 1.@.~.5.m.6.6.5.<.!._.7.~.^.~.@.` _.(.`.!.(.!.[.`.[.X.} _.!.~.} `.^.{.~.~._.~.!.!.{.{.~.[._.].s {.~._.(.!.@.}  .~.^.!.!.| ^.{.@.B ].{._.@.M _.!.a s t.d s t.n s s s s s s s s v v v v v v v s n t.s v v s b zX% 7 7 7 7 7 C.. k M.# 7 7 7 7 6 S J.J.J.J.J.J.> 6 e |.OXOXOXOXOX|.r 6 S /./././././.L.O V.F.o 7 7 $ 9.pXp.X @ k M M l X p 9Xp.$ 7 7 7 ",
"X X , K K K J J J _ K J J J J J _ J R Y.E E ` W E T |.|.( ( Q ` W Y.Q.[ T T [ T _ [ T -.^ ^ ^ ^ ^ ~ -. X=.=.=.^ ^ ^ }.[ ' ' ' ' ' ' ' ' ' ' [ ' ' ' ' U I [ [ ' ' ' 5.<.<.o.1. .&.3.m.6.6.5.1.z !.7.Q.U.~.` ^._.`.(.!.(.!.`.(.~.X.X._.!.~.X._.(._.~.]._.^.!.~.[._.^.!._.(.k (.~._.].~.O.}  .~.!.X.{.]._.~.!.~._.~._.~.} _.!.M b y...z y.n s s s s s s s s s s s v v v v s n t.s v v s b zX% 7 7 7 7 7 C.. k M.# 7 7 7 7 6 S J.J.J.J.J.J.> 6 e |.OXOXOXOXOX|.r 6 S /./././././.L.O V.F.o 7 7 7 * 8XdX8Xo   @ @   p rX9Xi 7 7 7 7 ",
"S , S K K K J J J _ K J J J J J _ J ( Y.E E ` W E T |.|.( ( Q ` ` T Q.R.T T [ T _ [ ~ -.~ ^ ^ ^ ^ ~ -. X=.=.=.^ ^ ~ }.}.I ' ' ' ' ' ' ' ' ' [ ' ' ' ' ' ' [ [ ' ' ' 6.<.3.o.1.1.<.3.m.6.6.5.1.<.&.1.|.(.!.U._.`.`.` @.(.` `.@.!.@.} _.!.^.^._._._.~.[._.@.@.(.@.!.C !._._.^.[._._.!.`... . .~.!.X._._._.@.~._.{.~._.].!._.!.~.} r.~.@.y.n s s s s s s s s s s s s s s v s n t.s v v s b zX% 7 7 7 7 7 C.. k M.# 7 7 7 7 6 S J.J.J.J.J.J.> 6 e |.OXOXOXOXOX|.r 6 S /./././././.L.O V.F.o 7 7 7 & i rXaX7 % # % * p.rXd 7 7 7 7 7 ",
"S S S K J J J J J _ K J J J J J _ J Y.Q E E ` W E T |.|.( ( Q ` ` T T.Q.I T [ T _ _ =.=.~ ^ ^ ^ ^ ~ -. X=.=.=.^ ^ ^ { }.' ' ' ' ' ' ' ' ' ' [ ' ' ' ' ' ' [ [ ' ' o.6.1.3.o.1.1.<.3.m.6.6.5.1. .<.1.|.`.@._.].[.`.@. .@.@.(.z +.(.[._.@.!._._.].(.~.[._.@.@._.| C d ~.~.~._.~._._.+.@.<. . .~.!.X._._.].} {.].~.~._.].[.{.~.~.X.r.~.@.y.n s s s s s s s s s s s s s s s s n t.s v v s b zX% 7 7 7 7 7 C.  k M.# 7 7 7 7 6 S J.J.J.J.J.J.> 6 e |.OXOXOXOXOX|.r 6 S /./././././.L.O V.F.o 7 7 7 7 $ p 9.$ 7 7 7 & i 9.$ 7 7 7 7 7 ",
"S S J K K K K K J _ K J J J J K _ W Y.E E E ` W E T |.|.( Q Q ` W E Q '.T T [ T _ { -.^ ~ ^ ^ ^ ^ ~ -. X=.=.=.^ ^ ^ ~ }.[ I ' ' ' ' ' ' ' ' [ ' ' ' ' ' ' [ [ ' ' 6.5.o.2.o.o.1.<.2.m.6.6.5.1.1.5.1.!.{. .).[.~.(.| X.C @.U.} X.#.~.`.@.+.^.^.} ~.~.@.[.~.z !.+.} s !.!.b #.!.[.[.+.s 4.+. .!.~.} {._.@.v _.@.| X.~.[.].[._._.| r.~.@.y.v s s s s s s s s s s s s s s s s n t.s s s s b zX% 7 7 7 7 7 C.  k M.@ 7 7 7 7 6 S J.J.J.J.J.J.> 6 e |.OXOXOXOXOX|.r 6 S /./././././.L.O V.F.o 7 7 7 7 7 & $ 7 7 7 7 7 7 $ 7 7 7 7 7 7 ",
"_ _ _ _ _ _ _ _ ` ` _ _ _ _ _ _ _ R.R.` ` ` R.{ ` ` |.|.R.R.R.R.R.` { '.E.[ { { { :.-.{ :.:.:.:.:.{  X X:.:.:.:.:.:.:.oX}.[ [ [ [ [ [ [ [ [ ;.[ [ [ [ [ [ ;.;.[ o.H.3.7.7.3.3.3.6.7.m.6.6.6.7.5.6.5.R.[.<.~.~.!.!.O.4.<.4.....O.d y.!.O.4.B } <.~.[.t.O.!...m 4.4.0.!.~.t.m @.~.[.@.<.7.4.4.!.!.<.4.@.g.u.{.@.t.<.~.~.[.~._._.@.!.[.{.j.t.u.t.t.t.t.t.t.t.t.t.t.t.t.t.t.t.u.u.t.t.t.t.b zX% 7 7 7 7 7 C.  k N.@ 7 7 7 7 6 S J.J.J.J.J.J.> 6 e |.OXOXOXOXOX|.r 6 S /./././././.L.O V.F.o 7 7 7 7 7 7 7 7 7 7 7 7 7 7 7 7 7 7 7 7 ",
"K J J J J J J J J _ J J J J J J _ }.E E W E ` W W T |.|.( ( Q ` ` W _ Q.Q.I { T _ -.=.~ ^ ^ ^ ^ ^ ~ -. X=.=.=.^ ^ ^ ^ :.}.' ' ' ' ' ' ' ' ' [ ' ' ' ' ' ' [ [ ' 1.6.] 1.3.o.1.1.3.3.m.6.6.5.2.1.3.1.o.7.1.#...} z X. .X.| z +. .k } z  .+.} } } ~.~.z }  .X.z +. .} | 4.} z  .} !.+.} 4.O.O. . . ...z b } @...X.O.....~. ._._.@.[.{._.@.[.X.d v s s s s v v v v v v v v s n t.s v v s b zX% 7 7 7 7 7 C.  k B.@ 7 7 7 7 6 S J.J.J.J.J.J.> 6 e |.OXOXOXOXOX|.r 6 S /./././././.L.O B.F.o 7 7 7 7 7 7 7 7 7 7 7 7 7 7 7 7 7 7 7 7 ",
"K K K K K K K K J _ K J J J J J W Y.R E E E ` W E T |.|.( ( Q ` W E W R.Q.T [ T ~ -.~ ^ ^ ^ ^ ^ ^ ~ -. X=.=.=.^ ^ ^ ^ :.}.~ I ' ' ' ' ' ' ' [ ' ' ' ' ' ' [ [ ' 6.5.] 1.2.o.o.o.2.2.m.6.6.5.1.1.3.1.o.7.7.C V  .} X. . .| } |  .C } X.| +.} X.} ^.~.}  .+. . .+. .X. .4.} z | } }  . .4.+.O. . .O...X.}  ...<.+.O.} ..b O.]._.!.]._._.~._.} d v s b v s s s s s s s s s s n t.s s s s b zX% 7 7 7 7 7 A.  k B.@ 7 7 7 7 6 S J.J.J.J.J.J.> 6 e |.OXOXOXOXOX|.r 6 S /./././././.L.+ l.lX. 7 7 7 7 7 7 7 7 7 7 7 7 7 7 7 7 7 7 7 7 ",
"K K K K K K J K J _ K J J J J J Y.Y.R E E E ` W E T |.|.( ( Q ` W E W { Q.E.[ T ^ -.~ ^ ^ ^ ^ ^ ^ ~ -. X=.=.=.^ ^ ^ ^ { }.:.I ' ' ' ' ' ' ' [ ' ' ' ' ' ' [ [ ' 6.1.o.1.2.o.o.o.2.3.m.6.6.5.1.1.3.1.o.7.7.} ..| X. .| | | } | | } }  .| +.X. .} ^.~.}  .+.+.| +. . .| O. .X.+.} }  .+.4.+.O.O. .O.4. . . .O... .O. .<.z  ...~.~.]._._.~._.@.a v s !.!. .d v s s s s s s s n t.s v s s b zX% 7 7 7 7 7 G.  k B.@ 7 7 7 7 6 S J.J.J.J.J.J.> 6 e |.OXOXOXOXOX|.r 6 S /./././././.L.6 % xXC.% # % # # # # # # # # # # # # # # # # # ",
"K K K K K K J K J _ K J J J J J }.Q E E E E ` W E T |.|.( ( Q ` W E W { E.Q.[ T :.:.~ ^ ^ ^ ^ ^ ^ ~ -. X=.=.=.^ ^ ^ ^ :.{ }.' ' ' ' ' ' ' ' [ ' ' ' ' ' ' [ [ 1.6.] o.1.2.o.o.o.2.3.m.6.6.5.1.1.3.1.1.3.7. ...|  .| | | |  .| | }  .| | +.X. . .@.!.}  .+.+.+.+.|  .| 4. .| +. .X. .+.4.+.+.O.+.O.4. . .| O...+.O. .<.} O.u.X._.!.~._.[._.{.~.~.d ~.~.@.a s s s s s s s s n t.s s s s b zX% 7 7 7 7 7 G.  k B.@ 7 7 7 7 6 S J.J.J.J.J.J.> 6 e |.OXOXOXOXOX|.r 6 S /./././././.L.6 % y jXxXxXxXxXxXxXxXxXxXxXxXxXxXxXxXxXxXxXxXxX",
"K K K K K K J K J _ K J J J J E }.W E E E E ` W E T |.|.( ( Q ` W E W ` W Q.{ T -.:.~ ^ ^ ^ ^ ^ ^ ~ -. X=.=.=.^ ^ ^ ^ :.^ }.^ I ' ' ' ' ' ' [ ' ' ' ' ' ' [ [ 5.5.] o.1.2.o.o.o.2.3.m.6.6.5.1.1.3.1.1.2.7.3.O.| | | | | | | | +. . .+.| +. .| |  .O. . .+.| +.+.+.+.| 4.O.+.+. .X. .+.4.+.+.+.+.O.4. .O.+.O.O.+.O. .4.} O.<. ._.4.O.{.]._._.].~.v ~.[.@.a @.} d v s s s s n t.s s s s b zX% 7 7 7 7 7 S.  k B.@ 7 7 7 7 6 S J.J.J.J.J.J.> 6 e |.OXOXOXOXOX|.r 6 S /./././././.L.6 e h % x N N N N N N N N N N N N N N N N N N N ",
"K K K K K K J K J _ K J J J J Y.Y.W E E E E ` W E T |.|.( ( Q ` W E W ` T Q.E./ -.{ ~ ^ ^ ^ ^ ^ ^ ~ -. X=.=.=.^ ^ ^ ^ :.^ :.:.I ' ' ' ' ' ' [ ' ' ' ' ' ' [ [ 6.o.o.o.1.2.o.o.o.2.2.m.6.6.5.1.1.3.1.1.3.2.7.O.| | | | | | | | | | | | | +.| | | O.O. . .+.| | +.+.+.| 4.O.| +. . . .+.4.+.+.+.+.O.4. .O.+.O.4.+.O.O.4.X.O.<.} [.4.O.{._.{.{.| !.X.[.{.@.a ~.| a v s s s s n t.s s s s b zX% 7 7 7 7 7 S.  k B.@ 7 7 7 7 6 S J.J.J.J.J.J.> 6 e |.OXOXOXOXOX|.r 6 S /./././././.L.6 7 7 g 7 7 7 7 7 7 7 7 7 7 7 7 7 7 7 7 7 7 7 7 ",
"K K K K K K J K J _ K J J J J Y.` W E E E E ` W E T |.|.( ( Q ` W E W ` T E.Q.>.=.{ ~ ^ ^ ^ ^ ^ ^ ~ -. X=.=.^ ^ ^ ^ ^ :.^ ^ }.' ' ' ' ' ' ' [ ' ' ' ' ' ' [ 3.6.] o.o.1.2.o.o.o.2.2.m.6.6.5.1.1.3.1.1.3.1.7.3.| | | | | | | | | | | | | | | | | O.O.|  .+.| | | +.+.| 4.O.| +. . .+.+.4.+.+.+.+.O.4. .O.+.O.4.+.O.O.4. .O.5.} } 4. .!.{.].].| | [.]._.!.a ~.@.a v s s s s n t.s s s s b zX% 7 7 7 7 7 S.  k B.@ 7 7 7 7 6 S J.J.J.J.J.J.> 6 e |.OXOXOXOXOX|.r 6 S /./././././.L.6 7 7 7 6 6 6 6 6 6 6 6 6 6 6 6 6 6 6 6 6 % 6 7 ",
"K K K K K K J K J _ K J J J W Y.` W E E E E ` W E T |.|.Q ( Q ` W E W ` W W '.-.^ { ~ ^ ^ ^ ^ ^ ^ ~ -. X=.=.^ ^ ^ ^ ^ :.^ ^ }.^ I ' ' ' ' ' [ ' ' ' ' ' ' [ 6.5.o.o.o.1.2.o.o.o.2.2.m.6.6.5.1.1.3.1.1.3.1.3.7.| | | | | | | | | | | | | | | | | O.O.| | | | | | +.+.| 4.O.| +.+. .+.+.4.+.+.+.+.O.4.+.O.+.O.4.+.O.O.4. .O.4. . .4.O.} 4.[.].@.a ~._._.!.a ~.@.a v s s s s n t.s s s s b zX% 7 7 7 7 7 S.  k V.@ 7 7 7 7 6 S J.J.J.J.J.J.> 6 e |.OXOXOXOXOX|.r 6 S /./././././.L.6 7 & i 9XrX9X9X9X9X9X9X8X8X8X8X8X8Xs.p.p.p.a $ ",
"K K K K K K J K J _ K J J J Y.Q ` W E E E E ` W E T |.|.Q ( Q ` W E W ` W T W.}.~ :.~ ^ ^ ^ ^ ^ ^ ~ -. X=.=.^ ^ ^ ^ ^ :.^ ~ :.:.I ' ' ' ' ' [ ' ' ' ' ' ' [ H.o.o.o.o.1.2.o.o.o.2.2.m.6.6.5.1.1.3.1.1.3.1.1.7.| | | | | | | | | | | | | | | | | O.O.| | | | | | | +.| 4.O.| +.+. .+.+.4.+.+.+.+.O.4.+.O.+.O.4.+.O.O.4. .+.4. . .4.O. .4.[.[.@.v z @._.~.@.].@.a v s s s s n t.s s s s b zX% 7 7 7 7 7 S.  k V.@ 7 7 7 7 6 S H D D D D H > 6 e T.W.W.W.W.W.T.r 6 > P.P.P.P.P.P.L 6 7 & i iXaXaXpXpXpXpXiXiXrXrXrXrX9X9X9X8X8X9.@ ",
"K K K K K K J K J _ K J J J Y.E ` W E E E E ` W E T |.|.Q Q Q ` W E W ` W T }.|.[ :.~ ^ ^ ^ ^ ^ ^ ~ -. X=.=.^ ^ ^ ^ ^ :.^ ^ { }.' ' ' ' ' ' [ ' ' ' ' ' ' 1.6.] o.o.o.1.2.o.o.o.2.2.m.6.6.5.1.1.3.1.o.3.1.o.7.o.| | | | | | | | | | | | | | | | O.O.| | | | | | | | | 4.O.| +.+.| +.+.4.+.+.+.+.O.4.+.+.+.O.4.+.O.O.4.+.+.4. .| 4.O. .4.[.[.@.z v b @._._._.@.a v s s s s n m s s s s b zX% 7 7 7 7 7 S.  k V.@ 7 7 7 7 6 S H D D D D D > 6 e Y.W.T.W.T.W.T.e 6 > P.K.P.P.K.P.L 6 7 & i iXaXpXaXrX9XrX9X8X8Xp.9X8Xp.9X9X8X8X9.@ ",
"K K K K K K J K J _ K J J E Y.R ` W E E E E ` W E T |.|.Q Q Q ` W E W ` E W }.Q.{ { ~ ^ ^ ^ ^ ^ ^ ~ -. X=.=.^ ^ ^ ^ ^ :.^ ^ ^ }.^ I ' ' ' ' [ ' ' ' ' ' ' 6.5.] o.o.o.1.2.o.1.o.2.2.m.6.6.5.1.1.3.1.o.3.2.o.7.3.| | | | | | | | | | | | | | | | O.O.| | | | | | | | | 4.O.| +.+.+.+.+.4.+.+.+.+.O.4.+.O.+.O.4.+.O.O.4.+.+.4.O.+.4.O. .4.[.~.@.} z z X._._._.!.a s s s s s n m s s s s b zX% 7 7 7 7 7 S.  x V.@ 7 7 7 7 6 S H D D D D D > 6 e Y.W.W.W.W.W.T.e 6 > P.P.P.P.K.P.L 6 7 & i pXaXaXaX9Xp.8XpXrX9X8Xp.8Xs.9X9X8X8X9.@ ",
"K K K K J J J K J _ K J J Y.( R ` W E E E E ` W W T |.|.Q Q Q ` W E W ` E ) }.Q.T.;.~ ^ ^ ^ ^ ^ ^ ~ -. X=.=.=.^ ^ ^ ^ :.^ ^ ^ :.:.I ' ' ' ' [ ' ' ' ' ' ' H.2.o.o.o.o.1.2.o.1.o.2.2.m.6.6.5.1.1.3.1.o.3.1.o.7.7.| | | | | | | | | | | | | | +.| O.O.| +.| | | | | +.| 4.O.+.+.+.+.+.+.4.+.+.O.+.O.4.+.O.+.O.4.+.O.O.4.+.O.4.O.+.4.O. .4.~.~.@. .} }  .{._._.].} X.d s s s n m s s s s v zX% 7 7 7 7 7 S.  M V.@ 7 7 7 7 6 S H D D D D D > 6 e Y.W.T.T.T.W.T.e 6 > P.K.K.K.K.P.L 6 7 & i pXaXaXaXrXrX9X9XrX9X8X8X9X8X9X9X8X8X9.@ ",
"K K K K K K K K J J K K K Y.E R W W R E E R ` W E T |.|.Q Q W ` W E W ` E =.:.T.Q.[ ~ ~ ~ ~ ~ ~ ^ ~ -. X=.=.^ ^ ~ ^ ^ :.^ ^ ^ ^ }.I ' ' ' ' [ ' ' ' ' ' | 6.1.o.o.o.o.1.2.] o.o.1.2.m.5.6.5.1.1.3.o.o.3.1.o.3.7.o.| | | | | | | | | | | | | | | O.O.| | | | | | | | | O.+.| | | | | | 4.| | | | O.4.| +.| O.O.| +.O.4.| | 4.+.| 4.O.| 4.O. .+. .X. .| ].^._.[.!.!.a s s s v m u s s s v zX% 7 7 7 7 7 F.  M V.@ 7 7 7 7 6 S H D D D D D > 6 e Y.W.T.T.T.W.T.e 6 > P.K.K.K.K.P.L 6 7 & p aXdXaXaXaXaXaXpXpXiXiXiXrXrXrX9X9X9X9.@ ",
"_ _ _ _ _ _ _ _ _ ` _ _ ` }.` ` ` ` ` ` ` ` R.` ` ` |.|.R.R.R.R.` ` ` R.{ }.}.R.'.:.{ { { :.:.:.:.{  X X:.:.:.:.:.:.:.:.:.:.:.{ }.{ [ [ [ [ ;.[ [ [ [ [ 6.6.3.2.2.2.2.3.7.2.2.2.3.7.m.6.6.6.3.3.7.3.3.7.3.3.7.7.7.O.O.O.O.O.O.O.O.O.O.O.O.O.O.O.4.4.O.O.O.O.4.O.O.4.O.4.4.O.4.4.4.4.4.4.4.4.4.4.4.4.4.4.4.4.4.4.4.4.4.4.4.4.4.4.4.4.4.4.4.4.4.4.4.4.O.].!.].!.{.!.y.m t.m t.t.m t.t.m b zX% 7 7 7 7 7 F.  M Z.@ 7 7 7 7 6 S H D D D D D > 6 e Y.W.T.W.W.W.T.e 6 > P.P.P.P.K.P.L 6 7 & p 8X8X8X8X8X8X8X8Xs.p.p.p.p.p.p.p.r.r.a & ",
"J J J J J J J J J _ J J Y.Y.E E ` ` W W W W ` W W E |.|.Y.Y.Q ` ` W ` ` ) }.R.{ Q.T.^ ^ ^ ^ ^ ^ ^ ~ -. X:.:.=.^ ^ ^ ^ :.{ ^ { [ }.:.' ' ' ' [ ' ' ' ' [ 6.2.2.1.1.1.1.2.3.1.1.1.2.3.m.6.6.5.2.2.7.1.1.3.2.1.7.3.7.| +.+.+.+.+.+.+.+.+.+.+.+.+.+.O.O.+.+.+.+.O.O.O.O.+.4.O.+.O.O.O.O.O.4.O.O.O.O.O.4.O.O.O.O.4.O.O.O.4.O.O.4.O.O.4.O.O.4.O.O.O.O.O.O. .~.!.]...^.!.d n v v m t.s n v s b zX% 7 7 7 7 7 F.  M Z.@ 7 7 7 7 6 S H D D D D D > 6 e Y.W.W.W.W.W.T.e 6 > P.P.P.P.K.P.L 6 7 y y & $ $ & & & & & & & & & & & & & & & 7 y ",
"K K K K K K K K J _ K K Y.E E R W W R E E R ` W E T |.|.Q Q W ` W E W ` =.=.R.^ T.W./ ~ ~ ~ ~ ~ ^ ~ -. X=.=.^ ^ ^ ^ ~ :.^ ^ ^ ^ ^ }.I ' ' ' [ ' ' ' ' 1.6.o.2.] o.o.o.1.2.o.o.o.1.2.m.6.6.5.1.1.3.o.o.3.1.o.3.o.7.o.| | | | | | | | | | | | | | O.O.| | | | | | | | | O.+.| | | | | | 4.| | | | +.4.| +.| O.4.| +.O.4.+.+.4.O.| 4.O.| 4.O.+.+.+.+. . .} @.~.n X.!.a s s s v m s s s s v zX% 7 7 7 7 7 F.  M Z.@ 7 7 7 7 6 S H D D D D D > 6 e Y.W.T.W.T.W.T.e 6 > P.K.P.P.K.P.L 6 % o o o o o o o o o o o o o o o o o o o o o o ",
"K K K K K K J K J _ K E Y.R E R ` W E E E E ` W E T |.|.Q Q Q ` W E W { }.( R.) ( '.^ ~ ~ ^ ^ ^ ^ ~ -. X=.=.=.^ ^ ^ ^ :.^ ^ ^ ^ ^ }.~ I ' ' [ ' ' ' ' 6.5.1.2.o.o.o.o.1.2.o.o.o.2.2.m.6.6.5.1.1.3.1.o.3.1.o.3.o.7.3.| | | | | | | | | | | | | | O.O.| | | | | | | | | 4.+.| | | | +.+.4.+.+.+.+.O.4.| +.+.O.4.+.+.O.4.+.+.4.O.+.4.O.| 4.O.+.O.O.O.O. . . .+.} X.!.a v s s n m s s s s v zX% 7 7 7 7 7 F.  M Z.@ 7 7 7 7 6 S H D D D D D > 6 e Y.W.T.T.T.W.T.e 6 > P.K.K.K.K.P.L # V jXuX0XuXuXuXuXuXuXuXuXuXuXgXuXuXuXuXuXjXjXjX",
"K K K K K K J K J _ K Y.( R E R ` W R E E E ` W E T |.|.Q Q Q ` W W W }.}.( R.( { Q.Y./ ^ ~ ^ ^ ^ ~ -. X=.=.=.^ ^ ^ ^ :.^ ^ ^ ^ ~ :.=.I ' ' [ ' ' ' ' 6.o.1.2.o.o.o.o.1.2.o.o.o.1.2.m.6.6.5.1.1.3.1.o.3.1.o.3.1.1.7.| | | | | | | | | | | | | | O.O.| | | | | | | | | 4.+.| | | | | +.4.+.+.+.| O.4.| +.| O.4.+.+.O.4.+.+.4.O.| 4.O.| 4.O.+.O.O.O.O. . . .+. .} ~.M s s s n m s s s s v zX% 7 7 7 7 7 F.  M Z.@ 7 7 7 7 6 S H D D D D D > 6 e Y.W.T.W.T.W.T.e 6 > P.K.P.P.K.P.L + v.LXLXLXLXLXLXLXLXLXLXLXLXLXLXLXLXLXLXLXA.l.x.",
"K K K K K K K K J _ K Y.E E E R ` W R E E E ` W E R |.|.Q Q Q ` W E E }.=.( R.( { W.W./ ^ ~ ^ ^ ^ ~ -. X=.=.=.^ ^ ^ ^ :.^ ^ ^ ^ ^ { }.' ' ' [ ' ' ' 1.6.] 1.2.o.o.o.o.1.2.o.o.o.1.2.m.6.6.5.1.1.3.1.o.3.1.o.3.1.o.7.o.| | | | | | | | | | | | | O.O.| | | | | | | | | 4.+.| | | | | | 4.+.+.+.| O.4.| +.| O.4.| +.O.4.+.+.4.O.| 4.O.| 4.O.+.O.O.O.O.O. . .+. .} _.!.a v s n m s s s s v zX% 7 7 7 7 7 F.  M Z.+ 7 7 7 7 6 S H D D D D D > 6 e Y.W.W.W.W.W.T.e 6 > P.P.P.P.K.P.L + c.PXPXUXJXKXKXKXKXMXKXPXKXJXIXKXKXKXKXKXM O @ ",
"K K K K K K K K J _ R Y.R E E R ` W R E E E ` W E R |.|.Q Q Q ` W E W }.( ( R.( { R.Q.^ ~ ~ ~ ^ ^ ~ -. X=.=.^ ^ ^ ^ ^ :.^ ^ ^ ^ ^ ^ }.~ I ' [ ' ' ' 6.5.] 1.2.o.o.o.o.1.2.o.o.o.1.2.m.6.6.5.1.1.3.o.o.3.1.o.3.1.o.7.3.| | | | | | | | | | | | | O.O.| | | | | | | | | O.+.| | | | | | 4.| +.+.+.O.4.| +.| O.O.| +.O.4.+.+.4.O.| 4.O.| 4.O.+.+.+.+.O.O. .O.+. . ._.[.s s s n m s s s s v zX% 7 7 7 7 7 D.  M C.+ 7 7 7 7 6 S H D D D D D > 6 e Y.W.T.W.W.W.T.e 6 > P.P.P.P.K.P.L + c.LXPXjXnXnXnXJXcXxXMXmXzXmXMXbXKXPXPXPX0.# y ",
"K K K K K K K K J J Y.Y.R E E R ` W R E E E ` W E R |.|.Q Q Q ` W E ) }.( ( R.( ( { Q.Y./ ^ ~ ^ ^ ~ -. X=.=.^ ^ ^ ^ ^ :.^ ^ ^ ^ ^ ~ }.=.I ' [ ' ' ' 6.o.] 1.2.o.o.o.o.1.2.o.o.o.1.2.m.6.6.5.1.1.3.o.o.3.1.o.3.1.o.1.7.| | | | | | | | | | | | | O.O.| | | | | | | | | O.+.| | | | | | 4.| | | | O.4.| +.| O.O.| +.O.4.+.+.4.O.| 4.O.| 4.O.+.+.+.+.+.+.+.O.+. .O.{._.@.a s n m s s s s v zX% 7 7 7 7 7 D.  M C.+ 7 7 7 7 6 S H D D D D D > 6 e Y.W.T.T.T.W.T.e 6 > P.K.K.K.K.P.L + c.LXHXzXlXnXMXzX0XxXnXxXHXjXMXbXHXPXPXIXx % 7 ",
"K K K K K K K K J _ Y.E R E E R ` W R E E E ` W E R |.|.Q Q Q ` W R }.}.( ( R.( ( { T.W./ ^ ~ ~ ^ ~ -. X=.=.^ ^ ^ ^ ^ :.^ ^ ^ ^ ^ ^ { }.I ' [ ' ' 1.6.] o.1.2.o.o.o.o.1.2.o.o.o.1.2.m.6.6.5.1.1.3.o.o.3.1.o.3.1.1.o.7.o.| | | | | | | | | | | | O.O.| | | | | | | | | O.+.| | | | | | 4.| | | | O.4.| +.| O.O.| +.+.4.| +.4.O.| 4.O.| 4.O.+.+.+.+.+.+.+.+.+. .+.~.{.!.a s n m s s s s v zX% 7 7 7 7 7 D.  M C.+ 7 7 7 7 6 S H D D D D D > 6 e Y.W.T.W.T.W.T.e 6 > P.K.K.P.K.P.L + c.LXJXPXIXJXKXHXHXIXMXHXJXHXJXHXKXPXLXlX@ 7 7 ",
"K K K K K K K K J ` Y.R E E E R ` W R E E E ` W E R |.|.Q Q Q ` W E }.R.( ( R.( ( { Y.'.^ ~ ~ ~ ^ ~ -. X=.=.^ ^ ^ ^ ^ :.^ ^ ^ ^ ^ ^ ^ }.~ ' [ ' ' 5.5.] ] 1.2.o.o.o.o.1.2.o.o.o.1.2.m.5.6.5.1.1.3.o.o.3.1.o.3.1.1.o.7.3.| | | | | | | | | | | | O.O.| | | | | | | | | O.+.| | | | | | 4.| | | | +.4.| +.| O.O.| +.O.4.| +.4.O.| 4.O.| 4.O.+.+.+.+.+.+.+.+.+. .+. .].[.s s v m u s s s v zX% 7 7 7 7 7 D.  M C.+ 7 7 7 7 6 S H D D D D D > 6 e Y.W.W.W.W.W.T.e 6 > P.P.P.P.K.P.L + c.PXIXIXIXKXIXKXKXIXmXJXKXKXIXKXIXJXjX7 7 7 7 ",
"K K K K K K K K J Y.Q R E E E R ` W R E E E ` W E R |.|.Q Q Q ` W ) }.{ ( ( R.( ( R.~ Q.Y./ ^ ~ ^ ~ -. X=.=.^ ^ ^ ^ ^ :.^ ^ ^ ^ ^ ^ ~ }.=.' [ ' ' 6.1.] ] 1.2.o.o.o.o.1.2.o.o.o.1.2.m.5.6.5.1.1.3.o.o.3.1.o.3.1.1.o.2.7.| | | | | | | | | | | | O.O.| | | | | | | | | O.+.| | | | | | 4.| | | | +.4.| +.| O.O.| +.O.4.| +.4.+.| 4.O.| 4.O.+.+.+.+.+.+.+.+.+.+.+. .@._.z f v m u s s s j zX% 7 7 7 7 7 D.  M C.+ 7 7 7 7 6 S H D D D D D > 6 e Y.W.W.W.W.W.T.e 6 > P.P.P.P.K.P.L O B.0X# j h h h h h h x h h h h h h 7 + 7 7 7 7 ",
"K K K K K K K K J }.E E E E E R ` W R E E R ` W E R |.|.Q Q Q ` W =.=.R.( ( R.( ( R.~ W.W./ ^ ~ ^ ~ -. X=.=.^ ^ ^ ^ ^ :.^ ^ ^ ^ ^ ^ ^ { }.' [ ' o.6.] o.] 1.1.o.o.o.o.1.2.o.o.o.1.2.m.5.6.5.1.1.3.o.o.3.1.o.3.1.1.1.o.7.o.| | | | | | | | | | | O.O.| | | | | | | | | O.+.| | | | | | 4.| | | | +.4.| | | O.O.| +.+.4.| +.4.+.| 4.O.| 4.O.+.+.+.+.+.+.+.+.+.+.+. .X.{.} f v m u s s s j zX% 7 7 7 7 7 D.  M C.+ 7 7 7 7 6 S H D D D D D > 6 e Y.W.T.W.T.W.T.e 6 > P.K.P.P.K.P.L O V.F.O 7 7 7 7 7 7 7 % 7 % % % % % 7 7 7 7 7 7 ",
"K K K K K K K K E T.R E E E E R ` W E E E R ` W E R |.|.Q Q Q ` W }.( R.( ( R.( ( R.) Y.Q.~ ^ ^ ^ ~ -. X=.=.^ ^ ^ ^ ^ :.^ ^ ^ ^ ^ ^ ^ ^ }.~ [ ' 5.5.] o.] 1.1.o.o.o.o.1.2.o.o.o.1.2.m.5.6.5.1.1.3.o.o.3.1.o.3.1.1.1.o.7.3.| | | | | | | | | | | O.O.| | | | | | | +.| O.+.| | | | | | 4.| | | | +.4.| +.| O.O.| +.O.4.| +.4.+.| 4.O.| 4.O.+.+.+.+.+.+.+.+.+.+.+.O. ._.!.a v m u s s s j zX% 7 7 7 7 7 D.  M A.+ 7 7 7 7 6 S H D D D D D > 6 e Y.W.T.T.T.W.T.e 6 > P.K.K.K.K.P.L O V.F.o y % % % # # % 7 % 7 7 7 7 7 7 7 7 7 7 7 ",
"K K K K K K K A Y.Y.K R R R R R W W R R R R ` W E R |.|.Q Q W ` ) -.( { ) ) R.) ( R.( ) Q.Y./ ~ ~ ~ -. X=.=.^ ^ ~ ~ ~ :.^ ~ ~ ~ ~ ^ ^ ~ }.) [ ' 6.| ] ] U 1.1.U o.o.] 1.2.U o.] 1.2.m.5.5.3.1.o.3.o.o.2.1.o.3.o.o.o.o.1.7.| | | | | | | | | | | +.O.| | | | | | | | | O.+.| | | | | | O.| | | | +.O.| | | O.O.| | +.4.| | 4.+.| O.O.| 4.+.| | | | | | | +.+.+.| +.} ~.[.f v n i u u u j zX% 7 7 7 7 7 0X  M A.+ 7 7 7 7 6 S H D D D D D > 6 e Y.W.T.W.T.W.T.e 6 > P.P.P.P.K.P.L O V.F.o 7 M M M N 0.N y M # # 7 7 7 7 7 7 7 7 7 ",
"J J J J J J _ J }.R.W W W W W W ` ` W ` ` W ` ` ` W |.|.R.R.( R.}.}.{ }.{ { }.{ R.}.{ { W.W.[ { { [  X X:.:.:.:.{ { { :.{ { { { { { :.{ :.}.[ 1.6.1.2.1.1.3.3.1.2.2.1.2.3.1.2.1.3.3.m.6.6.6.3.2.7.2.2.7.3.2.7.2.2.2.2.2.7.1.O.O.O.O.O.O.O.O.O.O.O.4.O.O.O.O.O.O.O.O.O.4.O.O.O.O.O.O.O.4.O.O.O.O.O.4.O.O.O.4.4.O.O.O.4.O.O.4.4.O.4.4.O.4.4.O.O.O.O.O.O.O.O.O.O.4.2.<...~.d t.t.n m n n v zX% 7 7 7 7 7 0X  M A.+ 7 7 7 7 6 S H D D D D D > 6 e Y.W.W.W.W.W.T.e 6 > P.P.P.P.K.P.L O V.F.o 7 Z.u.Z.B B.j.h M.h.n.7 7 7 7 7 7 7 7 7 ",
"J J J J J J J W }.` W W W W W W ` ` W W W W ` ` Q W |.|.R.R.Q R.}.( { }.( { }.{ R.}.( { R.Q.{ { { [ -. X:.:.:.:.{ { { :.{ { { { { { { { { }.{ 6.5.o.1.1.1.2.3.1.1.1.1.2.3.1.2.1.3.3.m.6.6.6.3.2.7.2.2.7.2.2.7.2.2.2.2.2.7.7.+.O.O.O.O.O.O.O.O.O.O.4.O.O.O.O.O.O.O.O.O.4.O.O.O.O.O.O.O.4.O.O.O.O.O.4.O.O.O.4.4.O.O.O.4.O.O.4.O.O.4.4.O.4.4.O.O.O.O.O.O.O.O.O.O.O.O.O...~.d m t.n n n n v zX% 7 7 7 7 7 0X  M A.+ 7 7 7 7 6 S H D D D D D > 6 e Y.W.T.W.T.W.T.e 6 > P.P.P.P.K.P.L O V.F.o 7 C.0.A.x h.M 7 c.b.M.N # 7 7 7 7 7 7 7 ",
"K K K K K K K Q Y.W R R R R R R W W R R R R ` E E R |.|.Q Q E { }.! ) { ) ) R.) ( R.) ( ) Q.Y./ ~ ~ -. X=.=.^ ^ ~ ~ ~ :.^ ~ ~ ~ ~ ~ ^ ^ ~ }.:.6.o.] ] ] U 1.1.U ] ] ] 1.2.U o.] 1.1.m.5.5.3.1.o.2.o.o.2.1.o.3.o.o.o.o.o.1.7.| | | | | | | | | | +.O.| | | | | | | | | O.| | | | | | | O.| | | | +.O.| | | O.O.| | | O.| | 4.| | O.O.| 4.+.| | | | | | | | | | | |  .X.~.f s n i u u i j zX% 7 7 7 7 7 gX  M A.+ 7 7 7 7 6 S H D D D D D > 6 e Y.W.T.T.T.W.T.e 6 > P.K.K.K.K.P.L O V.F.o y h.7 k.@ u.x h M.0.0.x % 7 7 7 7 7 7 7 ",
"K K K K K K K Y.Q W R E E E E R W W E E E R ` W E R |.|.Q ( E }.=.( ( R.) ( R.( ( R.( ( ^ W.W./ ^ ~ -. X=.=.^ ^ ^ ^ ^ :.^ ^ ^ ^ ^ ^ ^ ^ ^ ) oX6.] o.] o.] 1.1.] o.o.o.1.2.o.o.o.1.2.m.5.6.5.1.o.3.o.o.3.1.o.3.1.o.o.o.1.o.7.+.| | | | | | | | | O.O.| | | | | | | | | O.+.| | | | | | 4.| | | | +.O.| +.| O.O.| | +.4.| | 4.+.| O.O.| 4.O.+.+.+.+.+.+.+.+.+.+.+.+. .X.~.u v m u s s s j zX% 7 7 7 7 7 gX  N G.+ 7 7 7 7 6 S H D D D D D > 6 e Y.W.T.W.T.W.T.e 6 > P.K.K.P.K.P.L O V.F.o 7 7 7 7 7 7 7 7 7 7 7 7 7 7 7 7 7 7 7 7 ",
"K K K K K K R Y.E W R E E E E R W W R E E R ` W E R |.|.Q Q Q }.) ( ( R.) ) R.( ( R.) ( ) Y.Q.~ ^ ~ -. X=.=.^ ^ ^ ^ ~ :.^ ^ ^ ^ ^ ^ ^ ^ ^ ~ oX5.] o.] ] ] 1.1.] o.o.] 1.2.o.o.o.1.2.m.5.6.5.1.o.3.o.o.3.1.o.3.1.o.o.o.1.o.7.2.| | | | | | | | | O.O.| | | | | | | | | O.+.| | | | | | 4.| | | | +.O.| | | O.O.| | +.4.| | 4.+.| O.O.| 4.O.| +.+.+.+.+.+.+.+.+.+.+. .| ~.u s m u s s u j zX% 7 7 7 7 7 gX  N G.+ 7 7 7 7 6 S H D D D D D > 6 e Y.W.W.W.W.W.T.e 6 > P.P.P.P.K.P.L O V.F.o y 7 7 7 7 7 7 7 7 7 7 7 7 7 7 7 7 7 7 7 ",
"K K K K K K Q Y.E Q R R E E E R W W R E E R ` W E R |.|.Q Q ( }.( ) ( R.) ) R.( ( R.) ( ( ) Q.Y.~ ~ -. X=.=.^ ^ ^ ^ ~ :.^ ^ ^ ^ ^ ^ ^ ^ ^ ^ H.7.U ] ] ] ] 1.1.] o.o.] 1.2.o.o.o.1.2.m.5.6.5.1.o.3.o.o.2.1.o.3.1.o.o.o.o.o.3.7.| | | | | | | | | O.O.| | | | | | | | | O.+.| | | | | | 4.| | | | +.O.| | | O.O.| | +.4.| | 4.+.| O.O.| 4.O.| | | +.+.+.+.+.+.+.+.+. .+.~.u s m u s s u j zX% 7 7 7 7 7 gX  V S.+ 7 7 7 7 6 S H D D D D D > 6 e Y.W.W.W.W.W.T.e 6 > P.P.P.P.K.P.L O V.F.o 7 7 7 7 7 7 7 7 7 7 7 7 7 7 7 7 7 7 7 7 ",
"K K K K K K Y.E E W R R E E E R W W R E E R ` W E R |.|.Q Q }.}.( ) ( R.) ) R.( ( R.) ( ( ^ W.W./ ~ -. X=.=.^ ^ ^ ^ ~ :.^ ^ ^ ^ ^ ^ ^ ^ ~ ;.H.}.U ] ] ] ] 1.1.] o.o.] 1.2.o.o.o.1.2.m.5.5.5.1.o.3.o.o.2.1.o.3.1.o.o.o.o.o.1.7.| | | | | | | | | O.O.| | | | | | | | | O.+.| | | | | | O.| | | | +.O.| | | O.O.| | +.4.| | 4.+.| O.O.| 4.O.| | | | | | | +.+.+.+.+.| +.~.j s m u s s u j zX% 7 7 7 7 7 gX  V S.o 7 7 7 7 6 S H D D D D D > 6 e Y.W.T.W.T.W.T.e 6 > P.K.K.P.K.P.L O V.F.+ j h h h h h h h h h h h h h h h h h h h ",
"K K K K K K Y.R E W R R R E E R W W R E E R ` W E R |.|.Q Q }.}.( ) ( R.) ) R.( ( R.) ( ( ) Y.Q.~ ~ -. X=.=.^ ^ ^ ^ ~ :.^ ^ ^ ^ ^ ^ ^ ^ ~ 6.6.}.;.] ] ] ] 1.1.] o.o.] 1.2.] o.o.1.2.m.5.5.3.1.o.3.o.o.2.1.o.3.1.o.o.o.o.1.o.7.1.| | | | | | | | O.O.| | | | | | | | | O.+.| | | | | | O.| | | | +.O.| | | O.O.| | +.4.| | 4.+.| O.O.| 4.O.| | | | | | | | | | | +.| +.~.j s m u s s u j zX% 7 7 7 7 7 gX  V S.o 7 7 7 7 6 S H D D D D D > 6 e Y.W.T.T.T.W.T.e 6 > P.K.K.K.K.P.L O V.F.o h 7 7 7 7 7 7 7 7 7 7 7 7 7 7 7 7 7 7 7 ",
"K K K K K Q Y.K E W R R R E E R W W R E E R ` W E R |.|.Q Y.}.( ( ( ( R.) ) R.( ( R.) ( ( ( ) Q.Y./ -. X=.=.^ ^ ^ ^ ~ :.^ ^ ^ ^ ^ ^ ^ ^ ^ 6.7.}.;.U ] ] ] 1.1.] o.o.] 1.2.] o.o.1.2.m.5.5.3.1.o.3.o.o.2.1.o.3.1.o.o.o.o.o.o.3.7.| | | | | | | | +.O.| | | | | | | | | O.+.| | | | | | O.| | | | +.O.| | | O.O.| | +.O.| | 4.+.| O.O.| 4.O.| | | | | | | | | | | | | | [.C d m u s s u j zX% 7 7 7 7 7 gX  V S.o 7 7 7 7 6 S H D D D D D > 6 e Y.W.T.W.W.W.T.e 6 > P.P.P.P.K.P.L O V.F.o 7 7 7 7 7 7 7 7 7 7 7 7 7 7 7 7 7 7 7 7 ",
"K K K K K Y.E R E W R R R R E R W W R E E R ` W E R |.|.Q }.}.( ( ( ( R.) ) R.( ( R.) ( ( ( ~ W.W.' -. X=.=.^ ^ ^ ^ ~ :.^ ^ ^ ^ ^ ^ ^ ~ ;.6.7.7.}.U ] ] ] 1.1.] o.o.] 1.2.] o.o.1.2.m.5.5.3.1.o.3.o.o.2.1.o.3.o.o.o.o.o.o.o.1.7.| | | | | | | | +.O.| | | | | | | | | O.+.| | | | | | O.| | | | +.O.| | | O.O.| | +.O.| | 4.+.| O.O.| 4.O.| | | | | | | | | | | | +. .{.@.a m u s s u j zX% 7 7 7 7 7 gX  V S.o 7 7 7 7 6 S H D D D D D > 6 e Y.W.W.W.W.W.T.e 6 > P.P.P.P.K.P.L O V.F.o 7 7 7 7 7 7 7 7 7 7 7 7 7 7 7 7 7 7 7 7 ",
"K K K K K Y.R R E W R R R R E R W W R E E R ` W E R |.|.Q }.) { ( ( ( R.) ) R.( ( R.) ( ( ( ) Y.Q./ -. X=.=.^ ^ ^ ^ ~ :.^ ^ ^ ^ ^ ^ ^ ~ 7.6.7.2.}.] ] ] ] 1.1.] o.o.] 1.2.] o.] 1.2.m.5.5.3.1.o.3.o.o.2.1.o.3.o.o.o.o.o.o.1.o.7.1.| | | | | | | +.O.| | | | | | | | | O.| | | | | | | O.| | | | +.O.| | | O.O.| | +.O.| | 4.+.| O.O.| 4.O.| | | | | | | | | | | | +. .{.@.a m u s s u j zX% 7 7 7 7 7 jX  V S.o 7 7 7 7 6 S H D D D D D > 6 e Y.W.T.W.T.W.T.e 6 > P.P.P.P.K.P.L O V.F.o 7 # % # % # % 7 # 7 # % 7 7 7 7 7 7 7 7 ",
"K K K K Q Y.K R E W R R R R E R W W R E E R ` W E R |.|.Y.}.( R.( ( ( R.) ) R.( ( R.) ( ( ( ( ) Q.( -. X=.=.^ ^ ~ ^ ~ :.^ ^ ^ ^ ^ ^ ^ ^ 6.3.7.;.}.;.U ] ] 1.1.] ] o.] 1.2.] o.] 1.2.m.5.5.3.1.o.3.o.o.2.1.o.3.o.o.o.o.o.o.o.o.3.7.| | | | | | | +.O.| | | | | | | | | O.| | | | | | | O.| | | | +.O.| | | O.O.| | +.O.| | 4.+.| O.O.| 4.+.| | | | | | | | | | | | +. .{.!.a m u s s u j zX% 7 7 7 7 7 jX  V S.o 7 7 7 7 6 S H D D D D D > 6 e Y.W.T.T.T.W.T.e 6 > P.K.K.K.K.P.L O V.F.o 7 l.0.l.g.v.l.7 l.M h.l.7 7 7 7 7 7 7 7 ",
"K K K K Y.! R R E W R R R R R R W W R E E R ` W E R |.|.}.}.( R.( ( ( R.) ) R.( ( R.) ( ( ( ( ^ W.T.>. X=.=.^ ^ ~ ^ ~ :.^ ^ ^ ^ ^ ^ ~ ;.6.;.7.;.:.}.U ] ] 1.1.] ] o.] 1.2.] o.] 1.2.m.5.5.3.1.o.3.o.o.2.1.o.3.o.o.o.o.o.o.o.o.1.7.| | | | | | | +.O.| | | | | | | | | O.| | | | | | | O.| | | | +.O.| | | O.O.| | +.O.| | 4.+.| O.O.| 4.+.| | | | | | | | | | | | +. .~.!.a m u s s u j zX% 7 7 7 7 7 jX  V S.o 7 7 7 7 6 S H D D D D D > 6 e Y.W.T.T.T.W.T.e 6 > P.K.K.K.K.P.L O V.F.o 7 A.0.A.M n.B h V.h.x.7 7 7 7 7 7 7 7 7 ",
"K K K K Y.R R R E W R R R R R R W W R R R R ` E E J |.|.}.}.( ( ( ) ( { ) ) R.) ( { ) ( ( ( ( ) Y.Q.-. X=.=.^ ^ ~ ~ ~ :.^ ~ ~ ~ ~ ^ ~ 3.6.;.7.;.;.}.] ] U 1.1.U ] ] U 1.2.U o.U 1.1.m.5.5.3.1.o.2.o.] 2.o.o.3.o.o.o.o.o.o.o.o.o.7.1.| | | | | | +.+.| | | | | | | | | O.| | | | | | | O.| | | | | O.| | | +.O.| | | O.| | O.| | O.+.| O.+.| | | | | | | | | | | | +. .!.^.d n i u u u j zX% 7 7 7 7 7 jX  V F.o 7 7 7 7 6 S H D D D D H > 6 e T.W.W.W.W.W.T.r 6 > P.P.P.P.P.P.L O V.F.o 7 V.M V.h j.N # h.S.c.h 7 7 7 7 7 7 7 7 ",
"J J J Q Y.R E E W ` E E E E E E ` ` E W W E ` W W E |.|.}.Y.( R.( ( ( R.( ( R.( { R.( ( ( ( ( ( ) Q.}. X=.=.=.^ ^ ^ ^ :.^ ^ ^ ^ ^ ^ ^ 6.7.;.7.;.1.}.;.o.o.2.2.o.o.o.o.1.3.o.1.o.2.2.m.6.6.5.1.1.3.1.1.3.2.1.3.1.1.1.1.1.1.1.1.1.3.7.| +.| | +.| O.O.| +.+.+.+.+.+.+.| O.O.+.+.+.+.+.+.4.+.+.+.+.O.4.+.+.+.O.O.+.+.O.4.+.+.4.O.+.4.O.+.4.O.+.O.+.+.+.+.+.+.+.+.+.+.+. .!.!.d m s s s s j zX% 7 7 7 7 7 jX  V F.o 7 7 7 7 6 S D F F F F D > 6 e Y.T.T.T.T.T.Y.e 6 > K.K.K.K.K.K.L O V.F.o y x 7 b # x h 7 k.j 0.g.7 7 7 7 7 7 7 7 ",
"J J J Y.( W W W ` ` W W W W W W ` ` W ` ` W ` ` ` W |..X}.R.R.}.R.( R.}.( { }.{ R.}.{ { { R.R.R.{ W.|. X:.:.:.:.{ { { :.:.{ { { { { ;.H.7.7.7.7.3.7.oX1.1.3.3.1.2.2.1.2.3.1.2.1.3.3.m.6.6.6.3.2.7.2.2.7.3.2.7.2.2.2.2.2.2.2.2.2.3.7.O.O.O.O.O.O.O.4.O.O.O.O.O.O.O.O.O.4.O.O.O.O.O.O.O.4.O.O.O.O.O.4.O.O.O.4.4.O.O.O.4.O.O.4.O.O.4.4.O.4.4.O.O.O.O.O.O.O.O.O.O.O.O.O.O.@.{.B t.n n n n j zX% 7 7 7 7 7 jX  V F.o 7 7 7 7 6 , Z Z Z Z Z Z ; 6 7 T Q W W W Q T e 6 : G H H H H G S O V.F.o 7 % 7 % 7 % 7 7 # % # # 7 7 7 7 7 7 7 7 ",
"K K K Y.R R R R E W R R R R R R W W R R R R Q E R K |..XY.Y.( ( ( ) ( { ) ) R.) ( { ) ) ) ) ( ( ) Y.OX-.^ =.^ ^ ~ ~ ~ { ~ ~ ~ ~ ~ ~ 3.6.;.;.7.;.;.;.}.] U 1.1.U ] ] U o.1.U ] U 1.1.m.5.5.3.1.o.2.o.] 2.o.] 3.o.o.o.o.o.o.o.o.o.o.7.1.| | | | | +.+.| | | | | | | | | O.| | | | | | | O.| | | | | O.| | | +.O.| | | O.| | O.| | O.+.| O.+.| | | | | | | | | | | | | | +._.| d i u u f j zX% 7 7 7 7 7 hX  V F.o 7 7 7 7 6 , A Z Z Z Z Z ; 6 7 T Q Q Q Q Q W e 6 : G G G G G G S O V.F.o 7 7 7 7 7 7 7 7 7 7 7 7 7 7 7 7 7 7 7 7 ",
"K K ! Y.K R R R E W R R R R R R W W R E E R ` E E J |..XY.Y.( R.( ( ( R.( ( R.( ( R.) ( ( ( ( ( ( ) OX X=.=.^ ^ ^ ^ ~ :.^ ^ ^ ^ ^ ~ 6.3.;.;.7.;.;.;.}.;.U 1.1.] o.] ] o.2.] o.] 1.2.m.5.5.3.1.o.3.o.o.2.1.o.3.o.o.o.o.o.o.o.o.o.o.3.7.| | | | | +.+.| | | | | | | | | O.+.| | | | | | O.| | | | | O.| | | O.O.| | +.O.| | O.| | O.O.| O.+.| | | | | | | | | | | | | +. .!.~.d f u u u j zX% 7 7 7 7 7 hX  V F.o 7 7 7 7 6 , A Z Z Z Z Z ; 6 7 T Q Q Q Q Q W e 6 : G G G G G G S O V.F.o y 7 7 7 7 7 7 7 7 7 7 7 7 7 7 7 7 7 7 7 ",
"K K Y.! R R R R E W R R R R R R W W R E E R ` E E J }..XY.Y.( R.( ( ( R.( ( R.( ( R.) ( ( ( ( ( ( ~ W.|.=.=.^ ^ ~ ~ ~ :.^ ~ ^ ^ ~ [ 6.;.;.;.7.;.;.;.:.:.U 1.1.] ] ] ] o.2.] o.] 1.1.m.5.5.3.1.o.3.o.o.2.1.o.3.o.o.o.o.o.o.o.o.o.o.1.7.| | | | | +.+.| | | | | | | | | O.| | | | | | | O.| | | | | O.| | | +.O.| | | O.| | O.| | O.+.| O.+.| | | | | | | | | | | | | +. .@._.!.U.j j u j zX% 7 7 7 7 7 hX  V F.o 7 7 7 7 6 , A Z Z Z Z Z ; 6 7 T Q Q Q Q Q W e 6 : G G G G G G S O V.F.@ x h h h h h h h h h h h h h h h h h h h ",
"K K Y.R R R R R E W R R R R R R W W R E E R ` E E J .X}.Y.Y.( R.( ( ( R.( ( R.( ( R.) ( ( ( ( ( ( ) }.|.=.=.^ ^ ~ ~ ~ :.^ ~ ^ ^ ~ 3.6.;.;.;.7.;.;.;.;.}.] 1.1.] ] ] ] o.2.] ] ] 1.1.m.5.5.3.1.o.2.o.o.2.1.o.3.o.o.o.o.o.o.o.o.o.o.o.7.o.| | | | +.+.| | | | | | | | | O.| | | | | | | O.| | | | | O.| | | +.O.| | | O.| | O.| | O.+.| O.+.| | | | | | | | | | | | | +. .@.{.[.`.~.#.a j zX% 7 7 7 7 7 hX  V F.o 7 7 7 7 6 , A Z Z Z Z Z ; 6 7 T Q Q Q Q Q W e 6 : G G G G G G S O V.F.o 7 7 7 7 7 7 7 7 7 7 7 7 7 7 7 7 7 7 7 7 ",
"K ! Y.K R R R R E W R R R R R R W W R E E R ` E R E XX}.Y.Y.( R.( ) ( R.( ( R.( ( R.) ( ( ( ( ( ( ( }.OX) =.^ ^ ~ ~ ~ :.^ ~ ~ ^ ~ 6.3.;.;.;.7.;.;.;.;.}.;.o.1.U ] ] ] o.2.] ] ] 1.1.m.5.5.3.1.o.2.o.o.2.1.o.3.o.o.o.o.o.o.o.o.o.o.o.3.3.| | | | +.+.| | | | | | | | | O.| | | | | | | O.| | | | | O.| | | +.O.| | | O.| | O.| | O.+.| O.+.| | | | | | | | | | | | | |  .| _.{.`.(.!.a u zX% 7 7 7 7 7 hX  B F.o 7 7 7 7 6 , A Z Z Z Z Z ; 6 7 T Q Q Q Q Q W e 6 : G G G G G G S O V.F.o 7 7 7 7 7 7 7 7 7 7 7 7 7 7 7 7 7 7 7 7 ",
"K Y.! K R R R R E W R R R R R R W W R R E R ` W R ) XX}.Y.Y.( R.( ) ( R.( ( R.( ( R.) ( ( ( ( ( ) ( -.OXT.=.^ ^ ~ ^ ~ :.^ ~ ^ ~ [ 6.;.;.;.;.7.;.;.;.;.:.:.o.1.U ] ] ] o.2.] ] ] 1.1.m.5.5.3.1.o.2.o.o.2.1.o.3.o.o.o.o.o.o.o.o.o.o.o.1.7.| | | | +.+.| | | | | | | | | O.| | | | | | | O.| | | | | O.| | | +.O.| | | O.| | O.| | O.+.| O.+.| | | | | | | | | | | | | | +.} ^._.(.(.^.j #.lX% 7 7 7 7 7 hX  B F.o 7 7 7 7 6 , A Z Z Z Z Z ; 6 7 T Q Q Q Q Q W e 6 : G G G G G G S O V.F.o 7 7 % 7 % % % 7 7 7 7 7 7 7 7 7 7 7 7 7 ",
"K Y.R R R R R R E W R R R R R R W W R R E R ` E R =.|.}.Y.Y.( R.( ) ( R.( ( R.( ( R.) ( ( ( ( ( ) ( }.|.Q.=.^ ^ ~ ~ ~ :.^ ~ ^ ~ 3.6.;.;.;.;.7.;.;.;.;.;.}.1.1.U ] ] ] o.2.] o.] 1.1.m.5.5.3.1.o.2.o.] 2.1.o.3.o.o.o.o.o.o.o.o.o.o.o.o.7.o.| | | +.+.| | | | | | | | | O.| | | | | | | O.| | | | | O.| | | +.O.| | | O.| | O.| | O.+.| O.+.| | | | | | | | | | | | | | +.} X.(.U.U.U.`.` lX& 7 7 7 7 7 hX  B F.o 7 7 7 7 6 , A Z Z Z Z Z ; 6 7 T Q Q Q Q Q W e 6 : G G G G G G S O V.F.o 7 h j h k j h 7 7 h % 7 % # 7 7 7 7 7 7 ",
"! Y.K R R R R R E W K R R R R R W W R R R R ` E ! -.|.}.Y.Y.( ( ( ) ( R.( ( R.( ( R.) ( ( ( ( ) ) W }. X'.=.^ ^ ~ ~ ~ :.^ ~ ^ ~ 6.3.;.;.;.;.7.;.;.;.;.;.}.7.o.U ] ] ] o.1.U ] ] 1.1.m.5.5.3.1.o.2.o.] 2.1.o.2.o.o.o.o.o.o.o.o.o.o.o.o.3.3.| | | +.+.| | | | | | | | | O.| | | | | | | O.| | | | | O.| | | +.O.| | | O.| | O.| | O.+.| O.+.| | | | | | | | | | | | | | |  .} @.U.!.U._.X.lX% 7 7 7 7 7 hX  B D.o 7 7 7 7 6 , A Z Z Z Z Z ; 6 7 T Q Q Q Q Q W e 6 : G G G G G G S O V.F.o 7 B.g.B.0.Z.x.7 b.M.B h x b.h 7 7 7 7 7 ",
"Y.Q K R R R R R E W W W W R R R W W R R R R ` E ) =.|.}.Y.}.R.}.( ) ( { ( ( R.( ( R.) ( ( ( ( R.{ { }. XW.T.^ ^ ~ ~ ~ :.^ ~ ~ [ 6.;.7.;.;.;.7.;.;.;.;.;.:.oXo.] ] ] U 1.7.1.1.U 1.1.m.5.5.3.1.o.2.o.] 2.o.] 7.2.1.1.o.o.o.o.o.o.o.o.o.1.7.| | | +.4.O.O.| | | | | | | O.| | | | | | | 4.O.O.| | | O.| | | +.O.| | | O.| | 4.O.O.4.+.| O.+.| | | | | | | | | | | | | | | | b a ^.@.^.@.u zX% 7 7 7 7 7 hX  B D.o 7 7 7 7 6 , A Z Z Z Z Z ; 6 7 T Q Q Q Q Q W e 6 : G G G G G G S O V.F.o 7 A.0.A.M h.x M l.7 F.u.b.Z.7 7 7 7 7 7 ",
"Y.R R R R R R R E ` ` E R.R R R W W R R R R ` E }.) |.}.}.Y.R.}.( ) ( { ( ( R.( ( R.) ( ( ) R.R.( }.}. XT.W.^ ^ ~ ~ ~ { ^ ^ ~ 3.6.7.;.7.7.;.7.;.;.;.;.;.;.oX1.U ] ] U 7.3.3.7.U 1.1.m.5.5.3.1.o.2.o.] 2.o.1.7.2.7.1.o.o.o.o.o.o.o.o.o.o.7.o.| | 4.O.+.4.| | | | | | | O.| | | | | | O.4.O.7.+.| | O.| | | +.O.| | | O.| | 4.O.4.6.+.| O.+.| | | | | | | | | | | | | | | | b d ^.@.u u u zX% 7 7 7 7 7 vX  B D.o 7 7 7 7 6 , A Z Z Z Z Z ; 6 7 T Q Q Q Q Q W e 6 : G G G G G G S O V.F.o y x.h c.# k.N 7 v.b.h.N.M.c.j 7 7 7 7 7 ",
"Y.K R R R R R R R R.` R ` R R R W W R E R R ` Q }.! |.}.}.Y.}.}.( ( ( { ( ( R.( ( R.) ( ( ) R.}.( R.}. X( Q.) ^ ~ ~ ~ :.^ ^ ~ 6.3.7.2.oX7.;.7.;.;.;.;.;.;.oX2.U ] ] U 7.7.o.7.o.1.1.m.5.5.3.1.o.2.o.] 2.o.1.7.2.7.3.o.o.o.o.o.o.o.o.1.o.3.3.| | 4.O.O.O.| | | | | | | O.| | | | | | O.4.O.7.O.| +.O.| | | +.O.| | | O.| | 4.+.4.6.+.| O.+.| | | | | | | | | | | | | | | | b d #.} a u j zX% 7 7 7 7 7 vX  B D.o 7 7 7 7 6 , A Z Z Z Z Z ; 6 7 T Q Q Q Q Q W e 6 : G G G G G G S O V.F.o 7 7 7 7 7 7 7 % h x # j h h h 7 7 7 7 7 ",
"! K R K K R K K E W E R R R K K W E K K R R E ) =.T |.}.Y.Y.R.}.( ! ( ( ! ! ( ( ( ( ( ! ! ( ) { ( ( }. X) W.T./ ~ ~ ~ ^ ^ ~ ~ 6.;.;.;.;.;.;.;.;.;.;.;.;.;.:.7.U U U U ] 3.o.1.U o.1.m.5.5.1.1.U 1.o.U 1.1.U 3.1.1.1.U ] o.U U U o.o.U o.1.7.| | | O.| | | I | | I I I O.| I | | I | | 4.| O.| I | O.I | I +.O.I | | +.| | O.O.| 4.| I O.| | | | | | | | | | | | | | | | | x s f f i f u zX% 7 7 7 7 7 vX  B D.o 7 7 7 7 6 , A Z Z Z Z Z ; 6 7 T Q Q Q Q Q W e 6 : G G G G G G S O V.F.o 7 7 7 7 7 7 7 7 7 % 7 % 7 7 7 7 7 7 7 7 ",
"R.` R ` ` K ` ` R R.` R.W R R.W W R.` R.E W R.}.=.R.|.|.}.}.}.( R.}.( }.}.}.}.( }.}.) }.R.( }.R.}.( }..X:.T.Q.:.:.~ { oX^ ^ 7.6.;.7.7.7.;.7.7.;.7.7.7.7.;.oXoXU 7.2.U 7.7.3.] 1.7.2.m.6.6.6.| 3.7.] 2.7.o.2.7.7.2.] 7.3.o.7.7.7.1.1.7.1.o.8.1.| 4.4.4.| O.4.| +.4.4.O.+.4.O.| O.4.| O.4.4.+.| 4.O.O.4.4.4.+.4.4.| O.6.| +.4.4.4.+.4.4.O.4.4.4.O.| 4.4.O.+.O.O.O.O.O.O.O.+.N m s s s s j zX% 7 7 7 7 7 zX  B D.o 7 7 7 7 6 , A Z Z Z Z Z ; 6 7 T Q Q Q Q Q W e 6 : G G G G G G S O V.F.o 7 7 7 7 7 7 7 7 7 7 7 7 7 7 7 7 7 7 7 7 ",
"SX5XK 5X5XK %X6XK #X5XCX#XK SX#XK 5X6XCXR.oXCX}.oXCXXX|.5X7X7X! #X6X! #X6X6X#X! 6X%X! 7X5X! 5X5XCXoX=.7XoX}.+X6XCX~ #XCX^ oXFX3.@X7XVX5X/ 5X7X/ 3XVXVX@X;.VX1X;.ZX$XU BX5XZX3.@XDX7.S.VXVXBXU 3XVXU 3XVXU $XBXZX3XU VX3XU BXVXAX7.7.DX@X7.FX@XO.VXBXZX| $XDX| @XZXAX3XP VXBXP BXVXP 3XBXAX@X+.DX$X+.VXZXAX+.@XDXO.@XDX4.H.VXVXBXI BXZXI 3XZXAX$X| ZXAX@X| O.O.O.O.O.O.O.+.V y.s v v s j zX% 7 7 7 7 7 zX  B D.o 7 7 7 7 6 , A Z Z Z Z Z ; 6 7 T Q Q Q Q Q W e 6 : G G G G G G S O V.F.o h h h h h h h e e e h h h h h h h h h h ",
"SX5XK 5X7XK %X6XK #X5XCX#XK SX#XK 7X6XCXR.oXCX}.oXCXXX|.5X7X7X! #X6X! #X6XSX#X! 6X1X! 7X5X! 5X5XCXoX=.7XoX}.+X7XCX~ #XCX^ @XVX7.@X7XVX5X/ 5X7X/ 3XVXZX@X;.ZX3X:.ZX$XU BX5XZX3.@XDX7.S.VXVXBXU 3XVXU 3XZXU $XBXZX3XU VX3XU BXVXAX7.7.DX@X7.DX@XO.VXBXZX| $XDX| @XZXAX3XP VXBXP BXVXP 3XBXAX@X+.DX$X+.ZXZXAX+.@XDXO.@XDX4.@XVXVXVXI BXZXI 3XZXDX$X| ZXAXH.I | | | | | | | | C s f i i f u zX% 7 7 7 7 7 zX  B 0Xo 7 7 7 7 6 , A Z Z Z Z Z ; 6 7 T Q Q Q Q Q W e 6 : G G G G G G S O V.F.o h h h h h e ; c 9.s e e h h h h h h h h ",
"SX5XK 5X7XK %X6XK #X5XCX#XR SX#XK 5X6XCXR.oX6X}.oXCXXX|.5X7X7X! #X6X! #X6X6X#X! 6X%X! 7X5X! 5X5XCXoX=.7XoX}.7X+XCX~ #XCX^ @XVX7.@X7XVX5X/ 5X7X/ 3XVXZX@X;.ZX#X}.ZX$XU BX5XZX3.@XDX7.S.VXVXBXU 3XVXU 3XZXU $XBXZX3XU VX3XU BXVXAX7.7.DX@X7.DX@X2.VXBXZX| $XDX| @XZXAX3XP VXBXP BXVXP 3XBXAX@XO.DX$X| VXZXAX+.@XDX4.@XDX4.@XVXVXBXI BXZXI 3XZXAX$X| ZXAXH.I | | | | | | | | M s i u u i u zX% 7 7 7 7 7 zX  B 0Xo 7 7 7 7 6 , A Z Z Z Z Z ; 6 7 T Q Q Q Q Q W e 6 : G G G G G G S O V.F.o 7 7 7 7 & p 9XpXpXpXiXp.& & 7 7 7 7 7 7 ",
"SX5XK 5X7XK %X6XK #X5XCX#XK SX#XK 5X6XCXR.oX6X}.}.CXXX|.5X7X7X! #X6X! #X6X6X#X! 6X%X! 7X5X! 5X5XCXoX=.7XoX}.7X+X6X~ #XCX^ @XZX7.@X7XVX5XU 5X7XU 3XVXZX@X;.ZX$X:.ZX$XU BX5XZX2.@XDX7.S.VXVXBXU 3XVXI 3XZXU $XBXZX3XU VX3XI BXVXAX7.7.DX@X7.DX@X7.VXBXZXI $XDX| @XZXAX3XP VXBXP BXVXP 3XBXAX@X+.DX$X| VXZXAX| @XDXO.@XDX4.H.VXVXBXP BXZXI 3XZXDX$X| ZXAXH.I | | | | | | | | z s i u u f u zX% 7 7 7 7 7 zX  B 0Xo 7 7 7 7 6 , A Z Z Z Z Z ; 6 7 T Q Q Q Q Q W e 6 : G G G G G G S O V.F.o 7 7 7 & r.pXiXrXp.8XiXpX9X7 7 7 7 7 7 % ",
"SX5XK 5X7XK %X6XK %X5XCX#XE SX#XR 7X6XCXR.oX6X}.oXCX+XoX5X7X7X) #X6X) #X6X6X#X) 6X1X! 7X5X! 5X5XCXoX}.7XoX}.6X+X7X:.#XCX:.4XZX7.@X7XVX5X[ 5X7X[ 3XVXZX@X7.ZX$X:.CX$Xo.BX5XZX7.@XDX7.S.VXVXBXU 3XVXU 3XZXo.4XBXZX3Xo.VX3XU BXVXAX7.7.DX@X7.DX@X7.VXBXZX+.$XDXO.$XZXAXBXI VXBXI BXVXI 3XBXAX@XO.DX$XO.VXZXAXO.$XDX4.@XDX7.@XVXVXVX| BXZX| 3XZXAX$X+.ZXAXH.I | | | | | | | | z s i i i f u zX% 7 7 7 7 7 zX  B 0Xo 7 7 7 7 6 , A Z Z Z Z Z ; 6 7 T Q Q Q Q Q W e 6 : G G G G G G S O V.F.o 7 7 & p pXpXp X X X X 8XdXp.$ 7 7 7 7 % ",
"6X6X5XSX6X5XSXSX5XSX%XSX7X5XCX6X5XSX7XSX5X7X6X5X7XSX1X7X5X5X6X5X6X6X5X6X7X6X7X5X6X7X5X6X6X5X6X5X6X7X1X7X7X7X6X%X+X7XSXCX5XBXVX5XVX5X7XVX5XVXVX5XVX6XVX7X7XVXBX7X6XVXBXVX3XZXBXVXZXBXzXBXVXVXBXZXVXBXVXVXBXVX3XVXVXBXZXVXBXVXVXZXBXVXZXBXVXZXBX7XVXBXAXBXZXAXBXZXVXZXZXBXAXZXBXAXZXBXZXBXZXVXVXAXVXVXZXVXAXBXZXAXBXZXAXBXZXBXVXZXBXAXZXBXZXVXAXVXVXAXAXH.I | | | | | | | | z s i i i f u zX% 7 7 7 7 7 zX  B 0Xo 7 7 7 7 6 , A Z Z Z Z Z ; 6 7 T Q Q Q Q Q W e 6 : G G G G G G S O V.F.o 7 7 * 8XiXp X l V V & X 8XpXd $ 7 7 7 % ",
"CXCXSXCXCXSXCXCXSXCX5XCXSXCXCXSXCXCXSXCX6X6XCX6XCXCX1X6X7X7X6X6XCXCX6XCX6XCX6X6XCX6X6XCX6X6XCX5XCXSX7X7X6X6X6X6X+XSXCXCXVXZXZXVXAX7XVXZXVXAXVXVXAXVXZXVXVXAXVXVX6XVXAXZXBXDXVXDXDXVXbXVXVXZXVXDXAXVXDXAXVXDXBXZXZXZXDXZXZXDXVXDXVXAXDXVXAXDXZXVXVXVXDXZXDXDXZXDXZXAXAXAXDXAXAXDXAXAXDXBXDXAXAXDXAXAXAXZXDXZXDXDXZXDXDXZXDXVXZXDXZXDXAXZXDXZXDXAXAXDXDX@XI | | | | | | | | } s f i i f u zX% 7 7 7 7 7 zX  B 0Xo 7 7 7 7 6 , A Z Z Z Z Z ; 6 7 T Q Q Q Q Q W e 6 : G G G G G G S O V.F.o y & y iXiXX g B B B C . r.dXp.$ 7 7 7 7 ",
"%X%X#X%X%X#X%X%X#X%X#X%X#X#X%X#X%X%X#X%X#X1X%X#X#X%X#X1X#X#X%X#X1X#X#X1X#X%X#X#X1X#X#X1X#X#X%X#X1X#X1X1X#X#X#X#X+X#X3X5X4X3X3X3X3X$X3X3X3X3X3X3X3X3X3X3X3X3X3X3X3X3X3X3X$X3X3X3X3X3X4X4X3X3X4X3X3X3X3X3X3X3X$X3X3X3X3X3X3X3X3X3X3X3X3X3X3X3X3X3X4X$X3X$X3X3X$X3X3X3X3X3X3X3X3X3X3X3X3X$X3X3X3X3X3X3X3X3X3X3X3X3X$X3X3X$X3X$X$X3X3X3X3X3X3X3X3X3X3X3X3X4.| | | | | | | | | } v i i i f u zX% 7 7 7 7 7 zX  B uXo 7 7 7 7 6 , A Z Z Z Z Z ; 6 7 T Q Q Q Q Q W e 6 : G G G G G G S O V.F.o y & p iXp.X k V M cXmXk.6 iXs.* 7 7 7 7 ",
"K K K K K K K K K R K K K K K K R K K K =.) ! ! ! R |.}.( ( ! ) ! ! ! ) ! ! ( ! ! ( ! ! ! ! ! ! ! R =. X) ) ) ~ T.W.T ;.6./ / [ / [ [ / [ / ;.[ / [ [ [ [ ;.;.[ ;.:.I U ] Y U I U U m.<.1.1.U U o.U U o.U U 1.U U U U U U U U U U U U U U U U U 7.U P I I I I I I I I | I I I I I I I | I I I I I | I I I I | I I I | I I | I I | I I | I I I I I I I | | | | | | | | | | } v f i i f u zX% 7 7 7 7 7 zX  B gXo 7 7 7 7 6 , A Z Z Z Z Z ; 6 7 T Q Q Q Q Q W e 6 : G G G G G G S O V.F.o y & i pXrXX g V M B.hX} a iXp.$ 7 7 7 7 ",
"E W R R R R R R E Q E E W R R R W W R E }.) ( ( { ~ |.|.Y.Y.( R.( ) ( R.) ) R.( ( R.) ( { { { ( ( ( }. X) =.) ) Y.Q.~ 6.6.;.2.1.2.;.;.;.;.;.7.3.2.2.2.2.;.;.7.;.;.}.;.o.2.o.o.o.2.2.m.5.5.3.1.o.2.o.o.2.1.o.2.1.1.o.o.o.o.o.o.o.o.o.o.o.o.o.o.o.7.3. .| | | | | | | | O.O. .| | | | | O.| | | | | O. .| | +.O.| | | O.| | O.| | O.+.| O.O.| O.| | | | | | | | | | | | | | } n s u s f u zX% 7 7 7 7 7 cX  B gXo 7 7 7 7 6 , A Z Z Z Z Z ; 6 7 T Q Q Q Q Q W e 6 : G G G G G G S O V.F.o 7 7 $ rXpX@ X k M k = . r.rXp & 7 7 7 7 ",
"O.+._ K R R R R E W [ O.@._ R R W W K ) =.! ( { 2.o.oX}.Y.Y.( ( ( ) ) ( ) ) ( ( ( ( ;.2.2.3.2.( ( Q }. X) =.) ( ~ Q.Y.6.2.6.6.6.6.2.;.;.;.;.;.3.6.6.6.6.;.2.;.;.;.:.;.U 3.5.5.5.6.5.m.5.5.3.| ] 2.] U 2.o.] 2.5.5.5.o.] ] ] o.o.o.o.o.o.o.o.o.U 3.7.5.5. .| | | | | | +. .5.5.| | | | O.| | | | | O.5.4...| O.| | | O.| | O.| | O.+.| O.4.5.5.5.O.| | | | | | | | | | | | X.n m u.u.t.j zX% 7 7 7 7 7 cX  <.gXo 7 7 7 7 6 , A Z Z Z Z Z ; 6 7 T Q Q Q Q Q W e 6 : G G G G G G S O V.F.o 7 7 $ r.pXrX#   @ @ o r.rXp.7 7 7 7 7 7 ",
"@.@._ K R R R R E W _ 4.@._ R R W W K =.) ! ( ) 2.2.}.}.Y.Y.( ( ( ) ) ( ) ) ( ) ( ( { 2.2.7.2.) ( Q }. X) =.) ( ~ T.|.6.;.6.3.6.6.3.;.;.;.;.;.2.H.5.6.5.1.;.;.;.;.;.:.o.1.5.6.5.6.5.m.5.5.3.| ] 2.] U 2.o.] 2.1.5.H.o.] ] ] ] o.o.o.o.o.o.o.o.] 1.7.4.H.5.I | | | | | +. .5.H. .| | | O.| | | | | O...H.5.| O.| | | O.| | O.| | O.+.| O.O.5.4.H.H.| | | | | | | | | | | |  .n m t.t.n.b zX% 7 7 7 7 7 cX  g.gXo 7 7 7 7 6 , A Z Z Z Z Z ; 6 7 T Q Q Q Q Q W e 6 : G G G G G G S O V.F.o 7 7 7 & 8XdXp.= % % 7 rX9Xp & 7 7 7 7 7 ",
"_ [ R R R R R R E W _ _ [ R R R W E R -.) ! ( ) { [ oX}.( ( ) ( ) ) ) { ) ) { ) ( ( { { [ { { ) ) W }. X) =.) ) ) Y.oX6.2.5.3.3.3.;.;.;.;.;.3.3.3.3.3.3.;.2.2.;.;.;.}.1.1.1.1.1.5.2.m.5.5.3. .o.2.U U 1.o.U 2.1.1.5.1.] o.] ] ] o.o.o.o.o.o.o.| o.7.5. . .| | | | | | +. ... . .| | | O.| | | | | O..... .| O.| | | O.| | O.| | O.| | O. . .4.....| | | | | | | | | | | | X.m m n m n j zX% 7 7 7 7 % cX  g.gXo 7 7 7 7 6 , A Z Z Z Z Z ; 6 7 T Q Q Q Q Q W e 6 : G G G G G G S O V.F.o 7 7 7 7 $ p.y & $ & $ 9.d $ 7 7 7 7 7 7 ",
"R R R R R R R R R Q R R R R R R Q R ! }.! ! Y.! ! ! |.|.Y.Y.( Y.( ! ( Y.! ! Y.! ( Y.! ! ! ! ! ( ( ! }. X( Y.( ( ( ) oX}.;.;.;.;.;.;.;.;.;.;.;.;.;.;.;.;.;.;.;.;.;.;.:.:.o.' ] U ] ] m.5.3.2.] ] 1.] ] 1.] ] 2.] ] ] ] ] ] ] ] ] ] ] ] ] ] ] ] ] o.3.;.I I I I I I U I +.U I I I I I I +.I U U U | +.I I I +.+.I U | +.I U +.| I +.+.I O.+.I I I I U | | | | | | | | | | U  .s f f f + m vX+ 7 7 7 7 7 cX. V jXo 7 7 7 7 6 , A Z Z Z Z Z ; 6 7 T Q Q Q Q Q W e 6 : G G G G G G S O V.F.o 7 7 7 7 7 = $ p 9.d 7 * $ 7 7 7 7 7 7 7 ",
"P P P P P P P P P P P P P P P P P P P P P P P P P P P P P P P P P P P P P P P P P P P P P P P P P P P Y P P P P P } ..| } } } } } } } } } } } } } } } } } } } } } } }  .} } } } } } } } } } } } } } } } } } } } } } } } } } } } } } } } } } } } } } <.} } } } } } } } } } } } } } } } } } } } } } } } } } } } } } } } } } } } } } } } } } } } } } } } } } } } } } } } } } } b b b j u.nXk.# 7 7 7 7 # zXk.S.S.o 7 7 7 7 6 , A Z Z Z Z Z ; 6 7 T Q Q Q Q Q W e 6 : G G G G G G S O V.F.o 7 7 7 7 & 9.rXpXpXaXiXp.7 & 7 7 7 7 7 7 ",
"kXkXkXkXkXkXkXkXkXkXkXkXkXkXkXkXkXkXkXkXkXkXkXkXkXkXkXkXkXkXkXkXkXkXkXkXkXkXkXkXkXkXkXkXkXkXkXkXkXkXkXkXkXkXkXkXkXkXkXkXkXkXkXkXkXkXkXkXkXkXkXkXkXkXkXkXkXkXkXkXkXkXkXkXkXkXkXkXkXkXkXkXkXkXkXkXkXkXkXkXkXkXkXkXkXkXkXkXkXkXkXkXkXkXkXkXkXkXkXkXkXkXkXlXlXlXlXlXlXlXlXlXlXlXlXlXlXlXlXlXlXlXlXlXlXlXlXlXlXlXlXlXlXlXlXlXlXlXlXlXlXlXlXlXlXlXlXlXlXlXlXlXlXlXlXlXlXlXlXlXlXlXzXzXzXzXhXk.+ 7 7 7 7 7 % M zXjXh 7 7 7 7 7 6 , A Z Z Z Z Z ; 6 7 T Q Q Q Q Q W e 6 : G G G G G G S O V.F.o 7 7 7 & r.aXiXrXr.8XrXpXrX7 7 7 7 7 7 7 ",
"# # # # # # # # # # # # # # # # # # # # # # # # # # # # # # # # # # # # # # # # # # # # # # # # # # # # # # # # # # # # # # # # # # # # # # # # # # # # # # # # # # # # # # # # # # # # # # # # # # # # # # # # # # # # # # # # # # # # # # # # # # # # # # # # # # # # # @ # # # # # # # # # # # # # # # # # # # # # # # # # # # # # # # # # # # # # # # # # # # # # # # # # # # # + @ 7 7 7 7 7 % # % o o # # 7 7 7 7 6 , A Z Z Z Z Z ; 6 7 T Q Q Q Q Q W e 6 : G G G G G G S O V.F.o 7 7 & d pXpXp . X X . 8XpXp.& 7 7 7 7 7 ",
"% % % % % % % % % % % % % 7 7 % % 7 7 7 7 7 7 7 7 7 7 7 7 7 7 7 7 7 7 % % % % % % % % % % % % % % 7 7 % % 7 7 7 7 7 7 7 7 7 7 7 7 7 7 7 7 7 % % % % % % % % % % % % 7 7 % % 7 7 7 7 7 7 7 7 7 7 7 7 7 7 7 7 7 7 7 7 7 7 7 7 7 7 7 7 7 7 7 7 7 7 7 7 7 7 7 7 7 7 7 7 7 7 7 h 7 7 7 % % % % % % % % % % % % % % % % % % % % # # # # # # # # # # # # # # # # # # # # # # # # # # # # # % 7 7 7 7 7 % j h.7 x g.x g.% 7 7 7 6 , A Z Z Z Z Z ; 6 7 T Q Q Q Q Q W e 6 : G G G G G G S O V.F.o 7 7 * 9XiXi X k M M x.* p.9Xp & 7 7 7 7 ",
"x b b b b b b b b b b b M k x x x 7 7 7 7 7 7 7 7 7 7 7 7 7 7 7 7 # j M x x b b x x x b x b b b b x x b x h # 7 7 7 7 7 7 7 7 7 7 7 7 7 % g b b b b b b b b b b b b x x b x h # 7 7 7 7 k k j k k k k k k k k k x x x x 7 h k k k k k k x x x 7 7 7 7 7 7 7 7 7 7 7 7 7 7 h 7 % x j.k.k.k.j.j.j.j.j.j.j.j.j.j.j.j.j.j.l.j.l.j.l.l.l.l.n.x.x.x.x.x.x.x.x.x.x.x.x.x.x.c.c.c.c.c.c.c.b.x.y 7 7 7 7 % l.M.N k.M.Z.c.b % 7 7 6 , A Z Z Z Z Z ; 6 7 T Q Q Q Q Q W e 6 : G G G G G G S O V.F.o y & i iXiXX g V B mXmXX 9.iXr.$ 7 7 7 7 ",
"KXKXKXKXKXKXKXKXKXKXKXKXPXnXJXPXPXbX% 7 7 7 % # % 7 7 7 7 7 7 7 @ A.KXKXKXKXKXKXKXKXPXKXKXKXKXKXKXJXMXPXPXKXl.# 7 7 7 # # 7 7 7 7 7 7 # h.IXPXKXKXKXKXKXKXKXKXKXKXKXJXMXPXPXIXl.# 7 7 y gXnXnXnXnXnXnXnXMXMXMXmXmXmXHXD.o x.nXnXnXMXMXMXmXUXD.# 7 7 7 7 7 7 7 7 7 7 7 7 7 h 7 # 0.nXnXnXnXnXMXMXMXMXMXMXMXMXmXmXmXmXmXmXmXmXmXHXmXUXHXHXHXmXHXHXHXHXHXHXHXHXHXHXHXHXHXHXHXHXHXJXHXJXnX7 7 7 7 7 % l.x.k.k.c.A.l.N # 7 7 6 , A Z Z Z Z Z ; 6 7 T Q Q Q Q Q W e 6 : G G G G G G S O V.F.o y & p iXp.X k V 0.gXg.* 6 9Xr.$ 7 7 7 7 ",
"KXPXLXPXPXPXPXPXPXPXPXPXLXMXKXcXnXLXx % 7 % M g.k.g 7 % 7 % 7 7 @ mXLXIXIXIXPXLXJXJXJXPXKXLXPXPXLXIXmXKXG.PXbXo y 7 h c.h.% 7 7 7 % 7 o jXKXJXLXPXPXLXLXLXPXLXPXPXPXGXmXKXG.PXxXo y 7 7 hXmXbXMXnXMXnXmXmXHXmXmXUXHXJXgXo x.mXMXmXmXMXmXHXJXD.# 7 7 7 7 7 7 7 7 7 7 7 7 7 h 7 # B nXnXnXnXnXnXnXnXnXnXMXMXMXMXMXMXMXMXMXbXMXzXzXMXnXnXnXMXmXmXmXmXmXmXmXHXHXHXHXHXHXHXHXHXHXHXHXHXJXcX7 7 7 7 7 % M c.B u.n.0.x.7 7 7 7 6 , A Z Z Z Z A ; 6 7 W Y.Q Q Q Q W e 6 : G G G G G J.J O V.F.o y & i pXrXX g V M C V = a rXr.$ 7 7 7 7 ",
"HXHXmXPXPXPXPXPXPXPXPXKXPXMXJXC.A.KXM # 7 # b.l.l.l.c.k.N.g.M.l.o UXJXzXxXnXPXmXzXbXzXHXMXmXJXHXbXxXUXGXg.UXnXo y 7 % c.c.0.n.N.k.c.M.o 0XbXGXHXmXbXHXGXmXHXnXJXJXmXxXHXmXg.HXbXo y 7 7 hXnXC.0XF.gXF.mX0XzXD.kXjXzXJXD.o x.mXF.hXD.hXgXzXJXF.# 7 7 7 7 7 7 7 7 7 7 7 7 7 h 7 # B nXnXnXnXnXnXnXnXnXnXMXMXMXMXMXMXMXmXnXgXMXgXG.F.zXC.gXHXmXmXmXmXmXmXHXHXHXHXHXHXHXHXHXHXHXHXHXHXJXcX7 7 7 7 7 7 % # % # + # # 7 7 7 7 7 > Z S Z Z Z Z ; 6 7 _ W T T T W T e 6 : D D D D D H S o V.F.o 7 7 $ rXpX# X l M M & X p.rXp & 7 7 7 7 ",
"xXlXJXPXPXPXPXPXPXPXPXKXPXMXJXxXxXIXM # 7 7 h B.Z.M.l.C.l.A.F.l.+ MXxXhXzXnXJXnXnXxXxXnXnXMXlXMXGXnXHXHXgXHXbXo 7 7 # l.N Z.v.c.N.0XM.+ D.cXJX0XnXnXhXjXxXUXbXnXnX0XbXUXUXgXJXxXo y 7 7 hXnXS.zXZ.gXjXnXgXA.gXzXgXhXJXD.o x.mXgXZ.gXzXgXhXJXF.# 7 7 7 7 7 7 7 7 7 7 7 7 7 h 7 # B nXnXnXnXnXnXnXnXnXMXMXMXMXMXMXMXMXmXnXD.nX0XvXG.F.F.D.MXMXMXmXmXmXmXHXHXHXHXHXHXHXHXHXHXHXHXHXHXJXcX7 7 7 7 7 7 7 7 7 V N N 7 7 7 7 7 7 7 6 6 7 6 6 6 7 7 7 7 6 6 6 6 6 6 7 7 7 6 6 6 6 6 6 7 o V.F.o 7 7 $ 9.pXrX6   @ @   r.rXp.7 7 7 7 7 7 ",
"bXMXMXKXKXKXKXKXKXKXKXKXPXnXKXM.Z.LXM # 7 % N h.N B h.j.Z.j g.M + mXHXxXnXMXKXbXnXnXxXnXJXbXmXMXmXbXmXHXj JXnXo y 7 % N h M.0.A.b B 0.o gXnXmXnXmXMXnXMXUXJXHXMXzXbXnXGXHXj JXnXo y 7 7 hXnXbXnXcXcXvXMXnXcXnXzXnXnXHXD.o x.mXcXzXnXzXnXnXHXF.# 7 7 7 7 7 7 7 7 7 7 7 7 7 h 7 # B nXnXnXnXnXnXnXnXnXnXnXnXMXMXMXMXMXMXMXgXhXvXnXnXzXnXnXzXbXcXmXmXmXmXmXmXmXHXHXHXHXHXHXHXHXHXHXHXJXcX7 7 7 7 7 7 7 y b.V.B.Z.h 7 7 7 7 7 8 g *.7 *.*.*.7 7 7 6 3 3 2 P P 3 6 7 7 8 *.4 e *.*.g o V.F.o 7 7 7 & p.dXp.* % % 7 9X8Xp & 7 7 7 7 7 ",
"LXLXLXLXLXLXLXLXLXLXLXLXLXmXPXLXLXJXg 7 7 7 % # % % @ x h # % 7 o zXLXLXLXLXLXLXLXLXLXLXLXLXLXLXLXKXmXLXPXLXF.o 7 7 7 # j B h x # % 7 + B.LXPXLXLXLXLXLXLXLXLXLXLXLXKXmXLXPXLXS.o 7 7 7 hXmXMXmXmXmXmXmXHXHXHXHXHXHXJXD.o c.mXmXmXmXHXHXUXHXF.# 7 7 7 7 7 7 7 7 7 7 7 7 7 h 7 # 0.nXMXMXMXMXMXMXMXMXmXmXmXmXmXmXmXmXmXmXHXHXHXHXHXHXHXHXHXHXHXHXHXHXHXHXHXHXHXHXHXHXHXJXJXJXJXJXJXJXnX7 7 7 7 7 7 # u.b.v.B.Z.x % 7 7 7 7 g 8.8.l ,X*.8.g 7 7 g { P 3 R.R.P 6 7 y 4 *.4 *.8.8.C o x.hX. y 7 7 7 & r.y 7 y y & 9.p $ y 7 7 7 7 7 ",
"G.G.S.G.G.G.G.G.G.G.G.G.S.b.C.S.S.N # 7 7 7 7 7 7 7 7 % 7 7 7 7 % h Z.G.G.G.G.G.G.G.S.G.G.G.G.G.S.Z.b.S.F.M.7 7 7 7 7 7 7 % 7 7 7 7 7 7 7 M.F.A.G.G.G.S.G.G.G.G.G.S.Z.v.S.F.M.7 7 7 7 y k.l.j.l.l.x.x.x.x.x.x.x.x.x.b.h.% N x.j.l.x.x.x.x.c.g.7 7 7 7 7 7 7 7 7 7 7 7 7 7 h 7 % N S.S.S.S.F.F.F.F.F.F.F.D.D.D.D.D.D.D.D.D.D.D.D.gXgXgXgXgXgXgXgXgXgXjXjXjXjXjXjXjXhXhXhXhXhXhXhXhXvXF.y 7 7 7 7 7 % j M.l.c.b.h 7 7 7 7 7 g 4 8.4 8.*.*.7 7 7 e P I 3 I I I 6 7 7 4 8.4 *.*.*.4 8 7 bXv.@ + @ + + X + + + + + o o + + + + + + + ",
"o o o o o o o o o o o o o @ o o o % 7 7 7 7 7 7 7 7 7 7 7 7 7 7 7 7 o o o o o o o o o o o o o o o o @ o o + 7 7 7 7 7 7 7 7 7 7 7 7 7 7 7 + o o o o o o o o o o o o o @ o o + 7 7 7 7 7 # # # # # # # # # # # # # # # % 7 % # # # # # # # # % 7 7 7 7 7 7 7 7 7 7 7 7 7 7 h 7 7 7 % % % % % % % % % % % % % % % % % % % % % % % % % % % % % % % % % % % % % % % % % % % % % % % % # 7 7 7 7 7 7 7 7 7 7 % 7 7 7 7 7 7 7 7 7 8 8 7 7 7 7 7 7 7 6 6 6 7 6 6 6 7 7 7 8 7 7 8 8 7 8 7 % j xXxXzXzXzXzXxXzXzXzXzXzXzXzXzXzXzXzXzXzXzX",
"7 7 7 7 7 7 7 7 7 7 7 7 7 7 7 7 7 7 7 7 7 7 7 7 7 7 7 7 7 7 7 7 7 7 7 7 y y y y y y y y y y y y y 7 7 y y 7 7 7 7 7 7 7 7 7 7 7 7 7 7 7 7 7 y 7 y y y y y y y y y y y 7 y y 7 7 7 7 7 7 7 7 7 7 7 7 7 7 7 7 7 7 7 7 7 7 7 7 7 7 7 7 7 7 7 7 7 7 7 7 7 7 7 7 7 7 7 7 7 7 7 7 7 7 7 7 7 7 7 7 7 7 7 7 7 7 7 7 7 7 7 7 7 7 7 7 7 7 7 7 7 7 7 7 7 7 7 7 7 7 7 7 7 7 7 7 7 7 7 7 7 7 7 7 7 7 7 7 7 7 7 7 7 7 7 7 7 7 7 7 7 7 7 7 7 7 7 7 7 7 7 7 7 7 7 7 7 7 7 7 7 7 7 7 7 7 7 7 7 7 7 7 % # M 0.0.0.0.B B B B B B B B B B 0.0.0.0.0.",
"7 7 6 6 6 6 6 6 6 6 6 6 7 7 7 7 7 7 7 7 7 7 7 7 7 7 7 7 7 7 7 7 7 h 7 7 7 8 8 8 8 8 8 8 8 8 8 8 8 8 8 8 8 7 7 7 7 7 7 7 7 7 7 7 7 7 7 7 y y 7 7 8 8 8 8 8 8 8 8 8 8 8 8 8 7 7 7 7 7 7 7 7 7 7 7 7 7 7 7 7 7 7 7 h 7 7 7 7 7 7 7 7 7 7 7 7 7 7 7 7 7 7 7 7 7 7 7 7 7 7 7 7 7 7 7 7 7 7 h 7 7 7 & & & & & & & 7 7 7 7 7 7 7 7 7 7 7 7 7 7 7 7 7 7 7 7 7 7 7 7 h 7 7 7 7 7 7 7 7 7 7 7 7 7 7 7 7 7 7 7 7 7 7 7 7 7 7 7 7 7 7 7 7 7 7 y y 7 7 7 7 7 7 7 7 7 7 7 7 7 7 7 7 7 7 7 7 7 7 7 7 7 # # # # # # # # 7 # # # # # # # # # # # ",
"7 ; , , , , ; ; ; ; ; ; ; ; ; ; ; ; ; ; ; ; ; ; ; ; ; ; * * * 7 7 h 7 7 2 3 2 2 2 2 2 2 2 2 2 2 2 2 2 2 2 2 2 2 ; ; ; ; ; ; ; * * * & 7 h h 7 < < < < < < < < < < < < < < < < < < < < < < < < < < < < * * & 7 7 h 7 7 7 7 7 y y g g g g g g g g g g g h h h h h h h h h h h j j h 7 7 j 7 7 i f f f f f f f f f f f f f f f f f f f f f f f f f f f 6 6 7 7 h 7 7 7 7 7 7 y y g g g g g g g g g g h h h h h h h h h h h j j j 7 7 h h 7 7 7 7 7 y y g g g g g g g g g h h h h h h h h h j j j j k h 7 y h 7 7 7 g g g g g g g g ",
"6 A I.I.I.P.P.P.P.P.K.K.K.K.J.J.J.J.J.G H H H F F F F A A A , 7 7 h 7 8 3 >X>X>X>XXXXXXXXXXXXX.X.X.X.X X X X-.-.-.-.>.>.>.>.>.*.*.Y & 7 h h 7 < &X*X*X*X*X*X*X*X*X&X&X&X&X&X&X&X&X%.%.%.%.%.%.%.%.%.$.$.$.< 7 7 h 7 % B b.x.b.b.v.v.v.B.B.B.V.Z.C.C.G.S.S.S.F.F.D.D.D.4XgXgXgXhXg.# 7 h 7 $ p.tXtXtXtXtXtXtXeXeXeXeXeXeXeXwXwXwXa.a.a.s.s.s.s.s.s.r.p.a & 7 h 7 7 g x.x.c.b.v.v.v.B.B.B.V.Z.C.C.C.C.S.S.S.F.F.D.D.D.gXgXgXhXS.7 7 h h 7 7 k.c.c.b.v.v.v.B.B.B.V.Z.C.C.C.G.S.S.F.F.D.D.D.4XgXgXjXgXx % y h 7 % B b.x.b.b.v.v.B.B.",
"6 A /./././.I.I.I.I.I.P.P.P.K.G G J.K.J.J.J.G H H H F F F F , 6 7 h 7 8 3 <X<X<X<X>X>X>X>X>X>XXXXXXX-. X-..X.X X X X-.-.-.>.>.>.>.Y & 7 h h 7 < *X-X;X;X;X=X=X*X*X*X*X*X*X&X,.,.&X&X&X&X&X%.%.%.%.%.%.%.$.< 7 7 h 7 % B B.v.B.B.V.Z.C.C.C.S.S.F.Z.B.Z.S.gXgXgXgXjXhXhXhXhXzXzXcXg.# 7 h 7 $ s.sXsXsXsXtXtXtXtXtXtXtXtXeXa.a.wXeXwXwXwXa.a.a.a.s.s.s.s.a & 7 h 7 7 g b.B.B.B.B.Z.Z.C.C.S.S.S.S.M.B.G.gXgXgXgXjXjXhXhXhXzXzXcXF.7 7 h h 7 7 j.B.B.B.B.Z.Z.C.C.S.S.S.S.M.B.B.gXgXgXgXjXhXhXhXzXzXzXhXx % y h 7 % B B.M.B.B.V.Z.C.C.",
"6 A /././.I.I.I.I.I.I.P.P.P.G S G J.J.J.J.J.G H H H F F F F , 6 7 h 7 8 3 <X<X<X<X>X>X>X>X>XXXXXXX.X*.-.-..X X X X-.-.-.-.>.>.>.>.Y & 7 h h 7 < *X-X;X;X=X=X*X*X*X*X*X*X*X$.%.%.&X&X&X&X%.%.%.%.%.%.%.%.$.< 7 7 h 7 % B M.v.B.B.B.V.Z.C.C.C.C.F.l.j.l.G.D.D.gXgXgXjXjXhXhXhXhXzXg.# 7 h 7 $ s.sXsXsXtXtXtXtXtXtXtXtXtXa.r.a.a.eXwXwXwXa.a.a.s.s.s.s.s.a & 7 h 7 7 g b.v.v.B.B.B.V.Z.C.C.C.S.Z.0.l.M.D.D.D.gXgXgXjXjXhXhXhXzXS.7 7 h h 7 7 j.v.v.B.B.B.V.Z.C.C.C.S.V.u.V.C.D.D.gXgXgXjXjXhXhXhXzXhXx % y h 7 % B B.v.B.B.B.V.Z.C.",
"6 A /./././.I.I.I.I.I.P.P.P.K.J.J.J.J.J.J.J.G H H H F F F F , 6 7 h 7 8 3 <X<X<X<X>X>X>X>X>X>XXXXXXX X X-..X X X X-.-.-.-.>.>.>.>.Y & 7 h h 7 < *X-X-X;X;X=X*X*X*X*X*X*X*X&X&X,.&X&X&X&X,.%.%.%.%.%.%.%.$.< 7 7 h 7 % B v.v.M.B.B.V.Z.C.C.C.C.S.Z.C.V.S.D.D.D.gXgXgXjXjXhXhXhXzXg.# 7 h 7 $ s.sXsXsXsXtXtXtXtXtXtXtXtXeXwXwXwXeXwXwXwXa.a.a.s.s.s.s.s.a & 7 h 7 7 g b.v.v.B.B.B.V.Z.C.C.C.S.C.Z.C.Z.D.D.D.gXgXgXjXjXhXhXhXzXS.7 7 h h 7 7 j.v.v.B.B.B.V.Z.C.C.C.S.C.Z.C.S.D.D.D.gXgXgXjXjXhXhXhXjXx % 7 h 7 % B B.v.B.B.B.V.Z.C.",
"6 F /./././././.I.I.I.I.P.P.P.P.K.K.K.J.J.J.J.G H H H F F F Z 6 7 h y 8 3 <X<X<X<X<X<X>X>X>X>X>XXXXXXXXXXX.X.X X X X-.-.-.-.>.>.>.Y & 7 h h 7 < *X-X-X-X-X;X=X=X*X*X*X*X*X*X*X&X&X&X&X&X&X%.%.%.%.%.%.%.$.< 7 7 h 7 % B B.v.B.B.V.Z.C.C.C.S.S.S.F.D.D.D.D.gXgXgXjXjXhXhXhXhXhXzXg.# 7 h 7 $ s.sXsXsXsXsXsXtXtXtXtXtXtXtXtXeXeXeXeXwXwXwXa.a.a.s.s.s.s.a & 7 h 7 7 g b.v.B.B.B.V.Z.C.C.C.S.S.F.D.D.D.D.4XgXgXgXjXhXhXhXhXhXzXS.7 7 h h 7 7 j.B.B.B.B.V.Z.C.C.C.S.S.F.D.D.D.D.gXgXgXjXjXhXhXhXhXzXhXx % y h 7 % B B.v.B.B.V.Z.C.C.",
"6 , F A A A A Z Z Z Z Z Z Z Z Z Z Z Z Z , , , , , , , , , , - 7 7 h 7 8 3 >.*.*.*.*.*.*.*.Y Y Y Y Y Y Y Y Y Y Y 3 3 3 3 3 3 3 3 3 2 & 7 h h 7 < $.%.$.$.$.$.$.$.$.$.$.$.$.$.$.$.$.$.$.5 5 5 5 1 1 1 1 1 1 * 7 7 h 7 7 h x x x M M M M M M N N V V V V B B B B B 0.0.0.g.g.g.g.g.x 7 7 h 7 & r.s.p.p.p.r.r.r.r.r.r.r.r.r.r.r.r.r.r.r.a a a a a a a a a f 7 7 h 7 7 7 k x x M M M M M M N N V V V V V B B B B B 0.0.u.g.g.g.g.B 7 7 h h 7 7 k x x b M M M M M N N V V V V B B B B B B 0.0.g.g.g.g.g.h 7 7 h 7 7 h x x x M M M M M ",
"7 6 6 6 6 6 6 6 6 6 6 6 6 6 6 6 6 6 6 6 6 6 6 6 6 6 6 6 6 6 7 7 7 h 7 7 7 6 6 6 6 8 6 8 8 8 8 8 8 8 8 8 8 8 8 8 8 8 8 8 8 8 8 8 8 8 7 7 h h 7 7 8 8 8 8 8 8 8 8 8 8 8 8 8 8 8 8 8 8 8 8 8 8 8 8 8 8 8 8 8 7 7 7 h 7 7 7 % % % % % % % % % % % % % % % % % % % % % % % # # # # # 7 7 7 h 7 7 & $ $ $ $ $ $ $ $ $ $ $ $ $ $ $ $ $ $ $ $ & & & & & & & & 7 7 7 h 7 7 7 % % % % % % % % % % % % % % % % % % % % % % % % % # # # % 7 7 h h 7 7 7 % % % % % % % % % % % % % % % % % % % % % % % # # # # 7 7 7 h 7 7 7 % % % % % % % % ",
"7 7 7 7 7 7 7 7 7 7 7 7 7 7 7 7 % 7 7 7 7 7 7 7 7 7 7 7 7 7 7 7 7 h 7 7 7 7 7 7 7 7 7 7 7 7 7 7 7 7 7 7 7 7 7 % % % 7 % % 7 7 7 7 7 7 7 h h 7 7 7 7 y 7 7 7 7 7 7 7 7 7 7 7 7 7 7 7 7 7 7 7 7 7 7 7 7 7 7 7 7 7 h 7 7 7 7 7 7 7 7 7 7 7 7 7 7 7 7 7 7 7 7 7 7 7 7 7 7 7 7 7 7 7 7 7 7 h 7 7 7 7 y 7 7 7 7 7 7 7 7 7 7 7 7 7 7 7 7 7 7 % 7 % 7 7 7 7 7 7 7 7 h 7 7 7 7 7 7 7 7 7 7 7 7 7 7 7 7 7 7 7 7 7 7 7 7 7 7 7 7 7 7 7 7 7 7 h h 7 7 7 7 7 7 7 7 7 7 7 7 7 7 7 7 7 7 7 7 7 7 7 7 7 7 7 7 7 7 7 7 7 h 7 7 7 7 7 7 7 7 7 7 7 ",
"7 7 7 7 7 7 7 7 7 7 7 7 7 7 7 h j % 7 7 7 7 7 7 7 7 7 7 7 7 7 7 7 h 7 7 7 7 8 6 g 2 6 8 7 7 7 7 7 7 7 7 7 7 g x x M 7 x b 7 7 7 7 7 7 7 h h 7 7 7 7 8 y 2 7 8 7 7 7 7 7 7 7 7 7 7 7 7 h 7 h 7 h 7 7 7 7 7 7 7 7 h 7 7 7 7 % 7 y 7 7 7 7 7 7 7 7 7 7 7 7 7 y j 7 j h j 7 7 7 7 7 7 7 7 h 7 7 7 7 $ $ p i $ & 7 7 7 7 7 7 7 7 7 7 % h j x g x 7 7 7 7 7 7 7 7 h 7 7 7 7 7 % y y % 7 7 7 7 7 7 7 7 7 7 7 y 7 h h h h x h 7 7 7 7 7 7 h h 7 7 7 7 % g 7 % 7 7 7 7 7 7 7 7 7 7 7 j 7 j 7 h 7 7 7 7 7 7 7 7 7 h 7 7 7 7 % 7 g 7 % 7 7 ",
"7 7 7 7 7 7 7 7 7 7 7 7 7 7 % l.B.h 7 7 7 7 7 7 7 7 7 7 7 7 7 7 7 h 7 7 7 8 4  X X X X4 8 7 7 7 7 7 7 7 7 # c.N.x A.M x A.k % 7 7 7 7 7 h h 7 7 8 < ,.&X&X&X$.8 7 7 7 7 7 7 7 7 7 # g.v.7 Z.x C.% 7 7 7 7 7 7 7 h 7 7 7 7 V g.B g.b 7 7 7 7 7 7 7 7 7 7 7 h h.x.j.j l.x % 7 7 7 7 7 7 h 7 7 7 $ p.tXtXtXa.i $ 7 7 7 7 7 7 7 7 7 h Z.N b.l.x.h.# 7 7 7 7 7 7 h 7 7 7 % j j.j.l.j.j 7 7 7 7 7 7 7 7 7 % h.B x.N l.h.B l.% 7 7 7 7 7 h h 7 7 % k j.j.l.k.h % 7 7 7 7 7 7 7 7 h k.l.h.k.c.j l.j % 7 7 7 7 7 h 7 7 7 h h.l.j.l.x % 7 ",
"7 7 7 7 7 7 7 7 7 7 7 7 7 7 7 l.j.B # 7 7 7 7 7 7 7 7 7 7 7 7 7 7 h 7 7 8 Y .XY * * Y .X*.8 7 7 7 7 7 7 7 7 j b.N l.% h x.% 7 7 7 7 7 7 h h 7 8 5 *X$.< * 5 &X,.8 7 7 7 7 7 7 7 7 % j x.c.F.V.G.7 7 7 7 7 7 7 7 h 7 7 7 j.g.& @ 7 N 0.7 7 7 7 7 7 7 7 7 7 % B x g.x B h 7 7 7 7 7 7 7 h 7 7 $ wXtXr.# f r.eXd $ 7 7 7 7 7 7 7 # 0.C.g.l.j.0.N % 7 7 7 7 7 7 h 7 7 % M x.x % % k x.x % 7 7 7 7 7 7 7 % M B k j.c.0.b N % 7 7 7 7 7 h h 7 % N x.k # & b c.x % 7 7 7 7 7 7 7 % 0.l.h.b.l.l.v.x % 7 7 7 7 7 h 7 7 j x.M & # j l.0.% ",
"7 7 7 7 7 7 7 7 7 7 7 7 7 7 % k.B.h 7 7 7 7 7 7 7 7 7 7 7 7 7 7 7 h 7 7 g  X3 . @ & O 3 .X2 6 7 7 7 7 7 7 7 M c.j.0.b k.B # 7 7 7 7 7 7 h h 7 8 &X%.t l * o @ &X$.8 7 7 7 7 7 7 7 7 h j.N Z.k.B.y 7 7 7 7 7 7 7 h 7 % V g.. B x     N M 7 7 7 7 7 7 7 7 % N x.x 0.l.l.7 7 7 7 7 7 7 7 h 7 $ r.tX% . k.N.. r.a.& 7 7 7 7 7 7 7 % j M.x.l.M.A.x 7 7 7 7 7 7 7 h 7 7 g j.h . @ = # h 0.7 7 7 7 7 7 7 7 % x N M k.k.0.0.g 7 7 7 7 7 7 h h % h j.7 . @ @ . j j.7 7 7 7 7 7 7 7 h h.B g.u.k.0.j.x % 7 7 7 7 7 h 7 7 k.b . @ *   % l.j ",
"7 7 7 7 7 7 7 7 7 7 7 7 7 7 7 7 y 7 7 7 7 7 7 7 7 7 7 7 7 7 7 7 7 h y # *. X# b.n.<.C O -.*.6 7 7 7 7 7 7 7 h h 7 7 y 7 7 7 7 7 7 7 7 7 h h 8 5 -X  x.JXn.z O $.,.8 7 7 7 7 7 7 7 7 7 7 # % # % 7 7 7 7 7 7 7 7 h 7 7 x.h . Z.gXl = 7 0.7 7 7 7 7 7 7 7 7 7 h h g 7 h 7 7 7 7 7 7 7 7 h 7 = eXa.X < nXnX@ @ eXd $ 7 7 7 7 7 7 7 7 g 7 h 7 h h 7 7 7 7 7 7 7 h 7 % N k.. & k D.C.. V x % 7 7 7 7 7 7 7 7 7 h 7 7 7 7 7 7 7 7 7 7 7 h h # B g.. & k B M   j.M % 7 7 7 7 7 7 7 h 7 y % h % % 7 7 7 7 7 7 7 h % k x.o @ k k 2 . B g.",
"7 7 7 7 7 7 7 7 7 7 7 7 7 # % # % 7 # % 7 7 7 7 7 7 7 7 7 7 7 7 7 h g w 8.>.8 MXcXz V O *.>.6 7 7 7 7 7 7 7 7 % 7 7 % 7 % 7 7 7 7 7 7 7 h h 8 $.&Xo 2 C.k.B @ 5 ,.8 7 7 7 7 7 7 7 7 7 % % % % % 7 7 7 7 7 7 7 7 h % g k.# = z B C * @ B y 7 7 7 7 7 7 7 7 7 # % 7 % % 7 7 7 7 7 7 7 7 h 7 $ eXr.X M k.j.k   a.r.$ 7 7 7 7 7 7 # 7 7 % # 7 # % # 7 7 7 7 7 7 h 7 % B N . g k v.M . x M % 7 7 7 7 7 7 7 7 7 # 7 % % 7 7 7 7 7 7 7 7 h h # 0.M   l g F.jX& M M % 7 7 7 7 7 7 7 7 % % 7 % 7 7 7 7 7 7 7 7 7 h % b g.  & g b.v.  j h.",
"7 7 7 7 7 7 7 7 7 7 7 7 g B b h.x j h.x % 7 7 7 7 7 7 7 7 7 7 7 7 h g w >.>X. * M V l O -.*.6 7 7 7 7 7 7 7 7 x j 7 x y x 7 7 7 7 7 7 7 h h 8 5 -X+ @ l V C O $.,.8 7 7 7 7 7 7 7 7 g M M M M N % 7 7 7 7 7 7 7 h 7 7 x.g . g l l   7 0.7 7 7 7 7 7 7 7 7 7 N j h B N 7 7 7 7 7 7 7 7 h 7 = eXa.. k M M * @ eXd $ 7 7 7 7 7 7 0.h h x B h B h 0.7 7 7 7 7 7 h 7 % N k.. * l g *   B x % 7 7 7 7 7 7 7 7 h N 7 N B x % 7 7 7 7 7 7 h h # B g.. & l k &   B j 7 7 7 7 7 7 7 7 7 M x h B V 7 7 7 7 7 7 7 7 h % k x.  @ g n.gX# V g.",
"7 7 7 7 7 7 7 7 7 7 7 # V F.j c.j.# N.g.# 7 7 7 7 7 7 7 7 7 7 7 7 h 7 6 l >XY O * *   3  X2 7 7 7 7 7 7 7 7 # v.u.0.v.h.M.@ 7 7 7 7 7 7 h h 7 8 &X,.O * &   * &X$.8 7 7 7 7 7 7 7 # b.b.N Z.N B.h 7 7 7 7 7 7 7 h 7 % V h.o   @   o N b 7 7 7 7 7 7 7 7 % N u.0.l.c.l.% 7 7 7 7 7 7 7 h 7 $ r.tXf   & * X r.a.& 7 7 7 7 7 7 7 k.l.l.C.x.Z.b.Z.M.g.# 7 7 7 7 h 7 7 g j.h . @ @   g B 7 7 7 7 7 7 7 7 7 7 h.B k.x.v.M % 7 7 7 7 7 7 h h % h j.g . @ = . h B 7 7 7 7 7 7 7 7 % M g.0.l.c.x.7 7 7 7 7 7 7 7 h 7 7 h.M . =     & g.j ",
"7 7 7 7 7 7 7 7 7 7 7 7 7 h.j.l.x 7 c.y 7 7 7 7 7 7 7 7 7 7 7 7 7 h 7 7 6 *.<X2 + @ & .XY 8 7 7 7 7 7 7 7 7 # N n.Z.F.S.B.# 7 7 7 7 7 7 h h 7 8 5 -X$.o @ # ,.%.8 7 7 7 7 7 7 7 7 7 M.M.0.M.0.k.% 7 7 7 7 7 7 7 h 7 7 7 n.B @ @ @ x B 7 7 7 7 7 7 7 7 7 # g.j V j.0.0.% 7 7 7 7 7 7 7 h 7 7 $ eXtX= # = d eXp & 7 7 7 7 7 7 % g.x.S.D.0.D.0.F.h.l.# 7 7 7 7 h 7 7 % M c.7 @ @ 7 g.j 7 7 7 7 7 7 7 7 7 h h.7 n.0.g.h 7 7 7 7 7 7 7 h h 7 % V x.% @ @ 7 g.h 7 7 7 7 7 7 7 7 # 0.x M l.0.0.% 7 7 7 7 7 7 7 h 7 7 j b.h @ @ # B M % ",
"7 7 7 7 7 7 7 7 7 7 7 7 j x.0.0.x 0.0.% 7 7 7 7 7 7 7 7 7 7 7 7 7 h 7 7 7 6 4 7 7 7 7 3 8 7 7 7 7 7 7 7 7 7 % b B M x.B l.% 7 7 7 7 7 7 h h 7 7 8 l g 7 7 7 2 7 7 7 7 7 7 7 7 7 7 % 0.c.k.l.V.n.7 7 7 7 7 7 7 7 h 7 7 7 7 h 7 7 7 g 7 7 7 7 7 7 7 7 7 7 7 h k.B x M x % 7 7 7 7 7 7 7 h 7 7 7 7 d 7 7 7 i i $ 7 7 7 7 7 7 % j A.0.0.l.c.g.b.u.M.x % 7 7 7 7 h 7 7 7 7 h 7 7 7 7 g 7 7 7 7 7 7 7 7 7 7 7 V k.x M N h 7 7 7 7 7 7 7 h h 7 7 7 h 7 7 7 7 g 7 7 7 7 7 7 7 7 7 7 g h.0.x M M 7 7 7 7 7 7 7 7 h 7 7 7 h 7 7 7 7 g 7 7 ",
"7 7 7 7 7 7 7 7 7 7 7 7 7 7 % % 7 7 % 7 7 7 7 7 7 7 7 7 7 7 7 7 7 h 7 7 7 7 6 7 7 7 7 8 7 7 7 7 7 7 7 7 7 7 7 7 % % # # # 7 7 7 7 7 7 7 h h 7 7 7 8 7 7 7 7 8 7 7 7 7 7 7 7 7 7 7 7 % % 7 7 # 7 7 7 7 7 7 7 7 7 h 7 7 7 7 7 7 7 7 7 7 7 7 7 7 7 7 7 7 7 7 7 7 7 7 7 7 7 7 7 7 7 7 7 7 h 7 7 7 7 $ 7 7 7 7 & 7 7 7 7 7 7 7 7 7 % 7 # # % % % % % 7 7 7 7 7 7 h 7 7 7 7 7 7 7 7 7 7 7 7 7 7 7 7 7 7 7 7 7 % 7 % 7 7 7 7 7 7 7 7 7 7 h h 7 7 7 7 7 7 7 7 7 7 7 7 7 7 7 7 7 7 7 7 7 7 7 7 7 7 7 7 7 7 7 7 7 h 7 7 7 7 7 7 7 7 7 7 7 ",
"7 7 7 7 7 7 7 7 7 7 7 7 7 7 7 7 7 7 7 7 7 7 7 7 7 7 7 7 7 7 7 7 7 h 7 7 7 7 7 7 7 7 7 7 7 7 7 7 7 7 7 7 7 7 7 7 7 7 7 7 7 7 7 7 7 7 7 7 h h 7 7 7 7 7 7 7 7 7 7 7 7 7 7 7 7 7 7 7 7 7 7 7 7 7 7 7 7 7 7 7 7 7 7 h 7 7 7 7 7 7 7 7 7 7 7 7 7 7 7 7 7 7 7 7 7 7 7 7 7 7 7 7 7 7 7 7 7 7 h 7 7 7 7 7 7 7 7 7 7 7 7 7 7 7 7 7 7 7 7 7 7 7 7 7 7 7 7 7 7 7 7 7 7 h 7 7 7 7 7 7 7 7 7 7 7 7 7 7 7 7 7 7 7 7 7 7 7 7 7 7 7 7 7 7 7 7 7 7 h h 7 7 7 7 7 7 7 7 7 7 7 7 7 7 7 7 7 7 7 7 7 7 7 7 7 7 7 7 7 7 7 7 7 h 7 7 7 7 7 7 7 7 7 7 7 ",
"7 6 6 6 6 6 6 6 6 6 6 6 6 6 6 6 6 6 6 6 6 6 6 6 6 6 6 6 6 6 7 7 7 h 7 7 7 6 6 6 6 6 6 6 6 6 6 6 8 8 8 8 8 8 8 8 8 8 8 8 8 8 8 8 8 8 7 7 h h 7 7 8 8 8 8 8 8 8 8 8 8 8 8 8 8 8 8 8 8 8 8 8 8 8 8 8 8 8 8 8 7 7 7 h 7 7 % # # # # # # # # % % % % % % % % % % % % % % % % % % % % 7 7 7 h 7 7 & $ $ $ $ $ $ $ $ $ $ $ $ $ $ $ $ $ $ $ $ $ $ & & & & & & 7 7 7 h 7 7 7 # # # # # # # # % % % % % % % % % % % % % % % % % % % % 7 7 7 h h 7 7 % # # # # # # # % % % % % % % % % % % % % % % % % % % % 7 7 7 h 7 7 % # # # # # # # % ",
"6 , A A A A A A Z Z Z Z Z Z Z Z Z Z Z Z Z , , , , , , , , , - 7 7 h 7 8 2 *.*.*.*.*.*.*.*.*.Y Y Y Y Y Y Y Y Y Y Y 3 3 3 3 3 3 3 3 2 & 7 h h 7 < $.$.$.$.$.$.$.$.$.$.$.$.$.$.$.$.$.$.$.$.5 5 5 5 1 1 1 1 1 * 7 7 h 7 7 B k.g.g.g.g.g.g.g.g.0.0.B 0.B B B V V V V N N M M M M M M g 7 7 h 7 & 9.s.p.p.p.r.r.r.r.r.r.r.r.r.r.r.r.r.r.r.r.a a a a a a a a f 7 7 h 7 7 j h.g.g.g.g.g.g.g.g.u.0.B B 0.B B B V V V N N M M M M M M k 7 7 h h 7 g g.h.g.g.g.g.g.g.g.0.0.B 0.B B B V V V V N N M M M M M x 7 7 7 h 7 7 V k.g.g.g.g.g.g.g.",
"6 A /./././.I.I.I.I.I.I.P.P.K.J.K.K.J.J.J.J.J.G H H F F F F Z 6 7 h 7 8 3 <X<X<X<X<X>X>X>X>X>XXXXXXX.X.X.X.X.X X X X-.-.-.>.>.>.>.Y & 7 h h 7 < *X-X;X;X;X=X=X*X*X*X*X*X*X&X&X&X&X&X&X&X&X%.%.%.%.%.%.%.$.< 7 7 h 7 % B.cXhXhXhXhXhXjXjXgXgXgXgXS.S.S.S.S.S.S.C.C.C.Z.V.B.B.v.v.k % 7 h 7 $ s.sXsXsXsXtXtXtXtXtXtXtXtXeXeXeXeXeXwXwXwXwXa.a.a.s.s.s.s.a & 7 h 7 % M hXzXhXhXhXhXhXjXgXgXgXgXD.G.S.S.S.S.S.C.C.C.Z.V.B.B.B.B.j.& 7 h h 7 g D.zXhXhXhXhXhXjXgXgXgXgXS.S.S.S.S.S.S.C.C.C.Z.V.B.B.B.b.g 7 7 h 7 % B.zXhXhXhXhXhXjXjX",
"6 A /./.I.I.I.I.I.I.P.P.P.P.G G A D J.J.J.J.G H H H F F F F , 6 7 h 7 8 3 >X<X<X>X>X>X>X>X>XXXXXXX X-.>.*. X X X X-.-.-.-.>.>.>.>.Y & 7 h h 7 < *X-X;X=X=X=X*X*X*X*X*X*X&X,.%.$.&X&X&X&X%.%.%.%.%.%.%.%.$.< 7 7 h 7 % B.zXhXhXhXjXjXgXgXgXD.D.S.M.v.h.v.S.C.C.C.Z.V.B.B.B.v.v.v.k % 7 h 7 $ p.sXsXpXtXtXtXtXtXtXtXtXeXa.a.p.s.eXwXwXwXa.a.a.s.s.s.s.s.a & 7 h 7 % M hXhXhXhXjXjXgXgXgXD.D.D.V.M.l.j.C.S.C.C.C.Z.V.B.B.B.v.v.k.& 7 h h 7 y F.zXhXhXjXjXgXgXgXD.D.F.M.v.k.b.S.C.C.C.Z.V.B.B.B.v.v.x.g 7 7 h 7 % v.zXhXhXhXjXjXgXgX",
"6 A /./././.I.I.I.I.I.P.P.P.G H H A J.J.J.J.G H H H F F F F , 6 7 h 7 8 3 <X<X<X<X>X>X>X>X>XXXXXXX X-.-.*. X.X X X-.-.-.-.>.>.>.>.Y & 7 h h 7 < *X-X;X;X=X=X*X*X*X*X*X*X&X,.,.%.%.&X&X&X%.%.%.%.%.%.%.%.$.< 7 7 h 7 % B.zXhXhXhXhXjXgXgXgXD.D.F.v.v.x.n.F.C.C.C.Z.V.B.B.B.v.v.v.k % 7 h 7 $ s.sXsXsXtXtXtXtXtXtXtXtXeXa.a.s.p.eXwXwXwXa.a.a.s.s.s.s.s.a & 7 h 7 % M hXhXhXhXhXjXjXgXgXgXD.D.Z.v.v.h.C.S.C.C.C.Z.V.B.B.B.v.v.k.& 7 h h 7 g D.zXhXhXhXjXjXgXgXgXD.F.M.v.x.j.S.C.C.C.Z.Z.B.B.B.v.v.c.g 7 7 h 7 % B.zXhXhXhXjXjXgXgX",
"6 F /././././.I.I.I.I.I.P.P.K.K.K.K.J.J.J.J.J.G H H H F F F , 6 7 h 7 8 3 <X<X<X<X<X<X>X>X>X>X>XXXXX.X.X.X.X.X X X X-.-.-.-.>.>.>.Y & 7 h h 7 < *X-X-X-X-X;X=X=X*X*X*X*X*X&X&X&X&X&X&X&X&X,.%.%.%.%.%.%.$.< 7 7 h 7 % B.cXzXzXhXhXhXhXjXgXgXgXgXS.S.F.S.S.S.S.C.C.C.Z.V.B.B.M.v.k % 7 h 7 $ s.sXsXsXsXsXtXtXtXtXtXtXtXeXeXeXeXeXwXwXwXwXa.a.a.s.s.s.s.a & 7 h 7 % M zXzXzXzXhXhXhXjXjXgXgXgXD.S.F.S.S.S.S.G.C.C.Z.Z.B.B.B.B.j.& 7 h h 7 y D.cXzXzXhXhXhXjXjXgXgXgXF.S.F.S.S.S.S.C.C.C.Z.V.B.B.B.b.g 7 7 h 7 % B.cXzXzXhXhXhXhXjX",
"6 F /.I.I.I.I.P.P.P.K.K.K.K.K.J.J.J.J.G H H H F F F F F A A , 7 7 h 7 8 3 >X>X>X>X>X>XXXXXXXXX.X.X.X.X X X X-.-.-.-.>.>.>.>.>.*.*.Y & 7 h h 7 < *X=X*X*X*X*X*X*X*X&X&X&X&X&X&X&X&X%.%.%.%.%.%.%.%.%.$.$.$.< 7 7 h 7 % v.hXgXgXD.D.D.D.F.S.S.S.G.S.C.C.Z.V.B.B.B.v.v.v.b.b.c.x.x.k % 7 h 7 $ s.sXtXtXtXtXtXtXtXeXeXeXeXeXwXwXwXwXa.a.a.a.s.s.s.s.s.p.p.a & 7 h 7 % M gXgXgX4XD.D.D.F.F.S.S.S.G.C.C.C.Z.B.B.B.B.v.v.v.b.c.x.x.g.7 7 h h 7 g S.jXgXgXD.D.D.F.F.S.S.S.S.C.C.C.V.B.B.B.M.v.v.b.b.x.x.j.g 7 7 h 7 % v.hXgXgXD.D.D.F.F.",
"7 ; , ; ; ; ; ; ; ; ; - - - - ; ; * ; * * * * * = = = = = = = 7 7 h 7 7 2 2 2 2 2 2 2 2 2 2 2 ; ; ; 2 2 ; ; ; ; ; * * * * * * * * * & 7 h h 7 < < < < < < < < < < < < < < < < < < < < < < * * * * * * * @ & 7 7 h 7 7 h h h h h h g g g g g g g y g g g y y 7 7 7 7 7 7 7 7 7 7 7 7 7 h 7 7 f f f f f f f f f f f f f f f f 6 6 6 6 6 6 6 6 6 6 6 6 6 % 7 7 h 7 7 g h h h h h h g g g g g g y g g g g y y 7 7 7 7 7 7 7 7 7 7 7 7 h h 7 7 h h h h h h g g g g g g y g g g g y 7 7 7 7 7 7 7 7 7 7 7 7 7 h 7 7 h h h h h h g g g ",
"7 h j j j j j j j j j j j j x y y j j j j j j j j j x x x x x 7 7 h 7 7 y h h h h j j j j j j j j x y 7 j h j j j j j j j x x x x x y 7 h h 7 7 h h h h h j j j j j j j x h 7 j h j j j j j j k k x x x x h 7 7 h 7 7 7 7 7 7 7 7 7 7 y g g g h g 7 7 7 7 7 7 7 7 y g g g g g h g 7 7 h 7 7 g l h h l l l l k k k k k k 7 g k h h h h k k k k k k k k k 7 7 h 7 7 7 7 7 7 7 7 7 7 7 y g g g h 7 7 7 7 7 7 7 7 y y g g g g h h 7 7 h h 7 7 7 7 7 7 7 7 7 7 y g g g h 7 7 7 7 7 7 7 7 y g g g g g h y 7 7 h 7 7 7 7 7 7 7 7 7 7 y ",
"# j.bXcXbXnXnXnXnXnXMXMXMXmXzX% V cXcXcXnXnXnXnXnXnXMXMXMXmX$X% 7 h y % N zXcXcXnXnXnXnXnXMXMXMXmXnXM g hXcXcXbXnXnXnXnXnXMXMXMXmXcXh % h h 7 g gXcXcXnXnXnXnXnXMXMXMXMXmXl.@ S.bXcXbXnXnXnXnXnXMXMXMXmXMXB # y h 7 % B v.v.B.B.Z.C.S.S.F.D.D.jXx.# M v.v.v.B.Z.C.C.S.S.F.D.D.jXg.# 7 h 7 # x.bXcXbXnXnXnXnXMXMXMXMXmXzX% B cXcXcXnXnXnXnXnXnXMXMXMXmXD.% 7 h 7 7 h x.v.v.B.V.C.C.S.S.D.D.gXD.j 7 j.v.v.B.V.C.C.G.S.F.F.D.gXC.7 7 h h 7 7 j.v.v.B.V.C.C.S.S.D.D.gXS.g 7 x.v.v.B.Z.C.C.S.S.F.D.gX$Xx % y h 7 % B v.v.B.B.Z.C.S.S.",
"# x.mXmXnXzXcXzXMXnXzXHXHXJXcX# B nXMXmXcXcXzXMXcXhXcXHXHXJXjX# 7 h y % N nXmXMXzXcXzXnXmXzXmXHXJXmXx 7 cXmXmXbXcXvXnXnXkXzXmXHXJXnXg 7 h h 7 g zXmXmXzXcXzXcXmXcXnXHXHXJXl.o D.mXmXnXzXzXnXnXzXkXMXHXHXHXB # y h 7 % g.C.C.B.M.B.B.F.C.C.hXhXcXx.@ V Z.Z.C.v.M.B.S.B.B.S.hXhXzXg.# 7 h 7 # x.mXmXnXzXcXzXMXnXzXHXHXJXcX# B MXMXmXcXcXzXMXcXhXcXHXHXJXgX# 7 h 7 7 h B.C.C.v.B.M.C.F.V.gXhXzXgXh & b.C.C.B.B.v.G.C.B.V.gXhXzXF.7 7 h h 7 7 x.C.C.v.B.M.Z.D.Z.F.hXzXD.7 7 v.C.C.v.N.B.S.V.B.A.hXzXhXx % 7 h 7 % g.C.C.B.M.B.B.F.C.",
"# n.MXMXnX0XjXhXhXcXzXMXHXHXcX# V nXnXMXjXZ.0XzXcXzXjXHXHXJXgX# 7 h y % N nXMXMXhXD.zXgXcXzXnXHXHXmXx y zXMXMXcXZ.F.vXcXcXgXmXHXHXnXg 7 h h 7 g hXMXMXcXF.zX0XcXzXcXHXHXHXl.+ D.MXMXnXC.A.hXzXcXgXnXHXHXmXB # y h 7 % g.Z.Z.B.j.v.c.B.V.V.gXjXzXx.@ N B.B.C.j.h.b.B.Z.v.Z.hXjXhXg.# 7 h 7 # x.MXMXnXD.jXhXhXcXzXMXHXHXcX# B nXnXMXjXZ.0XzXcXzXjXHXHXJX0X# 7 h 7 7 h v.V.Z.c.x.M.b.V.V.G.hXhXD.h & x.V.C.v.g.l.v.B.Z.b.D.jXhXS.7 7 h h 7 7 x.Z.C.v.j.B.c.V.V.C.jXhXF.7 7 b.V.C.l.h.c.B.Z.M.B.jXhXgXx % 7 h 7 % g.Z.Z.B.j.v.c.B.Z.",
"# l.MXnXnXzXzXcXcXcXzXmXmXHXcX# V nXnXMXnXvXnXzXMXnXcXmXHXHXgX# 7 h y % M nXMXMXzXzXzXcXcXzXmXHXHXMXx y zXMXMXnXvXnXzXnXMXcXMXHXHXnXg 7 h h 7 g hXMXMXcXzXzXcXcXzXnXHXHXHXj.+ F.MXnXnXzXcXcXbXMXcXnXHXHXmXV # y h 7 % g.V.V.B.v.v.B.B.Z.C.gXgXhXl.# N B.B.Z.v.v.V.B.S.C.C.gXgXhX0.# 7 h 7 # x.MXnXnXzXzXcXcXcXzXmXmXHXzX# B nXnXMXbXzXnXzXMXnXcXmXUXHXD.# 7 h 7 7 g v.B.Z.v.v.N.B.Z.B.D.gXjXD.h & x.B.V.V.v.V.M.G.S.Z.D.gXhXC.7 7 h h 7 7 x.V.Z.B.v.v.V.Z.V.S.gXhXS.7 7 b.V.Z.M.v.V.B.S.C.C.gXjXgXk % 7 h 7 % g.V.V.B.v.v.B.V.Z.",
"# x.mXMXmXmXmXHXHXHXHXHXHXJXcX# B MXMXmXmXmXmXHXHXHXHXHXHXJXgX# 7 h y % N nXmXmXmXmXHXHXHXHXHXHXHXmXx y cXmXMXmXmXmXHXHXHXHXHXHXJXnXg 7 h h 7 g zXmXMXmXmXUXHXHXHXHXHXHXHXl.+ D.mXMXmXmXmXHXHXHXHXHXHXHXHXB # y h 7 % g.Z.Z.C.S.F.D.D.gXgXgXgXhXx.@ N V.V.C.S.S.F.D.D.gXgXgXjXhXg.# 7 h 7 # c.mXMXmXmXmXHXHXHXHXHXHXJXcX# 0.MXMXmXmXmXmXHXHXHXHXHXHXJXgX# 7 h 7 7 h v.Z.C.S.S.F.D.D.gXgXgXhXD.h & x.Z.Z.C.S.F.D.D.gXgXgXgXhXC.7 7 h h 7 7 x.Z.Z.C.S.F.D.D.gXgXgXhXS.7 7 b.Z.C.S.S.F.D.D.gXgXgXjXgXk % 7 h 7 % g.Z.Z.C.S.F.D.D.gX",
"% V b.c.b.b.b.v.v.v.v.v.M.B.c.7 x c.c.b.b.b.b.v.v.v.v.M.M.B.j.7 7 h 7 % k c.c.b.b.b.b.v.v.v.v.M.M.v.j g x.c.c.b.b.b.v.v.v.v.M.M.B.b.h % h h 7 g l.b.c.b.b.b.v.v.v.v.M.M.B.V % k.b.c.b.b.b.v.v.v.v.v.M.M.B.x % 7 h 7 7 k M M N V V B B B 0.g.g.g.M % h M M N V V B B B B 0.g.g.g.x 7 7 h 7 % B b.c.b.b.b.v.v.v.v.v.M.B.x.7 x b.c.b.b.b.b.v.v.v.v.M.M.B.j.7 7 h 7 7 y M M N V V B B B B 0.g.g.u.g 7 x M N N V V B B B 0.g.g.g.B 7 7 h h 7 7 k M N V V V B B B 0.g.g.B 7 7 M M N V V B B B B 0.g.g.g.h 7 7 h 7 7 k M M N V V B B B ",
"7 % # # # # # # # # # # # # # 7 7 # # # # # # # # # # # # # % 7 7 h 7 7 7 # # # # # # # # # # # # # 7 7 # # # # # # # # # # # # # # 7 7 h h 7 7 # # # # # # # # # # # # # 7 7 % # # # # # # # # # # # # # 7 7 7 h 7 7 7 % % % % % % % % % % % # % 7 7 % % % % % % % % % % % % # 7 7 7 h 7 7 % # # # # # # # # # # # # # 7 7 # # # # # # # # # # # # # % 7 7 h 7 7 7 % % % % % % % % % % % # % 7 7 % % % % % % % % % % % % # % 7 7 h h 7 7 % % % % % % % % % % % # % 7 7 % % % % % % % % % % % % % 7 7 7 h 7 7 7 % % % % % % % % ",
"7 7 7 7 7 6 6 7 7 7 7 7 7 7 7 7 6 6 6 7 7 7 7 7 7 7 7 7 7 7 7 7 7 h 7 7 7 7 7 7 8 8 7 7 7 7 7 7 7 7 7 7 8 8 7 7 7 7 7 7 7 7 7 7 7 7 7 7 h h 7 7 7 7 7 8 8 8 7 7 7 7 7 7 7 7 7 8 8 8 7 7 7 7 7 7 7 7 7 7 7 7 7 7 h 7 7 7 7 7 7 7 7 7 7 7 7 7 7 7 7 7 7 7 7 7 7 7 7 7 7 7 7 7 7 7 7 7 7 h 7 7 7 7 7 & $ $ 7 7 7 7 7 7 7 7 7 & $ $ 7 7 7 7 7 7 7 7 7 7 7 7 7 7 h 7 7 7 7 7 7 7 7 7 7 7 7 7 7 7 7 7 7 7 7 7 7 7 7 7 7 7 7 7 7 7 7 7 7 h h 7 7 7 7 7 7 7 7 7 7 7 7 7 7 7 7 7 7 7 7 7 7 7 7 7 7 7 7 7 7 7 7 7 h 7 7 7 7 7 7 7 7 7 7 7 ",
"7 7 7 6 : S > e 6 7 7 7 7 7 7 6 : S > 7 6 7 7 7 % 7 7 % 7 y % 7 7 h 7 7 7 7 8 2 P Y 2 8 7 7 7 7 7 7 8 2 P P 2 8 7 7 7 7 % 7 7 7 g % 7 7 h h 7 7 7 8 7 5 $.5 8 7 7 7 7 7 7 8 y 5 $.2 8 7 7 7 7 % 7 7 % g 7 % 7 7 h 7 7 7 7 7 h j h 7 7 7 7 7 7 7 7 7 h j h 7 7 7 7 7 % 7 7 % 7 7 % 7 7 h 7 7 7 7 $ p r.9.y $ 7 7 7 7 7 7 $ d r.9.y $ 7 7 7 % 7 7 % 7 y % 7 7 h 7 7 7 7 7 7 j j 7 7 7 7 7 7 7 7 7 7 j j 7 7 7 7 7 7 % 7 7 7 7 7 7 7 h h 7 7 7 7 y j j 7 7 7 7 7 7 7 7 7 y j j 7 7 7 7 7 % 7 7 % 7 7 % 7 7 h 7 7 7 7 7 h j g 7 7 7 ",
"7 7 7 D K.L J.J.S 6 7 7 7 7 e L K.L J.J.S 6 7 % x v.x h h j j h % h 7 7 7 8 *..X-.-..X*.7 7 7 7 7 8 *..X-. X.X*.7 7 7 h b.0.h h j h j % h h 7 7 8 $.&X&X,.&X%.y 7 7 7 7 8 $.&X&X,.&X%.y 7 7 7 l.j.h h j h x 7 7 h 7 7 7 g V u.N g.V h 7 7 7 7 7 h V 0.N g.V g 7 7 % N g.h h h h h 7 7 h 7 7 7 y s.eXa.eXwXr.$ 7 7 7 & i s.eXa.eXwXr.$ 7 % M v.x h h j j h % h 7 7 7 7 x 0.B B g.x 7 7 7 7 7 7 x 0.B B u.x 7 7 7 g h.M y h h h h % h h 7 7 7 x u.V B 0.k 7 7 7 7 7 7 b g.V B 0.k 7 7 % M h.h h h h h 7 7 h 7 7 7 j B B V g.M 7 7 ",
"7 6 G L @ o o ; P.S 6 7 7 7 J.L + o o > P.S 6 % v.B N l.Z.x.V.c.% h 7 7 8 *..X& o o * .X>.8 7 7 8 >. X* O o * .X>.8 # l.h.N 0.C.x.N.N.h y h 7 8 $.&X5 o o @ %.&X7 7 7 8 $.&X2 o o @ ,.&X8 # V x.N B V.b.v.Z.M 7 h 7 7 7 g.k o   o k g.y 7 7 7 y g.j o   o k g.7 7 h k.x x k.j.h.n.N % j 7 7 & wXs.@     d tXr.$ 7 7 7 wXs.@     d tXr.$ % v.B N l.Z.x.V.x.% h 7 7 7 M 0.#     # u.M 7 7 7 7 M B #     % g.M 7 # 0.N x N x.g.j.j.7 h h 7 7 M B #     & g.x 7 7 7 7 N B #     & g.x % 7 k.x x h.l.g.l.B 7 h 7 7 k g.7     @ V B 7 ",
"6 S L + * k l O > J.7 7 6 S L + * k l O > J.7 # l.n.A.A.F.V.h.x.7 h 7 6 3  X* o l k + @ .X3 8 8 4  X@ o k k o * .X3 # u.x.Z.A.F.Z.l.l.x 7 h 7 7 &X5 . l C * O ,.$.8 7 y &X5 . l C * O ,.$.# x b.M.G.S.A.c.k.u.% h 7 7 N x . @ g * . x N % 7 7 V x . * g * . x N % 7 h.g.c.c.c.j.N 0.% j 7 $ r.a.X * k l X d wX7 7 $ p.a.X @ k l X d wX7 # n.n.G.A.F.V.h.x.7 h 7 7 h B #   2 2   # 0.h 7 7 h B @   2 2   # 0.h # N g.n.x.v.n.0.0.j 7 h % h B @   2 2   % 0.y 7 7 j B o   2 <   % 0.7 7 h.g.c.c.b.j.N 0.7 h 7 7 B 7 . & g = o B k ",
"6 G S O l B <.l o J.> 6 6 G S . k <.<.l o J.> 6 7 g.M N b x j j 7 h y 6 *.-.O 2 B <.z O >.*.6 6 *.>.O l z <.z O -.*.8 7 0.N N N x j j 7 h h 8 5 &Xo 2 z V B o $.,.8 8 5 &Xo 2 z B B o $.,.8 % M 0.b N x x j h 7 h 7 7 0.&   l l M @ % 0.7 7 7 0.% = l l z @ & 0.7 7 h N j b j j h h 7 h 7 $ a.r.. l B g.l   wXd $ $ wXr.X g.k.<.l o wXd $ y g.b V b x j j 7 h 7 % x N . & l C l   N x 7 7 M M . 2 l z g   N x % 7 M x x x j h h 7 h h % M M . & l M g   V k 7 7 N b . 2 l z g   B k % h N j b j j h h 7 h % j B   * l k k   k N ",
"6 L , # MXgXM C o L S 6 6 L , y mXD.M k o L S 6 7 # % # % % 7 7 7 h y 6 *.>.. hXnXM V O *.>.6 6 >.*.. z hXk.z O *.*.6 7 # # % % % 7 7 7 h h 8 5 ,.o * D.N.M @ 5 ,.7 8 $.,.o & gXv.M @ 5 ,.8 7 % # % # % % 7 % 7 h 7 7 B #   j.b.l * @ B 7 7 y B #   j.x.l * # B 7 7 7 # % % 7 7 7 7 7 h 7 $ a.a * MXD.M k   a.r.$ & a.a g.JXS.M k   a.9.$ 7 # % # % % 7 7 7 h 7 % M x . g V.V l   x M 7 7 M x . l V.M g   b x % 7 % % % % 7 7 7 7 h h % M k . <.S.k l   M x 7 7 N k . k V.z g   M x 7 7 # % % % 7 7 7 7 h % k N   * B.g.l   h V ",
"6 L F u D.g.k @ @ K.: 7 6 L A s C.B C @ @ K.; 6 7 7 7 7 7 7 7 7 7 h y 6 Y  X+ S.x.C & O  XY 8 6 Y  X. j.HXV * O  XY 8 7 7 7 7 7 7 7 7 7 h h 8 2 &X@ & HXb.< O %.%.8 7 2 &Xo g HXx.< O %.%.8 7 7 7 7 7 7 7 7 7 7 h 7 7 0.h . D.N.*   g B 7 7 7 0.g . gXv.*   h B 7 7 7 7 7 7 7 7 7 7 7 h 7 $ s.p.: D.g.C = # eXu 7 = eXa.- V M C = % eXi & 7 7 7 7 7 7 7 7 7 h 7 % k 0.. V vXl @   B k 7 7 k B . B hXl @   B j 7 7 7 7 7 7 7 7 7 7 h h % x B . B.B.2 @ o 0.h 7 % x B . k.jXg = o 0.h 7 7 7 7 7 7 7 7 7 7 h % h g.o & zXB @ . M M ",
"6 ; I.S .     o L L 6 7 6 : I.S .     + G J 6 7 7 7 7 7 7 7 7 7 7 h 7 7 6 XX X.   @ O *. X7 7 7 7  X*.7 &   O *. X7 7 7 7 7 7 7 7 7 7 7 h h 7 8 %.,.& l     5 &X2 8 7 8 %.,.7 g     5 &X2 8 7 7 7 7 7 7 7 7 7 7 h 7 7 j 0.& 7     # 0.k 7 7 7 k 0.& 7     % 0.j 7 7 7 7 7 7 7 7 7 7 7 h 7 & p tXr..     o a.s.$ 7 $ d sXr.. @   @ a.s.$ 7 7 7 7 7 7 7 7 7 7 h 7 7 7 B x & *     x B 7 7 7 7 B k & *     x V 7 7 7 7 7 7 7 7 7 7 7 h h 7 7 B x @ .     M V 7 7 7 7 B j & @   o M V 7 7 7 7 7 7 7 7 7 7 7 h 7 7 M N & &     h 0.7 ",
"7 6 L P.6 % % > J.7 7 7 7 6 L K.6 $ 6 > G 7 7 7 8 0 0 0 0 0 0 9 & h 7 7 6 } >Xl % # g  X3 8 7 7 8 4  X& # % g  X3 8 7 7 0 0 0 0 0 0 9 7 h h 7 7 y &X5 + % 8 ,.$.8 7 7 7 y &X5 # % 8 ,.$.8 7 7 9 0 0 0 0 0 9 7 7 h 7 7 7 N M # % % b M 7 7 7 7 7 V x # % % M M 7 7 7 g h h h h h h 7 7 h 7 7 $ s.eX$ 6 $ 9.wX7 7 7 7 $ a.eX$ 6 $ y.8X7 7 7 8 0 0 0 0 0 0 8 & h 7 7 7 h B 7 # % 7 B h 7 7 7 7 h B 7 # % y B g 7 7 7 h h h h h h g 7 h h 7 7 j j.7 % % g B y 7 7 7 7 j B % # % h B 7 7 7 y h h h h h h 7 7 h 7 7 7 B h # % 7 V j 7 ",
"7 7 6 7 7 7 7 7 7 7 7 7 7 7 6 7 7 7 7 7 7 7 7 7 8 0 9 9 9 9 0 8 & h 7 7 7 6 7 7 7 7 7 7 8 7 7 7 7 8 7 7 7 7 7 7 8 7 7 7 9 9 9 9 9 0 9 7 h h 7 7 7 7 7 7 7 7 7 8 7 7 7 7 7 7 7 7 7 7 7 8 7 7 7 9 0 9 9 9 0 9 7 7 h 7 7 7 7 7 7 7 7 7 7 7 7 7 7 7 7 7 7 7 7 7 7 7 7 7 y h h h h h h 7 7 h 7 7 7 $ 7 7 7 7 7 7 7 7 7 7 7 $ 7 7 7 7 7 7 7 7 7 8 0 9 9 9 9 0 8 & h 7 7 7 7 7 7 7 7 7 7 7 7 7 7 7 7 7 7 7 7 7 7 7 7 7 7 h h h h h h g 7 h h 7 7 7 7 7 7 7 7 7 7 7 7 7 7 7 7 7 7 7 7 7 7 7 7 y h h h h h h 7 7 h 7 7 7 7 7 7 7 7 7 7 7 ",
"7 7 % # 7 % % % % 7 7 7 7 % % 7 % % % % % % 7 7 8 0 0 0 0 9 0 8 & h 7 7 7 7 # 7 % % % % 7 7 7 7 7 % 7 7 % % % % % 7 7 7 9 0 0 0 0 0 9 7 h h 7 7 % % 7 % % % % % 7 7 7 7 % % 7 % % % % % 7 7 7 9 0 0 0 0 0 9 7 7 h 7 7 % % 7 % % % % % 7 7 7 7 % 7 7 % % % % % 7 7 7 y h h h h h h 7 7 h 7 7 7 % # 7 % % % % 7 7 7 7 % % 7 % % % % # % 7 7 8 0 0 0 0 9 0 8 & h 7 7 7 % 7 7 % % % % % 7 7 7 7 % 7 7 % % % % % 7 7 7 h h h h h h g 7 h h 7 7 % 7 7 % % 7 7 % 7 7 7 7 % 7 7 % % % % % 7 7 y h h h h h h 7 7 h 7 7 % 7 7 % % % % % 7 ",
"7 % N l.@ h.x.h.x.7 7 7 % 0.v.7 h.x.k.l.j.l.% 7 8 0 0 0 0 9 0 8 & h 7 7 7 h b.% M v.0.v.h 7 7 % x N.j b v.u.c.g.v.y 7 7 9 0 0 0 9 0 9 7 h h 7 7 v.0.7 M.0.b.0.M.x % 7 7 M.B y M.0.b.0.M.x % 7 9 0 0 0 0 0 9 7 7 h 7 7 0.0.% g.B u.V g.N % 7 7 0.0.% g.V g.N h.M % 7 y h h h h h h 7 7 h 7 7 % N l.@ h.n.k.x.7 7 7 % 0.v.7 h.n.j.l.h.0.# 7 8 0 0 0 0 9 0 8 & h 7 % h j.h j k.N h.N h.7 7 7 j j.h x h.N h.N h.7 7 7 h h h h h h g 7 h h % k j.h % 0.g.0.M h.7 7 % x j.7 x h.N g.N h.7 7 y h h h h h h 7 7 h 7 y k.x y k.N h.N k.h ",
"7 % x M.# l.c.Z.j.M % 7 7 l.l.B k.b.V.c.V.l.x % 7 p p p p p c 9 & h 7 7 7 7 B.% k.k.F.h.g.# 7 # k.l.0.g.j.F.g.F.h.0.# 7 p p p p p c 9 7 h h # V l.k.0.h.F.g.F.k.l.% % B l.h.0.h.F.u.F.h.l.# 7 p c p p p p p 7 7 h % h u.0.x B n.u.n.g.0.7 7 h u.0.x B x.0.x.u.u.7 7 y h h h h h h 7 7 h 7 7 % M v.# l.b.Z.j.x % 7 7 l.l.B k.b.Z.h.b.k.# 7 7 c p p p p c 8 & h 7 # B 0.N N 0.v.N b.V N % % B 0.N N 0.b.V b.B M % 7 h h h h h h g 7 h h % 0.0.M j b.g.h.h.0.x % % 0.0.M V 0.c.0.c.B x % y h h h h h h 7 7 h # M 0.B M B v.N v.V 0.",
"7 7 h x.x c.M.B.v.j % 7 % l.M.k.n.N.B.M.B.v.h & 8 q q q q q q q & h 7 7 7 % x.x l.v.Z.v.B # 7 # 0.N.l.j.M.Z.c.Z.v.N # 7 q q q q q q q 7 h h % x M.c.h.b.Z.c.Z.M.k.# % x M.c.h.b.Z.c.Z.v.h.# 7 q q q q q q q 7 7 h 7 7 h.k.N g.l.k.l.k.g.7 7 y h.k.N g.l.h.l.k.g.7 7 y h h h h h h 7 7 h 7 7 7 h x.x c.M.B.v.j % 7 % l.M.h.n.N.V.x.0.k.# 7 8 q q q q q q q & h 7 % N j.0.0.k.n.h.l.k.x % % N j.0.0.k.l.h.l.k.x % 7 h h h h h h g 7 h h % N j.0.0.M.N g.n.h.j 7 % V j.0.0.k.l.h.l.k.j % y h h h h h h 7 7 h % x j.g.B h.x.g.n.k.N ",
"7 7 7 k x b N x V % 7 7 % j 0.j b N x N x N & 8 *.,X,X,X,X,X,X8.8 h 7 7 7 7 j x x 0.h 0.7 7 7 7 y 0.x x 0.h 0.h 0.7 8 4 ,X,X,X,X,X,X,X8 h h 7 7 B M j 0.j 0.h 0.h 7 7 7 B M j 0.h 0.h 0.g 7 7 ,X,X,X,X,X,X,X2 7 h 7 7 x x h x j x j x j 7 7 % x x h x j x h x h 7 7 g l l l l l l 7 7 h 7 7 7 7 k x M N x N % 7 7 % j 0.j M N x N 7 j & 8 *.,X,X,X,X,X,X8.8 j 7 7 7 M j h M h M h M 7 7 7 7 M j j M h M h M 7 7 7 l l l l l l l 7 h h 7 y M j 7 g x x h M 7 7 7 g M h j b h x h M 7 7 g l l l l l l y 7 h 7 7 M k h M h M h M 7 ",
"7 7 7 % % % % % # 7 7 7 7 % # % % % % % % % 7 # <.4X4X4X4X4X4Xn.# h 7 7 7 7 % % % # 7 # 7 7 7 7 7 # % % # 7 # 7 # 7 8 l ,X,X,X,X,X,X8.6 h h 7 7 # % % # 7 # 7 # 7 7 7 7 # % % # 7 # 7 # 7 7 7 m.4X4X4X4X4X4Xh 7 h 7 7 % % 7 % 7 % 7 % 7 7 7 7 % % 7 % 7 % 7 % 7 7 7 g l l l l l l 7 7 h 7 7 7 7 % % % % % # 7 7 7 7 % # % % % % % 7 7 7 # <.4X4X4X4X4X4Xn.# j 7 7 7 % 7 7 % 7 % 7 % 7 7 7 7 % 7 7 % 7 % 7 % 7 7 7 l l l l l l g 7 h h 7 7 % % 7 7 % % 7 % 7 7 7 7 % 7 7 % 7 % 7 % 7 7 g l l l l l l 7 7 h 7 7 % % 7 % 7 % 7 % 7 ",
"7 7 7 7 7 7 7 7 7 7 7 7 7 7 7 7 7 7 7 7 7 7 7 & e.qXqXqXqXqXqXw.* h 7 7 7 7 7 7 7 7 7 7 7 7 7 7 7 7 7 7 7 7 7 7 7 7 7 8 q q q q q q q 7 h h 7 7 7 7 7 7 7 7 7 7 7 7 7 7 7 7 7 7 7 7 7 7 7 7 7 qXqXqXqXqXqXqX9 7 h 7 7 7 7 7 7 7 7 7 7 7 7 7 7 7 7 7 7 7 7 7 7 7 7 7 y h h h h h h 7 7 h 7 7 7 7 7 7 7 7 7 7 7 7 7 7 7 7 7 7 7 7 7 7 7 7 & w.qXqXqXqXqXqXw.* h 7 7 7 7 7 7 7 7 7 7 7 7 7 7 7 7 7 7 7 7 7 7 7 7 7 7 h h h h h h g 7 h h 7 7 7 7 7 7 7 7 7 7 7 7 7 7 7 7 7 7 7 7 7 7 7 7 7 h h h h h h 7 7 h 7 7 7 7 7 7 7 7 7 7 7 ",
"7 7 7 7 7 6 6 7 7 7 7 7 7 7 7 7 7 6 6 7 7 7 7 7 7 y y y y y y 7 7 h 7 7 7 7 7 7 8 8 7 7 7 7 7 7 7 7 7 7 8 8 7 7 7 7 7 7 c c c c c c p 7 h h 7 7 7 7 7 8 8 7 7 7 7 7 7 7 7 7 7 8 8 7 7 7 7 7 7 7 y y y y y y 7 7 h 7 7 7 7 7 7 7 7 7 7 7 7 7 7 7 7 7 7 7 7 7 7 7 7 7 y h h h h h h 7 7 h 7 7 7 7 7 & $ $ 7 7 7 7 7 7 7 7 7 & $ $ 7 7 7 7 7 7 y y y y y y 7 7 h 7 7 7 7 7 7 7 7 7 7 7 7 7 7 7 7 7 7 7 7 7 7 7 7 7 7 h h h h h h g 7 h h 7 7 7 7 7 7 7 7 7 7 7 7 7 7 7 7 7 7 7 7 7 7 7 7 y h h h h h h 7 7 h 7 7 7 7 7 7 7 7 7 7 7 ",
"7 7 7 6 e > > 7 6 7 7 7 7 7 7 6 ; > : 7 6 7 7 7 8 0 0 0 0 0 0 9 & h 7 7 7 7 8 7 4 4 g 8 7 7 7 7 7 7 8 7 4 4 e 8 7 7 7 7 9 0 0 0 9 0 9 7 h h 7 7 7 8 7 5 5 2 8 7 7 7 7 7 7 8 7 5 5 2 8 7 7 7 7 9 0 0 0 0 0 9 7 7 h 7 7 7 7 7 g h g 7 7 7 7 7 7 7 7 7 g h g 7 7 7 7 7 y h h h h h h 7 7 h 7 7 7 7 $ i 9.d 7 $ 7 7 7 7 7 7 $ i 9.d 7 $ 7 7 7 8 0 0 0 0 0 0 8 & h 7 7 7 7 7 7 h h 7 7 7 7 7 7 7 7 7 7 h h 7 7 7 7 7 7 h h h h h h g 7 h h 7 7 7 7 7 h h 7 7 7 7 7 7 7 7 7 7 h h 7 7 7 7 7 y h h h h h h 7 7 h 7 7 7 7 7 h h 7 7 7 7 ",
"7 7 7 S K.L J.J.> 6 7 7 7 7 7 J K.L K.J.> 6 7 7 8 0 0 0 0 0 0 8 & h 7 7 7 8 Y .X X X.XY 6 7 7 7 7 8 *..X X X.XY 8 7 7 7 9 0 0 0 0 0 9 7 h h 7 7 8 5 &X&X,.&X%.7 7 7 7 7 8 5 &X&X,.&X$.7 7 7 7 9 0 0 0 0 0 9 7 7 h 7 7 7 y N g.V g.N y 7 7 7 7 7 g N g.V g.N 7 7 7 7 y h h h h h h 7 7 h 7 7 7 7 p.eXa.eXwXd $ 7 7 7 7 7 s.eXa.eXwXd $ 7 7 8 0 0 0 0 0 0 8 & h 7 7 7 7 k 0.B B 0.k 7 7 7 7 7 7 k 0.B 0.0.k 7 7 7 7 h h h h h h g 7 h h 7 7 7 x 0.B 0.0.j 7 7 7 7 7 7 x u.B 0.0.j 7 7 7 y h h h h h h 7 7 h 7 7 7 h B 0.B g.x 7 7 ",
"7 6 G G $ o = > P.S 6 7 7 6 G L * o = > P.> 6 7 8 0 0 0 0 9 0 8 & h 7 7 8 *..X2 o o 2 .X>.8 7 7 8 *..X2 o o 2 .X*.8 7 7 9 0 0 0 9 0 9 7 h h 7 8 5 &X5 @ o * ,.&X8 7 7 8 5 &X5 + o * ,.&X8 7 7 9 0 0 0 0 0 9 7 7 h 7 7 7 0.x @   @ x g.7 7 7 7 7 g.x @   @ x g.7 7 7 y h h h h h h 7 7 h 7 7 $ a.a.%   + 9.tX9.$ 7 7 & wXa.#   + 9.tX9.$ 7 8 0 0 0 0 9 0 8 & h 7 7 7 x 0.7 o o 7 g.M 7 7 7 7 M 0.& o o 7 g.x 7 7 7 h h h h h h g 7 h h 7 7 M B % o o 7 g.x 7 7 7 7 M B % o o 7 g.k 7 7 y h h h h h h 7 7 h 7 7 j g.g o o # B V 7 ",
"6 S L O . 2 l O > J.7 7 6 S L + @ k g O > J.7 7 8 0 9 0 0 9 0 8 & h 7 6 3  X& O l l o * .X3 8 8 3  X* O l l o * .X3 6 7 9 0 9 0 9 0 9 7 h h 7 7 &X5 . & k @ o ,.$.8 7 7 &X5 . g k @ o &X$.8 7 9 0 9 0 9 0 9 7 7 h 7 7 M b   @ 2 @ . b N % 7 7 N x . @ 2 @   M M % 7 y h h h h h h 7 7 h 7 $ r.a.X = k g X 9.wX7 7 $ r.a.X @ k g X r.wX7 7 8 0 9 0 0 9 0 8 & h 7 7 h B #   & &   # 0.g 7 7 h B #   & &   % 0.g 7 7 h h h h h h g 7 h h % h B #   & &   & 0.7 7 7 h B @   & &   7 0.7 7 y h h h h h h 7 7 h 7 7 B g . * 2   o B j ",
"6 L.A n zXb.B l o J.> 6 6 G S O C M <.g o J.> 6 7 0 9 0 0 9 0 8 & h y 6 *.-.. ; V <.z O >.*.6 6 *.-.O l z <.z O -.*.6 7 9 0 9 0 9 0 9 7 h h 8 5 &Xo & k.<.B o $.,.8 8 5 &Xo 2 z B B O $.,.8 7 9 0 9 0 9 0 9 7 7 h 7 7 0.&   g C z @ % 0.7 7 7 u.%   l l z = & 0.7 7 y h h h h h h 7 7 h 7 $ a.r.X C M g.l   wXd & $ wXr.X C M g.g o eXd $ 8 0 9 0 0 9 0 8 & h 7 % x V . & l C g . N x 7 7 M N . & l z g   V x % 7 h h h h h h g 7 h h % M M . & M z g   B k 7 % M M . 2 l z 2   B j % y h h h h h h 7 7 h % j 0.  * l k k   k N ",
"6 L.S j MXC.M C o L S 6 6 L >   g.D.B k o L S 6 7 0 0 0 0 9 0 8 & h y 6 *.*.o cXnXM V O *.>.6 6 >.*.O C D.k.z O *.;.6 7 9 0 0 0 9 0 9 7 h h 8 $.,.@ zXHXB B @ 5 ,.7 8 $.,.o & S.b.V @ 5 ,.8 7 9 0 0 0 0 0 9 7 7 h 7 7 B @ g gXg.k * @ B y 7 y B @   k.n.k * # B 7 7 g h h h h h h 7 7 h 7 $ a.d   g.D.B k   a.r.$ & a.d   k.D.B k   a.9.$ 8 0 0 0 0 9 0 8 & h 7 % M x   g v.V l   x M 7 7 M x . g v.M l   x b % 7 h h h h h h g 7 h h % M h & jXC.l l   M x 7 7 N j . l v.z g   M x % y h h h h h h 7 7 h % k N   * b.<.l   h V ",
"6 L.J.. = C M @ @ K.: 7 6 L J . gXMXl @ @ K.; 6 8 0 0 0 0 9 0 8 & h y 6 Y  Xw G.x.z 2 O  X*.8 6 *. X. j.HXV & O  XY 6 7 9 0 0 0 0 0 9 7 h h 8 2 =X% M <.M l O $.,.8 7 5 &Xo g HXv.2 O %.%.8 7 9 0 0 0 0 0 9 7 7 h 7 7 0.& M B.k g   y 0.7 7 7 0.7 . gXB.*   g B 7 7 y h h h h h h 7 7 h 7 $ a.s.. uXmXl * @ eXp 7 $ a.p.. jXMXl = # eXi & 8 0 0 0 0 9 0 8 & h 7 % k 0.. V zXk @   B k 7 7 x B . B zXk @   B j 7 7 h h h h h h g 7 h h % N 0.@ V k l @   0.j 7 % M V . k.vXl @ o 0.h 7 y h h h h h h 7 7 h % h g.o & zX0.* . M M ",
"6 : I.S o @ = o L L 6 7 6 : J., b &   + L L 6 7 8 0 9 0 0 9 0 8 & h 7 7 7 XX>..   @ O Y  X7 7 7 7  XY h l   O *. X7 7 7 9 0 0 0 9 0 9 7 h h 7 8 &X&X.   @   2 &X5 8 7 8 %.%.7 x     5 &Xl 8 7 9 0 9 0 9 0 9 7 7 h 7 7 x j.# .     @ B k 7 7 7 k B % h     # B k 7 7 y h h h h h h 7 7 h 7 & d eXa k &     s.s.$ 7 & d eXa k &   o a.s.$ 7 8 0 9 0 0 9 0 8 & h 7 7 7 B k 7 &     k B 7 7 7 7 B j 7 &     k B 7 7 7 h h h h h h g 7 h h 7 y l.x .       x V 7 7 7 7 0.h g &     x V 7 7 y h h h h h h 7 7 h 7 7 N M & g     g 0.g ",
"7 6 L P.6 # # > J.e 7 7 7 6 S G + @ # > J.7 7 7 8 0 9 9 9 9 0 8 & h 7 7 6 Y <Xl # # 7  X4 8 7 7 8 4 .X& @ # g  X3 8 7 7 9 0 9 9 9 0 9 7 h h 7 8 y =X$.# # 8 ,.$.8 7 7 7 y &X5 o # 8 ,.$.8 7 7 9 0 9 9 9 0 9 7 7 h 7 7 7 k.B # # # b N 7 7 7 7 7 B x @ # # M N 7 7 7 y h h h h h h 7 7 h 7 7 $ p.wX= # = 9.wXy 7 7 7 $ s.a.= # = y.wX7 7 7 8 0 9 9 9 9 0 8 & h 7 7 7 h u.7 # # 7 B h 7 7 7 7 j 0.7 # # 7 B h 7 7 7 h h h h h h g 7 h h 7 % x l.7 # # y B g 7 7 7 7 k 0.% # # g B g 7 7 y h h h h h h 7 7 h 7 7 y u.h @ # % B k 7 ",
"7 7 6 e 7 7 7 7 7 6 7 7 7 7 7 e 7 y 7 7 7 7 7 7 8 0 9 0 0 9 0 8 & h 7 7 7 6 g 7 7 7 7 g 8 7 7 7 7 8 7 7 y 7 7 g 8 7 7 7 9 0 0 0 9 0 9 7 h h 7 7 8 7 7 7 7 7 y 8 7 7 7 7 7 7 7 7 7 7 y 7 7 7 7 9 0 9 0 0 0 9 7 7 h 7 7 7 7 7 7 7 7 7 7 7 7 7 7 7 7 7 7 7 7 7 7 7 7 7 y h h h h h h 7 7 h 7 7 7 & y 7 y 7 y 7 7 7 7 7 7 7 y 7 y 7 y 7 7 7 7 8 0 9 0 0 9 0 8 & h 7 7 7 7 7 7 7 7 7 7 7 7 7 7 7 7 7 7 7 7 7 7 7 7 7 7 h h h h h h g 7 h h 7 7 7 7 7 7 7 7 7 7 7 7 7 7 7 7 7 7 7 7 7 7 7 7 y h h h h h h 7 7 h 7 7 7 7 7 7 7 7 7 7 7 ",
"7 7 & # 7 7 % # 7 7 7 7 7 7 # 7 7 # % # % # 7 7 8 0 0 0 0 9 0 8 & h 7 7 7 7 # 7 % # % % 7 7 7 7 7 # % 7 # % # % # 7 7 7 9 0 0 0 0 0 9 7 h h 7 7 7 # 7 7 % 7 # 7 7 7 7 7 % # 7 # % # # # % 7 7 9 0 0 0 0 0 9 7 7 h 7 7 7 % % 7 % % % % 7 7 7 7 7 % 7 % % % % % % 7 7 y h h h h h h 7 7 h 7 7 % # 7 % # % # # % 7 7 7 7 # & 7 # % # % # 7 7 8 0 0 0 0 0 0 8 & h 7 7 7 % 7 7 % % % % % 7 7 7 7 % % 7 % % % % % 7 7 7 h h h h h h g 7 h h 7 7 7 # 7 7 % % % 7 7 7 7 7 % 7 7 % % % % % 7 7 y h h h h h h 7 7 h 7 7 % 7 7 % % % % % 7 ",
"7 % V x.7 0.k.l.g.% 7 7 7 h v.j j b.B x.B c.h & 8 0 0 0 0 9 0 8 & h 7 7 7 h x.7 x j.0.x.7 7 7 7 7 x.0.7 c.0.x.B c.x % 7 9 0 0 0 9 0 9 7 h h 7 7 7 n.h j b.N b.h 7 7 7 % h.l.# l.h.j.g.l.0.% 7 9 0 9 0 0 0 9 7 7 h 7 7 % V b % u.N 0.N % 7 7 % x h.7 M 0.N 0.N 0.7 7 y h h h h h h 7 7 h 7 % V c.% 0.l.g.j.h.l.% 7 7 h M.j j b.B x.B c.y 7 8 0 9 0 0 9 0 8 & h 7 % h k.h j h.b g.M h.7 7 7 7 g.b 7 h.b g.b h.j 7 7 h h h h h h g 7 h h 7 7 h 0.7 7 B N g.7 7 7 % j h.7 x g.M 0.N g.7 7 y h h h h h h 7 7 h 7 7 h.x 7 h.b g.b h.h ",
"7 7 % b.h j V.M.x.7 7 7 # g.x.g.u.l.F.h.F.k.g.# 7 0 9 9 0 9 0 8 & h 7 7 7 y V.7 h M.h.B.h 7 7 # N x.j.B j.S.k.S.l.l.# 7 9 0 9 0 9 0 9 7 h h 7 7 # M.x h V.k.V.M % 7 7 h x.l.N j.V.b.V.b.n.7 7 9 0 9 0 9 0 9 7 7 h 7 7 % 0.B y 0.n.h.u.7 7 7 7 0.u.x B h.x.u.n.0.j % g h h h h h h 7 7 h 7 7 l.x.V k.b.Z.c.V.l.x 7 # h.x.u.g.l.F.h.F.k.u.# 8 0 9 9 0 9 0 8 & h 7 % B g.N N 0.b.B b.0.M % % x g.B b 0.b.B b.0.0.% 7 h h h h h h g 7 h h 7 7 h l.# x b.h.0.b % 7 % 0.g.M B g.c.0.c.0.x % y h h h h h h 7 7 h # M g.V M 0.b.N v.0.B ",
"7 # h.v.x N Z.N M.j % 7 # 0.M.l.k.c.A.x.C.b.0.# 7 0 9 0 0 9 0 8 & h 7 7 7 # x.N h c.g b.0.# 7 % x v.c.h.c.C.x.C.b.l.# 7 9 0 9 0 9 0 9 7 h h 7 7 # h.0.j g.c.u.x.# 7 7 y c.v.h.x.V.v.V.M.c.7 7 9 0 9 0 9 0 9 7 7 h 7 7 % x B x h.l.k.g.7 7 7 % 0.k.B 0.k.l.h.l.h.h % g h h h h h h 7 7 h 7 % l.M.k.l.M.V.v.V.b.j 7 # 0.M.l.k.b.A.x.C.b.0.# 8 0 9 0 0 9 0 8 & h 7 % N k.0.0.h.x.g.x.h.x % 7 j h.g.V g.x.g.x.h.0.% 7 h h h h h h g 7 h h 7 7 7 g.h h.M.l.h.x % 7 % B k.0.0.k.n.h.l.h.j % y h h h h h h 7 7 h % x k.g.B g.x.u.x.h.V ",
"7 % 0.k.N 0.B 0.B % 7 7 7 7 g.M x g.j g.j h.7 7 8 0 0 0 0 9 0 8 & h 7 7 7 7 x x j k M g.7 7 7 7 % 0.V x u.x g.x g.h & 7 9 0 0 0 0 0 9 7 h h 7 7 7 k x N g.x h.h 7 7 7 % N 0.x 0.N B M 0.M % 7 9 0 0 0 0 0 9 7 7 h 7 7 7 h j j M x M x % 7 7 7 h N j x M j M k M 7 7 y h h h h h h 7 7 h 7 % x g.x N 0.M B M 0.% 7 7 y h.M x g.j g.j h.7 7 8 0 0 0 0 9 0 8 & h 7 7 y N x j N h N h N 7 7 7 7 N x h N h N h N h 7 7 h h h h h h g 7 h h 7 7 7 j x 7 h x N 7 7 7 7 h N j x N j N j N 7 7 y h h h h h h 7 7 h 7 7 N x j N h N h V y ",
"7 7 # # % # # # # 7 7 7 7 7 # % % # % # % # 7 7 8 0 0 0 0 9 0 8 & h 7 7 7 7 % % 7 % % # 7 7 7 7 7 # # % # % # % # 7 7 7 9 0 0 0 0 0 9 7 h h 7 7 7 % % % # % # 7 7 7 7 7 % # % # % # % # % 7 7 9 0 0 0 0 0 9 7 7 h 7 7 7 7 7 7 % % % % 7 7 7 7 7 % 7 % % % % % % 7 7 y h h h h h h 7 7 h 7 7 % # % % # % # % # 7 7 7 7 # % % # % # % # 7 7 8 0 0 0 0 9 0 8 & h 7 7 7 % % 7 % 7 % 7 % 7 7 7 7 % % 7 % 7 % 7 % 7 7 7 h h h h h h g 7 h h 7 7 7 7 % 7 7 % % 7 7 7 7 7 % 7 % % 7 % 7 % 7 7 y h h h h h h 7 7 h 7 7 % % 7 % 7 % 7 % 7 ",
"7 7 7 7 7 7 7 7 7 7 7 7 7 7 7 7 7 7 7 7 7 7 7 7 8 0 9 0 0 9 0 8 & h 7 7 7 7 7 7 7 7 7 7 7 7 7 7 7 7 7 7 7 7 7 7 7 7 7 7 9 0 9 0 9 0 9 7 h h 7 7 7 7 7 7 7 7 7 7 7 7 7 7 7 7 7 7 7 7 7 7 7 7 7 9 0 9 0 9 0 9 7 7 h 7 7 7 7 7 7 7 7 7 7 7 7 7 7 7 7 7 7 7 7 7 7 7 7 7 y h h h h h h 7 7 h 7 7 7 7 7 7 7 7 7 7 7 7 7 7 7 7 7 7 7 7 7 7 7 7 7 8 0 9 0 0 9 0 8 & h 7 7 7 7 7 7 7 7 7 7 7 7 7 7 7 7 7 7 7 7 7 7 7 7 7 7 h h h h h h g 7 h h 7 7 7 7 7 7 7 7 7 7 7 7 7 7 7 7 7 7 7 7 7 7 7 7 y h h h h h h 7 7 h 7 7 7 7 7 7 7 7 7 7 7 ",
"7 7 7 7 7 7 7 7 7 7 7 7 7 7 7 7 6 6 6 6 7 7 7 7 8 0 9 9 9 9 0 8 & h 7 7 7 7 7 7 7 7 7 7 7 7 7 7 7 7 7 8 6 6 8 7 7 7 7 7 9 0 9 9 9 0 9 7 h h 7 7 7 7 7 7 7 7 7 7 7 7 7 7 7 7 8 8 8 8 7 7 7 7 7 9 0 9 9 9 0 9 7 7 h 7 7 7 7 7 7 7 7 7 7 7 7 7 7 7 7 7 7 % 7 7 7 7 7 7 y h h h h h h 7 7 h 7 7 7 7 7 7 7 7 7 7 7 7 7 7 7 7 7 $ $ $ & 7 7 7 7 8 0 9 9 9 9 0 8 & h 7 7 7 7 7 7 7 7 7 7 7 7 7 7 7 7 7 7 % % 7 7 7 7 7 7 h h h h h h g 7 h h 7 7 7 7 7 7 7 7 7 7 7 7 7 7 7 7 7 % % 7 7 7 7 7 y h h h h h h 7 7 h 7 7 7 7 7 7 7 7 7 7 7 ",
"7 7 7 7 7 7 7 7 7 7 7 7 7 7 6 7 S S S : 6 7 7 7 8 0 9 0 0 9 0 8 & h 7 7 7 7 7 7 7 7 7 7 7 7 7 7 7 7 8 4 *.*.4 6 7 7 7 7 9 0 0 0 9 0 9 7 h h 7 7 7 7 7 7 7 7 7 7 7 7 7 7 7 8 2 $.$.$.7 8 7 7 7 9 0 9 0 0 0 9 7 7 h 7 7 7 7 7 7 7 7 7 7 7 7 7 7 7 7 7 k x k 7 7 7 7 7 y h h h h h h 7 7 h 7 7 7 7 7 7 7 7 7 7 7 7 7 7 7 & 7 r.p.r.p $ 7 7 7 8 0 9 0 0 9 0 8 & h 7 7 7 7 7 7 7 7 7 7 7 7 7 7 7 7 7 h x x h 7 7 7 7 7 h h h h h h g 7 h h 7 7 7 7 7 7 7 7 7 7 7 7 7 7 7 7 h x x h 7 7 7 7 y h h h h h h 7 7 h 7 7 7 7 7 7 7 7 7 7 7 ",
"7 7 7 7 7 7 7 7 7 7 7 7 7 6 : P.P.D G J.S 6 7 7 8 0 0 0 0 0 0 8 & h 7 7 7 7 7 7 7 7 7 7 7 7 7 7 7 7 >..X>.>..X>.7 7 7 7 9 0 0 0 0 0 9 7 h h 7 7 7 7 7 7 7 7 7 7 7 7 7 7 8 $.&X,.%.&X,.2 8 7 7 9 0 0 0 0 0 9 7 7 h 7 7 7 7 7 7 7 7 7 7 7 7 7 7 7 j B B x B B j 7 7 7 y h h h h h h 7 7 h 7 7 7 7 7 7 7 7 7 7 7 7 7 7 & s a.wXs.8XwXr.$ 7 7 8 0 0 0 0 0 0 8 & h 7 7 7 7 7 7 7 7 7 7 7 7 7 7 7 7 M 0.M N 0.M 7 7 7 7 h h h h h h g 7 h h 7 7 7 7 7 7 7 7 7 7 7 7 7 7 7 N 0.M N 0.M 7 7 7 y h h h h h h 7 7 h 7 7 7 7 7 7 7 7 7 7 7 ",
"7 7 7 7 7 7 7 7 7 7 7 7 7 7 I.L + y O $ K.S 6 7 8 0 9 0 0 9 0 8 & h 7 7 7 7 7 7 7 7 7 7 7 7 7 7 6  X X. . O o  X-.8 7 7 9 0 0 0 9 0 9 7 h h 7 7 7 7 7 7 7 7 7 7 7 7 7 8 %.*X@ . o O %.&X7 7 7 9 0 9 0 0 0 9 7 7 h 7 7 7 7 7 7 7 7 7 7 7 7 7 7 j j.7 .     h g.h 7 7 y h h h h h h 7 7 h 7 7 7 7 7 7 7 7 7 7 7 7 7 & i tXr.. . X 6 eXr.$ 7 8 0 9 0 0 9 0 8 & h 7 7 7 7 7 7 7 7 7 7 7 7 7 7 7 u.B   .   @ B N 7 7 7 h h h h h h g 7 h h 7 7 7 7 7 7 7 7 7 7 7 7 7 7 g.N . .   @ 0.M 7 7 y h h h h h h 7 7 h 7 7 7 7 7 7 7 7 7 7 7 ",
"7 7 7 7 7 7 7 7 7 7 7 7 6 L L.O l mX} O ; J.7 7 8 0 9 9 9 9 0 8 & h 7 7 7 7 7 7 7 7 7 7 7 7 7 6 *.>X+ B.j.C * o .X4 6 7 9 0 9 9 9 0 9 7 h h 7 7 7 7 7 7 7 7 7 7 7 7 8 g =X< k.M.z 2 O ,.$.8 7 9 0 9 9 9 0 9 7 7 h 7 7 7 7 7 7 7 7 7 7 7 7 7 % j.k g j.l & . k V % 7 y h h h h h h 7 7 h 7 7 7 7 7 7 7 7 7 7 7 7 7 = wXwX- C.B C X f eX7 7 8 0 9 9 9 9 0 8 & h 7 7 7 7 7 7 7 7 7 7 7 7 7 % x j.@ k.V g = + 0.h 7 7 h h h h h h g 7 h h 7 7 7 7 7 7 7 7 7 7 7 7 % M k.@ j.M g   @ 0.g 7 y h h h h h h 7 7 h 7 7 7 7 7 7 7 7 7 7 7 ",
"7 7 7 7 7 7 7 7 7 7 7 7 6 P.S + M cXb.l o J.> 6 7 0 9 0 0 9 0 8 & h 7 7 7 7 7 7 7 7 7 7 7 7 7 w 8. X. jXmXB V O >.*.6 7 9 0 9 0 9 0 9 7 h h 7 7 7 7 7 7 7 7 7 7 7 7 8 $.*X. x.JXj.V o $.,.8 7 9 0 9 0 9 0 9 7 7 h 7 7 7 7 7 7 7 7 7 7 7 7 7 y l.# & cXn.k @ % B 7 7 y h h h h h h 7 7 h 7 7 7 7 7 7 7 7 7 7 7 7 7 $ tXr.X mXzXV k o wXd $ 8 0 9 0 0 9 0 8 & h 7 7 7 7 7 7 7 7 7 7 7 7 7 % B 0.. B.jXk l   M x % 7 h h h h h h g 7 h h 7 7 7 7 7 7 7 7 7 7 7 7 % g.N . S.D.k l   V k % y h h h h h h 7 7 h 7 7 7 7 7 7 7 7 7 7 7 ",
"7 7 7 7 7 7 7 7 7 7 7 7 6 P.S + z C B l o G > 6 7 0 0 0 0 9 0 8 & h 7 7 7 7 7 7 7 7 7 7 7 7 7 w 8.8.. l <.B z O >.*.6 7 9 0 0 0 0 0 9 7 h h 7 7 7 7 7 7 7 7 7 7 7 7 8 $.*Xo & 0.B V o $.,.8 7 9 0 0 0 0 0 9 7 7 h 7 7 7 7 7 7 7 7 7 7 7 7 7 g j.#   k k k @ # B 7 7 g h h h h h h 7 7 h 7 7 7 7 7 7 7 7 7 7 7 7 7 $ tXr.X z <.B l   wX9.$ 8 0 0 0 0 9 0 8 & h 7 7 7 7 7 7 7 7 7 7 7 7 7 % B B . & z k g   M x % 7 h h h h h h g 7 h h 7 7 7 7 7 7 7 7 7 7 7 7 % g.N . 2 z k g   N x % y h h h h h h 7 7 h 7 7 7 7 7 7 7 7 7 7 7 ",
"7 7 7 7 7 7 7 7 7 7 7 7 6 L.L.O & C k + $ J.e 7 8 0 0 0 0 9 0 8 & h 7 7 7 7 7 7 7 7 7 7 7 7 7 # *.>XO @ l k @ O  X4 6 7 9 0 0 0 0 0 9 7 h h 7 7 7 7 7 7 7 7 7 7 7 7 8 2 ;X* o l C < O %.%.8 7 9 0 0 0 0 0 9 7 7 h 7 7 7 7 7 7 7 7 7 7 7 7 7 7 j.k . * g & . j B 7 7 y h h h h h h 7 7 h 7 7 7 7 7 7 7 7 7 7 7 7 7 = wXwXX < k k X i eXy & 8 0 0 0 0 9 0 8 & h 7 7 7 7 7 7 7 7 7 7 7 7 7 % b j.  = 2 g   o 0.h 7 7 h h h h h h g 7 h h 7 7 7 7 7 7 7 7 7 7 7 7 % N k.. @ 2 g   @ 0.h 7 y h h h h h h 7 7 h 7 7 7 7 7 7 7 7 7 7 7 ",
"7 7 7 7 7 7 7 7 7 7 7 7 7 e /.L O =   = J.S 6 7 8 0 9 0 0 9 0 8 & h 7 7 7 7 7 7 7 7 7 7 7 7 7 7 6 XX.Xo     o -.-.8 7 7 9 0 9 0 9 0 9 7 h h 7 7 7 7 7 7 7 7 7 7 7 7 7 8 ,.=X*   o O $.&Xy 7 7 9 0 9 0 9 0 9 7 7 h 7 7 7 7 7 7 7 7 7 7 7 7 7 7 k c.g       7 g.h 7 7 y h h h h h h 7 7 h 7 7 7 7 7 7 7 7 7 7 7 7 7 & i sXs.X +   % eXr.$ 7 8 0 9 0 0 9 0 8 & h 7 7 7 7 7 7 7 7 7 7 7 7 7 7 7 k.g.o     o N N 7 7 7 h h h h h h g 7 h h 7 7 7 7 7 7 7 7 7 7 7 7 7 7 j.0.      @ B M 7 7 y h h h h h h 7 7 h 7 7 7 7 7 7 7 7 7 7 7 ",
"7 7 7 7 7 7 7 7 7 7 7 7 7 6 S L.6 7 6 > L 6 7 7 8 0 9 9 9 9 0 8 & h 7 7 7 7 7 7 7 7 7 7 7 7 7 7 8 4 XXg 7 7 g -.g 7 7 7 9 9 9 9 9 0 9 7 h h 7 7 7 7 7 7 7 7 7 7 7 7 7 7 7 &X$.8 7 8 %.5 8 7 7 9 0 9 9 9 0 9 7 7 h 7 7 7 7 7 7 7 7 7 7 7 7 7 7 7 B N 7 7 7 x x 7 7 7 y h h h h h h 7 7 h 7 7 7 7 7 7 7 7 7 7 7 7 7 7 $ p.wX$ 7 $ y.s.$ 7 7 8 0 9 9 9 9 0 8 & h 7 7 7 7 7 7 7 7 7 7 7 7 7 7 7 h h.y 7 7 h N 7 7 7 7 h h h h h h g 7 h h 7 7 7 7 7 7 7 7 7 7 7 7 7 7 j g.7 7 7 h N 7 7 7 y h h h h h h 7 7 h 7 7 7 7 7 7 7 7 7 7 7 ",
"7 7 7 7 7 7 7 7 7 7 7 7 7 7 6 + 7 % % # # 7 7 7 8 0 0 0 0 0 0 9 & h 7 7 7 7 7 7 7 7 7 7 7 7 7 7 7 + 6 7 # % # # # 7 7 7 0 0 0 0 0 0 9 7 h h 7 7 7 7 7 7 7 7 7 7 7 7 7 7 # # 7 # % # # # 7 7 7 9 0 0 0 0 0 0 7 7 h 7 7 7 7 7 7 7 7 7 7 7 7 7 7 % # 7 % % % % # 7 7 7 g h h h h h h 7 7 h 7 7 7 7 7 7 7 7 7 7 7 7 7 7 % = $ % # % # @ # 7 7 8 0 0 0 0 0 0 9 & h 7 7 7 7 7 7 7 7 7 7 7 7 7 7 7 # % 7 % 7 % % # 7 7 7 h h h h h h g 7 h h 7 7 7 7 7 7 7 7 7 7 7 7 7 7 # % % % 7 % % % 7 7 y h h h h h h 7 7 h 7 7 7 7 7 7 7 7 7 7 7 ",
"7 7 7 7 7 7 7 7 7 7 7 7 7 7 7 h.7 B 0.0.h.% 7 7 7 9 8 9 9 9 9 7 7 h 7 7 7 7 7 7 7 7 7 7 7 7 7 7 h x.g j l.M j.N l.7 7 7 8 9 9 9 9 8 8 7 h h 7 7 7 7 7 7 7 7 7 7 7 7 7 7 l.M 7 l.M l.M n.h 7 7 8 9 9 9 8 8 8 7 7 h 7 7 7 7 7 7 7 7 7 7 7 7 7 % N N % B x B x 0.x % 7 7 y y y y y y 7 7 h 7 7 7 7 7 7 7 7 7 7 7 7 7 % N l.% 0.h.0.g.0.g.% 7 7 9 8 9 9 9 9 7 7 h 7 7 7 7 7 7 7 7 7 7 7 7 7 7 h g.7 h 0.x 0.x 0.7 7 7 y y y y y y 7 7 h h 7 7 7 7 7 7 7 7 7 7 7 7 7 h g.7 k 0.x B x 0.7 7 7 y y y y y y 7 7 h 7 7 7 7 7 7 7 7 7 7 7 ",
"7 7 7 7 7 7 7 7 7 7 7 7 7 % N S.7 c.Z.V.x.x % 7 7 7 7 & & & 7 7 7 h 7 7 7 7 7 7 7 7 7 7 7 7 7 # h.b.0.g.x.S.l.G.l.B # 7 7 & 7 & 7 7 7 7 h h 7 7 7 7 7 7 7 7 7 7 7 7 # N b.k.B n.S.j.S.n.k.# 7 7 & 7 7 7 7 7 7 7 h 7 7 7 7 7 7 7 7 7 7 7 7 7 h h.u.x 0.n.g.x.h.u.7 7 7 7 7 7 7 7 7 7 7 h 7 7 7 7 7 7 7 7 7 7 7 7 7 7 x.c.N l.M.V.v.V.x.j 7 7 7 7 & 7 7 7 7 7 h 7 7 7 7 7 7 7 7 7 7 7 7 7 % B h.M N g.c.0.c.0.x % 7 7 7 7 7 7 7 7 7 h h 7 7 7 7 7 7 7 7 7 7 7 7 % 0.h.x B h.x.u.x.0.x % 7 7 7 7 7 7 7 7 7 h 7 7 7 7 7 7 7 7 7 7 7 ",
"7 7 7 7 7 7 7 7 7 7 7 7 7 7 v.uXB 0.F.M.c.x % 7 7 & w.9 0 w.w.7 7 h 7 7 7 7 7 7 7 7 7 7 7 7 7 # h.c.l.k.x.G.l.A.x.B # 7 & w.9 0 e.e.e.& h h 7 7 7 7 7 7 7 7 7 7 7 7 # N c.x.h.l.S.l.S.x.j.# 7 & e.e.9 w.e.w.& 7 h 7 7 7 7 7 7 7 7 7 7 7 7 7 h g.h.N 0.x.g.x.h.g.7 7 7 7 7 7 7 7 7 7 7 h 7 7 7 7 7 7 7 7 7 7 7 7 7 7 l.b.h.l.M.B.v.B.c.j 7 7 & w.9 w.w.w.9 & h 7 7 7 7 7 7 7 7 7 7 7 7 7 % V h.0.0.g.c.0.x.u.x % 7 7 7 7 7 7 7 7 7 h h 7 7 7 7 7 7 7 7 7 7 7 7 % B h.0.0.h.x.g.x.g.x % 7 7 7 7 7 7 7 7 7 h 7 7 7 7 7 7 7 7 7 7 7 ",
"7 7 7 7 7 7 7 7 7 7 7 7 7 7 7 B B V N V h.% 7 7 8 0 w.9 w.w.w.9 & h 7 7 7 7 7 7 7 7 7 7 7 7 7 7 h l.N N j.M j.M l.7 7 7 0 e.0 0 e.e.0 & h h 7 7 7 7 7 7 7 7 7 7 7 7 7 7 j.0.b j.M j.b l.h 7 7 0 e.e.0 w.e.e.& 7 h 7 7 7 7 7 7 7 7 7 7 7 7 7 % N N j V x N x B x % 7 7 7 7 7 7 7 7 7 7 h 7 7 7 7 7 7 7 7 7 7 7 7 7 % M j.M 0.g.B u.0.g.% 7 8 0 w.9 w.w.w.9 & h 7 7 7 7 7 7 7 7 7 7 7 7 7 7 h 0.x x 0.x B x 0.7 7 7 7 7 7 7 7 7 7 7 h h 7 7 7 7 7 7 7 7 7 7 7 7 7 h 0.x x B x B x 0.7 7 7 7 7 7 7 7 7 7 7 h 7 7 7 7 7 7 7 7 7 7 7 ",
"7 7 7 7 7 7 7 7 7 7 7 7 7 7 7 # % % % % # 7 7 7 7 9 w.9 0 0 e.8 & h 7 7 7 7 7 7 7 7 7 7 7 7 7 7 7 # % % # % # % # 7 7 7 7 9 9 9 9 w.9 & h h 7 7 7 7 7 7 7 7 7 7 7 7 7 7 # # % # % # % # 7 7 7 7 8 9 0 e.0 8 & 7 h 7 7 7 7 7 7 7 7 7 7 7 7 7 7 % % 7 % % % % % % 7 7 7 7 7 7 7 7 7 7 7 h 7 7 7 7 7 7 7 7 7 7 7 7 7 7 % # % % # % # % # 7 7 7 9 w.9 e.0 e.8 & h 7 7 7 7 7 7 7 7 7 7 7 7 7 7 7 % % % % % % % % 7 7 7 7 7 7 7 7 7 7 7 h h 7 7 7 7 7 7 7 7 7 7 7 7 7 7 % % % % % % % % 7 7 7 7 7 7 7 7 7 7 7 h 7 7 7 7 7 7 7 7 7 7 7 ",
"7 7 7 7 7 7 7 7 7 7 7 7 7 7 7 7 7 7 7 7 7 7 7 7 7 7 & 7 & & & 7 7 h y 7 7 7 7 7 7 7 7 7 7 7 7 7 7 7 7 7 7 7 7 7 7 7 7 7 7 7 7 7 7 & 7 7 h h 7 7 7 7 7 7 7 7 7 7 7 7 7 7 7 7 7 7 7 7 7 7 7 7 7 7 7 7 7 & & 7 7 y h 7 7 7 7 7 7 7 7 7 7 7 7 7 7 7 7 7 7 7 7 7 7 7 7 7 7 7 7 7 7 7 7 7 7 j 7 7 7 7 7 7 7 7 7 7 7 7 7 7 7 7 7 7 7 7 7 7 7 7 7 7 7 & 7 & & & 7 7 h y 7 7 7 7 7 7 7 7 7 7 7 7 7 7 7 7 7 7 7 7 7 7 7 7 7 7 7 7 7 7 7 7 7 h h 7 7 7 7 7 7 7 7 7 7 7 7 7 7 7 7 7 7 7 7 7 7 7 7 7 7 7 7 7 7 7 7 y h 7 7 7 7 7 7 7 7 7 7 7 ",
"# # # # # # # # # # # # # # # # # # # # # # # # # # # # # # # # # # # # # # # # # # # # # # # # # # # # # # # # # # # # # # # # # # # # # # # # # # # # # # # # # # # # # # # # # # # # # # # # # # # # # # # # # # # # # # # # # # # # # # # # # # # # # # # # # # # # # # # # # # # # # # # # # # # # # # # # # # # # # # # # # # # # # # # # # # # # # # # # # # # # # # # # # # # # # # # # # # # # # # # # # # # # # # # # # # # # # # # # # # # # # # # # # # # # # # # # # # # # # # # # # # # # # # # # # # # # # # # # ",
"xXxXxXxXxXxXxXxXxXxXxXxXxXxXxXxXxXxXxXxXxXxXxXxXxXxXxXxXxXxXxXxXxXxXxXxXxXxXxXxXxXxXxXxXxXxXxXxXxXxXxXxXxXxXxXxXxXxXxXxXxXxXxXxXxXxXxXxXxXxXxXxXxXxXxXxXxXxXxXxXxXxXxXxXxXxXxXxXxXxXxXxXxXxXxXxXxXxXxXxXxXxXxXxXxXxXxXxXxXxXxXxXxXxXxXxXxXxXxXxXxXxXxXxXxXxXxXxXxXxXxXxXxXxXxXxXxXxXxXxXxXxXxXxXxXxXxXxXxXxXxXxXxXxXxXxXxXxXxXxXxXxXxXxXxXxXxXxXxXxXxXxXxXxXxXxXxXxXxXxXxXxXxXxXxXxXxXxXxXxXxXxXxXxXxXxXxXxXxXxXxXxXxXxXxXxXxXxXxXxXxXxXxXxXxXxXxXxXxXxXxXxXxXxXxXxXxXxXxXxXxXxXxXxXxXxXxXxXxXxXxXxXxXxXxXxXxXxXxXxXxXxXxXxXxXxX",
"M M M M M M M M M M M M M M M M M M M M M M M M M M M M M M M M M M M M M M M M M M M M M M M M M M M M M M M M M M M M M M M M M M M M M M M M M M M M M M M M M M M M M M M M M M M M M M M M M M M M M M M M M M M M M M M M M M M M M M M M M M M M M M M M M M M M M M M M M M M M M M M M M M M M M M M M M M M M M M M M M M M M M M M M M M M M M M M M M M M M M M M M M M M M M M M M M M M M M M M M M M M M M M M M M M M M M M M M M M M M M M M M M M M M M M M M M M M M M M M M M M M M M M M M M M M M M M M M ",
"# # # # # % % % % % % % % % % % % % # # # # # # % % % % % % % % % % % % % % % % % % % % % % % % % % % % % % % % % % % % % % % % % % % % % % % % % % % % % % % % % % % % % % % % % % % % % % % % % % % % % % % % % % % % % % % % % % % % % % % % % % % % % % % % % % % % % % % % % % % % % % % % % % % % % % % % % % % % % % % % % % % % % % % % % % % % % % % % % % % % % % % % % % % % % % % % % % % % % % % % % % % % % % % % % % % % % % % % % % % % % % % % % % % % % % % % % % % % % % % % % % % % % # # # # # # # # # % # ",
"x.N.x.v.j 7 7 7 7 7 7 7 7 7 7 7 7 7 7 V h.0.k.x 7 7 7 7 7 7 7 7 7 7 7 7 7 7 7 7 7 7 7 7 7 7 7 7 7 7 7 7 7 7 7 7 7 7 7 7 7 7 7 7 7 7 7 7 7 7 7 7 7 7 7 7 7 7 7 7 7 7 7 7 7 7 7 7 7 7 7 7 7 7 7 7 7 7 7 7 7 7 7 7 7 7 7 7 7 7 7 7 7 7 7 7 7 7 7 7 7 7 7 7 7 7 7 7 7 7 7 7 7 7 7 7 7 7 7 7 7 7 7 7 7 7 7 7 7 7 7 7 7 7 7 7 7 7 7 7 7 7 7 7 7 7 7 7 7 7 7 7 7 7 7 7 7 7 7 7 7 7 7 7 7 7 7 7 7 7 7 7 7 7 7 7 7 7 7 7 7 7 7 7 7 7 7 7 7 7 7 7 7 7 7 7 7 7 7 7 7 7 7 7 7 7 7 7 7 7 7 7 7 7 7 7 7 7 7 7 7 7 7 7 7 7 g h 7 y b h g h 7 7 ",
"V.l.M.Z.b % 7 & r.i & 7 7 7 7 7 7 7 7 0.V.S.S.N % 7 & 9.p & 7 7 7 7 7 7 7 7 7 7 7 7 7 7 7 7 7 7 7 7 7 7 7 7 7 7 7 7 7 7 7 7 7 7 7 7 7 7 7 7 7 7 7 7 7 7 7 7 7 7 7 7 7 7 7 7 7 7 7 7 7 7 7 7 7 7 7 7 7 7 7 7 7 7 7 7 7 7 7 7 7 7 7 7 7 7 7 7 7 7 7 7 7 7 7 7 7 7 7 7 7 7 7 7 7 7 7 7 7 7 7 7 7 7 7 7 7 7 7 7 7 7 7 7 7 7 7 7 7 7 7 7 7 7 7 7 7 7 7 7 7 7 7 7 7 7 7 7 7 7 7 7 7 7 7 7 7 7 7 7 7 7 7 7 7 7 7 7 7 7 7 7 7 7 7 7 7 7 7 7 7 7 7 7 7 7 7 7 7 7 7 7 7 7 7 7 7 7 7 7 7 7 7 7 7 7 7 7 7 7 7 7 7 7 % x B h.V g.N h.k.M h 8 ",
"b.M.b.h.x % & 9.8Xp.7 y r.p.9.& 7 7 7 V % Z.h.j 7 & d 8Xp.7 7 r.p.9.& 7 7 7 7 7 7 7 7 7 7 7 7 7 7 7 7 7 7 7 7 7 7 7 7 7 7 7 7 7 7 7 7 7 7 7 7 7 7 7 7 7 7 7 7 7 7 7 7 7 7 7 7 7 7 7 7 7 7 7 7 7 7 7 7 7 7 7 7 7 7 7 7 7 7 7 7 7 7 7 7 7 7 7 7 7 7 7 7 7 7 7 7 7 7 7 7 7 7 7 7 7 7 7 7 7 7 7 7 7 7 7 7 7 7 7 7 7 7 7 7 7 7 7 7 7 7 7 7 7 7 7 7 7 7 7 7 7 7 7 7 7 7 7 7 7 7 7 7 7 7 7 7 7 7 7 7 7 7 7 7 7 7 7 7 7 7 7 7 7 7 7 7 7 7 7 7 7 7 7 7 7 7 7 7 7 7 7 7 7 7 7 7 7 7 7 7 7 7 7 7 7 7 7 7 7 7 7 7 7 % j h.c.x.k.o j.b.y h $ ",
"M.Z.0.j x % 7 & 9.i & 7 7 7 7 7 7 7 7 0.h G.n.j % 7 & 9.p & 7 7 7 7 7 7 7 7 7 7 7 7 7 7 7 7 7 7 7 7 7 7 7 7 7 7 7 7 7 7 7 7 7 7 7 7 7 7 7 7 7 7 7 7 7 7 7 7 7 7 7 7 7 7 7 7 7 7 7 7 7 7 7 7 7 7 7 7 7 7 7 7 7 7 7 7 7 7 7 7 7 7 7 7 7 7 7 7 7 7 7 7 7 7 7 7 7 7 7 7 7 7 7 7 7 7 7 7 7 7 7 7 7 7 7 7 7 7 7 7 7 7 7 7 7 7 7 7 7 7 7 7 7 7 7 7 7 7 7 7 7 7 7 7 7 7 7 7 7 7 7 7 7 7 7 7 7 7 7 7 7 7 7 7 7 7 7 7 7 7 7 7 7 7 7 7 7 7 7 7 7 7 7 7 7 7 7 7 7 7 7 7 7 7 7 7 7 7 7 7 7 7 7 7 7 7 7 7 7 7 7 7 7 7 % h x.j N h.0.N N 0.h 8 ",
"x N M M g 7 7 7 & 7 7 7 7 7 7 7 7 7 7 x M N N h 7 7 7 & 7 7 7 7 7 7 7 7 7 7 7 7 7 7 7 7 7 7 7 7 7 7 7 7 7 7 7 7 7 7 7 7 7 7 7 7 7 7 7 7 7 7 7 7 7 7 7 7 7 7 7 7 7 7 7 7 7 7 7 7 7 7 7 7 7 7 7 7 7 7 7 7 7 7 7 7 7 7 7 7 7 7 7 7 7 7 7 7 7 7 7 7 7 7 7 7 7 7 7 7 7 7 7 7 7 7 7 7 7 7 7 7 7 7 7 7 7 7 7 7 7 7 7 7 7 7 7 7 7 7 7 7 7 7 7 7 7 7 7 7 7 7 7 7 7 7 7 7 7 7 7 7 7 7 7 7 7 7 7 7 7 7 7 7 7 7 7 7 7 7 7 7 7 7 7 7 7 7 7 7 7 7 7 7 7 7 7 7 7 7 7 7 7 7 7 7 7 7 7 7 7 7 7 7 7 7 7 7 7 7 7 7 7 7 7 7 % N b # 7 7 7 7 7 7 7 7 ",
"% % % % 7 7 7 7 7 7 7 7 7 7 7 7 7 7 7 7 % % % 7 7 7 7 7 7 7 7 7 7 7 7 7 7 7 7 7 7 7 7 7 7 7 7 7 7 7 7 7 7 7 7 7 7 7 7 7 7 7 7 7 7 7 7 7 7 7 7 7 7 7 7 7 7 7 7 7 7 7 7 7 7 7 7 7 7 7 7 7 7 7 7 7 7 7 7 7 7 7 7 7 7 7 7 7 7 7 7 7 7 7 7 7 7 7 7 7 7 7 7 7 7 7 7 7 7 7 7 7 7 7 7 7 7 7 7 7 7 7 7 7 7 7 7 7 7 7 7 7 7 7 7 7 7 7 7 7 7 7 7 7 7 7 7 7 7 7 7 7 7 7 7 7 7 7 7 7 7 7 7 7 7 7 7 7 7 7 7 7 7 7 7 7 7 7 7 7 7 7 7 7 7 7 7 7 7 7 7 7 7 7 7 7 7 7 7 7 7 7 7 7 7 7 7 7 7 7 7 7 7 7 7 7 7 7 7 7 7 7 7 7 7 7 7 7 7 7 7 7 7 7 7 7 ",
"7 7 7 7 7 7 7 7 7 7 7 7 7 7 7 7 7 7 7 7 7 7 7 7 7 7 7 7 7 7 7 7 7 7 7 7 7 7 7 7 7 7 7 7 7 7 7 7 7 7 7 7 7 7 7 7 7 7 7 7 7 7 7 7 7 7 7 7 7 7 7 7 7 7 7 7 7 7 7 7 7 7 7 7 7 7 7 7 7 7 7 7 7 7 7 7 7 7 7 7 7 7 7 7 7 7 7 7 7 7 7 7 7 7 7 7 7 7 7 7 7 7 7 7 7 7 7 7 7 7 7 7 7 7 7 7 7 7 7 7 7 7 7 7 7 7 7 7 7 7 7 7 7 7 7 7 7 7 7 7 7 7 7 7 7 7 7 7 7 7 7 7 7 7 7 7 7 7 7 7 7 7 7 7 7 7 7 7 7 7 7 7 7 7 7 7 7 7 7 7 7 7 7 7 7 7 7 7 7 7 7 7 7 7 7 7 7 7 7 7 7 7 7 7 7 7 7 7 7 7 7 7 7 7 7 7 7 7 7 7 7 7 7 7 7 7 7 7 7 7 7 7 7 7 7 7 "
};
