/* XPM */
static char *mb_ringmod_sc_stereo[] = {
/* columns rows colors chars-per-pixel */
"256 256 256 2 ",
"   c #010101",
".  c #0C0C0C",
"X  c #090606",
"o  c #130906",
"O  c #191808",
"+  c #0B0C12",
"@  c #080911",
"#  c #0C1416",
"$  c #121214",
"%  c #14151B",
"&  c #1C151B",
"*  c #17191E",
"=  c #1A1B1D",
"-  c #1A1815",
";  c #110E10",
":  c #27191D",
">  c #34191E",
",  c #2B0F0C",
"<  c #1A250E",
"1  c #1C2610",
"2  c #1E2912",
"3  c #1A2618",
"4  c #152F17",
"5  c #242B18",
"6  c #28351C",
"7  c #322B15",
"8  c #141B23",
"9  c #1B1C22",
"0  c #1A1828",
"q  c #1C1D34",
"w  c #1C1D39",
"e  c #171936",
"r  c #14112B",
"t  c #251927",
"y  c #291E34",
"u  c #261A32",
"i  c #2E112E",
"p  c #1F2026",
"a  c #19242A",
"s  c #142F34",
"d  c #222325",
"f  c #22242A",
"g  c #2B2B2D",
"h  c #28282A",
"j  c #2C3723",
"k  c #2B2136",
"l  c #2C2D32",
"z  c #2C2438",
"x  c #34263A",
"c  c #293236",
"v  c #323335",
"b  c #35353A",
"n  c #37383D",
"m  c #3A3B3D",
"M  c #383936",
"N  c #322F2D",
"B  c #550506",
"V  c #4F1214",
"C  c #690608",
"Z  c #780305",
"A  c #6B150F",
"S  c #522A13",
"D  c #6A270B",
"F  c #782B08",
"G  c #75390E",
"H  c #76391E",
"J  c #753819",
"K  c #6C3214",
"L  c #50302D",
"P  c #6A3929",
"I  c #7A3D22",
"U  c #743928",
"Y  c #753B36",
"T  c #6F3431",
"R  c #581929",
"E  c #375814",
"W  c #294D2C",
"Q  c #7A431E",
"!  c #79451A",
"~  c #734715",
"^  c #4F4933",
"/  c #6A4827",
"(  c #7C4522",
")  c #7E4922",
"_  c #754B2A",
"`  c #75512E",
"'  c #7B532D",
"]  c #694636",
"[  c #7A4535",
"{  c #7A463B",
"}  c #744E3B",
"|  c #7B493C",
" . c #764637",
".. c #755333",
"X. c #7A5533",
"o. c #76543B",
"O. c #7B5B3C",
"+. c #795839",
"@. c #6A5531",
"#. c #78633A",
"$. c #5A621B",
"%. c #101A4A",
"&. c #2C0F4E",
"*. c #162B4C",
"=. c #382A43",
"-. c #3D3D42",
";. c #3B3246",
":. c #242954",
">. c #011C6F",
",. c #38066D",
"<. c #0E2771",
"1. c #242670",
"2. c #753A44",
"3. c #482264",
"4. c #0C4F52",
"5. c #324749",
"6. c #10576B",
"7. c #067778",
"8. c #0C6C6C",
"9. c #2B7071",
"0. c #26625E",
"q. c #424345",
"w. c #44454A",
"e. c #4A4A4C",
"r. c #47484A",
"t. c #4C4D52",
"y. c #535355",
"u. c #5B5B5D",
"i. c #56565A",
"p. c #515151",
"a. c #7B4D43",
"s. c #794A45",
"d. c #795546",
"f. c #785956",
"g. c #6C4D49",
"h. c #746B4D",
"j. c #5C5D61",
"k. c #596A6A",
"l. c #636364",
"z. c #67686D",
"x. c #6B6B6C",
"c. c #656669",
"v. c #6F7074",
"b. c #6A7C78",
"n. c #737374",
"m. c #7B7B7C",
"M. c #767679",
"N. c #6E6F70",
"B. c #5C625B",
"V. c #850506",
"C. c #920B0B",
"Z. c #A50607",
"A. c #B50E0C",
"S. c #88340B",
"D. c #94330C",
"F. c #AC360B",
"G. c #8B302D",
"H. c #B33030",
"J. c #991829",
"K. c #CD0A09",
"L. c #D9271F",
"P. c #83511B",
"I. c #B3410B",
"U. c #814B24",
"Y. c #844B28",
"T. c #865725",
"R. c #824A3C",
"E. c #8A5636",
"W. c #8A6123",
"Q. c #8B6539",
"!. c #9A581F",
"~. c #CD4809",
"^. c #943063",
"/. c #834C45",
"(. c #835448",
"). c #8A5154",
"_. c #A74B53",
"`. c #906850",
"'. c #AB7551",
"]. c #8B4D62",
"[. c #94736F",
"{. c #A9756D",
"}. c #B05B63",
"|. c #CA594D",
" X c #228777",
".X c #5A8976",
"XX c #13A715",
"oX c #ACAC0C",
"OX c #CDCD06",
"+X c #B9855A",
"@X c #B48C73",
"#X c #928C7A",
"$X c #C9926E",
"%X c #C9A077",
"&X c #C1B60E",
"*X c #062688",
"=X c #052995",
"-X c #022DB0",
";X c #2626B1",
":X c #232B8B",
">X c #460687",
",X c #4C0694",
"<X c #5802B0",
"1X c #561E90",
"2X c #097589",
"3X c #216E98",
"4X c #62658E",
"5X c #2828CC",
"6X c #0132C7",
"7X c #6301C7",
"8X c #5F00C0",
"9X c #8D7C82",
"0X c #8A278B",
"qX c #058889",
"wX c #0D9494",
"eX c #2B9390",
"rX c #2FA69A",
"tX c #04A5A6",
"yX c #0CB4B5",
"uX c #2EB2B2",
"iX c #1999A5",
"pX c #4D948F",
"aX c #728F8E",
"sX c #4EAFAF",
"dX c #61A9A6",
"fX c #2BC4B9",
"gX c #0BAED7",
"hX c #0BCCCD",
"jX c #2ED2D1",
"kX c #15F3F4",
"lX c #29ECEC",
"zX c #1BD6E8",
"xX c #4DCFCF",
"cX c #51BEC5",
"vX c #848484",
"bX c #8A8B8C",
"nX c #85878A",
"mX c #949598",
"MX c #9A9B9D",
"NX c #939495",
"BX c #8E8E91",
"VX c #BA8F85",
"CX c #9D9EA1",
"ZX c #A7A7A9",
"AX c #B7B7B8",
"SX c #ADAEB1",
"DX c #99A39C",
"FX c #C59589",
"GX c #CDA688",
"HX c #BDBEC1",
"JX c #C6C6C6",
"KX c #D4D4D6",
"LX c #F8F9FA",
"PX c #E8E9EB",
"IX c #DEDFE0",
"UX c #C5C0BD",
/* pixels */
"9 9 9 9 9 9 9 9 9 9 9 9 9 9 9 9 9 9 9 9 9 9 9 9 9 9 9 9 9 9 9 9 9 9 9 9 9 9 9 9 9 9 9 9 9 9 9 9 9 9 9 9 9 9 9 9 9 9 9 9 9 9 9 9 9 9 9 9 9 9 9 9 9 9 9 9 9 9 9 9 9 9 9 9 9 9 9 9 9 9 9 9 9 9 9 9 9 9 9 9 9 9 9 9 9 9 9 9 9 9 9 9 9 9 9 9 9 9 9 9 9 9 9 9 9 9 9 9 9 9 9 9 9 9 9 9 9 9 9 9 9 9 9 9 9 9 9 9 9 9 9 9 9 9 9 9 9 9 9 9 9 9 9 9 9 9 9 9 9 9 9 9 9 9 9 9 9 9 9 9 9 9 9 9 9 9 9 9 9 9 9 9 9 9 9 9 9 9 9 9 9 9 9 9 9 9 9 9 9 9 9 9 9 9 9 9 9 9 9 9 9 9 9 9 9 9 9 9 9 9 9 9 9 9 9 9 9 9 9 9 9 9 9 9 9 9 9 9 9 9 9 9 9 9 9 9 ",
"9 9 9 9 9 9 9 9 9 9 9 9 9 9 9 9 9 9 9 9 9 9 9 9 9 9 9 9 9 9 9 9 9 9 9 9 9 9 9 9 9 9 9 9 9 9 9 9 9 9 9 9 9 9 9 9 9 9 9 9 9 9 9 9 9 9 9 9 9 9 9 9 9 9 9 9 9 9 9 9 9 9 9 9 9 9 9 9 9 9 9 9 9 9 9 9 9 9 9 9 9 9 9 9 9 9 9 9 9 9 9 9 9 9 9 9 9 9 9 9 9 9 9 9 9 9 9 9 9 9 9 9 9 9 9 9 9 9 9 9 9 9 9 9 * * * * 9 * 9 9 9 9 9 9 9 9 9 * 9 9 9 * 9 9 * 9 9 9 9 9 * * 9 9 9 9 9 9 9 * 9 9 * 9 9 9 9 9 9 9 9 9 9 9 * * * * * 9 * 9 9 9 9 * 9 * 9 * 9 9 9 % 9 9 * 9 9 9 9 9 9 9 * 9 9 9 9 9 9 9 * * * * 9 % 9 * 9 9 % * 9 * 9 9 9 * 9 9 9 9 ",
"& 9 9 9 9 9 9 9 9 9 9 9 9 9 9 9 9 9 9 9 9 9 9 9 9 9 9 9 9 9 9 9 9 9 9 9 9 9 9 9 9 9 9 9 9 9 9 9 9 9 9 9 9 9 9 9 9 9 9 9 9 9 9 9 9 9 9 9 9 9 9 9 9 9 9 9 9 9 9 9 9 9 9 9 9 9 9 9 9 9 9 9 9 9 9 9 9 9 9 9 9 9 9 9 9 9 9 9 9 9 9 9 9 9 9 9 9 9 9 9 9 9 9 9 9 9 9 9 9 9 9 9 9 9 9 9 9 p 9 9 p 9 9 f v l l h 9 v 9 9 9 9 9 9 9 9 f l % 9 9 l f 9 l p 9 9 d % h l 9 9 p 9 9 d % l 9 * l f % d 9 9 9 p 9 9 9 9 l l g g v 9 v 9 * 9 * l f l 9 l f % f b d * l p 9 9 p 9 9 9 l f 9 * d 9 * f l l l l h b p v 9 9 b g % l * 9 9 l 9 9 9 9 ",
"*.9 9 9 9 9 9 9 9 9 9 9 9 9 9 9 9 9 9 9 9 9 9 9 9 9 9 9 9 9 9 9 9 9 9 9 9 9 9 9 9 9 9 9 9 9 9 9 9 9 9 9 9 9 9 9 9 9 9 9 9 9 9 9 9 9 9 9 9 9 9 9 9 9 9 9 9 9 9 9 9 9 9 9 9 9 9 9 9 9 9 9 9 9 9 9 9 9 9 9 9 9 9 9 9 9 9 9 9 9 9 9 9 9 9 9 9 9 9 9 9 9 9 9 9 9 9 9 9 9 9 9 % -.ZX$ MXj.z.v z.l.w.d mXBXM.M.y.MXaX+ aXi.r.BXm l.4XNXz.$ g BXvXj.BXq.CXb z.r.NXl.9 % ZXb c.4Xe.NX4Xq.mXBX-.v.v z.t.N.% 9 MXb N.ZXu.MXu.z.mXaXf % 4Xm.t.BXq.mXBXb n.bXb 4X4Xl.i.n c.9 ZXd mXw.mXq.x.h l mXj.l.SXj.BXz.u.NXv.l.mX-.z.BXM.9 9 w.f - 6.6.",
"tX*.9 9 9 9 9 9 9 9 9 9 9 9 9 9 9 9 9 9 9 9 9 9 9 9 9 9 9 9 9 9 9 9 9 9 9 9 9 9 9 9 9 9 9 9 9 9 9 9 9 9 9 9 9 9 9 9 9 9 9 9 9 9 9 9 9 9 9 9 9 9 9 9 9 9 9 9 9 9 9 9 9 9 9 9 9 9 9 9 9 9 9 9 9 9 9 9 9 9 9 9 9 9 9 9 9 9 9 9 9 9 9 9 9 9 9 9 9 9 9 9 9 9 9 9 9 9 9 9 9 9 % -.AXt.SXc.M.h m.x.r.  j.i.-.l.u.MXBXf SXBXe.ZXm.c.m.% NXg h mXBXy.v.n ZX4XN.nX-.M.l % ZXx.BXaXbX% j.bXu.l vX4Xh n.u.M.  w.JXc.9 aXf ZXw.M.v c.j.@ n.v.v n.w.l.v 4Xm.M.i.aX  w.ZXmXz.t.KXw.N.n NXnXvXg f bXt.* nX9 ZXi.j.mXm.N.BXw.BX  bX-.$ q.p - 6.2X",
"iX2X*.& 9 9 9 9 9 9 9 9 9 9 9 9 9 9 9 9 9 9 9 9 9 9 9 9 9 9 9 9 9 9 9 9 9 9 9 9 9 9 9 9 9 9 9 9 9 9 9 9 9 9 9 9 9 9 9 9 9 9 9 9 9 9 9 9 9 9 9 9 9 9 9 9 9 9 9 9 9 9 9 9 9 9 9 9 9 9 9 9 9 9 9 9 9 9 9 9 9 9 9 9 9 9 9 9 9 9 9 9 9 9 9 9 9 9 9 9 9 9 9 9 9 9 9 9 9 9 9 9 $ r.BXMXnXj.vXx.N.x.4X9 c.j.y.M.l.nXnXn.MXNXbXy.ZXM.nXl.BX9 l CXBXi.bXt.z.BXBXn.c.MXn 9 vXmXNXx.4Xj.4Xv.vXv.z.v.z.nXe.MXv bXBXmX-.nXl ZXb m.v.bXq.% b MXM.nXe.bXn.l.aXx.q.mX-.u.M.t.M.bXNXbXBXe.M.j.JXd 9 y.ZXl BXh ZXw.j.ZXM.v.nXv BXy.NXl % w.f & 6.2X",
"a tX6.a 9 9 9 9 9 9 9 9 9 9 9 9 9 9 9 9 9 9 9 9 9 9 9 9 9 9 9 9 9 9 9 9 9 9 9 9 9 9 9 9 9 9 9 9 9 9 9 9 9 9 9 9 9 9 9 9 9 9 9 9 9 9 9 9 9 9 9 9 9 9 9 9 9 9 9 9 9 9 9 9 9 9 9 9 9 9 9 9 9 9 9 9 9 9 9 9 9 9 9 9 9 9 9 9 9 9 9 9 9 9 9 9 9 9 9 9 9 9 9 9 9 9 9 9 9 9 9 9 * l q.w.q.l q.n.f -.4X-.b b w.i.b M.w.w.d g j.g -.q.y.n.v % h -.l j.j.b n l t.p x.j.9 9 q.q.q.-.f v.t.p N.l.9 h v.r.9 N.z.y.+ w.b w.9 z.u.5.M.e.% 9 i.j.n c.l N.l.* e.n.l w.v.5.n h t.w.+ t.x.n q.9 u.9 h x.r.9 t.9 j.l.q.l q.t.n.-.v M.-.% 9 n p = *.*.",
"- 2X2Xs = 9 9 9 9 9 9 9 9 9 9 9 9 9 9 9 9 9 9 9 9 9 9 9 9 9 9 9 9 9 9 9 9 9 9 9 9 9 9 9 9 9 9 9 9 9 9 9 9 9 9 9 9 9 9 9 9 9 9 9 9 9 9 9 9 9 9 9 9 9 9 9 9 9 9 9 9 9 9 9 9 9 9 9 9 9 9 9 9 9 9 9 9 9 9 9 9 9 9 9 9 9 9 9 9 9 9 9 9 9 9 9 9 9 9 9 9 9 9 9 9 9 9 9 9 9 9 9 9 * % % % * % + 9 * + % * * % $ * + % % 9 9 $ 9 % % % + * 9 9 % * $ $ * * * % 9 + $ 9 9 % % % * 9 + % 9 + + 9 9 + % 9 + $ % 9 % * % 9 + $ % + % 9 9 $ $ * $ * + + 9 % + * % + % * 9 % % 9 % + * % 9 $ 9 9 + % 9 % 9 $ $ % * % % + * * + % 9 9 9 9 9 = & ",
"- 2XwXs = 9 9 9 9 9 9 9 9 9 9 9 9 9 9 9 9 9 9 9 9 9 9 9 9 9 9 9 9 9 9 9 9 9 9 9 9 9 9 9 9 9 9 9 9 9 9 9 9 9 9 9 9 9 9 9 9 9 9 9 9 9 9 9 9 9 9 9 9 9 9 9 9 9 9 9 9 9 9 9 9 9 9 9 9 9 9 9 9 9 9 9 9 9 9 9 9 9 9 9 9 9 9 9 9 9 9 9 9 9 9 9 9 9 9 9 9 9 9 9 9 9 9 9 9 9 9 9 9 9 9 9 9 9 9 9 9 9 9 9 9 9 9 9 9 9 9 9 9 9 9 9 9 9 9 p 9 9 9 9 9 9 9 9 9 9 9 9 p 9 9 9 9 9 9 9 9 9 9 9 9 9 9 9 9 9 9 9 9 9 9 9 9 9 9 9 9 9 9 9 9 9 9 9 9 9 9 9 9 9 9 9 9 9 9 9 9 9 9 9 9 9 9 9 9 9 9 9 9 9 9 9 & & 9 9 9 9 9 9 9 9 9 9 9 9 9 9 9 9 9 9 ",
"& 2X6.s = 9 9 9 9 9 9 9 9 9 9 9 9 9 9 9 9 9 9 9 9 9 9 9 9 9 9 9 9 9 9 9 9 9 9 9 9 9 9 9 9 9 9 9 9 9 9 9 9 9 9 9 9 9 9 9 9 9 9 9 9 9 9 9 9 9 9 9 9 9 9 9 9 9 9 9 9 9 9 9 9 9 9 9 9 9 9 9 9 9 9 9 9 9 9 9 9 9 9 9 9 9 9 9 9 9 9 9 9 9 9 9 9 9 9 9 9 9 9 9 9 9 9 9 9 9 9 9 9 9 = 9 9 9 9 9 9 9 9 9 9 9 9 9 9 9 9 9 9 9 9 9 9 9 9 * 9 9 * 9 d * 9 9 * % 9 9 * 9 9 9 * 9 * 9 9 9 % 9 9 9 9 9 9 9 9 9 9 9 9 9 9 9 9 9 9 9 9 9 9 9 9 = = 9 9 9 9 9 9 9 9 9 9 9 9 9 4 a 9 9 9 9 9 9 9 9 9 9 9 p 4.*.9 9 9 9 9 9 9 9 9 9 9 9 = = = 9 * 9 ",
"6.gX6.9 9 9 9 9 9 9 9 9 9 9 9 9 9 9 9 9 9 9 9 9 9 9 9 9 9 9 9 9 9 9 9 9 9 9 9 9 9 9 9 9 9 9 9 9 9 9 9 9 9 9 9 9 9 9 9 9 9 9 9 9 9 9 9 9 9 9 9 9 9 9 9 9 9 9 9 9 9 9 9 9 9 9 9 9 9 9 9 9 9 9 9 9 9 9 9 9 9 9 9 9 9 9 9 9 9 9 9 9 9 9 9 9 9 9 9 9 9 9 9 9 9 9 9 9 9 9 9 9 = a s = 9 9 9 9 9 9 9 9 9 9 9 9 9 9 9 9 9 9 9 9 9 9 * q.t.d f v w.d p d b e.p 9 l p f f h 9 h f f f r.h 9 9 9 9 9 9 9 9 9 9 9 9 9 9 9 9 9 9 9 9 9 9 = s a = 9 9 9 9 9 9 9 9 9 9 9 0 XXE r 9 9 9 & & & 9 9 9 & 4.tXtX*.& 9 9 9 9 9 9 9 9 = s 4.4.4.% t.n ",
"iX6.*.& 9 9 9 9 9 9 9 9 9 9 9 9 9 9 9 9 9 9 9 9 9 9 9 9 9 9 9 9 9 9 9 9 9 9 9 9 9 9 9 9 9 9 9 9 9 9 9 9 9 9 9 9 9 9 9 9 9 9 9 9 9 9 9 9 9 9 9 9 9 9 9 9 9 9 9 9 9 9 9 9 9 9 9 9 9 9 9 9 9 9 9 9 9 9 9 9 9 9 9 9 9 9 9 9 9 9 9 9 9 9 9 9 9 9 9 9 9 9 9 9 9 9 9 9 9 9 9 9 a 4.a 9 9 9 9 9 9 9 9 9 9 9 9 9 9 9 9 9 9 9 9 9 9 9 % t.q.n x.j.y.l.j.y.q.z.9 q.u.t.u.e.c.j.j.n l.l.z.l * 9 9 9 9 9 9 9 9 9 9 9 9 9 9 9 9 9 9 9 9 9 9 a 4.a 9 9 9 9 9 9 9 9 9 9 0 4 XXXX9 9 = a qXqXyXwX& p & 4.tXwX4.& 9 9 9 9 9 9 9 9 = s 6.6.6.% i.i.",
"2X*.= 9 9 9 9 9 9 9 9 9 9 9 9 9 9 9 9 9 9 9 9 9 9 9 9 9 9 9 9 9 9 9 9 9 9 9 9 9 9 9 9 9 9 9 9 9 9 9 9 9 9 9 9 9 9 9 9 9 9 9 9 9 9 9 9 9 9 9 9 9 9 9 9 9 9 9 9 9 9 9 9 9 9 9 9 9 9 9 9 9 9 9 9 9 9 9 9 9 9 9 9 9 9 9 9 9 9 9 9 9 9 9 9 9 9 9 9 9 9 9 9 9 9 9 9 9 9 9 9 9 9 4.s = 9 9 9 9 9 9 9 9 9 9 9 9 9 9 9 9 9 9 9 9 9 9 9 d y.N.i.w.z.j.r.i.f i.$ r.w.i.t.-.c.n w.l.c.-.i.d 9 9 9 9 9 9 9 9 9 9 9 9 9 9 9 9 9 9 9 9 9 9 = a 4.9 9 9 9 9 9 9 9 9 9 9 0 E E XXW 0 9 p 4.4.6.4.& 9 & 4.tXwX4.& 9 9 9 9 9 9 9 9 = s 6.6.6.* w.l.",
"s = 9 9 9 9 9 9 9 9 9 9 9 9 9 9 9 9 9 9 9 9 9 9 9 9 9 9 9 9 9 9 9 9 9 9 9 9 9 9 9 9 9 9 9 9 9 9 9 9 9 9 9 9 9 9 9 9 9 9 9 9 9 9 9 9 9 9 9 9 9 9 9 9 9 9 9 9 9 9 9 9 9 9 9 9 9 9 9 9 9 9 9 9 9 9 9 9 9 9 9 9 9 9 9 9 9 9 9 9 9 9 9 9 9 9 9 9 9 9 9 9 9 9 9 9 9 9 9 9 9 9 = 9 a 9 9 9 9 9 9 9 9 9 9 9 9 9 9 9 9 9 9 9 9 9 9 9 9 n w.h w.b v q.v -.-.q.f q.l.v v p w.b q.b -.b -.v * 9 9 9 9 9 9 9 9 9 9 9 9 9 9 9 9 9 9 9 9 9 9 a 9 = 9 9 9 9 9 9 9 9 9 9 9 4 0 p 4 9 9 9 & & & & 9 9 9 9 4.4.& 9 9 9 9 9 9 9 9 9 = s *.*.*.9 l b ",
"9 p 9 9 9 9 9 9 9 9 9 9 9 9 9 9 9 9 9 9 9 9 9 9 9 9 9 9 9 9 9 9 9 9 9 9 9 9 9 9 9 9 9 9 9 9 9 9 9 9 9 9 9 9 9 9 9 9 9 9 9 9 9 9 9 9 9 9 9 9 9 9 9 9 9 9 9 9 9 9 9 9 9 9 9 9 9 9 9 9 9 9 9 9 9 9 9 9 9 9 9 9 9 9 9 9 9 9 9 9 9 9 9 9 9 9 9 9 9 9 9 9 9 9 9 9 9 9 9 9 9 9 9 9 9 9 9 9 9 9 9 9 9 9 9 9 9 9 9 9 9 9 9 9 9 9 9 9 9 9 * 9 9 9 9 9 9 9 9 9 * -.l % 9 9 9 9 9 9 9 9 9 9 9 9 9 9 9 9 9 9 9 9 9 9 9 9 9 9 9 9 9 9 9 9 9 9 9 9 9 9 9 9 9 9 9 9 9 9 9 9 p 9 9 p 9 9 p p p p 9 9 9 9 & & p 9 9 9 9 9 9 9 9 9 9 9 = = = 9 9 9 ",
"+ + + + + + + + + + + + + + + + + + + + + + + + + + + + + + + + + + + + + + + + + + + + + + + + + + + + + + + + + + + + + + + + + + + + + + + + + + + + + + + + + + + + + + + + + + + + + + + + + + + + + + + + + + + + + + + + + + + + + + + + + + + + + + + + + + + + + + + + + + + + + + + + + + + + + + + + + + + + + + + + + + + + + + + + + + + @ + + + + + + + + + + + + + + + + + + + + + + + + + + + + + + + + + + + + + + + + + + + + + + + + + + + + + + + + + + + + + + + + + + + + + + + + + + + + + + + + + + + + ",
"z.z.z.z.z.z.z.z.z.z.z.z.z.z.z.z.z.z.z.z.z.z.z.z.z.z.z.z.z.z.z.z.z.z.z.z.z.z.z.z.z.z.z.z.z.z.z.z.z.z.z.z.z.z.z.z.z.z.z.z.z.z.z.z.z.z.z.z.z.z.z.z.z.z.z.z.z.z.z.z.z.z.z.z.z.z.z.z.z.z.z.z.z.z.z.z.z.z.z.z.z.z.z.z.z.z.z.z.z.z.z.z.z.z.z.z.z.z.z.z.z.z.z.z.z.z.z.z.z.z.z.z.z.z.z.z.z.z.z.z.z.z.z.z.z.z.z.z.z.z.z.z.z.z.z.z.z.z.z.z.z.z.z.z.z.z.z.z.z.z.z.z.z.z.z.z.z.z.z.z.z.z.z.z.z.z.z.z.z.z.z.z.z.z.z.z.z.z.z.z.z.z.z.z.z.z.z.z.z.z.z.z.z.z.z.z.z.z.z.z.z.z.z.z.z.z.z.z.z.z.z.z.z.z.z.z.z.z.z.z.z.z.z.z.z.z.z.x.x.x.x.x.x.x.x.x.",
"v.v.v.v.v.v.v.v.v.v.v.v.v.v.v.v.v.v.v.v.v.v.v.v.v.v.v.v.v.v.v.v.v.v.v.v.v.v.v.v.v.v.v.v.v.v.v.v.v.v.v.v.v.v.v.v.v.v.v.v.v.v.v.v.v.v.v.v.v.v.v.v.v.v.v.v.v.v.v.v.v.v.v.v.v.v.v.v.v.v.v.v.v.v.v.v.v.v.v.v.v.v.v.v.v.v.v.v.v.v.v.v.v.v.v.v.v.v.v.v.v.v.v.v.v.v.v.v.v.v.v.v.v.v.v.v.v.v.v.v.v.v.v.v.v.v.v.v.v.v.v.v.v.v.v.v.v.v.v.v.v.v.v.v.v.v.v.v.v.v.v.v.v.v.v.v.v.v.v.v.v.v.v.v.v.v.v.v.v.v.v.v.v.v.v.v.v.v.v.v.v.v.v.v.v.v.v.v.v.n.n.n.v.v.v.v.v.v.v.v.v.v.v.v.v.v.v.v.v.v.v.v.v.v.v.v.v.v.v.v.v.v.v.v.v.v.v.l.l.l.l.l.l.l.l.l.",
"+ + + + + + + + + + + + + + + + + + + + + + + + + + + + + + + + + + + + + + + + + + + + + + + + + + + + + + + + + + + + + + + + + + + + + + + + + + + + + + + + + + + + + + + + + + + + + + + + + + + + + + + + + + + + + + + + + + + + + + + + + + + + + + + + + + + + + + + + + + + + + + + + + + + + + + + + + + + + + + + + + + + + + + + + + + + + + + + + + + + + + + + + + + + + + + + + + + + + + + + + + + + + + + + + @ @ . @ @ + + + + + + + + + + + + + + + + + + + + + + + + + + + + + + + + + + t.u.i.i.u.i.i.i.i.",
"9 9 9 9 9 9 9 9 9 9 9 9 9 9 9 9 9 9 9 9 9 9 9 9 9 9 9 9 9 9 9 9 9 9 9 9 9 9 9 9 9 9 9 9 9 9 9 9 9 9 9 9 9 9 9 9 9 9 9 9 9 9 9 9 9 9 9 9 9 9 9 9 9 9 9 9 9 9 9 9 9 9 9 9 9 9 9 9 9 9 9 9 9 9 9 9 9 9 9 9 9 9 9 9 9 9 9 9 9 9 9 9 9 9 9 9 9 9 9 9 9 9 9 9 9 9 9 9 9 9 9 9 9 9 9 9 9 9 9 9 9 9 9 9 9 9 9 9 9 9 9 9 9 9 9 9 9 9 9 9 9 9 9 9 9 9 9 9 9 9 9 9 9 9 9 9 9 9 9 9 9 9 9 9 9 9 9 9 9 9 9 9 9 9 9 9 9 9 9 9 9 9 9 9 9 9 9 9 h l h v h 9 9 9 9 9 9 p 9 9 p 9 9 9 9 9 9 9 * 9 * * 9 9 9 9 9 * 9 p p 9 9 9 f PXLXLXLXLXLXLXLXLX",
"9 9 9 9 9 9 9 9 9 9 9 9 9 9 9 9 9 9 9 9 9 9 9 9 9 9 9 9 9 9 9 9 9 9 9 9 9 9 9 9 9 9 9 9 9 9 9 9 9 9 9 9 9 9 9 9 9 9 9 9 9 9 9 9 9 9 9 9 9 9 9 9 9 9 9 9 9 9 9 9 9 9 9 9 9 9 9 9 9 9 9 9 9 9 9 9 9 9 9 9 9 9 9 9 9 9 9 9 9 9 9 9 9 9 9 9 9 9 9 9 9 9 9 9 9 9 9 9 9 9 9 9 9 9 9 9 9 9 9 9 9 9 9 9 9 9 9 9 9 9 9 9 9 9 9 9 9 9 9 9 9 9 9 9 9 9 9 9 9 9 9 9 9 9 9 9 9 9 9 9 9 9 9 9 9 9 9 9 9 9 9 9 9 9 9 9 9 9 9 9 9 9 9 9 9 9 9 * q.M.mXl.q.% 9 9 9 9 9 * n -.* 9 9 9 9 9 9 9 r.l 5.w.9 9 9 9 9 t.-.* 9 f l * d KXLXHXHXIXPXPXPXPX",
"9 9 9 9 9 9 9 9 9 9 9 9 9 9 9 9 9 9 9 9 9 9 9 9 9 9 9 9 9 9 9 9 9 9 9 9 9 9 9 9 9 9 9 9 9 9 9 9 9 9 9 9 9 9 9 9 9 9 9 9 9 9 9 9 9 9 9 9 9 9 9 9 9 9 9 9 9 9 9 9 9 9 9 9 9 9 9 9 9 9 9 9 9 9 9 9 9 9 9 9 9 9 9 9 9 9 9 9 9 9 9 9 9 9 9 9 9 9 9 9 9 9 9 9 9 9 9 9 9 9 9 9 9 9 9 9 9 9 9 9 9 9 9 9 9 9 9 9 9 9 9 9 9 9 9 9 9 9 9 9 9 9 9 9 9 9 9 9 9 9 9 9 9 9 9 9 9 9 9 9 9 9 9 9 9 9 9 9 9 9 9 9 9 9 9 9 9 9 9 9 9 9 9 9 9 9 9 $ u.4Xd m.5.* 9 9 9 9 9 % -.y.j.t.* 9 9 9 * l c.5.i.p 9 9 9 % t.-.t.y.l c.u.% d KXLXmXJXAXSXZXZXMX",
"9 9 9 9 9 9 9 9 9 9 9 9 9 9 9 9 9 9 9 9 9 9 9 9 9 9 9 9 9 9 9 9 9 9 9 9 9 9 9 9 9 9 9 9 9 9 9 9 9 9 9 9 9 9 9 9 9 9 9 9 9 9 9 9 9 9 9 9 9 9 9 9 9 9 9 9 9 9 9 9 9 9 9 9 9 9 9 9 9 9 9 9 9 9 9 9 9 9 9 9 9 9 9 9 9 9 9 9 9 9 9 9 9 9 9 9 9 9 9 9 9 9 9 9 9 9 9 9 9 9 9 9 9 9 9 9 9 9 9 9 9 9 9 9 9 9 9 9 9 9 9 9 9 9 9 9 9 9 9 9 9 9 9 9 9 9 9 9 9 9 9 9 9 9 9 9 9 9 9 9 9 9 9 9 9 9 9 9 9 9 9 9 9 9 9 9 9 9 9 9 9 9 9 9 9 9 9 % y.4Xe.AXy.% 9 9 9 9 9 % m l.e.i.9 9 9 9 9 9 w.n.y.9 9 9 9 % t.-.t.l.i.z.q.% f KXLXKXBXbXSXZXCXAX",
"9 9 9 9 9 9 9 9 9 9 9 9 9 9 9 9 9 9 9 9 9 9 9 9 9 9 9 9 9 9 9 9 9 9 9 9 9 9 9 9 9 9 9 9 9 9 9 9 9 9 9 9 9 9 9 9 9 9 9 9 9 9 9 9 9 9 9 9 9 9 9 9 9 9 9 9 9 9 9 9 9 9 9 9 9 9 9 9 9 9 9 9 9 9 9 9 9 9 9 9 9 9 9 9 9 9 9 9 9 9 9 9 9 9 9 9 9 9 9 9 9 9 9 9 9 9 9 9 9 9 9 9 9 9 9 9 9 9 9 9 9 9 9 9 9 9 9 9 9 9 9 9 9 9 9 9 9 9 9 9 9 9 9 9 9 9 9 9 9 9 9 9 9 9 9 9 9 9 9 9 9 9 9 9 9 9 9 9 9 9 9 9 9 9 9 9 9 9 9 9 9 9 9 9 9 9 9 % q.l.M.JXx.+ 9 9 9 9 9 * b w.l v 9 9 9 9 9 f e.l w.q.9 9 9 9 9 t.-.g y.b 5.9 p KXLXJXJXKXAXnXKXIX",
"+ + + + + + + + + + + + + + + + + + + + + + + # + + + + + + + + + + + + + + + + + + + + + + + + + + + + + + + + + + + + + + + + + + + + + + + + + + + + + + + + + + + + + + + + + + + + + + + + + + + + + + + + + + + + + + + + + + + + + + + + + + + + + + + + + + + + + + + + + + + + + + + + + + + + + + + + + + + + + + + + + + + + + + + + + + + + + + + + + + + + + + + + + + + + + + + + + + + + + + + + + 9 9 9 9 9 9 9 d f = % 9 9 9 9 9 9 9 9 * % * * 9 9 9 9 9 9 % * % * 9 9 9 9 9 % * * % * * 9 d KXPXPXPXPXHXJXPXPX",
"bXbXbXbXbXbXbXbXbXbXbXbXbXbXbXbXbXbXbXbXbXbXbXvXnXnXnXnXnXnXvXnXbXbXbXbXbXbXbXbXbXbXbXbXbXbXbXbXbXbXbXbXbXbXbXbXbXbXbXbXbXbXbXbXbXbXbXbXbXbXbXbXbXbXbXbXbXbXbXbXbXbXbXbXbXbXbXbXbXbXbXbXbXbXbXbXbXbXbXbXbXbXbXbXbXbXbXbXbXbXbXbXbXbXbXbXbXbXbXbXbXbXbXbXbXbXbXbXbXbXbXbXbXbXbXbXbXbXbXbXbXbXbXbXbXbXbXbXbXbXbXbXbXbXbXbXbXbXbXbXbXbXbXbXbXbXbXbXbXbXbXbXbXbXbXbXbXbXbXbXbXbXbXbXbXbXbXbXbXbXbXbXbXbXbXbXbXbXbXbXn.9 * 9 9 9 9 9 p b -.l.v * 9 9 9 9 9 9 9 9 9 9 9 9 9 9 9 9 9 9 9 9 9 9 9 9 9 9 9 9 9 9 9 * l CXl v l l b b l v ",
"v v v v v v v v v v v v v v v v v v v v v v N 0.^ L L L L L 5.5.v v v v M M M M M M M M M M M M M M M M M M M M M M M M M M M M M M M m m M m m m m m m m m m m m m m m m m m m m m m m 5.m m m m m m m m m m m m m m m m -.m m m m m q.q.q.q.-.-.5.q.q.q.q.q.q.q.q.q.q.q.q.q.q.q.q.q.q.q.q.q.q.q.q.q.q.q.q.q.q.q.q.q.q.q.w.q.q.w.w.w.q.w.r.r.w.w.r.r.r.r.r.r.r.r.r.r.r.r.r.r.r.r.r.r.r.r.r.r.e.e.e.e.r.e.e.e.r.m.MX= 9 9 9 9 = h CXKXKX5.% 9 9 9 9 9 t t t t t : t 9 9 t : t t t t : t 9 9 t : t t t t t * l MX$ * * * % % * * ",
"- $ . . . $ $ $ $ = . $ $ $ $ $ = . $ $ $ = o wX/ D K D K D .X6.o p - + E E 1 2 1 - $ $ $ $ $ $ $ $ $ $ $ - - - - d - - - - - - - - - - - d = - - - - = - = d - = = = - d = - = = = : 4.8.a c c p = d d = = h = = h d = = = = = = = = = = 9 : <.*.q a p 9 d g = d d d d d d d d d d g d d d d d d 5 z 3.k k h f d g h d d d h g d d d g h d d v h d g v d h 2.L x x g h h h h h h h h h h h h h h h g v h g g g $ m.c.+ 9 9 9 9 f ZXIXSXf = 9 9 9 9 9 > > > : > > : 9 9 t > > > > > > t 9 9 : > > : > > > * l MX* 9 9 9 9 9 9 9 ",
"- . X X X X X X X - X X . . X $ - X . . X = X wX^ D K S S D .X6.X = $ X E E < < O ; . . . . . . . . . . . . $ $ . d $ . $ $ $ $ $ $ $ $ . d - $ $ $ $ $ $ $ d $ $ $ $ $ d = $ $ $ = : 4.8.a s c % $ d d $ - h : - h - ; - - - - - - - - - = - <.*.0 0 9 * = h - = = = = = = = = = = g = = = = = = - y 1Xu y t t = g d = = = d g = d = g d = = v d = h g = p ^.L x k h d d d d d d d d d d d d d d d h v d d d h = u.m.@ p 9 9 = f ZXIXZXf 9 9 9 9 9 9 > > > : > > : 9 9 t > > > > > > t 9 9 : > > : > > > * l MX% 9 9 9 9 9 9 9 ",
"- . X . . X # # # a X . . . . $ = X . . . = . wXP D K D S D .X8.X = - X E E < < - $ + $ $ . $ $ $ $ $ $ $ $ $ $ $ d $ $ $ $ $ $ $ $ $ $ $ d - $ $ $ $ $ $ $ d $ $ - - $ d = $ - - = : 4.8.a s c * - d d - - a A A a h 4.- = = = = = = = = = - 1.*.q q 9 = d h = = = = = = = = = = = g = = = = = = = k 1Xy y f d = g d = d d d g = d = g h d d v d = h g d d ^.L x k h d d d d d d d d d d d d d d d h v d h d h - u.m.@ p 9 9 = f mXHXBXf 9 9 9 9 9 9 > > > : > > : 9 9 t > > > > > > t 9 9 > > > : > > > * l MX% 9 9 9 9 9 = a ",
"- ; X . X 4.uXpXpXuX4.X . . . $ = X . . . = + iXP D K D S D .X8.X = - X E E < < - $ . . . . $ $ $ $ $ $ $ $ $ $ $ d $ $ $ $ $ $ $ $ $ $ $ d - $ $ $ $ $ $ $ d $ $ $ - $ d = $ $ $ = : 4.8.a s c * $ d d $ - a C.A = 4.iXo = - - - - - = = = - 1.*.q 0 9 = = h - = = = = = = = = = = g = = = = = = = y 1Xy y t t = g d = d = d g = d = g h d d v d = h g d d ^.L x k h d d d d d d d d d d d d d d d h v d d d h - u.m.@ p 9 9 * l w.* w.l * 9 9 9 9 9 > > > : > > : 9 9 t > > > > > > t 9 9 t t t t > > > * l MX% 9 9 9 9 & *.gX",
"- o   X X 8.B.Z Z l.7.X . . . $ = X . . . - X wXP D K D S D k.8.X = - X E E < < - $ . . . . $ $ $ $ $ $ $ $ $ $ $ d $ $ $ $ $ $ $ $ $ $ $ d - $ $ $ $ $ $ $ d $ $ $ - $ d = $ $ $ = : 4.8.a s c * $ d d - - a C.A * 0.iXo = - - - - - = = = - 1.*.q 0 9 = = h - = = = = = = = = = = g = = = = = = = y 1Xy y t t = g d = d = d g = d = g h d d v d = h g d d ^.L x k h d d d d d d d d d d d d d d d h v d d d h - u.m.@ p 9 9 * v r.  r.v * 9 9 9 9 9 > > > : > > : 9 9 t : t t > > > t 9 9 A C.C.V : > > * l MX% 9 9 9 & *.gXgX",
"a s s s s tX^ D D B.qXX . . . $ = X . . . 5.9.uXS D K S S D k.7.X p - X E E < < - $ . . . . $ $ $ $ $ $ $ $ $ $ $ d $ $ $ $ $ $ $ $ $ $ $ d - $ $ $ $ $ $ $ d $ $ $ - $ d = $ $ $ = : 4.8.a s c * - p S C.% a J.C.* 0.yXo = - - - - - = = = - 1.*.q 0 9 = = h - = = = = = = = = = = g = = = = = = = y 1Xy y t t = g d = = = d g = d = g h d d v d = h g d d ^.L x k h d d d d d d d d d d d d d d d h v d d d h - u.m.@ p 9 9 * v r.  r.v * 9 9 9 9 9 > > > : > > : 9 8 > V V V > > > t 9 9 C.A.A.A t > > * l MX% 9 9 9 9 2XgX*.",
"iXpXpXpXpXpXS D D g.qXX . . . $ = X . X 8 uX9.0.D K K K K D k.7.X p - X E E < < - $ . . . . $ $ $ $ $ $ $ $ $ $ $ d $ $ $ $ $ $ $ $ $ $ $ d - $ $ $ $ $ $ $ d $ $ $ - $ d = $ $ $ = : 4.8.a s c * - a R K.# a J.C.* 9.yXo = - - - - - = = = - 1.*.q 0 9 = = h - = = = = = = = = = = g = = = = = = = y 1Xy y t d = g d = = = d g = d = g d d d v d = h g d d ^.L x k h d d d d d d d d d d d d d d d h v d d d h - u.m.@ p 9 9 * v r.  e.v * 9 9 9 9 9 > > > : > > : 9 8 A K.K.A.> > > t 9 9 t t t t > > > * l MX% 9 9 = s gX2XX ",
"iXD C A A A D S D @.wX  . . . $ = X . X s eXC D D K H U K D B.7.X = - X E E < < - $ . . . . $ $ $ $ $ $ $ $ $ $ $ d $ $ $ $ $ $ $ $ $ $ $ d - $ $ $ $ $ $ $ d $ $ $ - $ d = $ $ $ = : 4.8.a s g * - a A K.% a J.C.% 9.yXo = - - - - - = = = - 1.*.q 0 9 = = h - = = = = = = = = = = g = = = = = = = y 1Xy y t d = g d = = = d g = d = g d d d v d = h g d d ^.L x k h d d d d d d d d d d d d d d d h v d d d h - u.m.@ p 9 9 * v r.  e.v * 9 9 9 9 9 > > > : > > : 9 9 t > > > A.K.K.A 8 9 t t 9 V K.A.A.: l MX% 9 9 - 6.gX*.o ",
"iXS S S S S D S D @.wX  X X X $ = X . X s rXD K H U ( P P D B.tXs p - X E E < < - $ . . . . . $ $ $ $ $ $ $ $ $ $ d $ $ $ $ $ $ $ $ $ $ $ d - $ $ $ $ $ $ $ d $ $ $ - $ d = $ $ $ = : 4.8.a s s * - a G.L.- a J.J.- eXhXo = - - = - - - = = - 1.*.q 0 9 = = h - = = = = = = = = = = g = = = = = = = y 1Xy y t d = g d = = = d g = d = g d d d v d = h g t d ^.L x k h d d d d d d d d d d d d d d d h v d d d h - u.m.@ p 9 9 * v r.  e.v * 9 9 9 9 9 > > > : > > : 9 9 9 t t t V V V > 8 9 A C.C.C.K.K.K.: l MX% 9 9 & 6.gXa ; ",
"rXS D S D D D S D / tX8 s 8 . $ = X . X s rXD K P U _ P K D / .XuX8.o @ E E < < - $ . . . . . $ $ $ $ $ $ $ $ $ $ d $ $ $ $ $ $ $ $ $ $ $ d - $ $ $ $ $ $ $ d $ $ $ - $ d = $ $ $ = : 4.8.a L H # - * Y dX- : k.k., eXhXo = - - - - - - = = - 1.*.q 0 9 = = h - = = = = = = = = = = g = = = = = = = y 1Xy y t d = g d = = = d g = d = g d d d v d = h g = d ^.L x k h d d d d d d d d d d d d d d d h v d d d h - u.m.@ p 9 9 * v e.  e.v * 9 9 9 9 9 > > > : > > : 9 8 > A A A V A A > 8 9 Z.K.K.Z.K.K.A.: l MX% 9 9 & 4.zX6.o ",
"rXD S S D D D D D K eXiXeXyX8.o = X . X s rXD K P U _ P H D K C B.qXo @ E E < < - $ . . . . $ $ $ $ $ $ $ $ $ $ $ d $ $ $ $ $ $ $ $ $ $ $ d - $ $ $ $ $ $ $ d $ $ $ - $ d = $ $ $ = : 4.8.s U A.# - = g.jXs , pX9., iXhXo = - = = - - - = = - 1.*.q 0 9 = = h - = = = = = = = = = = g = = = = = = = y 1Xy y t t = g d = = = d g = d = g d = d v d = h g = d ^.L x k h d d d d d d d d d d d d d d d h v d d d h - u.m.@ p 9 9 * v e.  e.v * 9 9 9 9 9 > > > : > > : 9 8 A K.K.A.A.K.K.A 8 9 Z.K.K.Z.K.K.A.: l MX% 9 9 = a gX2XX ",
"rXD D D D D D D D K D D C y.7.o = X . X 4.pXA K P U _ P H D K D B.eXo @ E E < < - $ . . . . . $ $ $ $ $ $ $ $ $ $ d $ $ $ $ $ $ $ $ $ $ $ d - $ $ $ $ $ $ $ d $ $ $ - $ d = $ $ $ = : 4.8.% eXpX; * - g.lXs , rXeX, iXzX; = - s wX- = - = = - 1.*.q 0 9 = = h - = = = = = = = = = = g = = = = = = = k 1Xy y t t = g d = = = d g = d = g d t d v d t h g t d ^.L x k h d d d d d d d d d d d d d d d h v d d d h - u.m.@ p 9 9 % v e.  e.v * 9 9 9 9 9 > > > : > > : 9 8 A K.K.A.A.K.K.A 8 9 Z.K.K.Z.A.K.A.: l MX% 9 9 9 & 6.gX6.",
"rXS S S S S S S S K S S V p.qX  * X @   4.pXA S P U ( U H D K D p.eXo @ E E < < O ; . . . . . ; . . . . . . + + . 9 + + + + + + + + + + + 9 $ + ; + ; ; $ $ d $ $ $ $ $ d = $ $ $ = : 4.8.% eXlXa $ - g.kXs , uXeX, rXjX; * $ s yX; - - - = - <.*.0 0 9 = = h - = = = = = = = = = = g = = = = = = - y 1Xu y t t = g d = 9 = d g = 3 = g 5 = = N 5 = d g = 3 ^.L g h d 5 3 3 3 3 3 3 3 3 3 3 5 5 5 3 d N 3 5 5 d $ u.m.@ p 9 9 % b e.  e.v * 9 9 9 9 9 > > > : > > : 9 8 A K.K.A.A.K.K.A 8 9 Z.K.K.Z.K.K.A.: l MX% 9 9 9 = a iXzX",
"rXD.S.D.D.D.D.D.D.D.D.D.C.o.eXB V B V B 5.pXV.K I I _ P P K H D ^ iX; @ E E 1 2 1 - $ $ $ ; ; $ $ - - 1 1 2 2 5 5 j 5 5 5 5 5 5 5 5 5 6 5 j 6 5 5 5 5 5 5 2 j - - % % $ d d - = - = : 4.8.a pXcXs - : u.lXs , uXrX, rXjX, - - c yX& = = = 9 - 1.*.q a p 9 d g = : = : : = = = : : 5 N 5 d d d d d 3 z 1Xk k h f d g h 3 5 d h v f k k =.=.z z ;.=.x =.;.x x 0X3.=.=.=.=.=.=.=.=.=.=.=.=.=.=.=.=.=.=.=.;.=.=.=.=.u j.m.@ p 9 9 % b e.  e.v * 9 9 9 9 9 > > > : > > : 9 8 A K.K.A.A.K.K.A 8 9 Z.K.K.Z.K.K.A.: l MX% 9 9 9 9 & s 2X",
"dXA.F.F.F.F.F.F.F.F.F.F.A.E.pXC.C.C.C.Z.g..XK.F.H.H.H.H.Y.Y._ D @.rX, 8 E E 6 6 5 d 9 9 d j E E E E E E E E E E E E E E E E E E E E E E E E E E E E E E E E $.E E $.^ W M h t h h g N 0.9.g pXsX4.: d l.lX9.5.jXjX0.uXjX0.0.5.0.yXd g g g l g :X:.c c c g N M c :.:.1.1.1.1.1.1.1.:.5.b g g g g g g =.1X=.=.x v g M ;.;.3.3.3.3.3.3.3.3.3.3.3.3.3.3.3.3.3.3.0X3.3.3.3.3.3.3.3.3.3.3.3.3.3.3.3.3.3.3.3.3.3.3.3.3.=.j.M.@ p 9 9 % b e.  e.v * 9 9 9 9 9 > > > : > > : 9 8 A K.K.A.A.K.K.A 8 9 Z.K.K.Z.K.K.A.: l MX% 9 9 9 9 9 9 & ",
"rXD D D D D D D D K D D D / wXo , X ; o 4..XA K I I Y.G.D.H.H.S.L hX4.@ E E O < O . < E E E 6 2 2 < < < < < < 1 O j 1 < 1 1 1 1 1 1 1 1 < j 2 1 1 1 1 1 1 2 j 2 5 6 E E E E 5 $ + - : 4.8.* pXdX4.* 4.pXjX7.c jXuXh uXjXL L s 8.hXs $ o o o o 1.e & & ; ; e :.%.e e r r r r r r r e :.*.:.*.= = = - y 1Xu u t = y 3.3.&.=.y k =.u k u x k u u b k u z x u f ^.=.x x k k k k k k k k k k k k k k k k z b k k k k 0 u.m.@ p 9 9 % b e.  e.v * 9 9 9 9 9 > > > : > > : 9 8 A K.K.A.A.K.K.A 8 9 Z.K.K.Z.K.K.A.: l MX% 9 9 9 9 9 9 9 ",
"pXF D D D D D D D J D D D J yX0.9.4.o o 4..XA K I I ( U U I G.F.L._.fX*.E E < O < E E 6 1 1 1 1 1 1 1 1 1 1 2 2 2 j 2 2 2 2 2 2 2 2 2 2 2 j 5 2 5 5 5 5 5 5 j 5 5 2 2 1 j W E E V % : s 8.p pXaXeX4.5.b.cX4.h jXuX5.uXjXl.f.8.eXzXiXuXqX8.qXqXtXiXwXwXwXiXgXiXiXiXiXiXwXiXeXeX3X9.9.0.5.*.:.:.0 - - z 1Xy u y 3.&.=.z u k y z =.y k y =.x y y =.z k x =.y k ^.3.=.=.x z z z z z z z z z z z z z z z x ;.k z z x u u.m.@ p 9 9 % b e.  y.v * 9 9 9 9 9 j j j 6 j j 6 9 r $.OX&XoXoX&XOX$.r 9 oXOX&XoX&X&X&X5 l MX% 9 9 9 9 & s iX",
"S.D D D D D D D D J D D D F ).9.9.yXy.V.k..XA K I I ( I I I ( D S.K.{.6.E E O 6 E E < < 1 1 1 1 1 1 1 1 1 1 1 2 1 j 2 1 2 2 2 2 2 2 2 2 1 j 5 2 2 2 2 5 5 5 j 2 5 5 5 2 j 5 3 S F.6 : iXqX: sX#XuX% : pXjXhXjXkXlXzXkXlXkXkXhXhXkXhXyXhXjXuXdXDXDXmXDXaXBXpXpXrXrXrXiXiXiXyXyXyXhXjXjXzXzXhXfXuX6.3 i 3.t =.3.=.t x x y y y z =.y k y =.x y y =.z y x =.y k ^.3.=.=.x z z z z z z z z z z z z z z z x ;.k z z x u u.m.@ p 9 9 % b e.  y.v % 9 9 9 9 9 j j j 6 j j 6 9 r $.OXOXoXoXOXOX$.r 9 oXOXOXoXOXOX&X5 l MX% 9 9 9 & s gXgX",
"K D D D D D D D D J D D D D K.A.K.G.sXaXsXB.D K I I ( I I I ( D D F [.6.E E 6 E 6 < 1 1 1 1 1 1 1 1 1 1 1 1 1 2 1 j 2 1 2 2 2 2 2 2 2 2 1 j 5 2 2 2 2 2 5 5 j 2 5 5 5 2 j 6 4 S K.E j hXwXh uX(.pX8.hXlXlXyXqXhXsX5.rXpXsXk.B g.[.C.A.K.K.L.K.J.K.H.i R ).t y ; & 0 0 & 0 0 & & 0 0 c w *.eXiXiXzXjXuX3X:.3.i y y =.x k k y z =.y k y =.x y y =.z k x =.y k ^.3.=.=.x z z z z z z z z z z z z z z z x ;.k z z x u u.m.@ p 9 9 % b p.  y.v % 9 9 9 9 9 j j j 6 j j 6 9 r $.OXOXoXoXOXOX$.r 9 oXOXOXoXOXOX&X5 l MX% 9 9 9 9 2XgX4.",
"K D D D D D D D D J D D D D D F J D D D D F D K I I ( I I I ( D D F g.sX XE E 6 2 2 1 1 1 1 2 2 1 1 1 1 1 1 1 2 1 j 2 1 2 2 2 2 2 2 2 2 1 j 5 2 2 2 2 2 5 5 j 2 5 5 5 2 j 6 < M pX5 E jXyX0.sXh.jXzXqXrX.Xg.J._.L.L.L.L.L.L.K.H.}.J.H dXg.*.0.<.v.zXe 4.uXx b 4.q iX6.0 q q q q q q =.q & iX5.Z q 0.rXxXlXuX9.:.t i i t u u k =.y k k =.z k k ;.z y k ;.k z ^.3.=.=.x z z z z z z z z z z z z z z z x ;.z z z x u u.m.@ p 9 9 % b y.  y.v % 9 9 9 9 9 j j j 6 j j 6 9 r $.OXOXoXoXOXOX$.r 9 oXOXOXoXOXOX&X5 l MX% 9 9 = a gX2XX ",
"K D D D D D D D D J D D D D D D K D D D D J D K I I ( I I I ( D D J J Y sXXX6 6 2 2 1 1 1 < O < 1 1 1 1 1 1 1 2 1 j 2 1 2 2 2 2 2 2 2 2 1 j 5 2 2 2 2 2 5 5 j 2 5 5 5 2 j 6 < 5.kXj j fXzXc sXkXcXk.V.L.L.H._.}.[.x.dXpXlXiX8.tXzXs s zX9.8 4.3X4XzXe 5.jXJ.L hX6.iX6.0 s s q q q q =.q 0 tXk.A.s 0 1.1Xt.sXxXjXjXiX3Xt.*.*.z x t i t x R i i x i =.9.i i i ^.R i i i i i i i i i i i i i i i i i i i x i i i i & u.m.@ p 9 9 % b y.  y.b % 9 9 9 9 9 j j j 6 j j 6 9 r $.OXOXoXoXOXOX$.r 9 oXOXOXoX&XOX&X5 l MX% 9 9 & 6.zX4.o ",
"K D D D D D H H H ( D D D D D D J D D D D J D K I I ( I I I ( D D J K Z pX(.7 6 2 2 1 1 < 6 wX4.O 2 1 1 1 1 1 2 1 j 2 1 2 2 2 2 2 2 2 2 1 j 5 2 2 2 2 2 5 5 j < 5 5 5 2 j 6 O 0.lXW j sXdXqXkX.XL.L.L.m..X2XwXn.rXlXrXpXlXlXkXyXzXs s jXuXa s 3XdXzXe 0.zXL.] lX9.yX9.; 2XyX0 k T q =.q 0 iXpXz.q a 1.;X:.jXx.L v.dXcXxXxXjXjXjXjXjXfXjXsXfXfXjXuXjXlXuXuXuXcXuXuXuXuXuXuXuXuXuXuXuXuXuXuXuXuXuXuXuXuXfXuXuXuXuXyXb.n.+ p 9 9 % b y.  y.b % 9 9 9 9 9 j j j 6 j j j 9 r $.OXOXoXoXOXOX$.r 9 oXOXOXoX&XOX&X5 l MX% 9 9 & 6.gXa ; ",
"K D D D D D H H H ( D D D D D D K D D D D J D K I I ( I I I ( D D J K S..XdX^ < 2 2 1 2 O 0.yXwXO 2 1 1 1 1 1 1 1 j 2 1 2 2 2 2 2 2 2 2 1 j 5 2 2 2 2 2 2 5 j iX4.< 5 2 j 6 O 9.xXW 0.aXbXkXsXK.L.aX4.rX.XeXeXh.fXkXB.pXxXlXkXuXlXs 4.dXpXs <.:XsXjXe 0.lXL.p.xX9.hX9.o iXzX0 L K.q =.q 0 yXrXrX8 &.:XuX3XkXpXi , eXu.K.Y 2.s.].].].nXbXaX[.[.[.[.9XBX[.4X9X9X9X9X9X9X9X9X9X9X9X9X9X9X9X9X9X9X9X9X9X9XvX9X9X9XvXM.x.M.+ p 9 9 % b y.  y.b % 9 9 9 9 9 j j j 6 j j 6 9 r $.OXOXoXoXOXOX$.r 9 oXOXOXoXOXOX&X5 l MX% 9 9 & 6.zX4.o ",
"K K D K D K H H H ( D D D D D D K D D D D J K J I I ( I I I ( D D J G ~ !.[.uX^ 7 2 1 2 O 8. XwX< 1 1 1 1 1 1 1 1 j 2 1 2 2 2 2 2 2 2 2 1 j 5 2 2 2 2 2 2 < 5.kX0.O 5 2 j 6 O 9.cX4.9.sXjXuXL.H.F.aX0.pXx.eXiXg.fXkXP rXlX|.lXjXlXs 4.dXpX*.<.:XsXjXe 9.lXL.y.sXpXhX9.& iXkXwXV }.*.z q 0 yXsXrX6.1.6.uX3XkXrXi i yXk.L.x e i R t , iXeXfXy i i ;.yXmXV.t i ^.R R i i i i i i i i i i i i i i i i i i x i i i i , u.m.@ p 9 9 % b y.  y.b % 9 9 9 9 9 6 7 7 h j j h 9 r $.&X&XoXoX&X&X$.r 9 !.&X&XoXoXoXoXd l MX% 9 9 = a gX2XX ",
"J I H H H H H H H ( D D D D D D K D D D D I I I I I ( I I I ( D D K P.~ P.F.B.xX5.< 2 2 O 8.9.rX XO 2 1 1 1 1 1 1 j 2 1 2 2 2 2 2 2 2 2 1 6 5 2 2 2 2 2 2 < 0.zX0.< 5 2 j 6 O  XdXeX0.kXjXL.H.^ K aX9.pXh.eXiX .fXkXP pXjXL.lXkXjXs 4.dXsX<.s :XsXjX*.9.lX|.i.dXrXzX2X% eXlXhXC dX8.k w 0 yXdXrXyX3X6.uX3XkXuXi i hXk.K.L 0 R H.z i uXuXlXt.u x 9.zXdXJ.w z ^.3.=.=.x z z z z z z z z z z z z z z z x ;.z z z z q u.m.@ p 9 9 % b y.  y.b % 9 9 9 9 9 : : : a s s a 9 8 K ~.~.F.D.F.F.S 8 9 Z.K.K.2.hXhXhXs g MX% 9 9 9 = 2XgX4.",
"J I H H H H H H H ( K D D D D D K D D D D I I I I I ( I I I ( D D J P.K W.W.F n. XO 2 2 O  X0.j tXO 2 1 1 1 1 1 1 j 2 1 2 2 2 2 2 2 2 2 1 6 5 2 2 2 2 2 2 < 0.jX9.O 5 2 j 6 <  XdXeXeXjXK.[..X_ K .X9.pXd.rXiX/ uXkXP .XjXL.lXkXfXs 6.pXsX6.6.:XsXjXiX9.aXdX3XpXrXlX2X% rXxXkXj.lXqXk q w zXdXuXjXiXuXjX3XkXuXi i hXpX_.R 8.R L.w i jXuXlXH.0.5.9.zXlXi.u k ^.3.=.=.x k k k k k k k z z z z z z z k x ;.k z z z t u.m.@ p 9 9 % b y.  y.b % 9 9 9 9 : V.V.V.> a p 9 9 8 K ~.~.I.D.I.I.S 8 9 Z.K.K.g.hXhXyXs g MX% 9 9 9 & s gXgX",
"J I H H H H H H H ( K D D D D D K D D D D I I I I I ( I I I ( K D P.~ K W.W.F k..XO 2 2 O  X0.j wX< 1 1 1 1 1 1 1 j 2 1 1 1 1 2 2 2 2 2 1 6 5 2 2 2 2 2 2 < 0.jX9.O 5 2 j 6 < eXnXeXkX{.L.hXh.#.K M.eXpX| uXrX/ B.zXP k.jXF.lXsXsXc l.pXpX5.yX3XsXjXhXiX_.{.iXpXsXlXeXr pXcXjXzXkXeXy 0 6.kXsXjXjXfXkXzXlXlXlXuXA.xXyXdXaXzXR K.6.eXjXuXlXpXiXM.[.kXkXk.i z ^.3.=.=.x k k k k k k k k k k k k k k k x ;.k z k z t u.m.@ p 9 9 % b y.  i.b % 9 9 9 9 t V V V 5.7.7.6.9 8 K ~.~.I.D.F.I.S 8 9 Z.K.K.g.hXhXyXs g MX% 9 9 9 9 & s iX",
"J I H H H H H H I ( K D D D D D J D D D D I I I I I ( I I I ( I ( W.G G W.W.S.B.vXB O < O  X0.S iX< 2 2 2 2 2 2 2 j 5 5 2 2 2 2 2 2 2 5 2 j 5 2 5 5 5 5 5 < 0.fX9.< 5 2 j 6 < eX{.kXsXK.{.lXE.#.~ N.eXpXY.uXrXI @.jXP B.uX/ cXL.pX5.`.pXaXH.hX3XsXcXhXuX_.}.yXb.sXjXlX4.rXdXcXlXsXiX9.z qXkXjXlXxXlXdXjXlXlXcXjX[.lXzXxXcXkX4XL.zXjXjXfXlXzXiX[.{.kXkXzX:.t ^.J.=.=.x z z z z z z z z z z z z z z z x ;.k z z x u u.m.@ p 9 9 % n y.  i.b % 9 9 9 9 9 t t : 4.8.8.4.9 8 K ~.~.I.D.F.I.S 8 9 Z.K.K.g.hXhXyXs g MX% 9 9 9 9 9 = & ",
"I ( I ( ( ( ( ( ( Y.( ( ( ( J J H J J J J U.U.( ( Y.Y.( ( Y.Y.( T.P.! J W.W.P.#.fXpXrX0., eXB.L uX6 j 6 6 6 6 6 6 M 6 6 j j j j j j j j 6 M j j j j j j j 7 9.uX X7 j j M M 6 rX[.zXL.|.`.`.H.#.W.x.sXpXY.uXuX( g.jX..o.g.@.pXL.pX9.[.pXaX9XzX3XsXsXjXrX_.}.kXb.jXcXjX9.pXsXdXjX} uXfXcXlXjXlXkXxXxXL.cXkXjXg.].xXdXxXjXsXxXcXL.dXdXlXuXjXzXhX9X{.kXlXkXjX0.0X_.;.;.;.;.;.;.;.;.;.;.;.;.;.;.;.;.;.;.;.w.;.;.;.;.k u.m.@ p 9 9 % n y.  i.b % 9 9 9 9 9 : : : p s a a 9 8 K ~.~.I.D.F.I.S 8 9 Z.K.K.g.hXhXyXs g MX% 9 9 9 9 9 9 & ",
"J I H H H H H H H ( H H H H D D K D D D D I I I I I ( I I I ( ( T.J G K W.P.~ ~ ^ E.B.tXo wX5.7 tX< 1 1 1 1 1 1 1 6 S K < 1 1 1 2 2 2 2 < 6 5 1 2 2 2 2 2 O 9.dX XO 5 1 j 6 4 uXjXnX_.dXH.H.!.@.' E.jXrXS.sXuXJ @.fX/ / P / G.L.k.9.vXk.sXxXjX3XpXuXzXsX`.`.kXl.jXaX`.aXaXrXdXfXP uXzXkXkX{ uXlX_.dXH.zXuXsXg.H.cXbXjXjXcXsXzX[.#X}.jXjXjXlXzX9XvXkXkXkXjXhXcXsX;.=.x k k k k k k k k k k k k k k y z =.y k k z t u.m.@ p 9 9 % n i.  i.b % 9 9 9 9 9 t t : 4.wXqX8.= 8 K ~.~.I.D.F.I.S 8 9 Z.K.K.g.hXhXyXs g MX% 9 9 9 9 & a 2X",
"J I H H H H H H H ( H H H I D D J D D D D I I I I I ( I I I I T.U.Q G K W.W.~ ~ G D.I.iXo qX5.D.rX4 1 1 1 1 1 1 2 7 eXxXM < 2 2 2 2 2 2 1 6 5 2 2 2 2 2 2 O  XdXeXO 5 2 j 5 W zXjXL.k.dXH.H.E.@.@.!.{.B.S.sXuXJ ] k./ / / / G.L.@.jXjX] fX_.b.gXuX).dXsXB.k.kXB.jXaX_.kXuX.XpXuXK uXkXdXdX/.sX[.L.H.G.lXsXsXg.H.|.[.lXuXuXpXjXkXaXL.M.lXsXkXkXcXlXkXdXjXlXjXxXuXuX5.i k k k k k k k k k k k k k k k x =.y k k z t u.m.@ p 9 9 % n i.  i.b % 9 9 9 9 t A Z Z 5.qXqX8.= 8 K ~.~.I.D.F.I.S 8 9 Z.K.K.g.hXhXyXs g MX% 9 9 9 = s iXzX",
"H I H H H H H H H ( H H H I D D J D D D D I I I I I ( I I I U.T.( Q G K W.W.~ ~ ~ G ~.dXqXiXH.A.rX4 1 1 1 1 1 1 2 7  XyX0.O 2 2 2 2 2 2 1 6 5 2 2 2 2 2 2 O  XaXeX< 5 2 6 j 0.zX[._.aXaX_.L.E.+./ !.K.I S.sXuXJ / / / / / / P P K pXjXU 9.H.[.zXb.K.NXjX] .XxXG.fXk.).kXk.K p.pXD uXsXK.L.H.4Xk.T T T jXpX2.2.G.J.f.lXpX.XpXrXsXH.L.s.lXpXlXcXlX.XlXL.n.kXdXxXjXuXrXeXz y k k k k k k k k k k k k k x =.y k k z t u.m.@ p 9 9 % n i.  i.b % 9 9 9 9 : V.V.V.5.qXqX8.= 8 K ~.~.I.D.F.I.S 8 9 Z.K.K.g.hXhXyXs g MX% 9 9 9 = 6.gX6.",
"H I H H H H H H H ( H H H I K D J D D D D I I I I I ( I I I T.T.( Q G K W.W.~ ~ G G D.L.9.k.D.S rX4 < 1 1 1 1 1 2 7 eXwX8.O 2 2 2 2 2 2 1 6 5 2 2 2 2 2 2 O eXaXeX< 5 2 6 W  XjXL.[.dX.XQ.L.X.O./ U.L._ I }..XU / ] / / / / / / K pXuXP ^ A.bXxXG.A.BXzXU pXdXV.uXy.B.jXK P P P P H._.L L.H.T T Y Y Y jXpXT 2.Y 2.g.jX] J b.B.H.H.L.g.jX.XbXL.lXg.jX).U jXsXjXlXjXzXlX=.y z k k k k k k k k k k k k x =.y k k z t u.m.@ p 9 9 % n i.  i.b % 9 9 9 9 : V.V.V.5.qXqX8.= 8 K ~.~.I.D.F.I.S 8 9 Z.K.K.g.hXhXyXs g MX% 9 9 = a gX2XX ",
"H I H H H H H H H ( H H H I K D F D D D D I I I I I ( I I I T.) ( ) ! K W.W.~ ~ G G G L.Z.Z D.K rX4 < 1 1 1 1 1 1 6 wXqX9.O 2 2 2 2 2 2 1 6 5 2 2 2 2 2 2 O eX.XeX1 3 4 j 0.yXBXK.}.xX.X`.L.+.O./ _ L.( ] L.G./ / / / _ / / / / P 4XrXP ^ F.{.xXH.G..XjXP /._.P ] P B.fXP P P P P G.G.P L.G.T Y Y T 2.4Xg.2.Y Y Y f.pX] U U P H.H.U { {.g._.L.[.{ jXg.G.uXsXfXkXlXlXlX;.u y k k k k k k k k k k k k x =.y k k z t u.m.@ p 9 9 % n i.  u.b % 9 9 9 9 : V.V.V.5.qXqX8.= 8 K ~.~.I.D.F.I.S 8 9 Z.K.K.g.hXhXyXs g MX% 9 9 & 6.zX6.o ",
"I I H H H H H H H ( H H H I K K H D D D D I I I I I ( I I ) T.( ( ) ) K W.W.~ ~ G G K F.L.D.D.K rX4 < 1 1 1 1 1 1 6 wX X XO 2 2 2 2 2 2 1 6 5 1 2 2 2 2 2 O eX.XeX4 D B W  XjXL.F.|.kX.Xh.H.+.O./ / T.' _ ^ ] _ / / _ _ P / / / g.g.] ] ] J.}.sXH.r.).sXP G.H.P P K y.uXK P P P P P ] P L.G.T Y Y T 2.^.2.2.Y Y T s.T U U U U G.U P U H.P H.H.L.G.jXs.G.pXsXaXlXkXlXxXH.:.5.y k k k k k k k k k k k x =.y k k z t u.m.@ p 9 9 % n i.  u.b % 9 9 9 9 : V.V.V.5.qXqX8.= 8 K ~.~.I.D.F.I.S 8 9 Z.K.K.g.hXhXyXs g MX% 9 9 & 6.gXa ; ",
"I H H H H H H H H ( H H H H H P _ H F F F ( I I I I ( I I T.Y.( ( Y.U.K W.W.~ ~ G G G G L.K.G D uX9.O 2 1 1 1 1 1 6 wX8. XO 2 2 2 2 2 2 1 6 5 1 2 2 2 2 2 O eXN.rXO k.rX5.yXBXL._ H.@.#.h.@.+.O.@./ @.W.` / / _ / / _ _ / / / ] g.] ] ] ] Y ] _.H.e.H.G.]  .f.] P P P g.P P P P P P  .2.H.G.T Y Y T 2.^.2.2.Y Y T s.s.U U U U [ P U P  .Y U U L.G.rX .U u.k.H.dXkXjXBXaXzXeX9.9.i y y k k k k k k k x =.y k k z t u.m.@ p 9 9 % n u.  u.b % 9 9 9 9 : V.V.V.5.qXqX8.= 8 K ~.~.I.D.F.I.S 8 9 Z.K.K.g.hXhXyXs g MX% 9 9 & 6.gX*.o ",
"I H H H H H H H H ( H H H H H I ( H I I I ( I I I I ( I ( T.Y.( ( Y.) K W.W.~ ~ G G G G F.D.K G ^ tX< 2 1 1 1 2 < 5.uX0.qXO 2 2 2 2 2 2 1 6 5 1 2 2 2 2 2 O eXh.rX< iXkX XzX|.#X/ ^ ) #.h.@.+.O.@./ _ W.X.P / _ / / _ _ / / P g.g.] ] ] ] ] ^ /.G.g.] ] ] ] g.g.P P P P P P P P P P  .2.Y T Y Y Y T 2.^.2.2.Y Y T s.g.P U U U [ U U U Y U U P H.G.P Y [ U U H.pXkXdXbXkXkXeXiXeXi 5.=.y k k k k k y z =.y k k z t u.m.@ p 9 9 % n u.  u.n % 9 9 9 9 : V.V.V.5.qXqX8.= 8 K ~.~.I.D.F.I.S 8 9 Z.K.K.g.hXhXyXs g MX% 9 9 = s gX2XX ",
"I H H H H H H H H ( H H H H H I ( H I I H ( I I I I ( I T.U.Y.( ( U.U.J W.P.~ ~ G G G G S.F.K G S iX< 1 1 1 1 2 O iXk.W wXO 2 2 2 2 2 2 1 6 5 1 2 2 2 2 2 O eXh.rX4 eXrXuXdXH.sXJ @._ h.h.@.+.O.@./ ` ' #.P / ` _ / _ _ / / / g.] ] ] ] ] ] ] j.g.] ] ] ] ] } g.] P P P P P P P P P { 2.T Y Y Y Y T 2.^.2.2.Y Y Y Y g.Y U U U [ U U U [ Y U U [ U U Y Y U Y H.pXuXA.bXkXsXpXuXkXi iX9.i z k k k k y z =.y k k z 0 u.m.@ p 9 9 % n u.  u.n % 9 9 9 9 : V.V.V.5.qXqX8.= 8 K ~.~.I.D.F.I.S 8 9 Z.K.K.g.hXhXyXs g MX% 9 9 9 9 2XgXs ",
"I H H H H H H H H ( H H H H H I ( H I I H ( I I I I ( I T.) Y.( ( U.U.( W.P.~ ~ G G G G G I.G K / rX1 1 1 1 1 2 O wX4 W wXO 2 2 2 2 2 2 1 6 5 1 2 2 2 2 2 O rXd.rX4 rXsXkX|.p.pXH @._ h.h.@.+.O.../ ` ` Q./ / .._ / ` _ / / ] g.] ] ] ] ] ] ] j.g.g.] ] ] ] ] g.g.P P P P P P P P P /.2.T Y Y Y Y T 2.^.2.2.Y Y Y Y 2.2.U U U [ U U U [ Y U U [ U U Y [ U T H.pXpXA.bXkXdXaXdXsX:.iX3Xi z k k k k y z =.y k k k 0 u.m.@ p 9 9 % n u.  u.n % 9 9 9 9 : V.V.V.5.qXqX8.= 8 K ~.~.I.D.F.I.S 8 9 Z.K.K.g.hXhXyXs g MX% 9 9 9 & *.gXgX",
"I H H H H H H H H ( H H H H H I ( H I I H ( I I I ( I ) T.( Y.( ( Y.U.( W.P.~ ~ G G G G G F.F.K ~ rX3 < 1 1 1 2 < iXs j uX< 2 2 2 2 2 2 1 6 5 2 2 2 5 2 5 < rX+.pXs rXpXjXK.8.pXQ @._ #.h.@.+.O.+.@.` ` #.` ] .._ _ .._ / / g.] ] ] ] ] ] ] ] j.g.g.] ] ] ] } ] B.P P P P P P P P P /.Y T Y Y Y Y T 2.^.2.2.Y Y T { Y 2.T U U [ U U U [ U U U [ U U Y [ U U _.v.b.G.n.xXvXdXdXbX4.uXeXi z k k k k y z =.y k k z 0 u.m.@ p 9 9 % n u.  u.n % 9 9 9 9 : V.V.V.5.qXqX8.= 8 K ~.~.I.D.F.I.S 8 9 Z.K.K.g.hXhXyXs g MX% 9 9 9 9 & *.gX",
"I H H H H H H H H ( H H H H H I ( H I I H ( I I I I ( T.) ( U.( ( U.) ( W.W.~ ~ G G G G G G I.K K rX4 < 1 < < 1 < iXs , rXs < 1 1 1 1 2 < 6 5 1 1 1 4 2 2 O rX+.pX4.rXfXBXZ.8.aXQ / _ #.h.@.+.O.+.@._ ' X.#.` .._ _ .._ _ ] g.] ] ] ] ] ] ] ] j.g.g.] ] ] ] } ] g.g.P P P ] P P P Y /.T T Y Y Y T T 2.^.2.2.Y Y T s.Y 2.2.P U Y P U P [ Y U U [ U P Y Y U U _.G.G.Y K.[.[.[.sX{.t.uXeXi z y y y y y z =.y y y k 0 u.m.@ p 9 9 % n u.  u.n % 9 9 9 9 : V.V.V.5.qXqX8.= 8 K ~.~.I.D.F.I.S 8 9 Z.K.K.g.hXhXyXs g MX% 9 9 9 9 9 = 9 ",
"( I H I I I I I I ( I I I I I I ( I I I I ( I I I I Y.T.( ) Y.) ) Y.U.( W.W.! ~ ! G G G G G !.U.~ rX6 5 5 5 5 5 5 iXW O wXW 2 5 5 5 5 5 5 j 6 5 5 7 S 5 6 2 rXO.pX0.uXlXL.H.lXm._ @.` h.h.@.#.O.+...` X.X.#.O.} _ [ o..._ g.g.] } ] ] } } ] ] j.g.g.g.] }  .} } g.h.P P ] ] P P U 2.s.Y Y Y Y Y Y Y 2.^.2.s.2.Y Y s.{ Y g.U Y [ U Y Y [ [ U U [ Y Y [ [ Y Y _.R.G.Y H.H.Y _.x.{.dXdXhXx x x x x x z x ;.z x x x u u.m.@ p 9 9 % m u.  u.n % 9 9 9 9 : V.V.V.5.qXqX8.= 8 K ~.~.I.D.F.I.S 8 9 Z.K.K.g.hXhXyXs g MX% 9 9 9 9 9 9 9 ",
"U.( I I I I I I ( Y.( ( ( ( ( ( Y.( ( ( ( Y.( ( ( Y.T.T.U.Y.Y.Y.Y.Y.Y.U.W.W.Y.P.P.! ! ! ! ! Y.I.~ rXW 6 6 6 6 6 j iXW 7 rX0.7 j j j j j 6 M j j j K L.L j 6 uX+.aX9.lXdXH.aXlXn.' ..' h.h.+.d.Q.O.+.X.X.O.X.Q.o.X.R.O.o.X.f.g.o.o.} } d.d.} ] l.f.d.g.s.d.| d.d.} h.} U  .}  . .{ ).s.{ Y s.{ { s.{ s.].s./.s.s.{ s.s.G.f.{ [ R.Y Y [ R.R.[ [ R.[ [ | R.[ [ _./.R.R.G.G. . .G.[.kXxXlX3Xx ;.=.=.=.=.;.;.=.=.=.;.y u.m.@ p 9 9 % m u.  u.n % 9 9 9 9 : V.V.V.5.qXqX8.= 8 K ~.~.I.D.F.I.S 8 9 Z.K.K.g.hXhXyXs g MX% 9 9 9 9 9 9 9 ",
"I H J H H H H H H I H H H H H I I H H H H ( I H H ( T.( ( ( U.( ( U.) ( W.T.U.U.G G G G G G / I.G rX4 < < < < < 2 iX4 O wXW O 1 < < < 1 < 6 5 1 < D L.S 4 O rX@..XpXlX_.sXsX[.k.( / _ #.h.@.O.O.X..._ X.X./ #..._ X..._  .d.] ] ] ] ] } ] ] / u.g.g.] ] }  .] } ] g.g.P P ] P P 2.2.Y T T Y Y Y Y Y 2.].2.s.Y T T s.Y U 2.2.U Y P P U [ [ U P [ U P [ Y P P _.G.Y Y T T U U P T uXxX{.eXi k y y y u k =.u y y k 0 u.m.@ p 9 9 % m u.  l.n % 9 9 9 9 : V.V.V.5.qXqX8.= 8 K ~.~.I.D.F.I.S 8 9 Z.K.K.g.hXhXyXs h MX* 9 9 9 9 9 9 9 ",
"I H H H H H H H H ( H H H H H I ( H I I I ( I I I U.T.( ( ) U.( ( Y.U.( W.W.U.U.~ G G G G G / !.D.rXs < 1 1 1 < 4 iX4 O wX4.O 2 2 2 2 2 1 j 5 5 4 D L.S 4 1 rX@.`.fXcXK.fX[.D.@.../ _ #.h.@.O.O.X...` X.X./ #.#. .X...` s.d.} } } ] ] } ] ] ] j.g.d.] ] d.d.} o. .} h.P ] ] ] P /.Y { Y T  .Y Y  .Y s.].2./.s.Y T s.{ Y Y g.U Y P U Y [ [ U U [ U Y [ [ U U _.G.Y Y Y U U U U U P G.|.eXi z y y k y z =.y k k k 0 i.m.@ p 9 9 % m u.  l.n % 9 9 9 9 : V.V.V.5.qXqX8.= 8 K ~.~.I.D.F.I.S 8 9 Z.K.K.g.hXhXyXs $ CX5.X % $ $ $ $ $ ",
"I H H H H H H H H ( H H H H H I ( H I I H ( I I I T.U.( ( ) U.( ( Y.U.( W.W.U.U.~ G G G G G / _ F.rXs < 1 1 1 < 4 iX2 O wX4.O 2 2 2 2 2 1 6 5 5 4 F A.F 7 1 rX@.H.kXvXF.^ Y.Q / ..@._ #.h.@.O.O.X...` X.X._ X.Q.` X...} d.} } g.} ] ] } ] ] ] j.g.d.g.] o.o.} o.}  .h.] P ] ]  ./.Y { T Y { G.Y  .] s.].2./.a.s.Y s.{ { Y g.Y G.Y  .Y [ [ U P [ U Y  .[ P U _.G.Y Y Y U U U U U P J.|.uXy k y y y y z =.y y y k 0 i.m.@ p 9 9 % m u.  l.n % 9 9 9 9 : V.V.V.5.qXqX8.= 8 K ~.~.I.D.F.I.S 8 9 Z.K.K.g.hXhXyXs $ -.ZXl.q.w.w.w.w.w.",
"I H H H H H H H H ( H H H H H I ( H I I H ( I I Q T.U.( ( ) U.( ( Y.U.( W.W.U.U.! G G G G G _ / F.pXs < 1 < 2 < j uX< O wX4.O 2 2 2 2 2 1 6 5 5 4 C.Z.L.A.5 rX@.H.jXH.H ` / / _ ..@._ #.h.#.O.O.X...` X.X.` X.Q.X.o...d.d.} } } } ]  .} } ] ] j.g.d.g.] o.o.} o.}  .g.g.P  .] /.a.Y { Y Y | [ { { ] s.].s./.a.a.Y a.{ { [ g.s.G. . .[ [ { U P [ Y Y { { P U _.G.Y Y Y U U U U U P G.L.cX:.i k y y y z =.y y y k 0 i.m.@ p 9 9 % -.l.  l.n % 9 9 9 9 : V.V.V.5.qXqX8.= 8 K ~.~.I.D.F.I.S 8 9 Z.K.K.g.hXhXyXs 9 % v 4XBXBXBXBXBXBX",
"I H H H H H H H H ( H H H H H I ( H I I H ( I I ) T.U.( ( ) U.( ( Y.U.( W.W.U.U.) ) ) G G G _ / D.dX(.O 1 s < O 9.eXO O qX0.O 2 2 2 2 2 1 6 5 2 < G.aXL.C.7 rX@.aXdXL./ ` _ / _ ..@._ #.h.#.O.O.X...` X.X.` X.O.#.o...d.} } } } } ]  .o.} ] ] u.g.d.g. .o.o.} o.} } g.g. . . ./.a.Y {  .Y a.{ { s.} s.].s./.a.a.{ a.{ { [ a./.G. .| [ [ | Y Y [ U  .| | T ] _.G.Y Y Y U U U U U U P D.vXhX9.y k y y z =.y y y k 0 i.m.@ p 9 9 % -.l.  l.n % 9 9 9 9 : V.V.V.5.qXqX8.= 8 K ~.~.I.D.F.I.S 8 9 Z.K.K.g.hXhXyXs = h p % 8 * * * * * ",
"I H H H H H H H H ( H H H H H I ( H I I H ( I I T.) U.( ( ) U.( ( Y.U.( W.W.U.U.) ) ) J G G / / G `.jX7 0.fXrXW yX5.< O  X0.O 2 2 2 2 2 < 6 5 2 O B.lX/.A.S sXh.jX{.h./ ` / / _ ..@._ #.h.#.O.O.X...+.X.X.@.X.X.Q.+.o.d.} } } } o.]  .o.} g.] u.g.d.g. .o.o.d.o.} } } g.d. .a./.|  .a.s. .a.| | a.| /.]././.a.a.a./.{ | { | s./.[ | [ { R.[ ] { [ [ | R.Y ] _.G.Y Y Y U U U U U U P G.vXxXsX*.y k y z =.y y y k 0 i.m.@ p 9 9 % -.l.  l.n % 9 9 9 9 : V.V.V.5.qXqX8.= 8 K ~.~.I.F.I.I.S 8 9 Z.K.K.g.hXhXhXs = 9 9 = = = = = = = ",
"I H H H H H H H H ( H H H H H I ( H H I H ( I ( P.( U.( ( ) U.( ( U.U.( W.W.U.U.) ) ) ! G G ) ) / A.k.uXuXS [.hX[.S 4 O  X0.O 2 2 2 2 2 < 6 5 2 O k.uXeXpXA sX.XcX}.rXG ` _ / _ ..@._ #.h.#.O.O.X...+.X.X.` X.X.#.Q.d.d.} } } } o.}  .o.} d.] j.f.d.g. .o.o.d.o.} } } } h. ./.a.| { a.a.s.a.| | a.| /.]././.a.a.| /.| | a.| s.d.[ | [ | R.[  .| | [ | /.[  ._.G.Y Y Y U U U U U U U H [.}.aX*.i k y z =.y y y k 0 i.m.@ p 9 9 % -.l.  l.n % 9 9 9 9 : Z Z Z 5.2X7.8.9 8 S I.I.D.S.D.F.S 8 9 C.A.A.T yXyXtXs = 9 9 *.*.*.*.*.*.*.",
"I H H H H H H H H ( H H H H H I ( H H I H ( I T.Q ( U.( ( ) U.( ( U.U.( W.W.U.U.) ) ) ) ~ J ) U.~ S.D.4 4 O 0.zXU 7 2 O  X0.O 2 2 2 2 2 1 6 5 2 O pXeXkXsXP sXfXbXE.k.~ ` / / _ ..@._ #.h.+.O.O.X...+.X.X...+.X.X.Q.d.} } } } } } } } o.o.d.] j.f.d.g.} o.d.d.o.} o.o.} h.a./.| | a.a.| s.a.a.a.a.| /.]././.a.a.| /.a.a.a.| a.f.| | { | R.{  .| | [ | R.[ [ _.G.Y Y Y U U U U U U U P U A.aX*.i k y z =.y y y k 0 i.m.@ p 9 9 % -.l.  l.n % 9 9 9 9 : C C Z 5.7.8.4.9 8 S F.D.S.F S.D.S 8 9 V.Z.Z.L tXtXwXa = 9 & 2XgXgXgXgXgXgX",
"I H H H H H H H H ( H H H H H I ( H H I H ( ( T.Q ) U.( ( ) U.( ( U.U.( W.W.U.U.) ) ) ) _ / ) ) Q K F.7 < O 0.kXs 6 2 O  X8.O 2 2 2 2 2 1 6 5 2 1 eX XhXpX(.uXjX|.S./ / ` / / ` ..@.) #.h.+.O.O.X...+.X.X...O.X.X.(.d.} } } } } } } } } } o.} f.f.d.g.} o.d.d.o.o.o.o.} d.f./.| | a./.| a.| a.a.a.| /.].a./.a.a.| /.a.| a.a.| ).a.[ { | R.{ { a.| [ | R.[ [ _./.{ {  .U U U U U U U U P G.BX2Xi k y z =.u y y k 0 i.m.@ p 9 9 % -.l.  l.m % 9 9 9 9 : C C Z 5.7.8.6.9 8 S F.F.D.S.D.D.S 8 9 V.Z.Z.L tXtXwXa = 9 & 2XgXgXgXgXtXgX",
"I H H H H H H H H ( H H H H H I ( H H H H I ) T.Q ) U.( ( ) U.( ( U.U.( W.W.U.U.) ) ) ) _ _ ) ) Q K F.S.4 O 4.kX4 6 2 O 8.8.O 2 2 2 2 2 1 6 5 1 5 eX9.uX XcXfXsXL./ / / ` / / ` ..@.X.#.h.+.O.O.X...X.X...X.O.X...f.d.} } } } } } } } } } o.} f.f.d.d.} o.o.d.o.o.o.o.} d.].a.| | | /.| a.| | a.a.| /.]././.a.a.| /.a.| a.a.| (.s.[ { R.| | | a.| [ | R.[ [ _./.R.{ { U U U U U U U U P G.|.dX> k y z =.u y y k 0 i.m.@ p 9 9 % -.l.  l.m % 9 9 9 9 : C C Z 5.7.8.4.9 8 S F.F.S.S.D.D.S 8 9 V.Z.Z.L tXtXwXa = 9 & 2XgXgXgXgX2X2X",
"I H H H H H H H H ( H H H H H I ( H H H H ( T.) Q ) U.( ( ) U.( ( U.) ( W.W.U.U.) ) ) ) _ _ ) ) Q G S.F.1 O W zX2 6 2 O 8. XO 2 2 2 2 O < 6 2 Z.J.rX^ B.S U fX[.F./ / / ` / / ` ....X.h.h.+.O.O.X...X.X...X.O.X.o.f.Q.} } } } } } } } } } } } f.f.d.d.d.o.o.d.o.o.o.o.o.a.].d.| | | /.| | | | | a.| /.]././.a.a.| /.a.| a.a.a.(.s.| [ R.| | | /.| { | R.{ | _./.R.R.{ U Y Y U U U U U P U L.aXR k y z =.u y y k 0 i.m.@ p 9 9 % -.l.  c.m % 9 9 9 9 : C C Z 5.7.8.6.9 8 S F.F.D.S.D.D.S 8 9 V.Z.Z.L tXtXwXa = 9 & 2XgXgXgXiX2X2X",
"I H H H H H H H H ( H H H H H I I H H H H U.T.( Q ) U.Q ( ( U.( ( U.) ( W.W.U.U.) ) ) ) ( _ ) ) Q G G F.S < 2 W < 6 2 < s uX0.O 2 O < 0.7 6 5 Z.L.rXS K K 9.jXL._ / / / _ / / ` X.X.X.h.h.+.O.O.X...X.X...X.O.X.d.d.Q.+.} } } } } } } } } } } f.d.d.d.a.} o.d.o.o.o.o.o./.f.f.{ | | /.| | | | | | | /.].a./.a.a.| /.a.| a.a.a./.s.a.[ R.| [ { R.| { | R.{ | _./.R.R.{ Y ] Y T Y U U U U U H.mXJ.q y k =.u y y y 0 i.m.@ p 9 9 % -.l.  c.m % 9 9 9 9 : C C Z 5.7.8.6.9 8 S F.F.D.S.D.D.S 8 9 V.Z.Z.L tXtXwXa = 9 & 2XzXgXgXgXgXgX",
"I I H H H H H H H ( H H H I H I ( H I I I T.U.( ( ) U.( ( ) Y.( ( U.U.( W.W.U.U.) ) ) ) ) ) ) ) ) ! G D.D.4 5 < 2 j 2 2 O 4.wXO 5 8.L xXG.6 7 b.sXeXS ~ / uXdXL.@./ _ ` ` _ / ` X.X.X.h.h.+.O.O.X.X.+.+.X.X.O.X.d.d.O.#.} o.o.o.o.o.o.o.o.o.} f.f.d.d.d.o.o.d.o.o.o.o.d.).d.f.a.| a./.a.a.a.a.a.a.| /.]././.a.a.a./.a.a.a.a.a./.s.s.[ R.| | | R.| | R.R.| | _./.R./.| [  .Y Y  .U U U U U ] dXH.y y z =.y k k z 0 i.m.@ p 9 9 % -.l.  c.m % 9 9 9 9 : C C Z 5.7.8.6.9 8 S F.F.S.S.D.D.S 8 9 V.Z.Z.L tXtXwXa = 9 & 2XzXgXgXgXgXgX",
"U.( I I I I I I ( Y.I ( I ( ( ( Y.( ( ( ( T.U.U.U.Y.Y.U.U.Y.Y.U.U.Y.Y.U.W.W.T.T.Y.Y.Y.Y.Y.Y.Y.Y.Y.U.! ! F.j 6 j 6 j j j 7 5.rX7 W kX`.jXpX7 L uXkXeXK ! +.jX}.G.@.` ..X.X.` ` X.O.O.E.h.h.O.#.Q.O.+.E.E.+.O.Q.d.f.(.d.Q.d.d.d.d.d.d.d.d.d.d.o.f.f.d.d.d.d.d.d.d.d.d.d.(.).d.f.f././.(././././././.a.(.].(.(./././.(.(./././.(.(.(.).R.(.R.R.R.(.R.R./.(.R.R._././././.| | { R.a.Y [ [ [ Y { sXH.=.=.;.;.=.=.=.;.y i.m.@ p 9 9 % -.c.  c.-.% 9 9 9 9 : C C Z 5.7.8.4.9 8 S F.F.S.S.D.D.S 8 9 V.Z.Z.L tXtXwXa = 9 9 *.*.*.*.*.*.*.",
"I H H H H H H H H I H H H H H I I H H H Q T.( Q Q ) U.Q ( ( U.( ( U.) ( W.W.U.U.) ) ( ) ) ) ) ) ) J G K F.D < < < 6 1 1 O s rXO W lXsX8.eX7 M eX4.W S ~ .XjXL..._ / _ ..` / / ` ..X.X.d.h.+.O.O.....X.X.....X.d.d.O.o.#.O.} } } } } } } } } } f.d.d.d.a.} o.d.} o.o.o.).s.a.d.f.{ | /.| | | | | | | a.].a./.a.a.| /.a.| a.| a./.| s.a.R.| [ [ R.| [ | R.[ | _./.R.R.| { {  .[  .U P P P P U sXH.i u k =.u y y y 0 i.m.@ p 9 9 % -.c.  c.-.% 9 9 9 9 : C C Z 5.7.8.6.9 8 S F.F.S.S.D.D.S 8 9 V.Z.Z.L tXtXwXa = 9 9 & & & & & & & ",
"I H H H H H H H H ( H H H H H I ( H H H P.T.( ( ( ) U.Q ( ) U.( ( U.) ( W.W.U.U.) ) ( ) ) ) ) ) ) ! G G D.D.< 1 < 6 2 1 < 4 dXB 8.jXjX4 uXuXL rXO 7 S _ fXBXF.@._ / ` ..` / / ....X.X.h.h.+.O.O.X...X.X...X.O.d.o.d.+.O.#.} } } } } } } } } } f.d.d.d.d.o.o.d.} o.o.a.).d.d.a.f.a.| /.| | | | | | | /.].a./.a.a.| /.a.a.a.a.a./.| s.s.R.| | { R.| [ | R.[ | _././.R.R.| |  .{ { U Y U U U U rX}.w.u z =.u y y y 0 i.m.@ p 9 9 % -.c.  z.-.% 9 9 9 9 : C C Z 5.7.8.6.9 8 S F.F.D.S.D.D.S 8 9 V.Z.Z.L tXtXwXa = p p p p p p p p p ",
"I H H H H H H H H ( H H H H H I ( H H H T.U.( ( Q ) U.Q ( ( U.( ( U.) ( W.W.U.U.) ) ( ) ) ) ) ) ) ! G G G F.7 < < 6 1 1 2 < rX XeXpXkX1 9.jX9.pX, 6 K #.jX|.Y...` / ` ..' _ / ....X.X.h.h.+.O.O.X...X.X...X.d.d.o.d.+.o.#.o.} } } } } } } } } f.d.d.d.d.o.o.d.} o.o.s.(.a.d.a.f.d.{ /.| | | | | | | a.].a.a.a.a.| /.a.| a.a.a./.| a.s.R.| | { R.| [ | R.[ | _./.R.R.R.| | | | { G.Y Y U P J pXlX3Xi z =.u y y y 0 i.m.@ p 9 9 % -.c.  x.-.% 9 9 9 9 : C C Z 5.7.8.6.9 8 S F.F.D.S.D.D.S 8 9 V.Z.Z.L tXtXwXa 9 HXKXKXKXKXKXKXKXKX",
"I H H H H H H H H ( H H H H H I ( H H Q P.U.( ( Q ) U.Q ( ( U.( ( U.) ( W.W.U.U.) ) ( ( ) ) ) ) ) ! G G K F.F < 1 6 1 1 2 < S cXuXM yX4 B aXhX^ 7 7 J pXcXK.@.X.` / _ ..Y._ / ....X.X.h.h.+.O.O.X...X.X...X.d.d.o.d.+.o.O.O.} } } } } } } } } f.d.d.d.d.o.o.d.} o.o.).a.a.d.a.d.f.| /.| | | | | | | a.].a.a.a.a.| /.a.| a.a.a./.a.| s./.| | { R.| [ | R.[ | _./.R.R.R.| | | | | [ [  .U U U g.lXeXi z =.u y y y 0 i.m.@ p 9 9 % -.c.  x.-.% 9 9 9 9 : C C Z 5.7.8.4.9 8 S F.F.S.S.D.D.S 8 9 V.Z.Z.L tXtXwXa t IXLXPXPXLXLXLXLXIX",
"I H H H H H H H H ( H H H H H I ( H H P.Q U.( ( Q ) U.Q ( ( U.( ( U.) ( W.W.U.U.) ) ( ( ) ) ) ) ) Q G G G S.F.< < 6 1 1 1 4 , /.8.O 1 1 7 L.C.S S 7 ) jX[.D.@.X.` / _ ..Y.` ......X.X.h.h.+.O.O.X...X.X...+.f.o.o.d.+.o.+.Q.} } } } } } } } } f.d.d.d.a.o.o.d.} o.a.).a.a.d.d.a.f.a./.| | | | | | | a.].a.a.a.a.| /.a.| a.a.a./.a.| s.(.| | { R.| [ | R.[ | _./.R.R.R.| | | | | | {  .U U P K f.eXi z =.u y y y 0 i.m.@ p 9 9 % -.z.  x.-.% 9 9 9 9 : C C Z 5.7.8.4.9 8 S F.F.S.S.D.D.S 8 9 V.Z.Z.L tXtXwXa t KXLXJXZXIXAXIXJXSX",
"I H H H H H H H H ( H H H H H I ( H Q T.Q U.( ( Q ) U.Q ( ( U.( ( U.) ( W.W.U.U.) ) ( ( ) ) ) ) ) Q G G G K F.S < 6 5 7 1 1 1 < O 2 1 1 7 K.S S S 7 h.jXL.~ ....` / _ ..X.........X.X.h.h.+.O.O.X...X.X.` d.d.o.o.d.+.o.o.#.+.} } } } } } } } f.d.d.d.a.} o.d.} o.(.s.a.a.a.d.a.f.f./.| | | | | | | a.].a.a.a.a.| a.a.a.a.a.a./.| a.a.).| { [ R.| [ | R.[ | _./.R.R.R.| | | | | | | { U U U H B.iXi z =.u y y y 0 i.m.@ p 9 9 % -.x.  x.-.% 9 9 9 9 : C C Z 5.7.8.6.9 8 S F.F.D.S.D.D.S 8 9 V.Z.Z.L tXtXwXa t KXLXMXvXZXCXAXmXbX",
"I H H H H H H H H ( H H H H H I ( H ! P.Q U.( ( Q ) U.Q ( ( U.( ( U.) ( W.W.U.U.) ) ( ( ( ) ) ) ) Q G G G G D.D.5 6 5 S 5 1 1 2 2 1 1 1 1 S 4 S K S rXdXK./ ' ..../ _ ..X.X.......X.X.d.h.+.O.O.X...X.X...d.d.o.o.d.+.o.o.O.O.} } } } } } } } f.d.d.d.a.} o.d.} o.).a.a.a.a.a.a.d.f./.| | | | | | | a.].a.a.a.a.| a.a.| a.a.a./.| a.| f.a.[ { R.| [ | R.[ | _./.R.R.R.| | | | | | | | Y U U U g.rXt z =.u y y y 0 i.m.@ p 9 9 % -.x.  x.-.% 9 9 9 9 : C C Z 5.7.8.6.9 8 S F.F.D.S.D.D.S 8 9 V.Z.Z.L tXtXwXa t KXIXSXHXmXKXMXBXMX",
"I H H H H H H H H ( H H H H H I I H T.Q Q U.( Q Q ) U.Q ( ( U.( ( U.) ( W.W.U.U.) ) ( ( ( ) ) ) ) Q G G G G G F.S 6 7 K 2 1 1 1 1 1 1 1 < 6 5 S K @.jX}.D./ ' ..../ _ ..X.X.......X.X.d.h.+.O.O.X...X.X.o.d.O.o.o.d.+.o.o.+.Q.o.} } } } } } } f.d.d.d.a.} o.d.o.a.).a.a.a.a.a.a.a.f.(.{ | | | | | | a.].a.a.a.a.| a.a.| | a.a./.| a.| (.s.[ { R.| [ | R.[ | _./.R.R.R.| | | | | | | |  .U U U g.rXt k =.u y y y 0 i.m.@ p 9 9 % -.x.  x.-.% 9 9 9 9 : C C Z 5.7.8.6.9 8 S F.F.S.S.D.D.S 8 9 V.Z.Z.L tXtXwXa 9 IXLXLXLXLXLXLXLXLX",
"I H H H H H H H H I H H H H H I I Q T.Q Q U.( Q Q ) U.Q ( ( U.( ( U.) ( W.W.U.U.) ) ( ( ( ( ) ) ) Q G G G G K F.S.4 7 K 5 1 1 1 1 1 1 1 < 6 5 K J .XjXL.~ / ' ...._ _ ..X.X.......X.X.d.h.+.O.O.X...X.X.d.d.O.o.o.d.+.o.o.o.#.O.} } } } } } } f.d.d.d.a.} o.d.} ).s.a.a.a.a.a.a.a.d.f.{ | | | | | | a.].a.a.a.a.| a.a.| | | a./.| a.| /.f.[ [ R.| [ | R.[ | _./.R.R.R.| | | | | | | |  .Y Y U } rXi k x u y y y 0 i.m.@ p 9 9 % -.x.  x.-.% 9 9 9 9 : C C Z 5.7.8.4.9 8 S F.F.S.S.D.D.S 8 9 V.Z.Z.L tXtXwXa f AXnXnXnXnXnXnXnXnX",
"I H H H H H H H H I H H H H H I I P.Q Q Q U.( Q Q ) U.Q ( ( U.( ( U.) ( W.W.) U.) ) ( ( ( ( ) ) ) ( J G G G G D.F.6 7 G 7 < 1 1 1 1 1 1 < 6 5 K ! fXaXA./ / ' ...._ _ ..X.X.......X.X.d.h.+.O.O.X...X.X.d.o.d.o.o.d.+.o.o.o.O.#.} } } } } } } f.d.d.d.a.} o.d.} ).a.a.a.a.a.a.a.a.a.f.a.| | | | | | s.].a.a.a.a.| a.a.| | | a./.| a.a./.f.| [ R.| [ | R.[ { _./.R.R.R.| | | | | | | |  . . .U ] dXR y x u y u y 0 i.m.@ p 9 9 % -.x.  x.-.% 9 9 9 9 : C C Z 5.7.8.6.9 8 S F.F.S.S.D.D.S 8 9 V.Z.Z.L tXtXwXa l mXX + + + + + + + ",
"I H H H H H H H H I H H H H H I ( P.Q Q Q U.( Q Q ) U.Q ( ( U.Q ( U.) ( W.W.) U.) ) ( ( ( ( ( ) ) ) ~ G G G G G F.j 7 G 7 < 1 1 1 1 1 1 < 6 7 K #.jX_.S./ / ' ...._ ` ..X.X.......X.X.d.h.+.O.O.X...X.O.d.o.d.o.o.d.+.o.o.o.o.Q.o.} } } } } } f.d.d.d.a.} o.o.s.(.a.a.a.a.a.a.a.a.a.f.d.{ | | | | | s.].a.a.a.a.| a.a.| | | a./.| a.a./.s.s.[ R.| [ | R.[ { _./.R.R.R.| | | | | | | | { |  .U P dXL u x u y u y 0 i.m.@ p 9 9 % -.x.  x.-.% 9 9 9 9 : C C Z 5.7.8.6.9 8 S F.F.D.S.D.D.S 8 9 V.Z.Z.L tXtXwXa g MX9 d p p p p p d ",
"I H J H H H H H H I H H H H H I U.P.Q Q Q U.( Q Q ) U.Q ( ( U.Q ( U.) ( W.W.) U.) ) ( ( ( ( ( ) ) ) Q G G G G K F.S.7 G S < 1 1 1 1 1 7 7 6 7 J .XcXK.! ( / ' ....` ` ` X.X.......X.X.d.h.+.O.O.X...X.d.d.o.O.o.o.d.+.o.o.o.o.O.O.} } } } } } f.d.d.d.a.} o.d.).s.a.a.a.a.a.a.a.a.a.f.f.{ | | | | | s.].a.a.a.a.| a.a.| | | a./.| | | /.a.s.[ R.| [ | R.[ { _./.R.R.R.| | | | | | | | | |  .U P dXL u =.u y u y 0 i.m.@ p 9 9 % -.x.  x.-.% 9 9 9 9 : C C Z 5.7.8.6.9 8 S F.F.D.S.D.D.S 8 9 V.Z.Z.L tXtXwXa g MX% 9 * 9 * 9 9 * ",
"I H H H H H H H H I H H H H H I T.! Q Q Q U.( Q Q ) U.Q ( ( U.( Q U.) ( W.W.U.U.) ) ( ) ) ) ) ) ) ) ) ! G G G G S.~.K K S < 1 1 1 1 < S 7 6 S _ jX9XA./ ( / ' ........` X.X.` ....X.X.d.h.+.O.O.X...+.f.o.o.O.o.o.d.+.o.o.o.o.+.#.} } } } } } f.d.d.d.a.} o.d.).a.a.a.a.a.a.a.a.a.a.d.f.a.| | | | | a.].a.a.a.a.| a.a.| | | a./.| | | /.a.s.| R.| [ | R.[ { _./.R.R.R.| { { { | | | | | |  .P U dX2.u =.u y y y 0 i.m.@ p 9 9 % -.x.  x.-.% 9 9 9 9 : C C Z 5.7.8.4.9 8 S F.F.S.S.D.D.S 8 9 V.Z.Z.L tXtXwXa g MX* * q.t.e.e.y.l.",
"U.( I ( ( ( ( ( ( Y.I ( ( ( I U.T.U.U.U.U.Y.U.U.U.Y.Y.U.Y.Y.Y.U.U.Y.Y.U.W.W.T.T.Y.Y.Y.Y.Y.Y.Y.Y.Y.Y.Y.U.! ! ! U.! F.P.~ / j j j j j j / L j / h.jXH.U.X.' ` O.X.+.+.+.X.E.O.+.+.+.O.E.h.h.O.#.O.O.O.d.d.O.d.(.d.O.(.d.d.d.d.d.d.Q.d.d.d.d.d.o.f.f.d.d.d.d.d.).).d.d.d.d.d.(.d.d.d.(.(.f.f././././.a.(.]./././././.(.(./././.(.(./././.(.(.(.(././.R./.(.R.R._././././.R.R.R.R.R.R.R.R.R.R.a.{ U pXuXx ;.=.=.=.;.y i.m.@ p 9 9 % 5.x.  n.-.% 9 9 9 9 : C C Z 5.7.8.4.9 8 S F.F.S.S.D.D.S 8 9 V.Z.Z.L tXtXwXa g MX* % i.y.j.t.b t.",
"I H J H H H H H H I H H H H H Q T.Q Q Q Q U.( Q Q ) U.Q ( ( U.Q Q U.) ( W.W.) U.) ) ( ( ( ( ( ( ( ) ) Q G G G G K I.F.K S 1 1 1 1 1 5 K S 7 ~ rXdXK./ ` _ ! X.` ` ....` X.X.` ....X.X.d.h.+.O.O.....d.d.o.o.O.o.o.d.+.o.o.o.o.o.O.O.} } } } } f.d.d.a.a.} o.).s.a.a.a.a.a.a.a.a.a.a.d.d.f.{ | | | | s.].a.a.a.a.| a.a.| | | a./.| | | /.a.a.s.R.| [ | R.[ { _./.R.R.R.{ { { { { { { { { { { U P G.sXz x u y u y r i.m.@ p 9 9 % 5.x.  n.-.% 9 9 9 9 : C C Z 5.7.8.6.9 8 S F.F.D.S.D.D.S 8 9 V.Z.Z.L tXtXwXa g MX* % y.n y.b v t.",
"I H H H H H H H H I H H H H H T.U.Q Q Q Q U.( Q Q ) U.Q ( ( U.( Q U.) ( W.W.) U.) ) ( ( ( ( ( ( ( ) ) Q G G G G G P.~.K S 1 1 1 1 1 5 K S 7 @.jX{.D._ ..` _ +.` ` ....` X.X.` ....X.X.d.h.+.O.O...o.d.+.o.o.O.o.o.O.+.o.o.o.o.o.+.#.} } } } } f.d.d.a.o.} a.).a.a.a.a.a.a.a.a.a.a.a.d.a.f.a.{ | | | s.].a.a.a.a.| a.a.| | | a./.| | | /.a.| s./.[ [ | R.[ { _./.R.R.R.| { { { { { { { { { | Y U U sX:.x u u u y r i.m.@ p 9 9 % 5.x.  n.-.% 9 9 9 9 : C C Z 5.7.8.6.9 8 S F.F.D.S.D.D.S 8 9 V.Z.Z.L tXtXwXa g MX% 9 g 9 h 9 d h ",
"I H H H H H H H H I H H H H Q T.) Q Q Q Q U.( Q Q ) U.Q ( ( U.( Q U.) ( W.W.) U.) ( ( ) ( ( ( ( ( ) ) ) J G G G G ! F.S.S 1 1 1 1 1 5 K S L .XjXL.~ ( ..` ..X.` ` ` ..` X.X.` ......X.d.h.+.O.O.` d.d.+.o.o.O.o.o.O.+.o.o.o.o.o.o.#.+.} } } } f.d.d.a.o.} (.(.a.a.a.a.a.a.a.a.a.a.a.d.a.d.d.{ | | { s.].a.a.a.a.| a.a.| | | a./.| | | /.a.| s.(.[ [ | R.[ [ _./.R.R.R.| { { { { { { { { { | Y U U rX:.x u u u y r i.m.@ p 9 9 % 5.x.  n.-.% 9 9 9 9 : C C Z 5.7.8.6.9 8 S F.F.S.S.D.D.S 8 9 V.Z.Z.L tXtXwXa g MX% 9 * 9 9 9 9 9 ",
"I H H H H H H H H I H H H H ) U.) Q Q Q Q U.( Q Q ) U.Q ( ( U.( Q U.) ( W.W.) U.) ( ( ( ( ( ( ( ( ( ) ) Q G G G G ! D.F.S 5 < 1 1 < 5 K K ^ uXaXA./ ( ..` ` X.` ` ` ..` X.X.` ......X.d.h.+.O.O...d.O.+.o.o.O.o.o.O.+.o.o.o.o.o.o.O.#.} } } } f.d.d.a.o.} ).d.a.a.a.a.a.a.a.a.a.a.a.d.a.d.f.| | | { a.].a.a.a.a.| a.a.| | | | /.| | | /.a.| s.(.[ [ | R.[ [ _./.R.R.R.| { { { { { { { { { | Y U U sX:.x u u u y r i.m.@ p 9 9 % q.n.  n.-.% 9 9 9 9 : C C Z 5.7.8.4.9 8 S F.F.S.S.D.D.S 8 9 V.Z.Z.L tXtXwXa g MX% 9 9 9 9 9 9 9 ",
"I H H H H H H H H I H H H H P.( U.Q Q Q Q U.( Q Q ) U.Q ( ( U.( Q U.) ( W.W.) U.) ) ( ( ) ( ( ( ( ( ) ) ( G G G G ! G I.G 7 < 1 1 < 5 K K B.zX_.S./ ( ..` ` X.` ` ` ` ` X.X.` ......X.d.h.+.O.+.o.d.+.+.o.o.O.o.o.O.+.o.o.o.o.o.o.o.#.o.} } } f.d.d.a.o.a.).d.a.a.a.a.a.a.a.a.a.a.a.d.a.a.f.a.{ | { a.].s.a.a.a.| a.a.| | | | a.| | | /.a.| | f.{ [ | R.[ [ _./.R.R.| { { { { { { { { { { | [ U H pX:.x u u u y r i.m.@ p 9 9 % q.n.  n.-.% 9 9 9 9 : C C Z 5.7.8.6.9 8 S F.F.S.S.D.D.S 8 9 V.Z.Z.L tXtXwXa g MX* p 9 9 9 9 9 9 ",
"I H H H H H H H H I H H H Q P.( U.Q Q Q Q U.( Q Q ) U.Q Q ( U.( Q U.) Q W.W.) U.) ) ( ( ( ( ( ( ( ( ( ) ) Q G G G U.K F.D.7 < 1 1 < 5 K K  XxXL./ ~ _ ` ` ` X.` ` ` ` ` X.X.` ......X.#.h.+.O.+.d.o.+.+.o.o.O.o.o.O.+.o.o.o.o.o.o.o.#.O.} } } f.d.d.a.o./.s.d.a.a.a.a.a.a.a.a.a.a.a.d.a.a.d.f.{ | { a.].s.s.a.a.| a.a.| | | | a.| | | a.a.| | f.a.[ | R.[ [ _./.R.R.| { [ [ [ [ { { { { { | [ U H pX5.x u u u y r i.m.@ p 9 9 % q.n.  n.-.% 9 9 9 9 : C C Z 5.7.8.6.9 8 S F.F.D.S.D.D.S 8 9 V.Z.Z.L tXtXwXa g MX* h f f f f f f ",
"I H H H H H H H H I H H H P.! ( U.Q Q Q Q U.( Q Q ) U.Q Q ( U.Q Q U.) Q W.W.) U.) ( ( ( ( ) ( ( ( ( ( ( ) ( G G G ! G S.I.S < 1 1 < 7 K / fXbXF.@.! ` ` ` ` X.` ` ` ` ` X.X.` ......X.#.h.+.O.O.d.o.+.+.o.o.O.o.o.O.+.o.o.o.o.o.o.o.+.#.} } } f.d.d.a.a.).a.d.a.a.a.a.a.a.a.a.a.a.a.d.a.a.a.f.| | { a.].s.s.a.a.| a.a.| | | | a.| | | a.a.| | (.s.[ | R.[ [ _./.R.R.| { [ [ [ [ [ [ [ [ [ { [ [ H pX0.x u u u y r i.m.@ p 9 9 % q.n.  n.-.% 9 9 9 9 : C C Z 5.7.8.6.9 8 S F.F.D.S.D.D.S 8 9 V.Z.Z.L tXtXwXa g MX% 9 9 9 9 9 9 9 ",
"I H H H H H H H H I H H H P.Q ( U.Q Q Q Q U.( Q Q ) U.Q Q ( U.Q Q U.) Q W.W.) U.) ( ( ( ( ( ( ( ( ( ( ( ) ) J G G ! G G ~.K < 1 1 < 7 K h.zXH.U.@.! ` ` ` ` X.` ` ` ` ` X.X.` ......X.d.h.+.O.d.d...+.+.o.o.O.o.o.O.+.o.o.o.o.o.o.o.o.#.o.} } f.d.d.o.s./.a.d.a.a.a.a.a.a.a.a.a.a.a.d.a.a.a.f.d.{ { a.].s.s.a.| { a.a.| | | | a.| | | a.a.| | /.s.[ | R.[ [ _./.R.R.| { [ [ [ [ [ [ [ [ [ [ [ | J pX6.k u u u y r i.m.@ p 9 9 % q.n.  n.-.% 9 9 9 9 : C C Z 5.7.8.4.9 8 S F.F.S.S.D.D.S 8 9 V.Z.Z.L tXtXwXa g MX% 9 9 9 9 9 9 9 ",
"I H J H H H H H H I H H ! P.Q ( U.Q Q Q Q U.Q Q Q ) U.Q Q ( U.( Q U.) Q W.T.) U.) ( ( ( ( ( ) ( ( ( ( ( ( ) ( G G ! G G F.D.7 1 1 < 7 G eXsXK.@.` ! ` ` ` ` X.` ` ` ` ` X.X.` ......X.d.h.+.O.f.o.o.+.+.o.o.O.o.o.O.+.o.o.o.o.o.o.o.o.O.O.} } f.d.d.a.).s.a.d.a.a.a.a.a.a.a.a.a.a.a.d.a.a.a.d.f.{ { a.].s.s.a.| { a.a.| | | | a.| | | a.a.| | a.s.{ | R.[ [ _./.R.R.| { [ [ [ [ [ [ [ [ [ [ [ | J pX6.y u u u u r y.m.@ p 9 9 % q.n.  n.-.% 9 9 9 9 : C C Z 5.7.8.4.9 8 S F.F.S.F S.D.S 8 9 V.Z.Z.L tXtXwXa g MX% 9 9 % * % * % ",
"I H J H H H H H H I H H P.Q Q ( U.Q Q Q Q U.Q Q Q ) U.Q Q ( U.( Q U.) Q W.T.) U.) ( ( ( ( ( ( ( ( ( ( ( ( ) ) ! ~ ! G S.S.I.K 1 1 < 7 _ jX{.D.@..._ ` ` ` ` X.` ` ` ` ` X.X.` ......X.d.h...O.f.o.o.+.+.o.o.O.o.o.O.+.o.o.o.o.o.o.o.o.+.#.} } f.d.d.s.).a.a.d.a.a.a.a.a.a.a.a.a.a.a.d.a.a.a.a.f.a.{ a.].s.s.a.| { a.| { | | | a.| | | a.a.| | /.s.s.[ | [ [ _./.R.R.| { [ [ [ [ [ [ [ [ [ [ [ | J pX0.i u u u u r y.m.@ p 9 9 % q.n.  n.-.% 9 9 9 9 : C C Z 5.7.7.6.9 8 S F.F.D.S.D.D.S 8 9 V.Z.Z.L tXtXtXa g MX% 9 f v g v v b ",
"I H H H H H H H H I H Q P.Q Q Q U.Q Q Q Q U.Q Q Q ) U.Q Q ( U.Q Q U.) Q W.T.) U.) ( ( ( ( ( ( ( ( ( ( ( ( ( ) _ Q ! G U.G F.G < 1 < 7 B.jXL.~ ` ` _ ` ` ` ` X.` ` ` ` ` X.X.` ......X.d.h.X.d.d.o.o.+.+.o.o.O.o.o.O.+.o.o.o.o.o.o.o.o.o.#.o.} f.d.o.s.s.a.a.d.a.a.a.a.a.a.a.a.a.a.a.d.a.a.a.a.f.d.{ a.].s.s.a.| { a.| { | | | a.| | | a.a.| | /.a.s.[ | [ [ _./.R.R.| { [ [ [ [ [ [ [ [ [ [ [ | H pX9.i u u u u r y.m.@ p 9 9 % q.n.  M.-.% 9 9 9 9 : B C C c 8.8.4.9 8 S D.D.S.F S.S.S 8 9 Z C.Z.L wXwXqXa l MX* % y.p.u.t.t.c.",
"I H H H H H H H H ( H ! ! Q Q Q U.Q Q Q Q U.Q Q Q ) U.Q Q ( U.Q ( U.) Q W.T.U.U.) ) ( ( ( ( ( ) ) ) ) ) ) ) ) ) Q ! J U.G D.F.2 5 < S rXdXF./ _ ` ` ` ` ` ` X.` ` ` ` ` X.X.` ` ....X.d.h...f.d.o.o.+.+.o.o.O.o.o.O.+.o.o.o.o.o.o.o.o.o.O.O.} f.d.d.).s.a.a.d.a.a.a.a.a.a.a.a.a.a.a.d.a.a.a.a.d.f. .s.].s.s.a.| { a.| { | | | a.| | | a.a.| | /.| s.| | [ [ _./.R.R.{ [ [ [ [ [ [ [ [ [ [ [ [ | H .X9.i u u u y r y.m.@ p 9 9 % q.n.  M.5.% 9 9 9 9 : B B B c 4.4.4.9 8 S F F D D D D > 8 9 C Z Z L 7.7.7.a l MX* % i.t.u.e.v r.",
"I H J H J J J J H I H P.Q Q Q Q ) Q Q Q Q U.Q Q Q ( ) Q Q ( U.Q Q U.) H T.T.Q ) ) ( ( ( ( ( ( ( ( ( ( ( ( ( ( ) Q ! J ) G G F.S 7 < ^ jX}.D./ _ ` ` ` ` ` ` X.` ` ` ` ` X...` ` ` ..X.#.h.o.f.O.o.o.+.+.o.o.O.o.o.O.o.o.o.o.o.o.o.o.o.o.o.#.} f.d.s.).s.a.a.d.a.a.a.a.a.a.a.a.a.a.a.d.a.a.a.a.a.f.| s.].s.s.a.| { a.| { { { | a.{ | { a.a.| | a.| s.a.| [ [ _./.R.R.[ [ [ [ [ [ [ [ [ [ [ [ [ | H b.3Xi u u u u r y.m.@ p 9 9 % q.n.  M.5.% 9 9 9 9 : B B B c 4.4.4.9 8 S F F D D D F > 8 9 C Z V.L 2X7.7.a l MX* * w.f q.f l q.",
"( I I I I I I I I U.U.T.) U.U.U.Y.U.U.U.U.Y.U.U.U.Y.Y.U.U.U.Y.U.U.Y.Y.) W.W.Y.T.Y.Y.Y.Y.Y.Y.Y.Y.Y.Y.Y.Y.Y.Y.Y.Y.Y.U.U.Y.) ~ F.S.S j .XjXL.` ` X.X.X.X.X.X.X.O.X.X.X.X.X.O.+.X.X.X.+.E.h.h.d.f.d.O.O.d.d.O.O.d.O.O.d.O.O.O.O.O.O.O.O.O.O.O.(.O.f.f.).).d.d.d.(.d.d.d.d.d.d.d.d.d.d.d.(.d.d.d.d.d.f.d./.]././././.a././.a.a.a./.(.a./.a.(./.a.a.(./.a.(.R.| | _./././.R.R.R.R.R.R.R.R.R.R.R.R.R./.G.b.3Xx =.x x =.u y.m.@ p 9 9 % q.M.  M.5.% 9 9 9 9 : B B B c 4.4.4.9 8 S F F D D D D > 8 9 C Z V.L 2X7.7.a l MX% 9 9 9 9 9 9 9 ",
"I H H H H H H H H I ) ! Q Q Q ( U.Q Q Q Q U.( Q Q ) U.Q ( ( U.Q Q U.) ( W.T.U.U.) ) ( ( ( ( ( ( ) ) ) ) ) ) ) ) ) U.Q U.Q G D.F.S ^ fXBXA.@.( ` ` ` ` ` ` ` X.` ` ` ..` X.X.` ..` ..X.d.h.d.d.d.o.o.+.+.o.o.O.o.o.O.+.o.o.o.o.o.o.o.o.+.o.O.#.f.d.).s.s.a.a.d.a.a.a.a.a.a.a.a.a.a.a.d.a.a.a.a.a.d.f.s.].a.s.a.a.| a.a.| | | | /.| | | a.| | | /.| | f.R.[ [ _./.R.R.{ [ [ [ [ [ [ [ [ [ [ [ [ | I N.3Xi u u u y r y.m.@ p 9 9 % q.M.  M.5.% 9 9 9 9 : B B B c 4.4.4.9 8 S F F D D D F > 8 9 C Z V.L 2X7.7.a l MX% 9 9 9 9 9 9 9 ",
"I H J H H H H H H ( P.Q Q Q Q Q ) Q Q Q Q U.Q Q Q ( U.Q Q ( U.Q Q U.) Q W.T.) U.) ( ( ( ( ( ( ( ( ( ( ( ( ( ( ( ( Y.) ) Q G G I.G @.jX|.J / _ ` ` ` ` ` ` ` X.` ` ` ` ` X.X.` ` ` ..X.#.h.d.d.d.o.o.+.+.o.o.O.o.o.O.o.o.o.o.o.o.o.o.o.o.o.o.#.f.f.).s.s.a.a.d.a.a.a.a.a.a.a.a.a.a.a.d.a.a.a.a.a.a.f.s.].s.s.s.| { a.| { | { | a.{ | { a.| { { a.| { s.a.[ [ _./.R.R.{ [ [ [ [ [ [ [ [ [ [ [ [ { I c.aX> q u u u r y.m.@ p 9 9 % q.M.  m.5.% 9 9 9 9 : B B B c 4.4.4.9 8 S F F D D D F > 8 9 C Z V.L 2X7.7.a l MX% 9 9 9 9 9 9 9 ",
"I H J H H H H H H U.P.Q Q Q Q Q ) Q Q Q Q U.Q Q Q ( U.Q Q ( U.Q Q U.) Q W.T.) U.) ( ( ( ( ( ( ( ( ( ) ( ( ( ( ) ( Y.) ) Q G K F.F. XxXL./ / ` ` ` ` ` ` ` ` X.` ` ` ` ` X.X.` ` ` ..X.#.x.d.d.d.o.o.+.+.o.o.O.o.o.O.o.o.o.o.o.o.o.o.o.o.o.o.O.f.f.s.s.s.a.a.d.a.a.a.a.a.a.a.a.a.a.a.d.a.a.a.a.a.a.d.f.].s.s.a.| { a.| { | | | a.{ | { a.| { { a.| { s.s.[ [ _./.R.R.{ [ [ [ [ [ [ [ [ [ [ [ [ { G.k.bXR q u u u r y.m.@ p 9 9 % w.M.  m.q.% 9 9 9 9 : B B B c 4.4.4.9 8 S F F D D D D > 8 9 C Z V.L 7.7.7.a l MX* f f f f f f f ",
"I H J J H H H H H T.! Q Q Q Q Q ) Q Q Q Q U.Q Q Q ( ) Q Q ( U.Q Q U.) Q W.T.) U.) ( ( ( ( ( ( ( ( ( ( ) ( ( ( ) ( Y.) ) ( G G S.I.fXvXF./ @...` ` ` ` ` ` ` X.` ` ` ` ` X.X.` ` ` ..X.O.x.o.d.d.o.o.+.+.o.o.O.o.o.O.o.o.o.o.o.o.o.o.o.o.o.o.+.h.].s.s.s.a.a.d.a.a.a.a.a.a.a.a.a.a.a.d.a.a.a.a.a.a.d.f.].s.s.a.| { a.| { { { | a.{ | { a.| { { a.| { a.s.[ [ _./.R.R.{ [ [ [ [ [ [ [ [ [ [ [ [ { G.u.xX0.0 t u u r y.m.@ p 9 9 % w.M.  m.q.% 9 9 9 9 : B B B c 4.4.4.9 8 S F F D D D D > 8 9 C Z V.L 7.7.7.a l MX* d 9 p p p p p ",
"I H J J H H H H H T.Q Q Q Q Q Q ) Q Q Q Q U.Q Q Q ( ) Q Q ( U.Q Q U.) Q W.T.) U.) ( ( ( ( ( ( ( ( ( ( ( ( ( ( ) ( Y.) ) ( G G G `.jXH.U./ @...` ` ` ` ` ` ` X.` ` ` ` ` X.X.` ` ` ..X.d.h.+.d.d.o.o.+.+.o.o.O.o.o.O.o.o.o.o.o.o.o.o.o.o.o.o.o.`.).s.s.s.a.a.d.a.a.a.a.a.a.a.a.a.a.a.d.a.a.a.a.a.a.a.f.].s.s.a.| { a.| { { { | a.{ | { a.| { { a.| { | f.{ [ _./.R.R.{ [ [ [ [ [ [ [ [ [ [ [ [ [ [ g.kX3X> *.t u ; y.m.@ p 9 9 % w.M.  m.q.% 9 9 9 9 : B B B c 4.4.4.9 8 S F F D D D F > 8 9 C Z V.L 2X7.7.a l MX% 9 9 9 9 9 9 9 ",
"I H J J J H H J ! T.H Q Q Q Q Q ) Q Q Q Q U.Q Q Q ( ) Q Q ( U.Q Q U.) Q W.T.) U.) ( ( ( ( ( ( ( ( ( ( ( ) ( ( ) ( Y.) ) ( G G ! rXsXK.@._ @...` ` ` ` ` ` ` X.` ` ` ` ` X.X.` ` ` ..X.f.h.+.d.d.o.o.+.+.o.o.O.o.o.O.o.o.o.o.o.o.o.o.o.o.o.o.o.).(.s.s.s.a.a.d.a.a.a.a.a.a.a.a.a.a.a.d.a.a.a.a.a.a.a.f.].s.s.a.| { a.| { { { | a.{ | { a.| { { a.| { | d.s.[ _./.R.R.[ [ [ [ [ [ [ [ [ [ [ [ [ [ [ g.kXaXZ.zX3Xi 4.y.m.@ p 9 9 % w.m.  m.q.% 9 9 9 9 : B B B c 4.4.4.9 8 S F F D D D F > 8 9 C Z V.L 2X7.7.a l MX% 9 9 9 9 9 9 9 ",
"I H J J J H H H P.U.Q Q Q Q Q Q ) Q Q Q Q U.Q Q Q ( ) Q Q ( U.Q Q U.) Q W.T.) U.) ( ( ( ( ( ( ( ( ( ( ( ( ( ( ) ( Y.) ( ) J G ` jX{.D._ ` @...` ` ` ` ` ` ` X.` ` ` ` ` X...` ` ` ` X.f.h.o.d.d.o.o.+.+.o.o.O.o.o.O.o.o.o.o.o.o.o.o.o.o.o.o.o.].`.s.s.s.a.a.d.a.a.a.a.a.a.a.a.a.a.a.d.a.a.a.a.a.a.a.d.].s.s.a.| { a.| { { { | a.{ { { a.| | { a.| { | a.s.[ _./.R.R.[ [ [ [ [ [ [ [ [ [ [ [ [ [ [ } kXdX_.uXhX9.iXi.m.@ p 9 9 % w.m.  m.q.% 9 9 9 9 : B B B c 4.4.4.9 8 S F F D D D D > 8 9 C Z V.L 2X7.7.a l MX% 9 * * * * % % ",
"I H J J J J H Q P.( Q Q Q Q Q Q ) Q Q Q Q U.Q Q Q ( U.Q Q ( U.Q Q U.) Q W.T.) U.) ( ( ( ( ( ( ( ( ( ( ( ( ( ( ) ( Y.) ( ) ! G k.jXL.U._ ` @...` ` ` ` ` ` ` X.` ` ` ` ` X...` ` ` ` d.h.h.o.d.O.o.o.+.+.o.o.O.o.o.O.o.o.o.o.o.o.o.o.o.o.o.o.(.].(.d.s.s.a.a.d.a.a.a.a.a.a.a.a.a.a.a.d.a.a.a.a.a.a.a.s.].s.s.a.| { a.| { { { | a.{ { { a.| { { a.| { | a.s.[ _./.R.R.[ [ [ [ [ [ [ [ [ [ [ [ [ [ [ Y zXdXcXuX].uXuXi.m.@ p 9 9 % w.m.  m.q.% 9 9 9 9 : B B B c 4.4.4.9 8 S F F D D D D > 8 9 C Z Z L 7.7.7.a l MX* * -.e.q.r.t.u.",
"I H H H J J J ! ! ( Q Q Q Q Q Q ) Q Q Q Q U.Q ( Q ( ) Q Q ( U.Q Q U.) Q T.T.) U.) ( ( ( ( ( ( ( ( ( ( ( ( ( ) ) ( Y.) ( ) J ! uXdXK.!._ ` @.` ` ` ` ` ` ` ` X.` ` ` ` ` X.X.` ` ` ..d.h.h.o.d.O.o.o.+.+.o.o.O.o.o.O.+.o.o.o.o.o.o.o.o.o.o.o.(.f.f.(.s.s.a.a.d.a.a.a.a.a.a.a.a.a.a.a.d.a.a.a.a.a.a.a.s.].f.s.s.{ { a.| { { { | a.{ { { a.| { { a.| { a.| s.{ _./.R.R.[ [ [ [ [ [ [ [ [ [ [ [ [ [ [ ] sXdXkXaXL.kXhXi.M.@ p 9 9 % w.m.  m.q.% 9 9 9 9 : B B B c 4.4.4.9 8 S F F D D D D > 8 9 C Z V.L 2X7.7.a l MX* % i.p.j.t.-.y.",
"I I ( I U.J H P.Q U.Q Q Q Q Q Q ) Q Q Q Q ) Y.U.U.Y.) Q Q Q U.Q Q U.) Q T.W.) U.) ( ( Y.U.Y.Y.( ( ( ( ( ( ( ( ) ( Y.) ( ) ! ..jX_.D.I.' ` ..` ` ` ` ` ` ` ` X.` ` ` ` ` +.O.O.X.` o.d.d.h.o.d.O.o.o.+.+.o.o.O.o...d.O.d.O.o.o.o.o.o.o.o.o.d.(.f.f.(.s.s.a.a.(.a.(.d.a.a.a.a.a.a.a.a.d.a.a.a.a.a.a.a.s.].).).a.{ { a.| { { { | a.{ { { a.| { { (././.(.| s.s._./.R.R.[ [ [ [ [ [ [ [ [ [ [ [ [ [ [ ] g.[.lXbXH.kXzXj.M.+ p 9 9 % w.m.  m.q.% 9 9 9 9 : B B B c 4.4.4.9 8 S F F D D D F > 8 9 C Z V.L 2X7.7.a l MX* % i.5.i.-.v t.",
"H ( I J ( J ! P.Q U.Q Q Q Q Q Q ) Q Q Q Q U.Y.Q ) Y.) Q Q Q U.Q Q U.) Q T.W.Q U.) ( ( Y.Q Y.Y.( ( ( ( ( ( ( ( ) ( Y.) ( ( Q .XxXL.` !.Y./ ..` ` ` ` ` ` ` ` X.` ` ` ` ` E...X.E.` d.d.d.h.o.d.O.o...+.+.o.o.O.o.o.(.o.(.d.o.o.o.o.o.o.o.o.(.(.f.f.(.d.s.a.a.(.} d.a.a.a.a.a.a.a.a.a.d.a.a.a.a.a.a.a.(.].f.).a.{ { a.| { { { | a.{ { { a.| { { (.{ /.(.| { s._./.R.R.[ [ [ [ [ [ [ [ [ [ [ [ [ [ [ ] A L.H.q.R xXkXk.M.+ p 9 9 % w.m.  m.q.% 9 9 9 9 : B B B c 4.4.4.9 8 S F F D D D F > 8 9 C Z V.L 2X7.7.a l MX* 9 l 9 l 9 f l ",
"I I U.I I J P.! Q U.Q Q Q Q Q ( ) Q Q Q Q ) U.Y.Y.Y.) Q Q Q U.Q Q U.) Q W.W.Q U.) ( ( Y.Y.Y.U.( ) ( ( ( ( ( ( ( ) Y.) ) ) Y.fXnXF.@.Y.!.` ..` ` ` ` ` ` ` ` X.` ` ` ` ` X.E.X.X...d.+.d.h.+.d.d.o.o.+.+.o.o.O.o.o.d.d.O.O.o.o.o.o.o.o.o.o.).d.f.f.d.(.s.a.a.(.d.d.a.a.a.a.a.a.a.a.a.d.a.a.a.a.a.a.a.s.].).).a.| { | | { { { | a.{ { { a.| { { (./.a./.a.{ s._.R.R.R.[ [ [ [ [ [ [ [ [ [ [ [ [ [ [  .L L.V r i L wXb.n.+ p 9 9 $ w.m.  m.q.% 9 9 9 9 : B B B c 4.4.4.9 8 S F F D D D D > 8 9 C Z V.L 7.7.7.a l MX% 9 * 9 * 9 9 * ",
"I J K K J H ! J Q ( J J J Q Q ! ( Q ! J Q ) J ! J ( ) J Q ( ( ! ! ( ) H W.T.Q ! Q ( Q Q Q Q ( Q Q ( ( Q Q Q Q ( Q ) ) ( Q h.zXH.G ~ ! !._ ` ` _ _ _ _ ` ` _ X.` _ _ ` ` ` ` _ ` o.g...h.h.o.o.+.o.....o.....+.o...o.....o.....o.o.......a.(.o.f.f.d.d.a.s.a.a.} } a.} } a.a.} s.} a.d.} s.a.s.} a.a.s.].s.f.s. . .a.{  . . .{ a. .{ { | { {  .|  . .| a. .s._.R.[ [ [ [ [ Y [ [ [ [ [ [ [ [ [ [ [ [ L L u u u 0 r i.m.@ p 9 9 $ w.m.  vXq.% 9 9 9 9 : B B B c 4.4.4.9 8 S F F D D D D > 8 9 C Z Z L 7.7.7.a l MX% 9 9 9 9 9 9 9 ",
"H '.'.+XE.~ +X'.J E.'.'.'.( Y.+XQ.J '.'.Q E.'.'.+XY.Y.+X`.J '.'.'.'.! `.+XP.Y.+X'.J '.'.'.'.Q Q.+XE.) '.'.+XQ.Q '.'.Q Q.'.pXsXL.+X%X`.Y.'.@X_ `.@X+X@XX.X.@X`./ '.@X` Q.@X'.@XO.d.@X`.o.#X#X@X{...`.@X(.o.@X{.` `.+X@X@X..`.@X`.o.@X@X@X[.a.{.[.d.`.@X`.s.{.{.@X[. .[.{.a.(.@X{.@X(.d.@X[. .[.@Xd.(.{.[.{.`.d.{.{. .`.{.{.{. .).@X). .{.{. .`.{.{.{.{ (.@X`.].{.{.@X'.U '.@X{.| | | | | R.R.R.R.R.| T ;.x x x =.u y.m.@ p 9 9 $ w.m.  vXq.% 9 9 9 9 : B B B c 4.4.4.9 8 S F F D D D F > 8 9 C Z V.L 2X7.7.a l MX% 9 9 9 9 9 9 9 ",
"H $X{.GX`.~ $X$XJ Q.%X$X$X) E.%X'.J $X$XQ Q.$X+X%XY.Y.%X'.J +X$X%X+XJ '.$XP.T.$X'.J '.$X$X$XJ '.%XE.U.$X$X%X`.H $X$XQ '.%XjX[.|.%XGX'.( |.%X_ `.GX%XGXX.E.GX+X/ @XGX` `.%X@XGX(.d.GX+X@.#X@XVX@X@.`.GX`.o.FX@X/ @X@X@X@X..`.GX`.o.@X@XFX[.} @X[.s.`.VX`.} VX@XFX{.] @XFXa.`.FXVXFX).d.FX{.] {.FXd.).VX9XFX`.f.FX@XT {.FXFXFX .`.GX`. .FX@XY {.FXVXFX{ `.GX`.).$XFXGX{.P @XGX@X[ [ [ [ [ [ [ [ [ [ [ L x t u u u r y.m.@ p 9 9 $ w.m.  vXq.% 9 9 9 9 : B B B c 4.4.4.9 8 S F F D D D F > 8 9 C Z V.L 2X7.7.a l MX9 h f f f f h t ",
"H $X'.%X`.~ $X$XJ Q.$X$X$X) Y.%X'.J +X$XQ Q.$X+X$XY.Y.%X'.J '.$X$X+XJ '.+XP.T.$X'.J '.+X$X$XJ '.%XE.U.$X$X%X`.H $X$XQ `.DXlXL.$X@XGX'._ |.+X` `.%X@X%XX.E.GX'./ @X%X` `.@X@X%X(.d.VX{.o.#X@X@X@X@.`.GX`.o.@X@X/ {.@X@X@X..`.GX`...@X@XVX[.} @X[.d.`.VX`.} @X@XVX{.] {.VXa.).VX@XFX).d.FX{. .{.FXd.(.VX{.VX).f.FX{.Y {.FXFXVX .`.FX`. .FX@XY {.@X@XFX{ `.GX`.].$X$XFX{.U {.GX@X[ [ [ [ [ [ [ [ [ [ [ L x t u u u r y.m.@ p 9 9 $ w.m.  vXw.% 9 9 9 9 : B B B c 4.4.4.9 8 S F F D D D D > 8 9 C Z V.L 2X7.7.a l MX% 9 9 9 9 9 - *.",
"I $X'.%X'.~ $X$XJ Q.$X$X$XU.E.%X'.J +X$XQ Q.$X+X$XY.Y.%X'.J '.$X$X+XJ '.$XP.T.$X'.J '.+X$X$XJ '.%XE.U.$X$X%X`.Q $X$XQ Q.cXdXL.%X@XGX'._ '.'.` `.%X@X%XX.E.GX'./ @X%X` `.@X@XGX`.O.FX{.o.#X@X@X@X..`.GX`.o.@X@X/ {.@X@X@X..`.GX`.o.@X@XVX[.} @X[.d.`.VX`.+.@X@XFX{. .{.VXa.`.VXVXFX).d.FX{. .{.FXd.).VX{.VX).f.VX@XY {.FXFXVX .`.GX`. .FX@XY {.@X@XFX{ `.GX`.).9X$XFX{.U @XGX@X[ [ [ [ [ [ [ [ [ [ [ L x t u u u r y.m.@ p 9 9 $ w.vX  vXw.% 9 9 9 9 : B B B c 4.4.4.9 8 S F F D D D D > 8 9 C Z Z L 7.7.7.a l MX% 9 9 9 9 & 2XgX",
"J $X'.%XQ.G $X$XK Q.$X$X$XQ Y.%X'.K +X$XJ E.$X+X$XU.U.%X'.K '.$X$X+XK '.$X) U.$X'.K '.+X$X$XK '.%XE.Q $X$X%X`.J $X$XJ `.lX_.D.@X@XGX'./ +X|./ `.%X@X%XX.X.GX'./ @X%X_ Q.@X@XFXd.o.FX{.@.#X@X@X@X/ `.GX(...@X@X/ {.@X@X@X] `.GX`.` @X@XVX[. .@X[.g.`.VX`.+.@X@XFX{.Y {.VXa.(.VXVXFX(.a.FX{.] {.FXa.(.VX{.VX).s.VX{.P {.FXFXVXY `.GX`.Y FX@XP [.VX@XFX .).GX`.).9X$XFX{.P {.GX@X[ [ [ [ [ [ [ [ [ [ [ L x t u u u r y.m.@ p 9 9 $ w.vX  vXw.% 9 9 9 9 : B B B c 4.4.4.9 8 S F F D D D D > 8 9 C Z V.L 2X7.7.a l MX% 9 9 9 & 2XzX2X",
"'.$X'.$X+X'.$X$X'.+X$X$X$X'.'.$X+X'.$X$X'.+X$X+X$X'.'.$X+X'.$X$X$X$X'.$X+X'.'.$X+X'.$X+X$X$X'.+X%X'.'.$X$X%X+X'.$X$X'.BXjXL.'.@X+X%X+X'.@X'.'.@X%X@X%X'.+XGX@X'.@X%X'.@X@X@XVX[.+XVX@X[.#X@X@X@X[.@XFX@X{.@X@X'.@X@X@X@X[.@XFX@X{.@X@XVX@X[.@X[.[.{.VX{.'.@X{.VX@X[.VXVX{.{.VXVXFX{.{.FX@X[.@XFX{.{.VX{.VX{.{.VXVX{.@XFXFXFX{.@XFX{.{.FXFX{.@X@X@XFX{.{.FX{.}.9X$XFX$X{.FXGX@X[ [ [ [ [ [ [ [ [ [ [ L x t u u u r y.m.@ p 9 9 $ r.vX  vXw.% 9 9 9 9 : B B B c 4.4.4.9 8 S F F D D D F > 8 9 C Z V.L 2X7.7.a l MX% 9 9 & *.gX2X; ",
"%X$X{.$X$X$X$X$X$X%X$X$X$X$X%X$X$X$X$X$X$X%X$X+X%X$X%X$X$X$X%X$X$X$X$X%X+X+X$X$X$X$X%X+X$X$X$X%X$X$X%X$X$X%X$X$X%X%X$XxXaX|.GX$X+X%X$X$X%X$X'.GX%X@XGX%XGXGX%X%XGX%X%XGX@X@XVX@XFXVX%X@X#X@X@X@X@XFXVX@XFXFX@X@XGX@X@XFX@XFXVX@XVXVX{.VX@XVXFX[.@XVXVXVX@X@X{.VXVXVXFXVXVXFXVXVXFXVXFXFXVXVXFXFXVXFXVX{.VXVXFXVXVXFXFXFXFXFXFXFXFXFXFXFXFXFXFX@X@XFXFXFXFXFX{.9X@XFXFXFXGXGX@X[ [ [ [ [ [ [ [ [ [ [ L x t u u u r y.m.@ p 9 9 $ r.vX  vXw.% 9 9 9 9 : B B B c 4.4.4.9 8 S F F D D D F > 8 9 C Z V.L 2X7.7.a l MX% 9 9 & 2XgXa o ",
"$X$X'.+X+X$X$X$X+X$X$X$X$X+X$X$X$X+X$X$X+X$X+X'.$X+X$X$X$X+X$X+X$X$X+X$X+X+X+X$X$X+X$X'.$X$X+X$X$X+X$X$X+X$X$X$X$X$X@XlX|.|.@X@X'.$X@X@X@X@X|.@X@X@X%X@X@X@X@X@X%X@X@X@X@X@X@X@X@X@X@X#X#X@X@X@X@X@X@X@X@X@X@X@X@X@X@X@X@X@X@X@X@X@X{.@X@X@X@X[.{.@X@X@X@X@X{.VX@X@XVXVX@XVXVX@XVX@XVXVX@X@XVXVX@XVXVX{.VX@XVXVXVX@XFX@XVXFX@XFXFX@X@XFXVX@XFX@X@XFX@XVXFX@X}.9X{.FX$X$XFXFX{.[ [ [ [ [ [ [ [ [ [ [ L x t u u u r y.m.@ p 9 9 $ r.vX  vXw.% 9 9 9 9 : B B B c 4.4.4.9 8 S F F D D D D > 8 9 C Z V.L 7.7.7.a l MX% 9 9 & wXiX# = ",
"( I Q P.Q Q Q Q Q U.Q Q Q ( ( U.U.Q ( ( Q Y.) ( ( U.U.( ( U.Y.) ) Y.U.( W.W.U.U.U.) ) ) ) U.U.U.U.U.U.U.U.U.U.U.) Y..XjXL.X.' ' ' ' ' ' ' X.!.E...X.......X.X.` X.X.X.X.X.d.d.o.o.+.+.h.h.O.d.d.o.o.O.O.o.+.O.+.o.O.+.+.o.+.+.+.+.(.(.d.d.d.d.f.f.d.d.d.d.(.(.a.a.a.a.a.a.a.a.a.a.a.(.a.a.a.a.a.a.a.d.].d.d.d.a.f.(.a.| | | | /.| | | /.a.| | /.| | a./.| | _./.).R.R.| [ | [ [ [ [ [ [ [ [ [ [ [ [ L x 0 u u u r y.m.@ p 9 9 $ r.vX  vXw.% 9 9 9 9 : B B B c 4.4.4.9 8 S F F D D D D > 8 9 C Z Z L 7.7.7.a l MX% 9 9 & 2XgX# = ",
"H H ! ! H ! ! ! ! ( ! ! ! ! Q Q Q Q Q Q Q ) Q Q Q Q ( Q Q Q ) Q Q ) Q H W.W.! Q Q Q Q Q Q Q Q Q Q Q Q Q Q Q Q ( ( Y.fX9XF.` _ _ _ _ _ _ _ ' Y.!._ _ _ _ _ _ X._ _ ` ` _ X.d.........X.d.h.o.O.+.....o.o.....+.....+.o...........o./.a.o.o.a.o.f.d.d.d.d.a.d.(.s.a.| s.s.s.s.s.a.a.a.a.a.a.a.a.a.a.} s.].s.s.s.a.d.d.{ { {  .{ |  .{  .| {  . .a.{  .{ |  .{ _./.s.{ [ [ [ [ [ [ [ [ [ [ [ [ [ [ [ [ L x t t t u % y.m.@ p 9 9 $ r.vX  vXw.% 9 9 9 9 : B B B c 4.4.4.9 8 S F F D D D F > 8 9 C Z V.L 2X7.7.a l MX% 9 9 & 2XzXs o ",
"I ( X.` _ Q Q Q Q ) Q Q Q Q Q Q ) .._ ..Q U.Q Q Q ( ) Q Q Q U.Q Q U.) H W.W...X...o._ Q ( Q Q ( ( ( ( ( ( ( ( ( ( h.jX_.R.o.o.' ' ' ' ' _ Y.o.(.O.o.d.` ` ` X.` ` ` ` ` o.d.d.d.d.d.o.d.h.o.d.O.o...+.o.....O.o.o.+.d.d.o.o.o...a.(.o.d.d.d.o.f.f.d.d.d.d.d.(.d.f.d.a.a.a.a.a.a.a.a.a.d.f.d.a.a.a.a.s.].s.s.s.a.d.f.d.d.s.{ { a.{ { { a.| { { a.{ { | a.{ { _.(.f.f.d.{ [ [ [ [ [ [ [ [ [ [ [ [ [ [ P x x ;.;.x r p.m.@ p 9 9 $ r.vX  vXw.$ 9 9 9 9 : B B B c 4.4.4.9 8 S F F D D D F > 8 9 C Z V.L 2X7.7.a l MX% 9 9 & *.gX2X$ ",
"I ! +.} _ Q Q Q Q ) ! Q Q Q Q Q ) ..o.` ( U.Q Q Q ( ) Q Q Q U.Q Q U.) H W.T.o.X.o.o.` Q ( Q Q Q ( ( ( ( ( ( ( ( U.pXcXH.o.d.o.' _ ' ' ' _ Y.' (.E.g.o..._ ` X.` ` ` ` ` d.o.d.d.d.d.d.d.h.o.d.O.o...o.o.....+.o...+.d.d.f.o...../.a.o.a.a.d.o.f.d.d.d.d.a.d.(.d.f.f.s.a.a.a.a.a.a.a.a.s.f.f.s.a.a.a.s.].s.s.s.a.a.f.d.d.f.s.{ a.{ { { a.| { { a.{ { | a.{ { _./.f.d.f.d.[ [ [ [ [ [ [ [ [ [ [ [ [ [ P x x ;.;.y.0 t.m.@ p 9 9 $ r.vX  nXw.$ 9 9 9 9 : B B B c 4.4.4.9 8 S F F D D D D > 8 9 C Z V.L 2X7.7.a l MX% 9 9 9 - 2XzX2X",
"H ' `  ._ ! Q ! ! ( ! ! ! ! ! Q ) _ ..` Q ) Q Q Q Q ( Q Q Q ) Q Q ) ( H W.W._ ....o._ Q Q Q Q Q Q ( ( ( ( ( ( ( Y.jX4XG.d.o.o._ _ _ _ _ _ ' o.o.E.o.d.` _ ` X._ ` ` _ ` d.o.d.d.d.d.o.d.h.o.O.+.....o.o.....+.....+.o.d.d.o...o./.o.a.o.o.a.o.f.d.d.d.a.o.a.d.h.g.f.s.s.s.s.s.s.s.s.a.d.f.f.d.a.s.a.s.].s.s.s.s.| d.d.s.d.s.{ a. .{  .| {  . .a.{  .{ |  . ._./.s.f.d.d.[ [ [ [ [ [ [ [ [ [ [ [ [ [ P x ;.x ;.;.t t.m.@ p 9 9 $ r.vX  nXw.$ 9 9 9 9 : B B B c 4.4.4.9 8 S F F D D D D > 8 9 C Z Z L 7.7.7.a l MX% 9 9 9 9 - 2X6.",
"Y.T.U.U.U.U.U.U.U.Y.U.U.U.U.U.U.Y.U.U.U.U.Y.U.U.U.Y.Y.U.U.U.Y.U.U.Y.Y.U.W.W.T.T.U.U.U.U.U.U.U.U.U.U.U.U.U.U.U.Y..XjXL.Y.E.T.E.T.E.T.E.E.E.E.E.' !.E.` ' X.X.E.X.X.X.' d.(.O.O.+.+.O.E.h.h.d.d.(.O.+.E.E.+.O.(.O.+.(.O.O.O.O.+.(.).(.(.(.(.(.(.].).(.(.(.(.(.(.`.(.a.d.a.a.a.a.a.a.(.(.d.a./.(.(.(.d.).].(.(.(.(.a.(.`.R.R.R./.(.R./.| /./.R.R.(./.| /./.| R._.)./.).R.R.R.R.R.R.R.R.R.R.R.R.R.R.R.R.T x u u u u + u.n.+ 9 9 9 $ e.vX  vXw.$ 9 9 9 9 : B B B c 4.4.4.9 8 S F F D D D D > 8 9 C Z V.L 2X7.7.a l MX% 9 9 9 9 9 & - ",
"S S S S S S S S S S S S S S S S S S S S S S S S S S S S S S S S S S S S S S S S S S S S S S S S S S S S S S S S 9.9.V.S S S S S S S S S S S S S K K S S S S S S S S S L L L L L L L L L L L L L L L L L L L L L L L L L L L L L L L L L L L L L L L L L L L L L L L L L L L L L L L L L L L L L L L L L L L L L L L L L L L L L L L L L L L L L L L L L L L L L L L L S S S S S S S S S S S S S S S V & + % % $ z ZXb % 9 9 9 % q.mX  NX-.% 9 9 9 9 : B B B c 4.4.4.9 8 S F F D D D F > 8 9 C Z V.L 2X7.7.a l MX% 9 9 9 9 9 & 4.",
"vXvXnXnXnXnXnXnXnXnXnXnXnXnXnXnXnXnXnXnXnXnXnXnXnXnXnXnXnXnXnXnXnXnXnXnXnXnXnXnXnXnXnXnXnXnXnXnXnXnXnXnXnXnXnXnXvXvXaXnXnXnXnXnXnXnXnXnXnXnXnXnXnXnXnXnXnXnXnXnXnXnXnXnXnXnXnXnXnXnXnXnXnXnXnXnXnXnXnXnXnXnXnXnXnXnXnXnXbXbXbXnXnXnXnXnXnXnXbXnXnXbXbXbXbXbXbXbXbXbXbXbXbXbXbXbXbXbXbXbXbXbXbXbXbXbXbXbXbXbXbXbXbXbXbXbXbXbXbXbXbXbXbXbXbXbXbXbXbXbXbXbXbXbXbXbXbXbXbXbXbXbXbXbXbXbXbXbXbXbXbXbXbXbXbXbXbXbXbXbXMXt.$ 9 9 9 9 9 9 M.ZX4X9 9 9 9 9 9 : B B B c 4.4.4.9 8 S F F D D D F > 8 9 C Z V.L 2X7.7.a l MX% 9 9 9 9 9 2XgX",
"v v v v v v v v v v v v v v v v v v v v v v v v v v v v v v v v v v v v v v v v v v v v v v v v v v v v v v v v v b v v v v v v v v v v v v v v v v v v v v v v v v v v v v v v v v v v v v v v v v v v v v v v v v v v v v v v v v v v v v v v v v v v v v v v v v v v v v v v v v v v v v v v v v v v v v v v v v v v v v v v v v v v v v v v v v v v v v v v v v v v v v v v v v v v v v v v v v v v v v v v 9 $ 9 9 9 9 9 9 * * l * * 9 9 9 9 9 : B B B c 4.4.4.9 8 S F F D D D D > 8 9 C Z Z L 7.7.7.a l MX% 9 9 9 & 2XzX2X",
"* * * * * * % % % % % % % % % % % % % % % * * * * * * * * * * * * * * * * * * * * * % % % % % % % % % % % % % % * * * * * * * * * * * * * * * * * * * % % % % % % % % % % % % % % % % % * * * * * * * * * * * * * * * * * * * * * * % % % % % * * * * * * * * * * * * * * % % % * * * * * * * * % % % 9 * % % % % % % % % % % % % % % % % % % % % % % % % % % % % % % % % % % % $ $ $ $ $ $ $ $ $ $ $ $ $ $ $ $ * 9 9 9 9 9 * h h * f f g f 9 9 9 9 : B B B c 4.4.4.9 8 S S.S.F D F F > 8 9 C V.V.L qXqX7.a l MX% 9 9 & 4.gX2Xo ",
"% * % % $ % 9 9 9 9 9 9 9 9 9 9 9 9 9 9 9 $ % % % % % % % % % % % % % % % * % % $ % 9 9 9 9 9 9 9 9 9 9 9 9 9 9 $ % % % % % % % % % % % % % * % % $ % 9 9 9 9 9 9 9 9 9 9 9 9 9 9 9 9 9 % % % % % % % % % % % % % % % % % * % % $ % 9 9 9 9 9 * = = = = = = = = = = = = * 9 9 9 = = = = = = = * 9 9 9 f p 9 f l l l l l l l l l l l l l l l l l l l l l l l v l v v v v v v v v v v v v v v v v v v v v v v v b l 9 9 9 9 9 9 j.i.f j.j.l.t.* 9 9 9 9 : : : a s s a 9 9 : > > 5 : > > : 9 9 : : > d s s s 8 l MX% 9 9 & 2XgXa ; ",
"AXbXHXJXAXr.% 9 9 9 * % * 9 9 9 9 9 9 9 9 vXHXAXHXAXAXHXHXHXAXAXAXAXAXAXHXBXSXJXJXz.% 9 9 9 % % 9 9 9 9 9 9 9 9 nXJXAXAXAXAXAXAXAXAXAXAXAXAXbXHXJXAXr.% 9 9 9 * * 9 9 9 9 9 9 9 9 9 9 % l.AXAXAXHXHXAXAXHXHXHXHXAXHXHXAXHXbXAXJXJXu.% 9 9 * i.vXvXvXvXvXnXbXbXbXbXBXNXNXMXm.* m vXvXnXbXbXBXBXMXn.9 9 f p % b mXMXMXMXMXMXMXMXCXZXZXZXZXZXZXZXZXZXZXZXZXSXSXSXSXSXSXSXSXSXSXSXSXSXAXAXAXAXAXAXAXAXAXAXAXAXAXAXJXn.% 9 9 9 * l t.e.q.q.x.t.t.9 9 9 9 9 8 t 9 t : : : 9 9 8 9 9 t t 9 t 8 9 9 9 t 8 : : > = * l MX% 9 9 & iXiX+ 5 ",
"LXSXLXAXLXAX$ 9 9 9 l n b % * % % * * % m LXLXLXLXLXLXLXPXPXLXLXLXLXLXLXLXAXLXKXIXPXf 9 9 9 b -.9 * % % * * % -.LXPXLXLXLXLXLXLXLXLXLXLXLXIXSXLXAXLXAX+ 9 9 9 l v % * * * % * * * % * 9 KXLXLXLXLXPXLXLXLXLXLXLXLXPXLXLXLXSXLXJXPXKX* 9 9 % x.AXSXAXAXAXAXAXJXJXJXJXJXKXKXMX% q.AXAXJXJXJXJXJXKXbX% 9 f p * b ZXZXZXZXZXSXSXSXSXSXSXSXSXSXAXAXAXAXAXSXSXZXSXAXSXAXSXAXAXAXJXJXJXJXJXJXJXJXJXJXJXJXJXJXJXJXJXJXKXn.% 9 9 9 9 9 y.u.-.u.y.j.r.* 9 9 9 9 t V > > V V t 9 9 8 V V V V V V 8 9 8 > A 8 V V A 9 * l MX% 9 9 & 2XgX# = ",
"IXSXKXh CXJX$ 9 9 p z.5.y.w.-.w.t.v y.9 -.LXZXZXmXKXPXZXZXmXAXJXJXKXPXHXSXZXIXt.l.PXl * 9 * w.x.n b y.e.v y.* t.SXZXIXKXZXKXKXKXKXJXKXIXKXZXSXKXh CXJX$ 9 9 p N.v w.w.v l w.q.q.q.t.l f SXKXPXKXZXbXJXJXNXCXJXIXJXAXZXKXSXZXIXn 4XIX9 9 9 % c.SXM.vXm.nXM.SXmXmXbXbXbXmXJXmX% -.AXnXNXnXnXbXmXJXnX% 9 f p * b CXZXZXZXZXZXZXZXZXZXSXSXSXSXSXSXSXAXZXnXZX4Xx.bXBXM.bXAXAXAXAXAXAXAXAXJXJXJXJXJXJXJXJXJXJXJXJXJXKXn.% 9 9 9 9 9 9 9 9 9 * 9 9 9 9 9 9 9 : V V > V V > 8 9 9 A A > A A V 8 9 9 t A > > V A t * l MX% 9 9 & 6.zXs o ",
"PXSXKXCXJXAX$ 9 9 * -.j.c.y.u.l.y.m.M.g q.KXnXZXnXKXAXCXCXmXZXSXZXZXmXHXMXSXKXZXSXKXl * 9 * l r.y.c.u.y.m.M.f r.CXJXZXmXZXMXnXnXAXmXZXAXnXCXAXKXCXJXAX$ 9 9 9 -.z.i.u.l.e.n.q.y.w.vX5.f CXIXAXaXNXCXSXAXNXBXSXCXZXMXCXMXCXSXKXZXAXKX9 9 9 % c.SXN.bXN.4Xm.ZXbXn.m.mXbXm.KXNX% -.AXnXx.m.NXnXvXKXvX% 9 f p * b ZXZXZXZXZXZXZXZXZXSXSXSXSXSXSXSXSXAXZXnXSXvXbXc.nXl.bXAXAXAXAXAXAXAXJXJXJXJXJXJXJXJXJXJXJXJXJXJXKXn.% 9 9 9 9 9 9 * 9 f h 9 9 9 9 9 9 9 8 : = : : : : 9 9 9 9 t t t 9 t 9 9 9 9 t t 9 9 t 9 * l MX% 9 9 & *.gXiX8 ",
"IXSXKXd ZXJX$ 9 9 9 w.i.q.y.w.c.i.5.i.% r.KXbXBXmXJXHXMXCXMXbXAXSXZXCXAXZXZXIXe.l.PXl * 9 * l b w.y.j.i.q.i.% t.ZXSXZXCXSXMXCXZXKXAXSXbXnXMXSXKXd ZXJX$ 9 9 9 r.t.y.r.w.j.e.f t.r.i.h h ZXZXZXMXSXHXMXHXSXZXCXZXZXmXJXZXZXZXIXb 4XIX9 9 9 % c.SXbXSXbXBXvXZXZXnXMXBXBXMXJXNX% -.SXMXvXmXnXBXMXJXvX* 9 f p * b MXZXZXZXZXZXZXZXZXZXSXSXSXSXSXSXSXSXSXM.bXvXMXNXvXCXBXNXMXMXAXAXAXAXAXAXJXJXJXJXJXJXJXJXJXJXJXJXKXn.% 9 9 9 9 9 9 f u.u.c.e.* 9 9 9 9 9 = s a a s s a 9 9 9 t t t V > t 9 9 9 t > 9 > t t 9 * l MX* 9 9 9 - 6.zX2X",
"LXSXLXKXLXSX$ 9 9 9 9 * * 9 * q.9 % 9 * b LXLXLXPXLXLXPXLXIXPXLXLXPXLXIXLXSXLXIXPXIXf 9 9 9 9 * t.h q.9 % 9 % m PXIXPXLXPXLXPXLXLXLXLXPXPXPXAXLXKXLXSX$ 9 9 9 9 * * * * 9 * 9 9 9 9 9 9 JXPXLXPXLXLXPXLXLXLXLXPXMXKXLXLXPXSXLXKXLXJX* 9 9 % x.AXAXAXAXAXAXAXJXJXJXJXJXJXKXmX% q.AXAXAXAXJXJXJXJXvX% 9 f p * b ZXSXZXSXSXSXSXSXSXSXSXSXAXAXAXAXAXAXAXAXAXAXAXJXJXAXJXJXJXJXJXJXJXJXJXJXJXJXJXJXJXJXJXJXJXJXJXJXKXn.% 9 9 9 9 9 * y.u.j.c.i.* 9 9 9 9 9 a 4.4.a 4.6.s & 9 8 V V t A V V 8 9 8 > A 8 V V A t 8 h CX* 9 p 9 p : 6.4.",
"CXM.ZXZXMXn * 9 9 9 9 9 9 9 9 * 9 9 9 9 * z.ZXZXZXZXZXZXZXZXZXZXZXZXZXZXZX4XMXZXZXy.% 9 9 9 9 9 9 9 * 9 9 9 9 % v.SXZXZXZXZXZXZXZXZXZXZXZXCXM.ZXZXMXn * 9 9 9 9 9 9 9 9 9 9 9 9 9 9 9 % t.SXZXZXZXZXZXZXZXZXZXMXmXZXZXZXZXm.CXZXZXw.% 9 9 * e.n.x.x.N.n.n.n.n.n.M.M.M.M.m.c.* b x.x.N.n.n.n.n.m.u.9 9 f p * b bXbXbXBXBXNXNXNXNXNXNXNXmXmXmXMXMXMXMXMXMXMXMXMXMXMXMXZXZXZXZXZXZXZXZXZXZXZXZXZXZXZXZXZXZXZXSXZXAXz.% 9 9 9 9 9 * r.j.i.c.y.* 9 9 9 9 9 a 4.*.s s 4.s = 9 9 A V > > A > 8 9 9 t A > V A A t 9 $ bXz.@ + + + + X . ",
"+ $ + + + * 9 9 9 9 9 9 9 9 9 9 9 9 9 9 9 $ + + + + + + + + + + + + + + + $ + + + % 9 9 9 9 9 9 9 9 9 9 9 9 9 9 $ + + + + + + + + + + + + + $ + + + * 9 9 9 9 9 9 9 9 9 9 9 9 9 9 9 9 9 % + + + + + + + + + + $ $ + + + + $ + + + % 9 9 9 9 * % % % % % % % % % % % % % % * 9 9 % % % % % % % % * 9 9 f 9 9 d f d d d d d d d d d d f f f f f f f f f f f f f f f f f f f f f f f f f f f f f f f f f f f f f f f 9 9 9 9 9 9 9 9 g 9 l 9 9 9 9 9 9 9 = 9 9 p 9 a 9 9 9 9 8 9 t 9 t t 9 9 9 9 t 9 t 9 9 9 9 9 p mXBXM.M.M.M.M.M.",
"9 9 9 9 9 9 9 9 9 9 9 9 9 9 9 9 9 9 9 9 9 9 9 9 9 9 9 9 9 9 9 9 9 9 9 9 9 9 9 9 9 9 9 9 9 9 9 9 9 9 9 9 9 9 9 9 9 p 9 9 9 9 9 9 9 9 9 9 9 9 9 9 9 p 9 9 9 9 9 9 9 9 9 9 9 9 9 9 9 9 9 9 9 9 9 9 9 9 9 9 9 9 9 9 9 9 9 9 9 9 9 9 9 9 9 9 9 9 9 9 9 9 9 9 9 9 9 9 9 9 9 9 9 9 9 9 9 9 9 9 9 9 9 9 9 9 9 9 9 9 9 9 9 9 9 9 9 9 9 9 9 9 9 9 9 9 9 9 9 9 9 9 9 9 9 9 9 9 9 9 9 9 9 9 9 9 9 9 9 9 9 9 9 9 9 9 9 9 9 9 9 9 9 9 9 9 9 9 9 * 9 * 9 9 9 9 9 9 9 9 9 9 9 9 9 9 9 9 9 9 9 9 9 8 9 9 9 9 9 9 9 8 9 9 9 9 9 * % r.l.j.l.j.l.l.",
"9 9 9 9 9 9 9 9 9 9 9 9 9 9 9 9 9 9 9 9 9 9 9 9 9 p 9 9 9 9 9 9 9 9 9 9 9 9 9 9 9 9 9 9 9 9 9 9 9 9 9 9 9 9 9 9 9 9 9 9 9 9 9 9 9 9 9 9 9 9 9 9 9 9 9 9 9 9 9 9 9 9 9 9 9 9 9 9 9 9 9 9 9 9 9 9 9 9 9 9 9 9 p 9 9 9 9 9 9 9 9 9 9 9 9 9 9 9 9 9 9 9 9 9 9 9 9 9 9 9 9 9 9 9 9 9 9 9 9 9 9 9 9 9 9 9 9 9 9 9 9 9 9 9 9 9 9 9 9 9 9 9 9 9 9 9 9 9 9 9 9 9 9 9 9 9 9 p 9 9 9 9 9 9 9 9 9 9 9 9 9 9 9 9 9 9 9 9 9 9 9 9 9 9 9 9 9 9 9 9 9 9 9 9 9 p 9 9 9 9 9 9 9 9 9 9 9 9 9 9 9 9 9 9 9 9 9 9 9 9 9 9 9 9 9 9 9 9 9 % + + + $ + + ",
"& & & & & & & & & & & & & & & & & & & & & & = 9 p f 9 9 9 = = = = = = = = = = = = = = = = = 9 9 9 9 9 9 9 9 9 9 9 9 9 9 9 9 9 f f 9 9 9 9 9 9 9 9 9 9 9 9 9 9 9 9 = = = = = = = = = = = = = = = = = = 9 9 p f 9 9 9 = = = = = = = = = = = = = = = = = 9 9 9 9 9 9 9 9 9 9 9 9 9 9 9 9 f f 9 9 8 8 8 8 8 8 8 8 8 8 8 8 8 8 8 8 8 8 8 8 8 8 8 * * * * * * * * 8 9 9 f d 9 9 8 8 8 8 8 8 8 8 8 8 8 8 8 8 8 8 8 8 8 8 8 8 8 * * * * * * * * 8 9 9 f 9 9 9 0 9 9 9 9 9 9 9 9 9 9 9 9 9 8 8 8 8 8 8 8 8 8 * * * * * * * 9 9 9 9 h p 9 ",
"V.V.Z Z Z Z Z Z Z C C C C C B B B B B B B B & 9 9 f 9 = M e.r.e.e.e.y.y.y.y.y.i.i.u.u.u.l.l.l.l.l.c.c.z.x.x.x.x.n.n.n.M.x.d 9 f f 9 d l.n.x.x.x.x.x.x.c.c.l.l.l.l.l.l.u.u.u.i.i.y.y.y.y.y.e.e.e.e.r.q.d 9 9 f 9 = M e.r.e.e.e.y.y.y.y.i.i.i.u.u.l.l.l.l.l.l.c.c.x.x.x.x.N.n.n.M.x.f * f f = a qXtXwXwXwXwXqXqXqXqXqXqXqX7.7.7.7.7.8.8.8.8.8.8.4.4.4.4.4.4.4.s 8 9 f p = r *X=X=X=X=X=X=X*X*X*X*X*X>.>.>.>.>.>.>.>.>.>.>.>.>.>.%.%.%.%.%.r * 9 f 9 = u ,X,X,X,X,X,X>X>X>X>X>X>X,.,.,.,.,.,.,.,.,.,.,.,.,.&.&.&.&.&.&.r = 9 f 9 * ",
"Z.Z.Z.Z.C.V.V.C.V.V.V.V.V.Z Z Z Z Z C C C B & 9 9 f 9 * q.l.l.l.l.c.z.x.x.x.n.n.n.M.m.x.x.x.m.vXvXvXnXnXbXbXbXBXNXNXNXMXvXp 9 f f 9 p m.mXBXBXbXbXbXbXnXnXvXvXvXvXm.x.c.x.M.n.n.n.x.x.x.x.c.l.l.l.l.i.d 9 p f 9 * q.l.l.l.l.c.x.x.x.x.n.n.n.M.M.x.n.n.vXvXvXnXnXbXbXbXBXNXNXNXMXvXd 9 f f 9 a tXhXhXhXhXhXyXyXyXyXyXtXtXtXtXqXqXqXwXqXqXqXqX7.7.7.7.7.8.8.8.4.* 9 f p = r -X6X6X6X6X6X-X-X-X-X-X-X-X-X=X*X*X=X=X*X*X*X*X>.>.>.>.>.>.>.>.%.* 9 f 9 = u 8X7X7X7X7X8X<X<X<X<X<X<X<X<X,X>X,.>X,X>X>X>X>X,.,.,.,.,.,.,.,.e = 9 f 9 * ",
"Z.Z.Z.Z.C C Z V.V.V.V.V.Z Z Z Z Z C C C C B , 9 9 f 9 * q.u.u.u.l.l.l.c.c.x.x.x.x.n.n.q.u.l.M.m.m.m.vXvXvXvXnXbXbXbXbXNXm.p 9 f f 9 p m.NXbXbXbXnXnXvXvXvXvXm.m.m.l.w.j.j.n.x.x.x.x.c.c.l.l.l.u.u.u.y.d 9 p f 9 * q.u.u.u.l.l.l.c.c.x.x.x.x.n.c.q.y.u.m.m.m.vXvXvXvXnXbXbXbXbXNXm.d 9 f f 9 a tXhXhXhXyXyXyXyXyXtXtXtXtXtXqX4.8.7.qXqXqXqX7.7.7.7.8.8.8.8.8.4.* 9 f p = r -X6X6X6X-X-X-X-X-X-X-X-X=X-X<.%.<.*X*X*X*X*X>.>.>.>.>.>.>.>.>.%.* 9 f 9 = u <X7X8X8X<X<X<X<X<X<X<X<X,X<X,.,.,.>X>X>X>X>X,.,.,.,.,.,.,.,.,.e = 9 f 9 * ",
"Z.Z.Z.Z.Z V.V.V.V.V.V.V.Z Z Z Z Z C C C C B , 9 9 f 9 * q.u.u.u.l.l.l.l.c.x.x.x.x.n.n.u.l.u.m.m.m.m.vXvXvXvXnXnXbXbXbXNXM.p 9 f f 9 p m.NXbXbXbXbXnXvXvXvXvXm.m.m.x.l.l.c.n.x.x.x.x.z.c.l.l.l.u.u.u.y.d 9 p f 9 * q.u.u.u.l.l.l.c.c.x.x.x.x.n.x.u.l.l.m.m.m.m.vXvXvXnXnXbXbXbXBXm.d 9 f f 9 a tXhXhXhXyXyXyXyXyXtXtXtXtXtXqX7.qX7.qXqXqXqX7.7.7.7.8.8.8.8.8.4.* 9 f p = e -X6X6X6X-X-X-X-X-X-X-X-X=X=X*X*X<.*X=X*X*X*X>.>.>.>.>.>.>.>.>.%.* 9 f 9 = u 8X7X7X8X<X<X<X<X<X<X<X<X,X,X>X>X>X,X>X>X>X>X,.,.,.,.,.,.,.,.,.e = 9 f 9 * ",
"Z.Z.Z.Z.Z.Z.Z.Z.C.V.V.V.V.V.Z Z Z Z C C C B , 9 9 f 9 * q.l.l.l.l.c.z.x.x.x.n.n.n.M.M.m.m.m.m.vXvXvXnXnXbXbXbXbXBXNXNXmXm.p 9 f f 9 d vXMXmXNXNXBXbXbXbXbXnXvXvXvXvXvXm.m.M.M.n.n.n.x.x.x.c.c.l.l.l.i.d 9 p f 9 * q.l.l.l.l.c.x.x.x.x.n.n.n.M.m.m.#XvXvXvXvXvXnXbXbXbXbXBXBXNXmXvXd 9 f f 9 a yXhXhXhXhXhXhXhXyXyXyXyXtXtXtXtXtXwXwXqXqXqXqXqX7.7.7.7.8.8.8.4.* 9 f p = e 6X6X6X6X6X6X6X-X-X-X-X-X-X-X-X-X=X=X=X=X*X*X*X*X>.>.>.>.>.>.>.%.* 9 f 9 = &.7X7X7X7X7X7X8X<X<X<X<X<X<X<X<X,X,X,X,X,X>X>X>X>X,.,.,.,.,.,.,.e = 9 f 9 * ",
"C C C C B B B B B B B B B B B B B B B , , , & 9 9 f 9 9 l m m m m m m -.q.q.q.q.q.w.w.r.r.r.e.e.e.e.e.p.y.y.y.y.y.y.y.i.e.d 9 f f 9 d y.u.i.i.i.y.y.y.y.y.p.e.e.e.e.r.r.r.r.w.q.q.q.q.q.-.m m m m m M 9 9 9 f 9 9 g m m m m m m -.q.q.q.q.q.w.r.r.r.r.e.e.e.e.p.y.y.y.y.y.y.y.i.y.d 9 f f = a 7.2X7.7.7.7.7.8.8.8.8.8.8.8.6.6.4.4.4.4.4.4.4.4.4.4.4.4.4.s s s 8 9 f p = e >.>.>.>.>.>.>.>.>.>.>.>.>.>.>.>.>.%.%.%.%.%.%.%.%.%.%.%.%.e e r 9 9 f 9 = u ,.,.,.,.,.,.,.,.,.,.,.,.,.,.,.,.&.&.&.&.&.&.&.&.&.&.&.&.&.e e r 9 9 f 9 * ",
"8 8 8 8 8 8 8 8 8 8 8 8 8 8 8 8 8 8 8 8 8 8 9 9 p f 9 9 * * * * * * * * * * * * * * * * * * * * * % * % % % % % % % % % * 9 9 f f 9 9 * % % % % % % % % % % % % * * * * * * * * * * * * * * * * * * * 9 9 9 f 9 9 * * * * * * * * * * * * * * * * * * * * * % * % % % % % % % % * 9 9 d f 9 9 & & & & & & & & & & & & & & & & & & & & & & & & & & & = = = = = 9 9 f p 9 9 = = = = = = = = = = = = = = = = = = = = = = = = = = = = = = = = 9 9 f 9 9 9 * * * * * * * * * = = = = = = = = = = = = = = = = = = = = = = 9 9 9 f 9 9 ",
"9 9 9 9 9 9 9 9 9 9 9 9 9 9 9 9 9 9 9 9 9 9 9 9 p f 9 9 9 9 9 9 9 9 9 9 9 9 9 9 9 9 9 9 9 9 9 9 9 9 9 9 9 9 9 9 9 9 9 9 9 9 9 f f 9 9 9 9 9 9 9 9 9 9 9 9 9 9 9 9 9 9 9 9 9 9 9 9 9 9 9 9 9 9 9 9 9 9 9 9 9 f 9 9 9 9 9 9 9 9 9 9 9 9 9 9 9 9 9 9 9 9 9 9 9 9 9 9 9 9 9 9 9 9 9 9 9 9 d f 9 9 9 9 p 9 9 9 9 9 9 9 9 9 9 9 9 9 9 9 9 9 9 9 9 9 9 9 9 9 9 9 9 9 9 9 f p 9 9 9 9 9 9 9 9 9 9 9 9 9 9 9 9 9 9 9 9 9 9 9 9 9 9 9 9 9 9 9 9 9 9 9 9 f 9 9 9 9 9 9 9 9 9 9 9 9 9 9 9 9 9 9 9 9 9 9 9 9 9 9 9 9 9 9 9 9 9 9 9 9 9 f 9 9 ",
"9 9 9 9 9 9 9 9 9 9 9 9 9 9 9 9 9 9 9 9 9 9 9 9 p f 9 9 9 9 9 9 9 * 9 9 9 9 9 9 9 9 9 9 9 9 9 9 9 9 9 9 9 9 9 9 9 9 9 9 9 9 9 f f 9 9 9 9 * 9 9 * 9 9 9 9 9 9 9 9 9 9 9 9 9 9 9 9 9 9 9 9 9 9 9 9 9 9 9 9 9 f 9 9 9 9 * 9 9 * 9 9 9 9 9 9 9 9 9 9 9 9 9 9 d * d p 9 9 9 9 9 9 9 9 9 9 d f 9 9 9 9 & & 9 & & 9 9 9 9 9 9 9 9 9 9 9 9 * p f p 9 p 9 9 9 9 9 9 9 9 9 f p 9 9 9 9 - = 9 - = 9 9 9 9 9 9 9 9 9 9 9 9 9 9 f 9 9 f f 9 9 9 9 9 9 9 9 f 9 9 9 9 = - = = - = 9 9 9 9 9 9 9 9 9 9 9 f 9 9 9 9 9 * 9 9 9 9 9 9 9 9 9 f 9 9 ",
"9 9 9 9 p l.r.* 9 9 9 9 9 9 9 9 9 9 9 9 9 9 9 9 p f 9 9 9 9 l m m m h 9 9 9 9 9 9 9 9 9 9 9 9 % q.5.t.f v t.f 9 9 9 9 9 9 9 9 f f 9 9 9 9 v m m m f 9 9 9 9 9 9 9 9 9 9 9 9 9 e.v e.-.t.l * 9 9 9 9 9 9 9 9 f 9 9 9 9 v m m m h 9 9 9 9 9 9 9 9 9 9 9 9 f w.e.r.g e.h * 9 9 9 9 9 9 9 d f 9 9 = 9 7.yXtXwXs & 9 9 9 9 9 9 9 9 9 9 * b u.b j.q.j.h 9 9 9 9 9 9 9 9 f p 9 9 = 0 *X-X-X=Xw - 9 9 9 9 9 9 9 9 9 % m y.y.y.e.l.w.z.f 9 9 9 9 9 9 9 f 9 9 9 = u ,X<X<X,Xu = 9 9 9 9 9 9 9 9 9 * -.j.i.y.j.y.b u.% 9 9 9 9 9 9 9 f 9 9 ",
"9 9 9 % b r.p.9 9 9 9 9 9 9 9 9 9 9 9 9 9 9 9 9 p f 9 9 9 n n f = h m v 9 9 9 9 9 9 9 9 9 9 * l i.t.b b n -.b % 9 9 9 9 9 9 9 f f 9 9 9 m v d = l -.l 9 9 9 9 9 9 9 9 9 9 9 * -.w.v u.b -.* 9 9 9 9 9 9 9 9 f 9 9 9 r.q.d * g m v 9 9 9 9 9 9 9 9 9 9 9 % b n q.g n h * 9 9 9 9 9 9 9 d f 9 9 a yXwX4.s 4.qX6.& 9 9 9 9 9 9 9 9 9 % i.l.v j.l t.f 9 9 9 9 9 9 9 9 f p 9 = w -X*X%.%.<.6X<.- 9 9 9 9 9 9 9 9 9 h i.b i.c.c.h y.* 9 9 9 9 9 9 9 f 9 9 = &.8X,.&.&.,.7X&.= 9 9 9 9 9 9 9 9 9 f x.u.c.n.l.c.l.% 9 9 9 9 9 9 9 f 9 9 ",
"9 9 9 9 f l.t.* 9 9 9 9 9 9 9 9 9 9 9 9 9 9 9 9 p f 9 9 l n + . $ X % -.h 9 9 9 9 9 9 9 9 9 9 l y.t.r.-.-.t.h * 9 9 9 9 9 9 9 f f 9 9 n v X   $ X 9 -.d 9 9 9 9 9 9 9 9 9 9 * n b e.w.t.v * 9 9 9 9 9 9 9 9 f 9 * b w.+ v = X % -.h 9 9 9 9 9 9 9 9 9 * v i.g -.t.t.9 9 9 9 9 9 9 9 9 d f 9 & qXwXo o y.: a wXs & 9 9 9 9 9 9 9 9 % 5.l.t.i.x.j.9 9 9 9 9 9 9 9 9 f p 9 = =X<.o O . O %.=X0 = 9 9 9 9 9 9 9 9 d t.l j.c.i.y.n % 9 9 9 9 9 9 9 f 9 9 9 <X,.X O O   ,.<X9 9 9 9 9 9 9 9 9 9 -.j.e.l.i.l.j.c.* 9 9 9 9 9 9 9 f 9 * ",
"9 9 9 9 9 g d 9 9 9 9 9 9 9 9 9 9 9 9 9 9 9 9 9 p f 9 9 q.= X d N h X h m * 9 9 9 9 9 9 9 9 9 * * 9 f p d h 9 9 9 9 9 9 9 9 9 f f * f y.$ y.l.g d X v v * 9 9 9 9 9 9 9 9 9 9 9 9 h 9 h 9 9 9 9 9 9 9 9 9 9 f 9 9 y.p   m.n.3 . h m * 9 9 9 9 9 9 9 9 9 d g g h f l p 9 9 9 9 9 9 9 9 d f & s hX* ; q.IXt.X 6.8.& 9 9 9 9 9 9 9 9 9 9 l h l h v p 9 9 9 9 9 9 9 9 f p - *.-X; = v vXCXO <.<.- 9 9 9 9 9 9 9 9 9 9 l h d g 9 9 9 9 9 9 9 9 9 9 f 9 - ,.<XX t m q.v . <X,.- 9 9 9 9 9 9 9 9 l h h 9 f f % 9 9 9 9 9 9 9 9 9 f 9 # ",
"9 9 9 9 9 % * * 9 9 9 9 9 9 9 9 9 9 9 9 9 9 9 9 p f * f m $ u.bXN N $ = m 9 9 9 9 9 9 9 9 9 9 9 9 * * 9 * % 9 9 9 9 9 9 9 9 9 f f * l w.X m m.N g . d b 9 9 9 9 9 9 9 9 9 9 9 * 9 % 9 % 9 9 9 9 9 9 9 9 9 9 f * f r.$ $ m r.g $ * m 9 9 9 9 9 9 9 9 9 9 9 * % 9 * % 9 9 9 9 9 9 9 9 9 d f & 4.iX. d m l.^ $ s 7.& 9 9 9 9 9 9 9 9 9 * * % % % % % 9 9 9 9 9 9 9 9 f p - <.=Xo h v bXx.X %.<.= 9 9 9 9 9 9 9 9 * * * % * % 9 9 9 9 9 9 9 9 9 9 f 9 - ,.,.X N N NXJXh ,.,.- 9 9 9 9 9 9 9 * % 9 * * * * 9 * 9 9 9 9 9 9 9 9 f 9 # ",
"9 9 9 f 9 l d l d 9 9 9 9 9 9 9 9 9 9 9 9 9 9 9 p f 9 p y.= g e.g h . d m 9 9 9 9 9 9 9 9 9 9 9 9 l f d v v 9 9 9 9 9 9 9 9 9 f f * h y.+ . 5 g d X l b * 9 9 9 9 9 9 9 9 9 9 f f g d l 9 9 9 9 9 9 9 9 9 9 f 9 9 y.* . d d h . d m 9 9 9 9 9 9 9 9 9 9 9 f l 9 v v f 9 9 9 9 9 9 9 9 d f & s hX$ - v N v o 4.7.& 9 9 9 9 9 9 9 9 9 h f v f l l b 9 9 9 9 9 9 9 9 f p - *.-Xo = M N h o <.<.- 9 9 9 9 9 9 9 9 h l f l d l 9 f 9 9 9 9 9 9 9 9 f 9 - ,.<XX d M e.m . ,.&.= 9 9 9 9 9 9 9 l l 9 f h h h f h f 9 9 9 9 9 9 9 f 9 # ",
"9 9 % j.e.i.j.l.e.* 9 9 9 9 9 9 9 9 9 9 9 9 9 9 p f 9 * q.n   X - . + n l 9 9 9 9 9 9 9 9 9 9 * v w.-.e.i.t.* 9 9 9 9 9 9 9 9 f f 9 9 r.l X $ - . $ m h 9 9 9 9 9 9 9 9 9 9 f y.l r.m w.b * 9 9 9 9 9 9 9 9 f 9 * q.m X ; - . . b l 9 9 9 9 9 9 9 9 9 9 p w.q.q.y.u.g * 9 9 9 9 9 9 9 d f 9 = tX6.X - 5 ; ; qX4.& 9 9 9 9 9 9 9 * l j.y.j.r.v.m z.l * 9 9 9 9 9 9 f p = 0 -X%.X = 5 ; % *Xw = 9 9 9 9 9 9 9 * v c.j.i.c.l.b z.* 9 9 9 9 9 9 9 f 9 = u <Xu X = - X 0 ,Xu = 9 9 9 9 9 9 9 v j.b z.i.j.j.j.l.y.9 9 9 9 9 9 9 f 9 * ",
"9 9 % n u.-.v.e.y.9 9 9 9 9 9 9 9 9 9 9 9 9 9 9 p f 9 9 d i.v + $ $ v m 9 9 9 9 9 9 9 9 9 9 9 % q.h b t.-.-.* 9 9 9 9 9 9 9 9 f f 9 9 g u.f + ; $ m b 9 9 9 9 9 9 9 9 9 9 % b y.b -.n b g 9 9 9 9 9 9 9 9 9 f 9 9 d i.v + $ $ v m 9 9 9 9 9 9 9 9 9 9 * l 5.9 y.-.w.p 9 9 9 9 9 9 9 9 d f 9 & *.hX4.o # ; 7.7.& 9 9 9 9 9 9 9 9 9 9 i.h y.z.z.v t.* 9 9 9 9 9 9 9 f p 9 - *.6Xe ; + - *X<.= 9 9 9 9 9 9 9 9 9 9 l.i.z.v.c.N.v.9 9 9 9 9 9 9 9 f 9 9 - ,.7X9 ; $ 9 ,X&.= 9 9 9 9 9 9 9 9 f t.j.4Xt.j.i.j.i.t.f 9 9 9 9 9 9 f 9 9 ",
"9 9 % n -.i.t.j.w.* 9 9 9 9 9 9 9 9 9 9 9 9 9 9 p f 9 9 * f f 9 9 9 f 9 9 9 9 9 9 9 9 9 9 9 9 9 h e.-.v b v * 9 9 9 9 9 9 9 9 f f 9 9 * h f 9 9 9 f 9 9 9 9 9 9 9 9 9 9 9 9 f r.-.-.e.y.f 9 9 9 9 9 9 9 9 9 f 9 9 9 f f 9 9 9 f 9 9 9 9 9 9 9 9 9 9 9 9 9 5.r.v b n 9 9 9 9 9 9 9 9 9 d f 9 9 & 4.s 9 9 9 *.9 9 9 9 9 9 9 9 9 9 9 9 r.v y.i.i.e.n % 9 9 9 9 9 9 9 f p 9 9 = *.q 9 9 9 %.9 9 9 9 9 9 9 9 9 9 * n i.q.i.t.j.w.j.9 9 9 9 9 9 9 9 f 9 9 9 = &.0 9 9 9 &.= 9 9 9 9 9 9 9 9 % u.j.-.j.i.i.i.y.i.t.* 9 9 9 9 9 9 f 9 9 ",
"9 9 9 9 * 9 * 9 9 9 9 9 9 9 9 9 9 9 9 9 9 9 9 9 p f 9 9 9 9 9 9 9 9 9 9 9 9 9 9 9 9 9 9 9 9 9 9 9 9 9 9 9 9 9 9 9 9 9 9 9 9 9 f f 9 9 9 9 9 9 9 9 9 9 9 9 9 9 9 9 9 9 9 9 9 9 9 9 p 9 9 9 9 9 9 9 9 9 9 9 9 f 9 9 9 9 9 9 9 9 9 9 9 9 9 9 9 9 9 9 9 9 9 9 9 9 * 9 9 9 9 9 9 9 9 9 9 9 d f 9 9 9 & = 9 9 9 & 9 9 9 9 9 9 9 9 9 9 9 9 9 p 9 * p * 9 9 9 9 9 9 9 9 9 f p 9 9 9 = = 9 9 9 = 9 9 9 9 9 9 9 9 9 9 9 d 9 9 9 9 9 % % 9 9 9 9 9 9 9 9 f 9 9 9 9 = 9 9 9 9 = 9 9 9 9 9 9 9 9 9 9 9 d * % 9 9 9 9 9 9 9 9 9 9 9 9 9 f 9 9 ",
"9 9 9 9 9 9 9 9 9 9 9 9 9 9 9 9 9 9 9 9 9 9 9 9 p f 9 9 9 9 9 9 9 9 9 9 9 9 9 9 9 9 9 9 9 9 9 9 9 9 9 9 9 9 9 9 9 9 9 9 9 9 9 f f 9 9 9 9 9 9 9 9 9 9 9 9 9 9 9 9 9 9 9 9 9 9 9 9 9 9 9 9 9 9 9 9 9 9 9 9 9 f 9 9 9 9 9 9 9 9 9 9 9 9 9 9 9 9 9 9 9 9 9 9 9 9 9 9 9 9 9 9 9 9 9 9 9 9 d f 9 9 9 p 9 9 9 9 9 9 9 9 9 9 9 9 9 9 9 9 9 9 9 9 9 9 9 9 9 9 9 9 9 9 9 9 f p 9 9 9 9 9 9 9 9 9 9 9 9 9 9 9 9 9 9 9 9 9 9 9 9 9 9 9 9 9 9 9 9 9 9 9 9 f 9 9 9 9 9 9 9 9 9 9 9 9 9 9 9 9 9 9 9 9 9 9 9 9 9 9 9 9 9 9 9 9 9 9 9 9 9 f 9 9 ",
"8 8 8 8 8 8 8 8 8 8 8 8 8 8 8 8 8 8 8 9 9 9 9 9 p f 9 9 * * * * * * * * * * * * * * * * * * * * * * * * * * * * * 9 9 9 9 9 9 f f 9 9 * * * * * * * * * * * * * * * * * * * * * * * * * * * * * 9 9 9 9 9 9 f 9 9 * * * * * * * * * * * * * * * * * * * * * * * * * * * * * 9 9 9 9 9 d f 9 9 & & & & & & & & & & & & & & & & & & & & & & = = = = = = = = = 9 9 9 f d 9 9 = = = = = = = = = = = = = = = = = = = = = = = = = = = = = = = 9 9 9 f 9 9 9 = = = = = = = = = = = = = = = = = = = = = = = = = = = = = = = 9 9 9 f 9 9 ",
"V V V V V , , , , , , , , , , , , , , , , , & 9 9 f 9 9 b m m m m m m n n b b b b b v b v v v v v v l l l l g g g g g g h 9 9 f f 9 p n m m m m m n n n b b b b v b b v v v v v l l l l g g g g g g h 9 9 9 f 9 9 b m m m m m n n n b b b b v b b v v v v v l l l l g g g g g g h 9 9 d f 9 a 4.4.4.4.4.4.4.4.4.4.4.4.4.4.4.4.*.s s s s s s s s s s s s s s a 9 9 f p = 0 %.%.%.%.%.%.%.%.%.%.%.%.%.%.%.%.%.e e e e e e e r r r r r r r r 9 9 f 9 = 0 &.&.&.&.&.&.&.&.&.&.&.&.&.&.&.&.e e e e e e e e r r r r r r r r 9 9 f 9 9 ",
"Z.Z.Z.Z.C.C.C.V.V.V.V.V.Z Z Z Z Z C C C C B , 9 9 f 9 = x.NXbXbXbXbXnXnXvXvXvXvXm.m.m.n.n.n.n.n.n.x.x.x.x.c.l.l.l.j.u.u.e.9 9 f f 9 d m.NXbXbXbXbXnXnXvXvXvX#Xm.m.M.n.n.n.n.n.x.x.x.x.c.c.l.l.l.u.u.y.d 9 p f 9 * x.NXbXbXbXbXnXnXvXvXvX#Xm.m.n.n.n.n.n.n.x.x.x.x.c.c.l.l.l.u.u.e.9 9 f f 9 a tXhXhXhXyXyXyXyXyXtXtXtXtXtXwXwXwXqXqXqXqXqX7.7.7.7.7.8.8.8.8.4.* 9 f p = e -X6X6X6X-X-X-X-X-X-X-X-X-X=X=X=X=X=X*X*X*X*X>.>.>.>.>.>.>.>.>.%.* 9 f 9 = u <X7X8X8X<X<X<X<X<X<X<X<X<X,X,X,X,X,X>X>X>X>X,.,.,.,.,.,.,.,.,.e = 9 f 9 * ",
"Z.Z.Z.C.Z Z B Z V.V.V.V.Z Z Z Z Z C C C C B & 9 9 f 9 * x.NXbXbXbXbXnXnXvXvXvXm.m.m.N.u.i.e.x.n.x.x.x.x.c.c.l.l.l.u.u.u.e.9 9 f f 9 p m.NXbXbXbXbXnXvXvXvXvXm.m.m.l.u.e.i.n.n.x.x.x.x.c.l.l.l.l.u.u.y.d 9 p f 9 * c.NXbXbXbXbXnXvXvXvXvXm.m.m.j.u.e.u.n.n.x.x.x.z.c.l.l.l.l.u.u.e.9 9 d f 9 a tXhXhXhXyXyXyXyXyXtXtXtXtXwX7.7.6.7.qXqXqXqX7.7.7.7.7.8.8.8.8.4.* 9 f p = r -X6X6X6X-X-X-X-X-X-X-X-X-X=X<.<.<.*X=X*X*X*X>.>.>.>.>.>.>.>.>.%.* 9 f 9 = u <X7X8X8X<X<X<X<X<X<X<X<X<X,X,.,.,.>X>X>X>X>X,.,.,.,.,.,.,.,.,.e = 9 f 9 * ",
"Z.Z.Z.C.Z Z B C C.V.V.V.Z Z Z Z Z C C C C B , 9 9 f 9 * x.NXbXbXbXbXnXnXvXvXvXm.m.m.x.u.u.w.j.n.x.x.x.x.c.c.l.l.l.u.u.u.e.9 9 f f 9 p m.NXbXbXbXbXnXvXvXvXvXm.m.m.l.u.y.w.n.n.x.x.x.z.c.l.l.l.u.u.u.y.d 9 p f 9 * x.NXbXbXbXbXnXnXvXvXvXm.m.M.j.u.y.e.M.x.x.x.x.z.c.l.l.l.u.u.u.e.9 9 d f 9 a tXhXhXhXyXyXyXyXyXtXtXtXtXwX7.7.8.8.wXqXqXqX7.7.7.7.7.8.8.8.8.4.* 9 f p = e -X6X6X6X-X-X-X-X-X-X-X-X-X=X<.<.<.<.=X*X*X*X>.>.>.>.>.>.>.>.>.%.* 9 f 9 = u 8X7X7X8X<X<X<X<X<X<X<X<X<X>X,.,.&.,.,X>X>X>X,.,.,.,.,.,.,.,.,.e = 9 f 9 * ",
"Z.Z.Z.Z.V.C.C.V.V.V.V.V.V.Z Z Z Z Z C C C B , 9 9 f 9 * x.MXBXBXbXbXbXbXnXvXvXvXvXm.m.x.n.n.n.n.n.n.x.x.x.z.c.l.l.l.u.l.e.9 9 f f 9 p m.mXBXBXbXbXbXbXnXvXvXvXm.m.n.x.M.n.n.n.n.x.x.x.x.c.l.l.l.u.u.y.d 9 p f 9 * x.MXBXBXbXbXbXbXnXvXvXvXm.vXn.n.M.n.n.n.n.x.x.x.x.c.l.l.l.u.l.p.9 9 f f 9 a tXhXhXhXhXhXyXyXyXyXtXtXtXtXwXwXwXqXqXqXqXqXqX7.7.7.7.8.8.8.8.4.* 9 f p = e -X6X6X6X6X6X-X-X-X-X-X-X-X-X*X=X=X*X=X*X*X*X*X>.>.>.>.>.>.>.>.%.* 9 f 9 = u 7X7X7X7X7X8X<X<X<X<X<X<X<X,X>X,X,X>X,X>X>X>X>X,.,.,.,.,.,.,.,.e = 9 f 9 * ",
"Z.Z.Z.C.C.V.V.V.V.V.Z Z Z Z Z C C C C B B B , 9 9 f 9 9 x.BXnXnXvXvXvX#Xm.m.m.m.M.n.n.n.n.x.x.x.x.c.l.l.l.l.u.u.u.u.i.i.r.9 9 f f 9 d m.bXnXnXvXvXvXm.m.m.m.M.M.n.n.n.N.N.x.x.c.c.l.l.l.j.u.u.u.i.i.p.d 9 p f 9 = x.BXnXnXvXvXvX#Xm.m.m.M.M.n.n.n.N.x.x.x.c.c.l.l.l.u.u.u.u.i.i.e.9 9 d f = a tXhXyXyXyXyXyXtXtXtXtXtXtXwXwXwXqXqXqXqX7.7.7.7.7.8.8.8.8.6.6.4.* 9 f p = e -X6X-X-X-X-X-X-X-X-X=X=X=X=X=X=X*X*X*X*X>.>.>.>.>.>.>.>.>.>.>.%.* 9 f 9 = &.<X8X<X<X<X<X<X<X<X<X,X,X,X,X,X,X>X>X>X>X,.,.,.,.,.,.,.,.,.,.,.r = 9 f 9 * ",
", , , , , , , , , , , , , , , , , , , , & ; & 9 9 f 9 9 g g g g g g h h h h h h h h f f f f f f f f d d d d d d d d p p 9 9 9 f f 9 9 g g g g g g h h h h h h h h f f f f f f f f f f f d d d d d d d 9 9 9 f 9 9 g g g g g g h h h h h h h h f f f f f f f f d d d d d d d d p 9 9 9 d f 9 a s s s s s s s s s s s s s s s s s s s a a a a a a 8 8 8 8 8 8 8 9 9 f p 9 0 e e e e e e e e e r r r r r r r r r r r r r r r r r r r r r r % 9 9 f 9 9 0 e u e e e e e e e r r r r r r r r r r r r r r r r r r r r r r % 9 9 f 9 9 ",
"a a f f f 9 a p p p p p p p f f f f f f f h f 9 p f 9 9 = * * = = = = = 9 9 9 9 9 9 9 9 9 = = = = 9 9 9 9 9 9 9 9 9 9 9 p 9 9 f f 9 9 * * * = = = = 9 9 9 9 9 9 9 9 9 & : & & & & & & & & & & & & & & = 9 9 f 9 9 = * * = = = = = 9 9 9 9 9 9 9 9 9 = = = 9 9 9 9 9 9 9 9 9 9 9 p 9 9 d f 9 9 t t t t t t t t t t t d d d h 9 t d t t d t t d d d d d d f f h 9 9 f d 9 9 d d d d d d d d d d d d d d h 9 d d d d d d d d d d d f f f f h 9 9 f 9 9 p d p d d d d d d d d d d d d h = d d d d d d d d d d d f f f f h 9 9 f 9 9 ",
"ZXZXZXAXl.+ l.mXNXNXMXMXCXCXZXZXZXZXZXZXSXZXb % d f 9 = m i.i.u.u.l.l.x.x.x.n.n.M.m.m.m % ^ i.y.u.u.l.l.c.x.x.n.n.n.M.m.x.d 9 f f 9 9 r.i.i.u.l.l.c.x.x.n.n.n.M.vXl.8 > J.J.J.J.J.J.G.G.G.A A A A A A : 9 9 f 9 = m i.i.u.j.l.c.x.x.N.n.n.M.m.n.f 9 e.i.i.u.l.l.c.x.x.N.n.n.M.m.n.f * f f 9 d m.mXNXmXMXMXCXZXZXZXZXZXZXSXNX9 b BXNXNXmXMXCXZXZXZXZXZXZXZXSXNXd 9 f f * h nXmXNXmXMXMXZXZXZXZXZXZXZXAXvX% q.NXNXNXMXMXCXZXZXZXZXZXZXZXAXvX9 9 f p * v bXNXNXMXMXMXZXZXZXZXZXZXZXAXn.+ y.mXNXNXMXMXZXZXZXZXZXZXZXZXAXn.% 9 f 9 % ",
"JXJXJXKXz.+ x.AXSXAXSXMXmXZXSXNXNXSXJXJXKXJXb % d f 9 * r.x.z.N.l.l.l.z.m.z.n.bXbXNXNXm % r.x.c.x.c.l.l.x.N.l.c.m.bXbXmXm.9 9 f f 9 9 y.x.x.n.j.l.l.x.m.c.m.bXbXMXn.* V H.H.H.H.G.G.G.G.T T T G.G.G.A : 9 9 f 9 * r.x.z.n.l.l.l.z.m.x.M.bXbXmXvXd 9 u.x.x.x.j.l.c.n.c.l.n.bXbXmXvXd 9 f f 9 9 bXAXSXAXMXMXNXZXAXMXSXJXJXKXZX* b ZXSXAXSXMXMXZXSXmXNXSXJXJXKXZX9 9 f f * h MXAXSXAXmXMXNXZXAXmXAXJXJXKXNX$ r.SXSXAXSXMXmXZXZXNXNXSXKXJXKXNX* 9 f p * v ZXAXAXAXmXMXNXZXAXmXAXJXJXKXm.+ u.AXSXAXZXMXNXZXZXNXNXAXJXJXKXm.% 9 f 9 % ",
"AXJXJXJXc.+ c.SXZXSXZXN.x.bXNXMXvXZXJXJXJXAXb % d f 9 * w.c.l.x.j.e.l.y.l.c.c.vXnXbXbXn % w.l.l.x.l.w.e.u.l.c.i.M.nXnXbXM.9 9 f f 9 9 y.c.l.x.u.t.l.i.c.c.x.nXnXBXx.* V H.H.H.H.T R T T T R T G.G.U A : 9 9 f 9 * q.c.l.x.l.e.l.i.l.c.c.vXnXbXm.d 9 i.l.c.x.e.w.i.l.z.u.c.nXnXbXm.d 9 f f 9 9 bXSXZXSXmXM.mX4XMXmXMXJXJXJXMX* b ZXSXSXSXn.x.bXNXMXvXMXJXJXJXMX9 9 f f * h mXSXSXSXbXm.NXvXMXNXCXJXJXKXbX$ r.SXZXSXZXx.N.bXNXMXaXZXJXJXKXbX* 9 f p * v ZXSXSXSXnX4XNXvXMXNXZXJXJXKXM.+ i.SXZXSXMXz.n.BXmXMX4XSXJXJXKXM.% 9 f 9 % ",
"JXJXJXJXl.+ c.SXZXSXSXBXmXmXMXSXMXZXJXJXJXAXv % d f 9 * q.l.l.x.l.u.u.l.l.l.N.vXvXnXnXb % w.l.l.c.c.i.l.j.x.n.c.M.vXvXbXn.9 9 f f 9 9 p.l.l.x.j.u.u.l.c.l.M.vXvXbXc.* V H.H.H.H.G.G.G.G.G.T T G.G.U A : 9 9 f 9 * q.l.l.x.l.u.u.l.l.l.N.vXvXbXM.d 9 i.l.l.x.u.u.l.l.n.x.x.vXvXbXM.d 9 f f 9 9 bXSXZXSXMXBXBXMXMXNXZXJXAXJXMX* b ZXZXSXSXNXNXMXMXSXMXZXJXAXJXMX9 9 f f * h mXSXZXSXmXBXNXmXMXNXSXJXAXJXbX$ w.ZXZXSXSXBXMXmXMXSXmXZXJXAXJXbX* 9 f p * v ZXSXSXSXNXBXNXmXMXNXAXJXAXJXM.+ i.SXZXSXZXbXMXNXZXSXmXSXJXAXJXM.% 9 f 9 % ",
"JXJXJXKXc.+ x.AXSXAXAXAXJXJXJXJXJXJXJXJXJXAXb % d f 9 * r.c.c.x.x.n.M.m.m.vXvXvXnXbXbXn % r.c.c.x.x.n.M.m.m.vXvXvXnXnXbXM.9 9 f f 9 9 y.c.c.x.n.M.m.m.#XvXvXnXnXbXx.* V L.H.H.H.H.H.H.H.H.J.J.J.G.G.A : 9 9 f 9 * w.z.c.x.N.M.M.m.m.vXvXvXnXbXm.d 9 i.c.z.x.n.M.m.m.m.vXvXvXnXbXm.d 9 f f 9 9 BXAXSXAXAXHXJXJXJXJXJXJXJXKXZX* n SXAXAXAXAXHXJXJXJXJXJXJXJXKXZX9 9 f f * h MXAXAXAXAXJXJXJXJXJXJXJXJXKXBX$ r.AXSXAXAXAXHXJXJXJXJXJXJXJXKXbX* 9 f p * v ZXAXAXAXAXJXJXJXJXJXJXJXJXKXm.+ u.AXSXAXAXAXHXJXJXJXJXJXJXJXKXm.% 9 f 9 % ",
"c.c.c.x.w.% w.u.u.u.u.u.j.l.l.l.l.l.c.c.c.c.l * p f 9 9 g b b n m m m -.q.q.q.q.w.w.r.g * g b b n m m m -.q.q.q.q.w.w.r.q.p 9 f f 9 9 v b b m m m m -.q.q.q.w.w.r.m 8 > A R R R R R R R V V V V V V V : 9 9 f 9 9 g b b m m m m -.q.q.q.q.w.r.q.p 9 v b M m m m m -.q.q.q.w.w.r.q.d 9 f f 9 d y.u.u.u.u.j.l.l.l.l.l.c.c.z.u.9 l u.u.u.u.u.j.l.l.l.l.l.c.c.z.u.d 9 f d * f i.u.u.u.u.j.l.l.l.l.l.c.c.x.i.* b u.u.u.u.u.j.l.l.l.l.l.c.c.x.i.9 9 f p * g u.u.u.u.u.j.l.l.l.l.l.c.c.x.e.% -.u.u.u.u.u.j.l.l.l.l.l.c.c.x.e.9 9 f 9 * ",
"% % % % * 9 * % % % % % % % % % % % % % % % 9 9 9 f 9 9 9 * * * * * * * * * % % % % % 9 9 9 * * * * * * * * * * % % % % * 9 9 f f 9 9 * * * * * * * * * * % % % % * 9 9 8 8 8 8 8 8 8 8 8 8 8 8 8 8 8 9 9 9 f 9 9 9 * * * * * * * * * % % % % * 9 9 * * * * * * * * * * % % % % * 9 9 d f 9 9 % % % % % % % % % % % % % % % 9 9 % % % % % % % % % % % % % % % 9 9 f p 9 9 % % % % % % % % % % % % % % % 9 9 % % % % % % % % % % % % % % % 9 9 f 9 9 9 % % % % % % % % % % % % % % * 9 9 % % % % % % % % % % % % % % * 9 9 f 9 9 ",
"9 9 9 9 9 8 8 8 9 9 9 9 9 9 9 9 9 9 9 9 9 9 9 9 p f 9 9 9 9 9 9 9 9 9 9 9 9 9 9 9 9 9 9 9 9 9 9 9 9 9 9 9 9 9 9 9 9 9 9 9 9 9 f f 9 9 9 9 9 9 9 9 9 9 9 9 9 9 9 9 9 9 9 9 9 9 9 9 9 9 9 9 9 9 9 9 9 9 9 9 9 f 9 9 9 9 9 9 9 9 9 9 9 9 9 9 9 9 9 9 9 9 9 9 9 9 9 9 9 9 9 9 9 9 9 9 9 9 d f 9 9 9 9 9 & & 9 9 9 9 9 9 9 9 9 9 9 & & 9 9 9 9 9 9 9 9 9 9 9 9 9 9 9 9 f p 9 9 9 9 9 = = 9 9 9 9 9 9 9 9 9 9 9 = = 9 9 9 9 9 9 9 9 9 9 9 9 9 9 9 9 f 9 9 9 9 9 9 = = 9 9 9 9 9 9 9 9 9 9 = = = 9 9 9 9 9 9 9 9 9 9 9 9 9 9 9 9 f 9 9 ",
"9 9 9 9 8 : V > 9 8 9 9 9 9 9 * 9 9 * 9 9 * 9 9 9 f 9 9 9 9 9 f h d 9 9 9 9 9 9 9 9 9 9 d h f 9 9 9 9 9 9 9 * 9 9 9 9 9 * 9 9 f f 9 9 9 9 9 f h d 9 9 9 9 9 9 9 9 9 9 f h d 9 9 9 9 9 9 * 9 9 9 9 9 * 9 9 9 f 9 9 9 9 9 f h d 9 9 9 9 9 9 9 9 9 9 f h d 9 9 9 9 9 9 * 9 9 9 9 9 * 9 9 d f 9 9 9 & 9 s 4.s & 9 9 9 9 9 9 9 & a *.4.a & 9 9 9 9 9 * 9 9 * p 9 * 9 9 f p 9 9 9 = 9 %.%.q = 9 9 9 9 9 9 9 = 0 %.%.0 = 9 9 9 9 9 * 9 9 * d 9 * 9 9 f 9 9 9 9 = 0 &.&.0 = 9 9 9 9 9 9 9 = u &.&.9 = 9 9 9 9 9 * 9 9 9 d 9 * 9 9 f 9 9 ",
"9 9 9 t A C.A C.V.> 8 9 9 9 * n i.g f h h h 9 9 p f 9 9 9 f m -.b q.b 9 9 9 9 9 9 9 p b q.b q.n d 9 9 9 9 * b q.f d f f f 9 9 f f 9 9 9 h m -.n q.v 9 9 9 9 9 9 9 f m -.b q.b 9 9 9 9 * l w.f d f f f 9 9 9 f 9 9 9 f n -.b q.b 9 9 9 9 9 9 9 h m -.n q.v 9 9 9 9 * v q.f d f f f 9 9 d f 9 9 & *.qXqX7.wX8.a 9 9 9 9 9 & 4.qXqX2XwX6.9 9 9 9 * w.t.f f h f g 9 9 f p 9 9 = %.*X*X<.=X<.9 9 9 9 9 9 = *.=X*X*X=X*.= 9 9 9 9 t.r.f f g f h 9 9 f 9 9 9 = &.,X>X>X,X&.= 9 9 9 9 9 9 ,.,X,.>X,X&.= 9 9 9 9 y.5.d f g f h 9 9 f 9 9 ",
"9 9 8 V.A $ + + > Z.> 8 9 9 9 j.n b i.l.y.z.r.% d f 9 9 d q.h + . $ v 5.9 9 9 9 9 9 -.l $ . + g q.p 9 9 9 f w.l l e.r.w.p.v % f f 9 9 h q.p + . $ n m 9 9 9 9 9 d q.h + . $ v -.9 9 9 9 r.l l q.e.q.t.m * p f 9 9 d q.h + . $ v q.9 9 9 9 9 h q.d + . $ n m 9 9 9 d r.l l r.r.w.p.b % f f 9 & s wXs ; . $ 7.qX= 9 9 9 & 4.wXa . . * qX7.& 9 * l i.b n l.i.i.z.b % f p 9 = %.=Xe . . % *X<.= 9 9 9 = <.=X8 ; . 8 =X<.= 9 % n y.b n c.i.j.c.l % f 9 9 = ,.,X0 . . 0 ,X,.= 9 9 9 = ,.>X% . . q ,X&.= 9 % w.e.b -.z.y.j.l.f * f 9 9 ",
"9 8 V A @ - N d @ > V.9 9 9 9 i.y.n.N.n.l.q.t.% d f 9 9 n g X - d $ . b v * 9 9 * v v X $ d - X l b * 9 9 p w.w.i.i.i.r.n -.% f f 9 9 m d X = d ; + m g 9 9 9 9 n h X - d $ . b v * 9 9 q.5.i.y.i.e.b 5.* p f 9 9 n g X - d $ . v v * 9 9 9 m d X = d $ + m g 9 9 9 w.q.i.i.i.r.n -.% f f 9 9 qXs o d N - o 7.4.& 9 = a qXa o d g ; ; qX*.& 9 h i.i.v.n.N.i.w.w.$ f p = 0 *Xr o h g - $ *X%.= 9 = w *X% X d g ; 8 =Xq = * l i.j.v.M.x.y.e.-.% f 9 = u >X% . h g ; % ,Xu = 9 = &.>X$ ; h h . e ,X0 9 % n i.c.N.M.z.t.t.v % f 9 * ",
"9 8 Z V # N v q.d ; C.> 8 9 9 f q.v n l l h h 9 p f 9 9 -.% $ d g N . d m 9 9 9 9 -.9 . d h v $ * -.9 9 9 9 h b g v h h f f * f f * f -.+ - d g g . g b * 9 9 p -.% $ d g N . d m 9 9 9 d b g v g h f f 9 p f 9 9 -.% $ d g N . 9 m 9 9 9 f -.+ - d g g . g b * 9 9 f b g v h h f f 9 f f & s wX$ - v ^ m o 4.7.& 9 & 4.qXX = M ^ M o 8.8.& 9 * l -.v n l l h f * f p - %.*X. = N ^ M o <.<.- 9 - <.<.o w.y.^ v o <.*.- 9 * b -.v n l l h f * f 9 - &.,.X d -.^ v . ,.&.= 9 - ,.,.X v r.^ g . >X&.= 9 * m n b b l g g d 9 f 9 * ",
"9 8 A > . e.vXM h + Z > 8 9 9 9 % * % * * 9 9 9 9 f * d m $ . y.p.h $ = m 9 9 9 9 m * . r.u.h - $ m 9 9 9 9 9 * * * 9 9 9 9 9 f f * h n . - u.q.h . f b 9 9 9 d m $ . y.e.h $ = m 9 9 9 9 % * * * 9 9 9 9 9 f * d m $ . y.y.h $ = m 9 9 9 h n . $ u.q.h . d n 9 9 9 9 % * * * 9 9 9 9 d f & s 2XX q.AXr.M ; s 7.& 9 & 4.8.X m.SXM M o 4.8.& 9 9 * % * % * * 9 9 9 f p - %.<.X e.SX^ M ; %.<.- 9 - <.>.h JXBXN M . <.<.- 9 9 * % * % * * 9 9 9 f 9 - ,.,.. MXZXv M . ,.,.- 9 = ,.&.N JXvXN N . ,.&.= 9 9 % % * * * 9 9 9 9 f 9 # ",
"9 8 A A   vXZXd # & C.t 9 9 9 9 9 9 9 9 9 9 9 9 p f 9 9 5.9 X nXy.- X g n * 9 9 9 m h   M.l.- . d m 9 9 9 9 9 9 9 9 9 9 9 9 9 f f 9 d q.$ - BXm $ X v v * 9 9 9 q.= X nXp.- X g n * 9 9 9 9 9 9 9 9 9 9 9 9 f 9 9 -.9 X vXy.- X g n * 9 9 p q.$ - BX^ - X v v * 9 9 9 9 9 9 9 9 9 9 9 d f = a wX# u.aXN d X 8.8.& 9 & s wX; c.i.N 3 o 7.4.& 9 9 9 9 9 9 9 9 9 9 9 f p = w =X. x.vXN d o <.*.- 9 - <.-Xo = N v - o *X%.= 9 9 9 9 9 9 9 9 9 9 9 f 9 = &.>X- l.e.N = . >X&.= 9 - ,.,X< -.v N - $ ,Xu = 9 9 9 9 9 9 9 9 9 9 9 f 9 # ",
"9 8 : C.> f - . $ Z A 8 9 9 9 9 9 9 9 9 9 9 9 9 p f 9 9 g m = = . . 9 -.f 9 9 9 9 f -.9 9 . . % -.g 9 9 9 9 9 9 9 9 9 9 9 9 9 f f 9 9 v n = = X . f -.9 9 9 9 9 l m = = . . 9 -.f 9 9 9 9 9 9 9 9 9 9 9 9 9 f 9 9 g m = = . . 9 -.f 9 9 9 9 v n = = X . f -.p 9 9 9 9 9 9 9 9 9 9 9 9 d f 9 & 8.tX#   $ X s wXs = 9 9 & qXwX  X $ X 4.qXp 9 9 9 9 9 9 9 9 9 9 9 9 f p 9 = <.=X+   $ . %.*X0 9 9 9 9 -X<.X ; ; . <.<.= 9 9 9 9 9 9 9 9 9 9 9 9 f 9 9 = ,X>X  . $ . ,.>X9 9 9 = u 8X,.  ; . . ,.,.= 9 9 9 9 9 9 9 9 9 9 9 9 f 9 9 ",
"9 9 8 V A % & 8 V Z 9 9 9 9 9 0 w w q q w w 0 9 p f 9 9 9 n l % * * v l 9 9 9 9 9 9 v v % * * l v 9 9 9 9 9 d f f d f f f 9 9 f f 9 9 9 m f % * 9 n h 9 9 9 9 9 9 n l % * * b l 9 9 9 9 p f f d f f f 9 9 9 f 9 9 9 n l % * * v l 9 9 9 9 9 9 m f % * 9 n g 9 9 9 9 d f f d f f f 9 9 d f 9 9 9 yX4.& 8 & 7.4.& 9 9 9 & s yXs & * 9 qXs & 9 9 9 q w w q w w w 9 9 f p 9 = q -X%.= * 9 *X%.= 9 9 9 = %.-X0 * * 0 *Xq = 9 9 9 q w w q w w q 9 9 f 9 9 = &.<Xu * * 0 >Xu = 9 9 9 - &.<X= * % u >X0 9 9 9 9 w w w q w w q 9 9 f 9 9 ",
"9 9 9 8 9 9 9 9 9 9 9 9 9 9 9 0 w w q q w w 0 9 p f 9 9 9 9 9 9 9 9 9 9 9 9 9 9 9 9 9 9 9 9 9 9 9 9 9 9 9 9 d f f d f f f 9 9 f f 9 9 9 9 9 9 9 9 9 9 9 9 9 9 9 9 9 9 9 9 9 9 9 9 9 9 9 9 f f d d f f 9 9 9 f 9 9 9 9 9 9 9 9 9 9 9 9 9 9 9 9 9 9 9 9 9 9 9 9 9 9 9 p f f d d f f 9 9 d f 9 9 = = 9 9 9 9 9 = 9 9 9 9 9 = = 9 9 9 9 9 = 9 9 9 9 q w w q q w q 9 9 f d 9 9 = = 9 9 9 9 9 = 9 9 9 9 9 = 9 9 9 9 9 9 9 9 9 9 9 q w w q w w q 9 9 f 9 9 9 = 9 9 9 9 9 9 = 9 9 9 9 9 = 9 9 9 9 9 9 9 9 9 9 9 q w q q w w q 9 9 f 9 9 ",
"9 9 * * 9 * * * * * * 9 9 9 9 0 w w q q w w 0 9 p f 9 9 * 9 9 * * * * * 9 9 9 9 9 9 9 9 9 * * * * 9 9 9 9 9 d f f d f f f 9 9 f f 9 9 * 9 9 * * 9 * 9 9 9 9 9 9 * 9 9 * * * * * 9 9 9 9 9 f f d d f f 9 9 9 f 9 9 * 9 9 * * * * * 9 9 9 9 9 * 9 9 * * 9 * 9 9 9 9 9 p f f d f f f 9 9 d f 9 9 * 9 9 * * * * * 9 9 9 9 9 * 9 9 * * * * * 9 9 9 9 q w w q q w q 9 9 f p 9 9 * * 9 9 % * * * 9 9 9 9 9 * 9 9 * * * * * 9 9 9 9 q w w q w w q 9 9 f 9 9 9 9 % 9 * % 9 * 9 9 9 9 9 * * 9 * * * * % * 9 9 9 9 q w w q w w q 9 9 f 9 9 ",
"9 * -.j.9 w.y.e.t.t.t.* 9 9 9 0 w w e e w e 0 9 9 f 9 9 q.m 9 w.n w.b w.l * 9 9 * -.q.* 5.-.5.m q.b * 9 9 9 d f f d f f f 9 9 f f 9 9 r.v 9 r.b w.b r.h 9 9 9 9 q.n 9 w.n w.b r.l * 9 9 9 f f d d f f 9 9 9 f 9 9 q.-.9 w.n q.n w.l * 9 9 9 r.v 9 r.b w.b r.h 9 9 9 p f f d f f f 9 9 d f 9 9 u.-.d u.w.i.q.j.l * 9 9 f j.v h j.q.i.q.j.f 9 9 9 q w w e e w e 9 9 f d * f j.b h j.i.i.q.j.h 9 9 * l l.h v j.q.i.-.t.% 9 9 9 e w e e e w e 9 9 f 9 9 9 f u.9 l y.b j.d 9 9 9 * b j.p -.i.w.y.q.w.% 9 9 9 e w e e e w q 9 9 f 9 9 ",
"9 9 t.t.m w.u.l.i.l.t.g * 9 9 f z z g l z z f 9 p f * h -.-.v n i.n i.-.-.* 9 9 d 5.-.v n t.q.t.q.-.9 9 9 9 d f f d d f f 9 9 f f % v -.n v n u.b u.n -.* 9 * g -.-.v n i.n i.-.-.* 9 9 p f f d d f f 9 9 9 f * h -.-.v n i.m i.-.-.9 9 * l -.n v n u.b u.n -.* 9 9 d f f d d f f 9 9 d f % b t.t.h n.v.-.M.w.t.% 9 % 5.t.w.-.r.M.-.M.w.w.% 9 9 h z z g z z z 9 9 f f % -.t.t.+ w.z.-.M.w.w.% 9 % r.t.5.q.e.M.5.y.y.* 9 9 9 l z z g z z z 9 9 f 9 9 9 9 l.9 f j.t.t.-.% 9 9 * t.t.-.w.y.v.q.i.t.% 9 9 9 z z z g z z h 9 9 f 9 9 ",
"9 * t.j.r.y.l.l.j.l.i.d 9 9 r $.OXOXoX&XOXOX$.r d f * d w.w.n w.t.w.t.r.-.* 9 9 9 q.e.n q.t.r.t.e.q.9 9 9 9 5 6 6 5 5 6 6 9 9 f f * h e.q.n w.t.w.t.r.b * 9 9 d r.w.n w.t.w.t.r.-.* 9 9 d 6 6 5 5 6 6 d 9 p f * d w.r.n w.t.w.t.r.-.* 9 9 h e.w.n w.t.w.t.r.b * 9 9 5 6 6 5 5 6 6 9 9 d f * g j.i.w.l.z.i.c.j.w.% 9 * b j.y.r.u.c.i.c.j.n % 9 8 oXOXOXoXOXOXOXj 8 f f % v j.i.l y.-.j.c.j.-.% 9 % -.l.t.e.j.c.u.-.t.* 9 9 9 &XOXOXoXOXOX&Xd 8 f 9 9 9 * t.n h t.r.l.v % 9 9 % w.l.e.t.j.l.i.-.e.% 9 8 6 OXOXOXoXOXOXoX9 9 f 9 9 ",
"9 9 h n h l v l v l v * 9 9 - :.4X4X:X:X4X4X:.* p f 9 9 l l f l f l f l d 9 9 9 9 h l f l h l f l f 9 9 9 9 d f d d d d d 9 9 f f 9 9 l g f l d l d v 9 9 9 9 9 l l f l f l f l d 9 9 9 p f d d d d d 9 9 9 f 9 9 l l f l f l f l f 9 9 9 9 l g f l d l d v 9 9 9 9 d f d d d d d 9 9 d f 9 * b l g n h n f n p 9 9 9 9 n l h n f n f m 9 9 9 = :X4X4X:X1X4X4Xf * f d 9 9 n l l f 9 m f m 9 9 9 9 9 n l g n f n 9 g 9 9 9 9 :X4X4X:X4X4X:X9 = f 9 9 9 9 h l f f f m 9 9 9 9 9 f n g l b h b 9 h 9 9 = f 1X4X1X:X4X4X:X9 9 f 9 9 ",
"9 9 9 % * * * * * * * 9 9 9 - 1.5X5X;X;X5X5X:.- p f 9 9 * * 9 * 9 * 9 * 9 9 9 9 9 9 * 9 * 9 * 9 * 9 9 9 9 9 d f f d f f f 9 9 f f 9 9 * * 9 * 9 * 9 * 9 9 9 9 9 * * 9 * 9 * 9 * 9 9 9 9 9 f f d d f f 9 9 9 f 9 9 * * 9 * 9 * 9 * 9 9 9 9 9 * * 9 * 9 * 9 * 9 9 9 9 p f f d f f f 9 9 d f 9 9 % * * % 9 % 9 % 9 9 9 9 9 % * * % 9 % 9 % 9 9 9 = ;X5X5X;X5X5X5Xw = f p 9 9 % * * 9 9 % 9 % 9 9 9 9 9 % * * % 9 % 9 * 9 9 9 9 ;X5X5X;X5X5X;X0 = f 9 9 9 9 9 * 9 9 9 % 9 9 9 9 9 9 % * * * 9 % 9 9 9 9 = q 5X5X5X;X5X5X;X9 9 f 9 9 ",
"9 9 9 9 9 9 9 9 9 9 9 9 9 9 - 1.5X5X;X;X5X5X:.- p f 9 9 9 9 9 9 9 9 9 9 9 9 9 9 9 9 9 9 9 9 9 9 9 9 9 9 9 9 d f f d f f f 9 9 f f 9 9 9 9 9 9 9 9 9 9 9 9 9 9 9 9 9 9 9 9 9 9 9 9 9 9 9 9 f f d d f f 9 9 9 f 9 9 9 9 9 9 9 9 9 9 9 9 9 9 9 9 9 9 9 9 9 9 9 9 9 9 9 p f f d f f f 9 9 d f 9 9 9 9 9 9 9 9 9 9 9 9 9 9 9 9 9 9 9 9 9 9 9 9 9 9 = :X5X5X;X;X5X5Xw = f p 9 9 9 9 9 9 9 9 9 9 9 9 9 9 9 9 9 9 9 9 9 9 9 9 9 9 9 ;X5X5X;X5X5X;X0 = f 9 9 9 9 9 9 9 9 9 9 9 9 9 9 9 9 9 9 9 9 9 9 9 9 9 9 = q ;X5X5X;X5X5X;X9 9 f 9 9 ",
"9 9 9 9 9 8 8 8 9 9 9 9 9 9 - 1.5X5X;X;X5X5X:.- p f 9 9 9 9 9 9 9 9 9 9 9 9 9 9 9 9 9 9 9 9 9 9 9 9 9 9 9 9 d f f d f f f 9 9 f f 9 9 9 9 9 9 9 9 9 9 9 9 9 9 9 9 9 9 9 9 9 9 9 9 9 9 9 9 f f d d f f 9 9 9 f 9 9 9 9 9 9 9 9 9 9 9 9 9 9 9 9 9 9 9 9 9 9 9 9 9 9 9 p f f d d f f 9 9 d f 9 9 9 9 9 & & = 9 9 9 9 9 9 9 9 9 9 & & = 9 9 9 9 9 = ;X5X5X;X5X5X5Xw = f p 9 9 9 9 9 = = = 9 9 9 9 9 9 9 9 9 = = = 9 9 9 9 9 9 9 ;X5X5X;X5X5X;X0 = f 9 9 9 9 9 9 = = = 9 9 9 9 9 9 9 9 9 = = = 9 9 9 9 9 = q ;X5X5X;X5X5X;X9 9 f 9 9 ",
"9 9 9 9 8 > V > 9 8 9 9 9 9 - 1.5X5X;X;X5X5X:.- p f 9 9 9 9 9 f h f 9 9 9 9 9 9 9 9 9 9 f h f 9 9 9 9 9 9 9 d f f d f f f 9 9 f f 9 9 9 9 9 f h d 9 9 9 9 9 9 9 9 9 9 f h d 9 9 9 9 9 9 9 f f d d f f 9 9 9 f 9 9 9 9 9 f h f 9 9 9 9 9 9 9 9 9 9 f h d 9 9 9 9 9 9 p f f d f f f 9 9 d f 9 9 9 & 9 *.4.s & 9 9 9 9 9 9 9 & a *.4.a & 9 9 9 9 9 w %.%.w %.%.%.9 = f p 9 9 9 = 0 %.%.q = 9 9 9 9 9 9 9 = 0 %.%.0 = 9 9 9 9 9 w %.%.w %.%.w 9 9 f 9 9 9 9 = 0 &.&.0 = 9 9 9 9 9 9 9 = u &.&.0 = 9 9 9 = q ;X5X5X;X5X5X;X9 9 f 9 9 ",
"9 9 9 t A C.A C.V.> 8 9 9 9 - 1.5X5X;X;X5X5X:.- p f 9 9 9 f m -.b q.b 9 9 9 9 9 9 9 d b q.b q.n d 9 9 9 9 9 d f f d f f f 9 9 f f 9 9 9 h m m n q.v 9 9 9 9 9 9 9 f m -.b q.b 9 9 9 9 9 9 f f d d f f 9 9 9 f 9 9 9 f m -.b q.b p 9 9 9 9 9 9 h m -.n q.v 9 9 9 9 9 p f f d f f f 9 9 d f 9 9 & *.qXqX7.wX8.a 9 9 9 9 9 & 4.qXqX7.wX6.9 9 9 9 9 q q q q q q q 9 9 f p 9 9 = %.*X*X<.=X<.9 9 9 9 9 9 = *.=X*X*X=X*.= 9 9 9 9 q q q q q q q 9 9 f 9 9 9 = &.,X>X>X,X&.= 9 9 9 9 9 9 ,.,X,.>X,X&.= 9 9 = q ;X5X5X;X5X5X;X9 9 f 9 9 ",
"9 9 8 V.A $ + + > Z.> 8 9 9 - 1.5X5X;X;X5X5X:.- p f 9 9 d q.h + . $ v q.9 9 9 9 9 9 -.l + . + g q.p 9 9 9 9 d f f d f f f 9 9 f f 9 9 h q.9 + . $ n m 9 9 9 9 9 d q.f + . $ v 5.9 9 9 9 9 f f d d f f 9 9 9 f 9 9 d q.h + . $ l q.9 9 9 9 9 h q.p + . $ b m 9 9 9 9 p f f d f f f 9 9 d f 9 & *.wXs . . $ 7.qX= 9 9 9 & 4.wXa . . % qX7.& 9 9 9 q w w q w w w 9 9 f p 9 = %.=Xr . . % *X<.= 9 9 9 = <.*X8 . . 8 =X<.= 9 9 9 q w w q w w q 9 9 f 9 9 = ,.,X0 . . 0 ,X,.= 9 9 9 = ,.>X% . . 0 ,X&.= 9 = q 5X5X5X;X5X5X;X9 9 f 9 9 ",
"9 8 V A @ - N h @ > V.9 9 9 - 1.5X5X;X;X5X5X:.- p f 9 9 n h X - d $ . v v * 9 9 * v v X $ d - X l b * 9 9 9 d f f d f f f 9 9 f f 9 9 m p X = d $ + m g 9 9 9 9 n h X - d $ . b v * 9 9 9 f f d d f f 9 9 9 f 9 9 n g X - d - . v v * 9 9 9 m d X = d $ . m g 9 9 9 p f f d f f f 9 9 d f 9 9 qXs X d N - o 7.4.& 9 = a qXa o h N $ ; qX*.& 9 9 q w w q q w q 9 9 f p = 0 *Xr o h g - ; *X%.= 9 = w *X% ; g g ; % =Xq = 9 9 q w w q w w q 9 9 f 9 = u >X% . g g ; % ,Xu = 9 = &.>X; $ h h . 0 ,X0 9 = q ;X;X;X:X;X5X:X9 9 f 9 * ",
"9 8 Z V # N v q.d ; C.> 8 9 - 1.5X5X;X;X5X5X:.- p f 9 9 -.% $ d g N . d m 9 9 9 9 -.9 . d h v $ * -.9 9 9 9 d f f d f f f 9 9 f f * f -.+ - d g g . g b * 9 9 p -.$ $ d g N . d m 9 9 9 9 f f d d f f 9 9 9 f 9 9 -.% $ d g N . 9 m 9 9 9 f -.+ - d g g . g b * 9 9 p f f d d f f 9 9 d f & s wX$ = N M -.o 4.7.& 9 & 4.qXX d N m M o 8.8.& 9 9 q w w q q w q 9 9 f p - %.*X. d N m M o <.<.- 9 - <.<.o h N ^ v o <.*.= 9 9 q w w q w w q 9 9 f 9 - &.,.. h N ^ v . ,.&.= 9 - ,.,.X g q.^ g . >X&.= 9 9 q q q q q q q 9 9 f 9 * ",
"9 8 A > . e.nXM h + Z > 8 9 - 1.5X5X;X;X5X5X:.- p f * d m $ . y.p.h $ = m 9 9 9 9 m * . r.u.h - $ m 9 9 9 9 d f f d f f f 9 9 f f * h n . - j.q.h . f b 9 9 9 d m $ . i.p.h $ = m 9 9 9 9 f f d d f f 9 9 9 f * d m $ . y.y.h $ = m 9 9 9 h n + $ u.w.h . d n 9 9 9 p f f d f f f 9 9 d f & s 7.+ - .Xl.v $ s 7.& 9 & 4.8.X d bXy.v o 4.8.& 9 9 q w w q q w q 9 9 f p - %.<.. d nXy.v ; %.<.- 9 - <.<.X v bXr.N . <.<.- 9 9 q w w q w w q 9 9 f 9 - ,.,.X g bXe.v . ,.,.- 9 = ,.&.d JXnXN N . ,.&.= 9 9 q w w q w w q 9 9 f 9 * ",
"9 8 A A   vXZXd # & C.t 9 9 - 1.5X5X;X;X5X5X:.- p f 9 9 5.9 X nXp.- X g n * 9 9 9 m h   M.l.- . d m 9 9 9 9 d f f d f f f 9 9 f f 9 d q.$ - BXm $ X v v * 9 9 9 q.= . nXe.- X g n * 9 9 9 f f d d f f 9 9 9 f 9 9 -.9 X vXy.- X g n * 9 9 p q.$ - BX-.$ X v v * 9 9 p f f d f f f 9 9 d f = a wX% - JXu.= o 8.8.& 9 & s wXX v JXq.= o 7.4.& 9 9 q w w q q w q 9 9 f p = w =X. N JXr.= o <.*.- 9 = %.*X  e.JXM - o *X%.= 9 9 q w w q w w q 9 9 f 9 = &.,X  r.JXM - . >X&.= 9 - ,.>X< e.M N $ $ ,Xu = 9 9 q w w q w w q 9 9 f 9 * ",
"9 8 : C.> f $ . $ Z V 8 9 9 - 1.5X5X;X;X5X5X:.- p f 9 9 g m = = . . 9 -.f 9 9 9 9 f -.9 = . . % -.g 9 9 9 9 d f f d f f f 9 9 f f 9 9 v n = = X . f -.9 9 9 9 9 g m = = . . 9 -.f 9 9 9 9 f f d d f f 9 9 9 f 9 9 g -.= = . . 9 -.f 9 9 9 9 v n = = X . f -.p 9 9 9 p f f d f f f 9 9 d f 9 & 6.qX9 d . . *.wXs = 9 9 & 8.7.= d . . 4.qX9 9 9 9 q w w q q w q 9 9 f p 9 = <.<.= d . . %.*X0 9 9 9 9 *X<.5 = . . <.<.= 9 9 9 q w w q w w q 9 9 f 9 9 9 ,.,.3 = . . ,.>X9 9 9 = 0 8X,.  . . ; ,.,.= 9 9 9 q w w q w w q 9 9 f 9 9 ",
"9 9 8 V A % & 8 V Z 9 9 9 9 - 1.5X5X;X;X5X5X:.- p f 9 9 9 n l % * * v l 9 9 9 9 9 9 v v % * * l v 9 9 9 9 9 d f f d f f f 9 9 f f 9 9 9 m f % * 9 n h 9 9 9 9 9 9 n l % * * v l 9 9 9 9 9 f f d d f f 9 9 9 f 9 9 9 b l % * * v l 9 9 9 9 9 9 m f % * 9 n h 9 9 9 9 p f f d d f f 9 9 d f 9 9 9 qX4.; 8 & 7.4.& 9 9 9 = a qXs $ * 9 qXs & 9 9 9 q w w q q w q 9 9 f p 9 = 0 *Xe $ * 9 *X%.= 9 9 9 = w *X8 % * 0 *Xq = 9 9 9 q w w q w w q 9 9 f 9 9 = u >X0 % * 0 >Xu = 9 9 9 - &.<X9 * * u >X9 9 9 9 9 q w q q w w q 9 9 f 9 9 ",
"9 9 9 8 9 9 9 9 9 9 9 9 9 9 - 1.5X5X;X;X5X5X:.- p f 9 9 9 9 9 9 9 9 9 9 9 9 9 9 9 9 9 9 9 9 9 9 9 9 9 9 9 9 d f f d f f f 9 9 f f 9 9 9 9 9 9 9 9 9 9 9 9 9 9 9 9 9 9 9 9 9 9 9 9 9 9 9 9 f f d d f f 9 9 9 f 9 9 9 9 9 9 9 9 9 9 9 9 9 9 9 9 9 9 9 9 9 9 9 9 9 9 9 p f f d f f f 9 9 d f 9 9 9 = 9 9 9 9 9 = 9 9 9 9 9 9 = 9 9 9 9 9 = 9 9 9 9 q w w q q w q 9 9 f d 9 9 9 = 9 9 9 9 9 = 9 9 9 9 9 = 9 9 9 9 9 9 9 9 9 9 9 q w w q w w q 9 9 f 9 9 9 = 9 9 9 9 9 9 = 9 9 9 9 9 = 9 9 9 9 9 9 9 9 9 9 9 q w w q w w q 9 9 f 9 9 ",
"9 9 9 * 9 9 * * * * * 9 9 9 - 1.5X5X;X;X5X5X:.- p f 9 9 9 9 9 9 * 9 * 9 9 9 9 9 9 9 9 9 9 * * 9 * 9 9 9 9 9 d f f d f f f 9 9 f f 9 9 9 9 9 9 * 9 * 9 9 9 9 9 9 9 9 9 9 * 9 * 9 9 9 9 9 9 f f d d f f 9 9 9 f 9 9 9 9 9 9 * 9 * 9 9 9 9 9 9 9 9 9 9 * 9 * 9 9 9 9 9 p f f d f f f 9 9 d f 9 9 * 9 9 * * * * * 9 9 9 9 9 * 9 9 * * * * * 9 9 9 9 q w w q q w q 9 9 f p 9 9 * 9 9 * * * * * 9 9 9 9 9 * 9 9 * * * * * 9 9 9 9 q w w q w w q 9 9 f 9 9 9 * 9 9 * * * * * 9 9 9 9 9 9 % 9 9 9 * * 9 9 9 9 9 q w w q w w q 9 9 f 9 9 ",
"9 * h l.l l j.q.i.w.j.f 9 9 - 1.5X5X;X;X5X5X:.- p f 9 9 q.m 9 w.n w.n r.l * 9 9 * l t.p v w.n q.m w.9 9 9 9 d f f d f f f 9 9 f f 9 9 r.v 9 e.b w.b r.h 9 9 9 9 q.m 9 w.n w.n r.l * 9 9 9 f f d d f f 9 9 9 f 9 9 q.-.9 w.n w.n r.l * 9 9 9 r.v 9 e.b w.b r.h 9 9 9 p f f d f f f 9 9 d f 9 9 u.-.9 j.q.i.q.j.l * 9 9 f l.v h j.q.u.q.j.f 9 9 9 q w w q q w q 9 9 f d * f j.b f j.q.u.q.j.h 9 9 * l l.h v j.w.i.w.u.9 9 9 9 q w w q w w q 9 9 f p * l l.l l j.q.i.w.u.d 9 9 9 * v i.% -.y.e.i.9 9 9 9 9 q w w q w w q 9 9 f 9 * ",
"9 % w.t.q.q.r.M.5.M.w.5.% 9 - 1.5X5X;X;X5X5X:.- p f * h -.-.v n i.n i.-.-.* 9 9 * -.-.v n -.i.-.y.m l * 9 9 d f f d f f f 9 9 f f % v -.n v n u.b u.n -.* 9 * g -.-.v n i.n i.-.-.* 9 9 9 f f d d f f 9 9 9 f * h -.-.v n i.m i.-.-.9 9 * l -.n v n u.b u.n -.* 9 9 p f f d f f f 9 9 d f % b t.r.-.w.M.q.M.w.t.% 9 % 5.t.w.5.w.M.-.M.w.w.% 9 9 q w w q q w q 9 9 f f % -.t.w.-.w.M.-.M.w.w.% 9 % r.t.5.q.e.M.w.n.w.-.% 9 9 q w w q w w q 9 9 f p % w.t.q.q.e.M.q.M.w.-.% 9 9 9 h j.% f N.j.e.b % 9 9 9 q w w q w w q 9 9 f 9 % ",
"9 % n l.t.r.j.c.i.c.j.b * 9 - 1.5X5X;X;X5X5X:.- p f * d w.w.n w.t.w.t.e.-.* 9 9 * b t.-.-.e.t.r.t.r.f 9 9 9 d f f d f f f 9 9 f f * h e.q.n w.t.w.t.r.b * 9 9 d r.w.n w.t.w.t.e.-.* 9 9 9 f f d d f f 9 9 9 f * d w.r.n w.t.w.t.e.-.* 9 9 h e.w.n w.t.w.t.r.b * 9 9 p f f d d f f 9 9 d f * g j.i.w.u.c.i.c.j.w.% 9 * v l.y.r.j.c.i.c.j.n % 9 9 q w w q q w q 9 9 f f % v j.y.w.u.c.i.c.j.-.% 9 % -.l.t.e.j.c.u.c.j.l * 9 9 q w w q w w q 9 9 f p % m l.t.e.j.c.i.c.j.v * 9 9 9 9 y.v n l.l.j.g * 9 9 9 q w q q w w q 9 9 f 9 % ",
"9 9 9 n l h n f n f n 9 9 9 - 1.5X5X;X;X5X5X:.- p f 9 9 l l f l f l f l d 9 9 9 9 p l f h l f l f l 9 9 9 9 d f f d f f f 9 9 f f 9 9 l h f l d l p v 9 9 9 9 9 l l f l f l f l d 9 9 9 9 f f d d f f 9 9 9 f 9 9 l l f l f l f l d 9 9 9 9 l h f l d l d v 9 9 9 9 p f f d f f f 9 9 d f 9 * b l f b f n f n p 9 9 9 9 n l h n f n f n 9 9 9 9 q w w q q w q 9 9 f d 9 9 n l h n f n f n 9 9 9 9 9 n g g b f b f n 9 9 9 9 q w w q w w q 9 9 f 9 9 9 n l h b f b f n 9 9 9 9 9 9 h g b v h b * 9 9 9 9 q w w q w w q 9 9 f 9 9 ",
"9 9 9 % * * % 9 % 9 % 9 9 9 - 1.5X5X;X;X5X5X:.- p f 9 9 * * 9 * 9 * 9 * 9 9 9 9 9 9 * 9 9 * 9 * 9 * 9 9 9 9 d f f d f f f 9 9 f f 9 9 * * 9 * 9 * 9 * 9 9 9 9 9 * * 9 * 9 * 9 * 9 9 9 9 9 f f d d f f 9 9 9 f 9 9 * * 9 * 9 * 9 * 9 9 9 9 9 * * 9 * 9 * 9 * 9 9 9 9 p f f d f f f 9 9 d f 9 9 * * 9 % 9 % 9 % 9 9 9 9 9 % * 9 % 9 % 9 % 9 9 9 9 q w w q q w q 9 9 f p 9 9 % * 9 % 9 % 9 % 9 9 9 9 9 % * * % 9 % 9 % 9 9 9 9 q w w q w w q 9 9 f 9 9 9 % * * % 9 % 9 % 9 9 9 9 9 9 9 * % * * % 9 9 9 9 9 q w w q w w q 9 9 f 9 9 ",
"9 9 9 9 9 9 9 9 9 9 9 9 9 9 - 1.5X5X;X;X5X5X:.- p f 9 9 9 9 9 9 9 9 9 9 9 9 9 9 9 9 9 9 9 9 9 9 9 9 9 9 9 9 d f f d f f f 9 9 f f 9 9 9 9 9 9 9 9 9 9 9 9 9 9 9 9 9 9 9 9 9 9 9 9 9 9 9 9 f f d d f f 9 9 9 f 9 9 9 9 9 9 9 9 9 9 9 9 9 9 9 9 9 9 9 9 9 9 9 9 9 9 9 p f f d f f f 9 9 d f 9 9 9 9 9 9 9 9 9 9 9 9 9 9 9 9 9 9 9 9 9 9 9 9 9 9 9 q w w q q w q 9 9 f p 9 9 9 9 9 9 9 9 9 9 9 9 9 9 9 9 9 9 9 9 9 9 9 9 9 9 9 q w w q w w q 9 9 f 9 9 9 9 9 9 9 9 9 9 9 9 9 9 9 9 9 9 9 9 9 9 9 9 9 9 9 9 q w w q w w q 9 9 f 9 9 ",
"9 9 9 9 9 8 8 8 9 9 9 9 9 9 - 1.5X5X;X;X5X5X:.- p f 9 9 9 9 9 9 9 9 9 9 9 9 9 9 9 9 9 9 9 * * 9 9 9 9 9 9 9 d f f d f f f 9 9 f f 9 9 9 9 9 9 9 9 9 9 9 9 9 9 9 9 9 9 * * 9 9 9 9 9 9 9 9 f f d d f f 9 9 9 f 9 9 9 9 9 9 9 9 9 9 9 9 9 9 9 9 9 9 * * 9 9 9 9 9 9 9 p f f d d f f 9 9 d f 9 9 9 9 9 & & & 9 9 9 9 9 9 9 9 9 9 & & = 9 9 9 9 9 9 q w w q q w q 9 9 f p 9 9 9 9 9 = = = 9 9 9 9 9 9 9 9 9 = = = = 9 9 9 9 9 9 q w w q w w q 9 9 f 9 9 9 9 9 = = = = 9 9 9 9 9 9 9 9 9 = = = 9 9 9 9 9 9 9 q w q q w w q 9 9 f 9 9 ",
"9 9 9 9 8 > V V 9 8 9 9 9 9 - 1.5X5X;X;X5X5X:.- p f 9 9 9 9 9 f h f 9 9 9 9 9 9 9 9 9 9 h l h 9 9 9 9 9 9 9 d f f d f f f 9 9 f f 9 9 9 9 9 h h d 9 9 9 9 9 9 9 9 9 9 g l h 9 9 9 9 9 9 9 f f d d f f 9 9 9 f 9 9 9 9 9 f h f 9 9 9 9 9 9 9 9 * 9 g l f 9 9 9 9 9 9 p f f d f f f 9 9 d f 9 9 9 & 9 *.4.s & 9 9 9 9 9 9 9 & a 4.4.s & 9 9 9 9 9 q w w q q w q 9 9 f p 9 9 9 = 0 %.%.q = 9 9 9 9 9 9 9 = 0 %.%.0 = 9 9 9 9 9 q w w q w w q 9 9 f 9 9 9 9 = 0 &.&.u = 9 9 9 9 9 9 9 = u &.&.0 = 9 9 9 9 9 q w w q w w q 9 9 f 9 9 ",
"9 9 8 t C.K.C.A.A.V 8 9 9 9 - 1.5X5X;X;X5X5X:.- p f 9 9 9 f m 5.b q.b p 9 9 9 9 9 9 f q.y.q.y.r.h 9 9 9 9 9 d f f d f f f 9 9 f f 9 9 9 h m -.n q.v 9 9 9 9 9 9 * h r.t.q.y.q.d 9 9 9 9 9 f f d d f f 9 9 9 f 9 9 9 f m 5.b q.b p 9 9 9 9 9 * l e.e.w.e.v 9 9 9 9 9 p f f d f f f 9 9 d f 9 9 & *.qXqX7.wX8.a = 9 9 9 9 & 8.tXqX7.wX6.9 9 9 9 9 q w w q q w q 9 9 f p 9 9 = %.=X*X<.=X<.9 9 9 9 9 9 = *.=X<.*X=X*.= 9 9 9 9 q w w q w w q 9 9 f 9 9 9 = &.,X>X>X,X&.= 9 9 9 9 9 9 ,.,X,.>X,X&.= 9 9 9 9 q w w q w w q 9 9 f 9 9 ",
"9 9 8 Z.C.# @ + V K.V 8 9 9 - 1.5X5X;X;X5X5X:.- p f 9 9 f r.d . . $ v q.9 9 9 9 9 9 y.b + . + v i.f 9 9 9 9 d f f d f f f 9 9 f f 9 * l r.* . . $ n m 9 9 9 9 9 f y.g + . + n y.9 9 9 9 9 f f d d f f 9 9 9 f 9 9 f r.d . . + l q.9 9 9 9 * l y.f . . % b m 9 9 9 9 p f f d f f f 9 9 d f 9 & 4.tXs X . $ 7.qX= 9 9 9 & 8.hXs ; X % qX7.& 9 9 9 q w w q q w q 9 9 f p 9 - <.-X% X . % *X<.= 9 9 9 = <.*X% ; . 8 =X<.= 9 9 9 q w w q w w q 9 9 f 9 9 - ,.,X+ . . 8 ,X,.= 9 9 9 = ,.,.+ . . 0 ,X&.= 9 9 9 q w w q w w q 9 9 f 9 9 ",
"9 8 A C.@ - N h @ V A.8 9 9 - 1.5X5X;X;X5X5X:.- p f 9 9 r.l d v 3 - . v v * 9 9 * -.m X $ d - X b w.* 9 9 9 d f f d f f f 9 9 f f 9 9 e.d g g = $ . m g 9 9 9 9 r.l X - 3 = $ n v * 9 9 9 f f d d f f 9 9 9 f 9 9 r.l d v 3 - X v v * 9 9 9 e.f X - c.v X m g * 9 9 p f f d f f f 9 9 d f 9 9 yX4.N q.h = o 7.4.& 9 = s yXa ; MX^ ; ; qX*.& 9 9 q w w q q w q 9 9 f p = q -Xe ^ m h - ; *X%.= 9 = %.=X* - 5 g ; % =Xq = 9 9 q w w q w w q 9 9 f 9 = &.<X0 q.M h $ % ,Xu = 9 - &.,X- g d g . 0 ,X0 9 9 9 q w w q w w q 9 9 f 9 * ",
"9 8 Z.A @ v M M d ; A.> 8 9 - 1.5X5X;X;X5X5X:.- p f * d y.$ g CXw.g ; p m 9 9 9 9 t.d . h N -.$ * t.9 9 9 9 d f f d f f f 9 9 f f * g t.X q.MXM g . g b * 9 9 d p.% $ h e.MXv = m 9 9 9 9 f f d d f f 9 9 9 f * d y.$ g CXr.g ; 9 m 9 9 9 h t.+ $ v bXm X g b * 9 9 p f f d d f f 9 9 d f & *.yX@ y.KXp.M o 4.7.& p & 6.tXo 3 SXn.N o 8.8.& 9 9 q w w q q w q 9 9 f p - *.-X  v.KXq.M o <.<.- 9 - <.=X: SXNXM v o <.*.- 9 9 q w w q w w q 9 9 f 9 - ,.,X  bXJXm v . ,.&.= 9 - ,X,.1 JXbXM g . >X&.= 9 9 q w q q w w q 9 9 f 9 # ",
"9 8 C.V # g l.vX5 + Z.V 8 9 - 1.5X5X;X;X5X5X:.- p f * f e.$ ; M v g $ = m 9 9 9 9 e.= ; h M mXy.$ e.d 9 9 9 d f f d f f f 9 9 f f * l w.. - m N g . f b 9 9 9 f e.$ - h m e.. 9 m 9 9 9 9 f f d d f f 9 9 9 f * f e.$ ; M v g $ = m 9 9 * g r.. - g g g . d n 9 9 9 p f f d d f f 9 9 d f & 4.tX. = p.^ M ; s 7.& 9 & 6.wXX h M m M o 4.8.& 9 9 q w w q q w q 9 9 f p - <.=XX d p.m M ; %.<.- 9 - <.<.X e.x.M v . <.<.- 9 9 q w w q w w q 9 9 f 9 - ,.>XX g p.m v . ,.,.- 9 - ,X,.X r.u.M N . ,.&.= 9 9 q w q q w w q 9 9 f 9 # ",
"9 8 C.V.@ - i.JX* , A.t 9 9 - 1.5X5X;X;X5X5X:.- p f 9 9 y.d X = d = X g n * 9 9 * e.l   = d h - d q.9 9 9 9 d f f d f f f 9 9 f f * f y.% . = d - X v v * 9 9 9 y.p X 5 d - X g b * 9 9 p f f d d f f 9 9 9 f 9 9 p.d X = d = X g n * 9 9 d y.% X 5 h - X v v * 9 9 d f f d f f f 9 9 d f = a hXa o h N d X 8.8.& 9 & 4.yXo $ N v 3 o 7.4.& 9 9 q w w q w w w 9 9 f p = %.6X$ $ h v 3 o <.*.- 9 - <.-Xo $ h v - o *X%.= 9 9 q w w q w w q 9 9 f 9 - &.<XX - h v - . >X&.= 9 - ,.,XX - g v $ $ ,Xu = 9 9 w w w q w w q 9 9 f 9 # ",
"9 8 > A.V @ . d = Z.A 8 9 9 = 1.;X;X:X:X;X;X:.= p f 9 * v p.* . . . 9 -.f 9 9 9 9 g y.d X . X $ -.h 9 9 9 9 p d d p d d d 9 9 f f 9 * m e.$ . . . h -.9 9 9 9 * v t.% . . . 9 -.f 9 9 9 9 d d d d d d 9 9 9 f 9 * v p.* . . . 9 -.f 9 9 9 * m e.$ . . . f -.p 9 9 9 9 d d p d d d 9 9 d f 9 & 7.yX% . $ X *.wXs = 9 9 & wXwX. . $ X 4.qX9 9 9 9 q q q q q q q 9 9 f p 9 = =X=X+ . $ . %.*X9 9 9 9 9 -X*X. $ . . <.<.= 9 9 9 q q q q q q q 9 9 f 9 9 = <X>X. $ ; . ,.>X9 9 9 9 0 <X,.. $ . ; ,.,.= 9 9 9 q q q q q q q 9 9 f 9 9 ",
"9 9 8 A C.8 & # V C.8 9 9 9 9 = - - - - - - = 9 p f 9 9 9 w.b % * * v l 9 9 9 9 9 * -.-.* * * l v 9 9 9 9 9 9 9 9 9 9 9 9 9 9 f f 9 9 9 e.l * * 9 n h 9 9 9 9 9 9 w.v % * * v l 9 9 9 9 9 9 9 9 9 9 9 9 9 9 f 9 9 9 q.b % * * v l 9 9 9 9 9 9 e.l % * 9 b h 9 9 9 9 9 9 9 9 9 9 9 9 9 d f 9 9 9 tX4.$ 8 & 7.4.& 9 9 9 & s yXs & * 9 2Xs & 9 9 9 9 9 = = = = = 9 9 f p 9 = q -X%.- * 9 *Xw = 9 9 9 = %.-X0 * * q *Xq = 9 9 9 9 = 9 = = = = 9 9 f 9 9 = &.<Xu * * 0 >Xu = 9 9 9 - &.<X= * * u >X9 9 9 9 9 9 = = = = = = 9 9 f 9 9 ",
"9 9 9 8 9 9 9 9 9 8 9 9 9 9 9 9 9 0 q q :.9 9 9 p f 9 9 9 9 9 9 9 9 9 9 9 9 9 9 9 9 9 9 9 9 9 9 9 9 9 9 9 9 9 9 9 9 9 9 9 9 9 f f 9 9 9 9 9 9 9 9 9 9 9 9 9 9 9 9 9 9 9 9 9 9 9 9 9 9 9 9 9 9 9 9 9 9 9 9 9 f 9 9 9 9 9 9 9 9 9 9 9 9 9 9 9 9 9 9 9 9 9 9 9 9 9 9 9 9 9 9 9 9 9 9 9 9 d f 9 9 9 & 9 9 9 9 9 = 9 9 9 9 9 = = 9 9 9 9 9 = 9 9 9 9 = w 1.q :.%.:.= 9 f d 9 9 = = 9 9 9 9 9 = 9 9 9 9 9 = = 9 9 9 9 9 = 9 9 9 9 - :.w w :.%.w = 9 f 9 9 9 = = 9 9 9 9 9 9 9 9 9 9 9 = = 9 9 9 9 9 9 9 9 9 9 - :.w :.0 :.%.= 9 f 9 9 ",
"9 9 9 9 * * * * * * 9 9 9 9 9 9 0 :.1.1.1.= 9 9 p f 9 9 9 9 9 9 * 9 * 9 9 9 9 9 9 9 9 9 * 9 9 9 9 9 9 9 9 9 9 9 9 9 9 9 9 9 9 f f 9 9 9 9 9 9 * 9 * 9 9 9 9 9 9 9 9 9 * 9 9 9 9 9 9 9 9 9 9 9 9 9 9 9 9 9 9 f 9 9 9 9 9 9 * 9 * 9 9 9 9 9 9 9 9 9 9 9 9 9 9 9 9 9 9 9 9 9 9 9 9 9 9 9 d f 9 9 * 9 9 * * * * 8 9 9 9 9 9 9 * 9 9 * 9 * 9 9 9 9 = q w :.9 :.w 1.= 9 f p 9 9 * 9 9 * * * * 8 9 9 9 9 9 9 9 % 9 9 9 * 9 9 9 9 9 q 1.:.w 1.:.%.= 9 f 9 9 9 8 9 9 * * * * 9 9 9 9 9 9 9 9 * * 9 * * 9 9 9 9 9 q :.%.1.%.:X:.= 9 f 9 9 ",
"9 9 9 * y.b i.w.u.-.* 9 9 9 9 9 9 w :.:.%.= 9 9 p f 9 9 q.-.9 r.n w.n r.l * 9 9 9 9 -.-.e.v 9 w.n * 9 9 9 9 9 9 9 9 9 9 9 9 9 f f 9 9 e.v p e.b w.b e.h 9 9 9 9 9 -.w.q.h 9 e.l * 9 9 9 9 9 9 9 9 9 9 9 9 9 f 9 9 q.-.9 w.n w.n r.v * 9 9 9 f t.l w.-.d t.g * 9 9 9 9 9 9 9 9 9 9 9 9 d f 9 9 j.5.9 j.w.u.q.j.v * 9 9 9 % w.r.y.l l l.h * 9 9 9 9 w w 0 w %.:.= 9 f d * f l.b h j.q.u.q.j.h * 9 9 * l i.r.j.h n j.d 9 9 9 9 0 %.:.w :.w q = 9 f p * l l.l l j.w.i.w.j.d 9 9 9 * b i.r.j.9 w.i.9 9 9 9 9 0 w w :.w :.%.= 9 f 9 * ",
"9 9 9 % r.u.-.n.t.t.9 9 9 9 9 9 9 = = - = 9 9 9 p f * h -.-.v n i.n i.-.-.* 9 9 9 * t.t.q.m h -.5.9 9 9 9 9 9 9 9 9 9 9 9 9 9 f f % v -.n v n u.b u.n -.* 9 9 9 * l -.-.l l -.-.9 9 9 9 9 9 9 9 9 9 9 9 9 9 f * h -.-.v n i.m i.-.-.9 9 9 9 d e.l b v v -.-.* 9 9 9 9 9 9 9 9 9 9 9 9 d f % b t.r.-.w.M.5.M.w.t.% 9 9 * h n.-.i.-.q.t.w.% 9 9 9 9 = 9 9 9 = 9 9 9 f f % -.t.w.-.w.M.-.M.q.w.% 9 9 9 % q.j.M.l r.t.-.% 9 9 9 9 9 = 9 = = = 9 9 f p % w.t.q.q.r.M.q.M.w.-.% 9 9 9 9 c.c.r.-.r.t.b % 9 9 9 9 = = 9 9 = = 9 9 f 9 % ",
"9 9 9 % -.t.i.c.j.t.* 9 9 9 9 9 = 0 w w 1.9 9 9 p f * d r.r.n w.t.w.t.e.-.* 9 9 9 9 r.t.l e.b r.q.9 9 9 9 9 9 9 9 9 9 9 9 9 9 f f * h e.q.n r.t.w.t.e.b * 9 9 9 * q.f v b b e.-.* 9 9 9 9 9 9 9 9 9 9 9 9 9 f * p w.r.n w.t.w.t.e.-.* 9 9 9 9 b w.q.h m e.b * 9 9 9 9 9 9 9 9 9 9 9 9 d f * g j.i.w.u.c.i.c.j.w.% 9 9 * b M.j.y.i.r.l.m % 9 9 9 - :.:.9 1.1.%.= 9 f f % v l.y.w.j.c.i.c.j.m % 9 9 % n c.t.z.e.t.l.v * 9 9 9 = %.1.w :.%.:.= 9 f p % m l.t.e.j.c.u.l.j.v * 9 9 9 l j.c.j.r.y.j.h * 9 9 9 - :.:.1.= :.q = 9 f 9 % ",
"9 9 9 9 f p b f b f 9 9 9 9 9 9 0 :.1.1.1.= 9 9 p f 9 9 g g f l f l d l d 9 9 9 9 9 g g l h f l f 9 9 9 9 9 9 9 9 9 9 9 9 9 9 f f 9 9 l h f l d l p l 9 9 9 9 9 9 f 9 d f f l d 9 9 9 9 9 9 9 9 9 9 9 9 9 9 f 9 9 g g f l f l f l d 9 9 9 9 9 v f f d f l 9 9 9 9 9 9 9 9 9 9 9 9 9 9 d f 9 * v l f b f b f n 9 9 9 9 9 * 9 l n l h n 9 9 9 9 9 q :.1.9 :.:.:.= 9 f p 9 9 b l h b f n f n 9 9 9 9 * l -.l b l g b 9 9 9 9 9 w %.:.%.:X:X1.- 9 f 9 9 9 n g h b f b f n 9 9 9 9 9 l b f b h l v * 9 9 9 9 w :.:.1.q :.w = 9 f 9 9 ",
"9 9 9 9 9 9 * 9 % 9 9 9 9 9 9 9 9 q %.w w = 9 9 p f 9 9 * * 9 * 9 * 9 * 9 9 9 9 9 9 * * * * 9 * 9 9 9 9 9 9 9 9 9 9 9 9 9 9 9 f f 9 9 * * 9 * 9 * 9 * 9 9 9 9 9 9 9 9 9 9 9 * 9 9 9 9 9 9 9 9 9 9 9 9 9 9 9 f 9 9 * * 9 * 9 * 9 * 9 9 9 9 9 9 * 9 9 9 9 * 9 9 9 9 9 9 9 9 9 9 9 9 9 9 d f 9 9 * * 9 % 9 % 9 % 9 9 9 9 9 9 9 * % * * % 9 9 9 9 9 9 w :.w w w :.= 9 f d 9 9 % * 9 % 9 % 9 % 9 9 9 9 9 * % * % * * % 9 9 9 9 9 9 w q q :.w %.= 9 f 9 9 9 % * * % 9 % 9 % 9 9 9 9 9 * % 9 % 9 * * 9 9 9 9 9 9 q q :.q w 0 9 9 f 9 9 ",
"9 9 9 9 9 9 9 9 9 9 9 9 9 9 9 9 9 9 = 9 9 9 9 9 f f 9 9 9 9 9 9 9 9 9 9 9 9 9 9 9 9 9 9 9 9 9 9 9 9 9 9 9 9 9 9 9 9 9 9 9 9 9 f f 9 9 9 9 9 9 9 9 9 9 9 9 9 9 9 9 9 9 9 9 9 9 9 9 9 9 9 9 9 9 9 9 9 9 9 9 f h 9 9 9 9 9 9 9 9 9 9 9 9 9 9 9 9 9 9 9 9 9 9 9 9 9 9 9 9 9 9 9 9 9 9 9 9 f f 9 9 9 9 9 9 9 9 9 p 9 9 9 9 9 9 9 9 p 9 9 p 9 9 9 9 9 9 9 = 9 9 9 = 9 9 f f 9 9 9 9 9 9 9 9 9 p 9 9 9 9 9 9 p 9 p 9 9 9 9 9 9 9 9 9 9 9 9 = = = 9 9 h d 9 9 p 9 9 9 9 9 9 p 9 9 9 9 9 9 p 9 9 9 9 9 9 9 9 9 9 9 9 9 = 9 9 9 9 9 h p 9 ",
"$ $ $ $ $ $ $ $ $ $ $ $ $ $ $ $ $ $ $ $ $ $ $ $ $ $ $ $ $ $ $ $ $ $ $ $ $ $ $ $ $ $ $ $ $ $ $ $ $ $ $ $ $ $ $ $ $ $ $ $ $ $ $ $ $ $ $ $ $ $ $ $ $ $ $ $ $ $ $ $ $ $ $ $ $ $ $ $ $ $ $ $ $ $ $ $ $ $ $ $ $ $ $ $ $ $ $ $ $ $ $ $ $ $ $ $ $ $ $ $ $ $ $ $ $ $ $ $ $ $ $ $ $ $ $ $ $ $ $ $ $ $ $ $ $ $ $ $ $ $ $ $ $ $ $ $ $ $ $ $ $ $ $ $ $ $ $ $ $ $ $ $ $ $ $ $ $ $ $ $ $ $ $ $ $ $ $ $ $ $ $ $ $ $ $ $ $ $ $ $ $ $ $ $ $ $ $ $ $ $ $ $ $ $ $ $ $ $ $ $ $ $ $ $ $ $ $ $ $ $ $ $ $ $ $ $ $ $ $ $ $ $ $ $ $ $ $ $ $ $ $ $ $ $ $ $ ",
"mXmXmXmXmXmXmXmXmXmXmXmXmXmXmXmXmXmXmXmXmXmXmXmXmXmXmXmXmXmXmXmXmXmXmXmXmXmXmXmXmXmXmXmXmXmXmXmXmXmXmXmXmXmXmXmXmXmXmXmXmXmXmXmXmXmXmXmXmXmXmXmXmXmXmXmXmXmXmXmXmXmXmXmXmXmXmXmXmXmXmXmXmXmXmXmXmXmXmXmXmXmXmXmXmXmXmXmXmXmXmXmXmXmXmXmXmXmXmXmXmXmXmXmXmXmXmXmXmXmXmXmXmXmXmXmXmXmXmXmXmXmXmXmXmXmXmXmXmXmXmXmXmXmXmXmXmXmXmXmXmXmXmXmXmXmXmXmXmXmXmXmXmXmXmXmXmXmXmXmXmXmXmXmXmXmXmXmXmXmXmXmXmXmXmXmXmXmXmXmXmXmXmXmXmXmXmXmXmXmXmXmXmXmXmXmXmXmXmXmXmXmXmXmXmXmXmXmXmXmXmXmXmXmXmXmXmXmXmXmXmXmXmXmXmXmXmXmXmXmXmXmXmXmXmXmX",
"n n n n n n n n n n n n n n n n n n n n n n n n n n n n n n n n n n n n n n n n n n n n n n n n n n n n n n n n n n n n n n n n n n n n n n n n n n n n n n n n n n n n n n n n n n n n n n n n n n n n n n n n n n n n n n n n n n n n n n n n n n n n n n n n n n n n n n n n n n n n n n n n n n n n n n n n n n n n n n n n n n n n n n n n n n n n n n n n n n n n n n n n n n n n n n n n n n n n n n n n n n n n n n n n n n n n n n n n n n n n n n n n n n n n n n n n n n n n n n n n n n n n n n n n n n n n n n n n ",
"% % % % % % % % % % % % % % % % % % % % % % % % % % % % % % % % % % % % % % % % % % % % % % % % % % % % % % % % % % % % % % % % % % % % % % % % % % % % % % % % % % % % % % % % % % % % % % % % % % % % % % % % % % % % % % % % % % % % % % % % % % % % % % % % % % % % % % % % % % % % % % % % % % % % % % % % % % % % % % % % % % % % % % % % % % % % % % % % % % % % % % % % % % % % % % % % % % % % % % % % % % % % % % % % % % % % % % % % % % % % % % % % % % % % % % % % % % % % % % % % % % % % % % % % % % % % % % % % ",
"9 9 9 9 9 9 d -.q.-.w.9 9 9 9 9 9 9 9 9 9 9 9 9 9 9 9 9 9 9 9 9 9 9 9 9 9 9 9 9 9 9 9 9 9 9 9 9 9 9 9 9 9 9 9 9 9 9 9 9 9 9 9 9 9 9 9 9 9 9 9 9 9 9 9 9 9 9 9 9 9 9 9 9 9 9 9 9 9 9 9 9 9 9 9 9 9 9 9 9 9 9 9 9 9 9 9 9 9 9 9 9 9 9 9 9 9 9 9 9 9 9 9 9 9 9 9 9 9 9 9 9 9 9 9 9 9 9 9 9 9 9 9 9 9 9 9 9 9 9 9 9 9 9 9 9 9 9 9 9 9 9 9 9 9 9 9 9 9 9 9 9 9 9 9 9 9 9 9 9 9 9 9 9 9 9 9 9 9 9 9 9 9 9 9 9 9 9 9 9 9 9 9 9 9 9 9 9 9 9 9 9 9 9 9 9 9 9 9 9 9 9 9 9 9 9 9 9 9 9 9 9 9 9 9 9 9 9 9 9 9 9 9 9 9 9 9 9 9 9 9 9 9 9 9 9 ",
"9 9 9 9 9 9 9 y.x.M.l.p 9 9 a 4.9 9 9 9 9 9 9 9 9 9 9 9 9 9 9 9 9 9 9 9 9 9 9 9 9 9 9 9 9 9 9 9 9 9 9 9 9 9 9 9 9 9 9 9 9 9 9 9 9 9 9 9 9 9 9 9 9 9 9 9 9 9 9 9 9 9 9 9 9 9 9 9 9 9 9 9 9 9 9 9 9 9 9 9 9 9 9 9 9 9 9 9 9 9 9 9 9 9 9 9 9 9 9 9 9 9 9 9 9 9 9 9 9 9 9 9 9 9 9 9 9 9 9 9 9 9 9 9 9 9 9 9 9 9 9 9 9 9 9 9 9 9 9 9 9 9 9 9 9 9 9 9 9 9 9 9 9 9 9 9 9 9 9 9 9 9 9 9 9 9 9 9 9 9 9 9 9 9 9 9 9 9 9 9 9 9 9 9 9 9 9 9 9 9 9 9 9 9 9 9 9 9 9 9 9 9 9 9 9 9 9 9 9 9 9 9 9 9 9 9 9 9 9 9 9 9 9 9 9 9 9 9 9 9 9 9 9 9 9 9 ",
"6.6.a = 9 9 f v h v.v f 9 9 4.2X*.& s 6.6.a 9 9 9 9 9 9 9 9 9 9 9 9 9 9 9 9 9 9 9 9 9 9 9 9 9 9 9 9 9 9 9 9 9 9 9 9 9 9 9 9 9 9 9 9 9 9 9 9 9 9 9 9 9 9 9 9 9 9 9 9 9 9 9 9 9 9 9 9 9 9 9 9 9 9 9 9 9 9 9 9 9 9 9 9 9 9 9 9 9 9 9 9 9 9 9 9 9 9 9 9 9 9 9 9 9 9 9 9 9 9 9 9 9 9 9 9 9 9 9 9 9 9 9 9 9 9 9 9 9 9 9 9 9 9 9 9 9 9 9 9 9 9 9 9 9 9 9 9 9 9 9 9 9 9 9 9 9 9 9 9 9 9 9 9 9 9 9 9 9 9 9 9 9 9 9 9 9 9 9 9 9 9 9 9 9 9 9 9 9 9 9 9 9 9 9 9 9 9 9 9 9 9 9 9 9 9 9 9 9 9 9 9 9 9 9 9 9 9 9 9 9 9 9 9 9 9 9 9 9 9 9 9 9 9 ",
"9 9 9 9 9 9 f b v M.-.d 9 9 a 4.9 9 9 9 9 9 9 9 9 9 9 9 9 9 9 9 9 9 9 9 9 9 9 9 9 9 9 9 9 9 9 9 9 9 9 9 9 9 9 9 9 9 9 9 9 9 9 9 9 9 9 9 9 9 9 9 9 9 9 9 9 9 9 9 9 9 9 9 9 9 9 9 9 9 9 9 9 9 9 9 9 9 9 9 9 9 9 9 9 9 9 9 9 9 9 9 9 9 9 9 9 9 9 9 9 9 9 9 9 9 9 9 9 9 9 9 9 9 9 9 9 9 9 9 9 9 9 9 9 9 9 9 9 9 9 9 9 9 9 9 9 9 9 9 9 9 9 9 9 9 9 9 9 9 9 9 9 9 9 9 9 9 9 9 9 9 9 9 9 9 9 9 9 9 9 9 9 9 9 9 9 9 9 9 9 9 9 9 9 9 9 9 9 9 9 9 9 9 9 9 9 9 9 9 9 9 9 9 9 9 9 9 9 9 9 9 9 9 9 9 9 9 9 9 9 9 9 9 9 9 9 9 9 9 9 9 9 9 9 9 ",
"9 9 9 9 9 9 9 v v n l 9 9 9 9 = 9 9 9 9 9 9 9 9 9 9 9 9 9 9 9 9 9 9 9 9 9 9 9 9 9 9 9 9 9 9 9 9 9 9 9 9 9 9 9 9 9 9 9 9 9 9 9 9 9 9 9 9 9 9 9 9 9 9 9 9 9 9 9 9 9 9 9 9 9 9 9 9 9 9 9 9 9 9 9 9 9 9 9 9 9 9 9 9 9 9 9 9 9 9 9 9 9 9 9 9 9 9 9 9 9 9 9 9 9 9 9 9 9 9 9 9 9 9 9 9 9 9 9 9 9 9 9 9 9 9 9 9 9 9 9 9 9 9 9 9 9 9 9 9 9 9 9 9 9 9 9 9 9 9 9 9 9 9 9 9 9 9 9 9 9 9 9 9 9 9 9 9 9 9 9 9 9 9 9 9 9 9 9 9 9 9 9 9 9 9 9 9 9 9 9 9 9 9 9 9 9 9 9 9 9 9 9 9 9 9 9 9 9 9 9 9 9 9 9 9 9 9 9 9 9 9 9 9 9 9 9 9 9 9 9 9 9 9 9 9 ",
"9 9 9 9 9 9 9 * * * * 9 9 9 9 9 9 9 9 9 9 9 9 9 9 9 9 9 9 9 9 9 9 9 9 9 9 9 9 9 9 9 9 9 9 9 9 9 9 9 9 9 9 9 9 9 9 9 9 9 9 9 9 9 9 9 9 9 9 9 9 9 9 9 9 9 9 9 9 9 9 9 9 9 9 9 9 9 9 9 9 9 9 9 9 9 9 9 9 9 9 9 9 9 9 9 9 9 9 9 9 9 9 9 9 9 9 9 9 9 9 9 9 9 9 9 9 9 9 9 9 9 9 9 9 9 9 9 9 9 9 9 9 9 9 9 9 9 9 9 9 9 9 9 9 9 9 9 9 9 9 9 9 9 9 9 9 9 9 9 9 9 9 9 9 9 9 9 9 9 9 9 9 9 9 9 9 9 9 9 9 9 9 9 9 9 9 9 9 9 9 9 9 9 9 9 9 9 9 9 9 9 9 9 9 9 9 9 9 9 9 9 9 9 9 9 9 9 9 9 9 9 9 9 9 9 9 9 9 9 9 9 9 9 9 9 9 9 9 9 9 9 9 9 9 9 ",
"9 9 9 9 9 9 9 9 9 9 9 9 9 9 9 9 9 9 9 9 9 9 9 9 9 9 9 9 9 9 9 9 9 9 9 9 9 9 9 9 9 9 9 9 9 9 9 9 9 9 9 9 9 9 9 9 9 9 9 9 9 9 9 9 9 9 9 9 9 9 9 9 9 9 9 9 9 9 9 9 9 9 9 9 9 9 9 9 9 9 9 9 9 9 9 9 9 9 9 9 9 9 9 9 9 9 9 9 9 9 9 9 9 9 9 9 9 9 9 9 9 9 9 9 9 9 9 9 9 9 9 9 9 9 9 9 9 9 9 9 9 9 9 9 9 9 9 9 9 9 9 9 9 9 9 9 9 9 9 9 9 9 9 9 9 9 9 9 9 9 9 9 9 9 9 9 9 9 9 9 9 9 9 9 9 9 9 9 9 9 9 9 9 9 9 9 9 9 9 9 9 9 9 9 9 9 9 9 9 9 9 9 9 9 9 9 9 9 9 9 9 9 9 9 9 9 9 9 9 9 9 9 9 9 9 9 9 9 9 9 9 9 9 9 9 9 9 9 9 9 9 9 9 9 9 9 "
};
