/* XPM */
static char *mb_ringmod_sc_stereo[] = {
/* columns rows colors chars-per-pixel */
"256 256 256 2 ",
"   c #15161B",
".  c #17181D",
"X  c #1A1A1E",
"o  c #151417",
"O  c #101011",
"+  c #251C1D",
"@  c #1D231C",
"#  c #1C220E",
"$  c #232719",
"%  c #2E3119",
"&  c #1C1E24",
"*  c #161C26",
"=  c #251E24",
"-  c #261D25",
";  c #1F2026",
":  c #1E2229",
">  c #18262A",
",  c #1C2B33",
"<  c #1C2A37",
"1  c #193237",
"2  c #232125",
"3  c #242A21",
"4  c #24262D",
"5  c #29262D",
"6  c #26282F",
"7  c #292827",
"8  c #37242B",
"9  c #2B322A",
"0  c #293324",
"q  c #373829",
"w  c #252632",
"e  c #262932",
"r  c #2A2B35",
"t  c #272738",
"y  c #262B39",
"u  c #2B2D3B",
"i  c #292736",
"p  c #332C36",
"a  c #2E313B",
"s  c #25333A",
"d  c #31333D",
"f  c #393437",
"g  c #59311A",
"h  c #692B19",
"j  c #70341C",
"k  c #591E23",
"l  c #721A25",
"z  c #492A28",
"x  c #46352B",
"c  c #5B3B2B",
"v  c #573829",
"b  c #5D3C35",
"n  c #583C37",
"m  c #503332",
"M  c #64392C",
"N  c #66372A",
"B  c #72362C",
"V  c #653C36",
"C  c #753C38",
"Z  c #6E2B25",
"A  c #73191E",
"S  c #2B4723",
"D  c #5B432B",
"F  c #5A4433",
"G  c #584539",
"H  c #504C37",
"J  c #65432A",
"K  c #63423D",
"L  c #674839",
"P  c #7A4B3A",
"I  c #7C563D",
"U  c #72472C",
"Y  c #625415",
"T  c #19384C",
"R  c #2E2E42",
"E  c #232C47",
"W  c #332D43",
"Q  c #2A3243",
"!  c #253746",
"~  c #343642",
"^  c #373944",
"/  c #383A45",
"(  c #3A3D4B",
")  c #35374A",
"_  c #2C3955",
"`  c #373A58",
"'  c #292F50",
"]  c #323B67",
"[  c #183968",
"{  c #4D3A51",
"}  c #443D63",
"|  c #663D52",
" . c #1A4755",
".. c #1D545B",
"X. c #17444C",
"o. c #3E404E",
"O. c #364747",
"+. c #294758",
"@. c #3E4152",
"#. c #39415B",
"$. c #254A50",
"%. c #12556E",
"&. c #364364",
"*. c #304C6F",
"=. c #006477",
"-. c #0E626E",
";. c #2B6877",
":. c #594645",
">. c #424453",
",. c #46495B",
"<. c #4A4C5D",
"1. c #444758",
"2. c #554E53",
"3. c #664947",
"4. c #734C44",
"5. c #7B4D41",
"6. c #764D49",
"7. c #794E4B",
"8. c #714540",
"9. c #6C5248",
"0. c #735345",
"q. c #7D5143",
"w. c #72554D",
"e. c #7A524C",
"r. c #74594D",
"t. c #7B594D",
"y. c #6D5958",
"u. c #755353",
"i. c #795455",
"p. c #745A52",
"a. c #755659",
"s. c #745A5B",
"d. c #7B5B5C",
"f. c #7A5956",
"g. c #694955",
"h. c #79615B",
"j. c #6E6954",
"k. c #484A67",
"l. c #4E5163",
"z. c #4D5668",
"x. c #52566A",
"c. c #56596C",
"v. c #535768",
"b. c #595B75",
"n. c #4D4D76",
"m. c #7C5C62",
"M. c #755A65",
"N. c #6C526D",
"B. c #5D6177",
"V. c #436677",
"C. c #6D6566",
"Z. c #776366",
"A. c #62667B",
"S. c #7B6671",
"D. c #546556",
"F. c #833C1A",
"G. c #99361A",
"H. c #8C1C29",
"J. c #8C3325",
"K. c #953528",
"L. c #933537",
"P. c #8B2C2E",
"I. c #AC3832",
"U. c #A01616",
"Y. c #D0080A",
"T. c #C73C1F",
"R. c #A3491D",
"E. c #844637",
"W. c #82543C",
"Q. c #91442B",
"!. c #A44434",
"~. c #AE4632",
"^. c #9B571D",
"/. c #C64336",
"(. c #83564A",
"). c #86594D",
"_. c #835547",
"`. c #975947",
"'. c #865856",
"]. c #8D5053",
"[. c #AB4B48",
"{. c #8B6246",
"}. c #8C6256",
"|. c #8D526B",
" X c #88636E",
".X c #AA586B",
"XX c #C94645",
"oX c #B23C41",
"OX c #81831C",
"+X c #B3B111",
"@X c #CFD00A",
"#X c #D3E009",
"$X c #C29B19",
"%X c #122D98",
"&X c #172C85",
"*X c #1C37A9",
"=X c #005E9B",
"-X c #015A95",
";X c #0F5A88",
":X c #3A5286",
">X c #374E8E",
",X c #007288",
"<X c #0C7C94",
"1X c #026889",
"2X c #2F7181",
"3X c #2D7C86",
"4X c #2F7484",
"5X c #3957AD",
"6X c #0069AD",
"7X c #0C75B4",
"8X c #046DB0",
"9X c #3B63BA",
"0X c #51498E",
"qX c #534B94",
"wX c #51538F",
"eX c #6B598E",
"rX c #55698E",
"tX c #676B86",
"yX c #6B6D95",
"uX c #4558A7",
"iX c #5A58A8",
"pX c #4C5CB4",
"aX c #655EB3",
"sX c #6C5CA8",
"dX c #4669B6",
"fX c #5164B2",
"gX c #6E65B0",
"hX c #173BC5",
"jX c #007BC9",
"kX c #3A64D5",
"lX c #4763C7",
"zX c #4A75CB",
"xX c #576BD7",
"cX c #4B79D5",
"vX c #5268CE",
"bX c #6965C7",
"nX c #7368CB",
"mX c #6A6CD7",
"MX c #5171EE",
"NX c #646EE3",
"BX c #8F5A91",
"VX c #8962A5",
"CX c #836DD3",
"ZX c #018AA5",
"AX c #0197B5",
"SX c #338DA1",
"DX c #359FB5",
"FX c #3495AA",
"GX c #1F8899",
"HX c #5585AC",
"JX c #0283D1",
"KX c #008CE0",
"LX c #5081E3",
"PX c #8A8DB5",
"IX c #99A1CB",
"UX c #058207",
/* pixels */
"6 6 6 6 6 6 6 6 6 6 6 6 6 6 6 6 6 6 6 6 6 6 6 6 6 6 6 6 6 6 6 6 6 6 6 6 6 6 6 6 6 6 6 6 6 6 6 6 6 6 6 6 6 6 6 6 6 6 6 6 6 6 6 6 6 6 6 6 6 6 6 6 6 6 6 6 6 6 6 6 6 6 6 6 6 6 6 6 6 6 6 6 6 6 6 6 6 6 6 6 6 6 6 6 6 6 6 6 6 6 6 6 6 6 6 6 6 6 6 6 6 6 6 6 6 6 6 6 6 6 6 4 4 6 4 4 4 4 4 4 4 6 4 2 2 2 4 4 2 4 6 4 4 4 4 6 4 4 2 4 6 6 4 2 4 4 4 4 4 4 4 6 2 4 6 4 4 6 4 4 6 2 4 6 2 2 6 4 4 4 4 4 4 6 4 4 4 2 2 4 2 4 4 2 4 6 6 4 2 4 2 4 4 2 6 4 2 4 6 2 4 4 6 4 4 4 4 4 2 4 4 6 4 4 6 4 2 4 2 2 4 2 4 4 2 6 2 2 6 4 2 6 6 6 4 6 ",
"6 6 6 6 6 6 6 6 6 6 6 6 6 6 6 6 6 6 6 6 6 6 6 6 6 6 6 6 6 6 6 6 6 6 6 6 6 6 6 6 6 6 6 6 6 6 6 6 6 6 6 6 6 6 6 6 6 6 6 6 6 6 6 6 6 6 6 6 6 6 6 6 6 6 6 6 6 6 6 6 6 6 6 6 6 6 6 6 6 6 6 6 6 6 6 6 6 6 6 6 6 6 6 6 6 6 6 6 6 6 6 6 6 6 6 6 6 6 6 6 6 6 6 6 6 6 6 6 6 6 4 6 d 4 r u u e u r u 4 ~ ( / ^ a u ( r 4 u e r r e r a ( r 4 4 a ( 6 ~ a u 6 r e 6 ( a 4 e d 4 r a 4 / a 4 ^ / 4 r r r r r e 4 e r r ( / a / ~ a ( r 4 4 e / a ^ r ~ / 4 e ( ~ 4 ^ d u 6 r e e r e / r a 4 a e 4 a ^ ~ ( ^ a ( u ~ ~ 4 ~ ( 4 a / 4 4 6 e 6 ",
"6 6 6 6 6 6 6 6 6 6 6 6 6 6 6 6 6 6 6 6 6 6 6 6 6 6 6 6 6 6 6 6 6 6 6 6 6 6 6 6 6 6 6 6 6 6 6 6 6 6 6 6 6 6 6 6 6 6 6 6 6 6 6 6 6 6 6 6 6 6 6 6 6 6 6 6 6 6 6 6 6 6 6 6 6 6 6 6 6 6 6 6 6 6 6 6 6 6 6 6 6 6 6 6 6 6 6 6 6 6 6 6 6 6 6 6 6 6 6 6 6 6 6 6 6 6 6 6 6 6 4 e yXr x.x.l.a l.( x.4 ^ tX>.b.o.l.b.x.& B.>./ tX~ <.l.x.c.r ; x.c.l.c.o.c.l.>.o.l.x.( 4 e yXr x.x.>.x.c.( b.x.,.>.>.( 1.l.~ & 1.B.6 b.c.>.B.^ x.x.c.r 2 b.l.~ B.~ b.x.,.( A.^ 1.b.( x.d l.a @.B.e A.a tX^ l.r u A.@./ tX>.x.x./ c.c.1.b.1./ c.x.<.2 e r 6 ",
"4 6 6 6 6 6 6 6 6 6 6 6 6 6 6 6 6 6 6 6 6 6 6 6 6 6 6 6 6 6 6 6 6 6 6 6 6 6 6 6 6 6 6 6 6 6 6 6 6 6 6 6 6 6 6 6 6 6 6 6 6 6 6 6 6 6 6 6 6 6 6 6 6 6 6 6 6 6 6 6 6 6 6 6 6 6 6 6 6 6 6 6 6 6 6 6 6 6 6 6 6 6 6 6 6 6 6 6 6 6 6 6 6 6 6 6 6 6 6 6 6 6 6 6 6 6 6 6 6 6 4 r A.1.b.<.x.e l.o.l.; & x.6 ,.~ l.b.x.u tXc.( b.x.1.l.2 l.@.& x.B.>.1.~ <.b.x.<.l.a x.4 r tX1.b.l.c.; / c.<.& c.<.( ^ ,.l.a & b.tXr o.( ^ B.d x.2 l.@.& @.l.a l.a l.& c.>.b.~ b.6   c.c.A.a c.tXd l.u b.x.x.r 6 l.,.; x.6 z.l.d b.b.( B.( l.( & b.4 6 r 6 ",
"4 6 6 6 6 6 6 6 6 6 6 6 6 6 6 6 6 6 6 6 6 6 6 6 6 6 6 6 6 6 6 6 6 6 6 6 6 6 6 6 6 6 6 6 6 6 6 6 6 6 6 6 6 6 6 6 6 6 6 6 6 6 6 6 6 6 6 6 6 6 6 6 6 6 6 6 6 6 6 6 6 6 6 6 6 6 6 6 6 6 6 6 6 6 6 6 6 6 6 6 6 6 6 6 6 6 6 6 6 6 6 6 6 6 6 6 6 6 6 6 6 6 6 6 6 6 6 6 6 6 4 a x.b.c.,.<.l.c.~ B.@.6 b.r c.( l.l.x.l.x.c.c.( b.x.l.l.b.a ; x.c.,.x.o.l.^ yX@.x.,.B.4 u x.b.c.,.<.l.x.>.b.l.l./ x.x.( x.<.@.b.x.<.>.>.( b.u c.l.b.a 4 ~ b.l.b.~ b.l.l.o.b.u l.z.d c.u l.,.b.z.c.b.^ l.@.yX6 r ( tXu c.r x.<.~ b.c.>.B./ o.c.<.l.2 e r 6 ",
"s 4 6 6 6 6 6 6 6 6 6 6 6 6 6 6 6 6 6 6 6 6 6 6 6 6 6 6 6 6 6 6 6 6 6 6 6 6 6 6 6 6 6 6 6 6 6 6 6 6 6 6 6 6 6 6 6 6 6 6 6 6 6 6 6 6 6 6 6 6 6 6 6 6 6 6 6 6 6 6 6 6 6 6 6 6 6 6 6 6 6 6 6 6 6 6 6 6 6 6 6 6 6 6 6 6 6 6 6 6 6 6 6 6 6 6 6 6 6 6 6 6 6 6 6 6 6 6 6 6 6 r ~ d d d e 1.~ 4 >.1.e ~ r o.~ ~ ,.a ^ 4 r ( r u ~ ~ ,.d 4 6 ~ e / @.~ ~ e ^ r u ,.^ 4 r ~ d d d 6 1.( 4 @.1.r 4 o.@.4 ^ ,.o.r 4 ^ a a r ,.( ~ ,.d 4 6 ( @.u >.u o.1.e r ,.( 6 1.( ~ r d ^ u 2 ( >.a ~ 6 ( 6 r 1.^ 4 ^ e ~ ,.~ d r / ( 1.6 ( 1.e 4 e r 6 ",
"! 4 6 6 6 6 6 6 6 6 6 6 6 6 6 6 6 6 6 6 6 6 6 6 6 6 6 6 6 6 6 6 6 6 6 6 6 6 6 6 6 6 6 6 6 6 6 6 6 6 6 6 6 6 6 6 6 6 6 6 6 6 6 6 6 6 6 6 6 6 6 6 6 6 6 6 6 6 6 6 6 6 6 6 6 6 6 6 6 6 6 6 6 6 6 6 6 6 6 6 6 6 6 6 6 6 6 6 6 6 6 6 6 6 6 6 6 6 6 6 6 6 6 6 6 6 6 6 4 4 4 2 ; ; ; 2 2 & ; 4 & & 2 ; 2 & ; ; & 2 ; 4 2 & 2 2 ; ; & ; 4 4 ; 4 ; & ; ; 4 ; 2 2 & ; 4 2 ; ; ; ; 4 & & 4 & & 2 4 & & 4 ; & & 2 4 ; 2 2 2 & ; ; & ; 4 4 & & 2 & 2 & & 4 2 & & 4 & & 2 4 2 ; 4 4 ; & 4 2 4 ; 4 4 & ; 4 2 4 2 & 2 2 4 2 ; & 4 ; & 4 4 4 4 4 ",
"! 4 6 6 6 6 6 6 6 6 6 6 6 6 6 6 6 6 6 6 6 6 6 6 6 6 6 6 6 6 6 6 6 6 6 6 6 6 6 6 6 6 6 6 6 6 6 6 6 6 6 6 6 6 6 6 6 6 6 6 6 6 6 6 6 6 6 6 6 6 6 6 6 6 6 6 6 6 6 6 6 6 6 6 6 6 6 6 6 6 6 6 6 6 6 6 6 6 6 6 6 6 6 6 6 6 6 6 6 6 6 6 6 6 6 6 6 6 6 6 6 6 6 6 6 4 6 4 & & & & & & & & & & & & & & & & & & & & & & & & & & & & & & & & & & & & & & & & & & & & & & & & & & & & & & & & & & & & & & & & & & & & & & & & & & & & & & & & & & & & & & & & & & & & & ; ; ; - ; ; ; 2 ; ; ; ; ; ; 2 ; ; = = ; 2 ; ; ; ; 2 2 ; 2 ; & & & & & ",
"! 4 6 6 6 6 6 6 6 6 6 6 6 6 6 6 6 6 6 6 6 6 6 6 6 6 6 6 6 6 6 6 6 6 6 6 6 6 6 6 6 6 6 6 6 6 6 6 6 6 6 6 6 6 6 6 6 6 6 6 6 6 6 6 6 6 6 6 6 6 6 6 6 6 6 6 6 6 6 6 6 6 6 6 6 6 6 6 6 6 6 6 6 6 6 6 6 6 6 6 6 6 6 6 6 6 6 6 6 6 6 6 6 6 6 6 6 6 6 6 6 6 6 6 4 6 4 & & & & & X & & & & & & & & & & & & & & & & & & & & & & & & & . X & & & ; & X & X . . & & . & & & X & X & & &   X & & & & & & & & & & & & & & & & & & & & & & & & X X & & & & & & & & & & ; ; ; ; > ; ; ; ; ; : : : ; ; ; ; ; 1 1 ; ; ; ; ; ; ; ; ; & & & X X X X ",
"e 4 6 6 6 6 6 6 6 6 6 6 6 6 6 6 6 6 6 6 6 6 6 6 6 6 6 6 6 6 6 6 6 6 6 6 6 6 6 6 6 6 6 6 6 6 6 6 6 6 6 6 6 6 6 6 6 6 6 6 6 6 6 6 6 6 6 6 6 6 6 6 6 6 6 6 6 6 6 6 6 6 6 6 6 6 6 6 6 6 6 6 6 6 6 6 6 6 6 6 6 6 6 6 6 6 6 6 6 6 6 6 6 6 6 6 6 6 6 6 6 6 6 4 6 4 & & & & & & 1 & & & & & & & & & & & & & & & & & & & & & & & & . d v.r & & <.4 4 . 4 ( / . 2 e & 4 2 4 X 4 2 ; & @.r X & & & & & & & & & & & & & & & & & & & & & & X , , X & & & & & & & & ; ; ; - > S > - ; ; & + + = = ; ; & > -.-.X.= : ; ; ; ; ; & & & X T ....X.",
"4 6 6 6 6 6 6 6 6 6 6 6 6 6 6 6 6 6 6 6 6 6 6 6 6 6 6 6 6 6 6 6 6 6 6 6 6 6 6 6 6 6 6 6 6 6 6 6 6 6 6 6 6 6 6 6 6 6 6 6 6 6 6 6 6 6 6 6 6 6 6 6 6 6 6 6 6 6 6 6 6 6 6 6 6 6 6 6 6 6 6 6 6 6 6 6 6 6 6 6 6 6 6 6 6 6 6 6 6 6 6 6 6 6 6 6 6 6 6 6 6 6 4 6 4 & & & & & & ..1 X & & & & & & & & & & & & & & & & & & & & & & & o 1.v.4 B.B.v.v.A.l.,.b.v.o c.c.<.b.1.A.b.b.~ B.B.tX^ . & & & & & & & & & & & & & & & & & & & & & & & : .., X & & & & & & ; ; ; ; - S UXS - : = , .. .-...= : & > -.-.X.= : ; ; ; ; & & & & X ..;.;...",
"6 6 6 6 6 6 6 6 6 6 6 6 6 6 6 6 6 6 6 6 6 6 6 6 6 6 6 6 6 6 6 6 6 6 6 6 6 6 6 6 6 6 6 6 6 6 6 6 6 6 6 6 6 6 6 6 6 6 6 6 6 6 6 6 6 6 6 6 6 6 6 6 6 6 6 6 6 6 6 6 6 6 6 6 6 6 6 6 6 6 6 6 6 6 6 6 6 6 6 6 6 6 6 6 6 6 6 6 6 6 6 6 6 6 6 6 6 6 6 6 6 4 6 4 & & & & & & & ..1 X & & & & & & & & & & & & & & & & & & & & & & & & & >.tXA.>.b.tX1.A.e ( ( o c.~ A.>.<.B.( 1.B.tX>.c.2 & & & & & & & & & & & & & & & & & & & & & & & & : .., X & & & & & ; ; ; ; ; ; S S S ; ; & : T T  .X.= : = , -.....= : ; ; ; & & & & & X ..;.;...",
"6 6 6 6 6 6 6 6 6 6 6 6 6 6 6 6 6 6 6 6 6 6 6 6 6 6 6 6 6 6 6 6 6 6 6 6 6 6 6 6 6 6 6 6 6 6 6 6 6 6 6 6 6 6 6 6 6 6 6 6 6 6 6 6 6 6 6 6 6 6 6 6 6 6 6 6 6 6 6 6 6 6 6 6 6 6 6 6 6 6 6 6 6 6 6 6 6 6 6 6 6 6 6 6 6 6 6 6 6 6 6 6 6 6 6 6 6 6 6 6 4 6 4 & & & & & & & & & 1 & & & & & & & & & & & & & & & & & & & & & & & & . d l.~ ,.( ( o.,.d l.( <.  B.c.^ ^ e l.d <.o.1./ >.( . & & & & & & & & & & & & & & & & & & & & & & X , , X & & & & & ; ; ; ; ; & ; 3 - 3 ; & ; & = = = = ; ; ; ; X.X.: & ; ; ; & & & & & & X T ....X.",
"6 6 6 6 6 6 6 6 6 6 6 6 6 6 6 6 6 6 6 6 6 6 6 6 6 6 6 6 6 6 6 6 6 6 6 6 6 6 6 6 6 6 6 6 6 6 6 6 6 6 6 6 6 6 6 6 6 6 6 6 6 6 6 6 6 6 6 6 6 6 6 6 6 6 6 6 6 6 6 6 6 6 6 6 6 6 6 6 6 6 6 6 6 6 6 6 6 6 6 6 6 6 6 6 6 6 6 6 6 6 6 6 6 6 6 6 6 6 6 6 6 4 & & & & & & & & & & X & & & & & & & & & & & & & & & & & & & & & & & & & & & . . & . . & X X X X & l.&   & X X & &   . & . & & & & & & & & & & & & & & & & & & & & & & & & & X X & & & & & 2 ; ; ; ; ; ; = - ; - = ; ; ; : : : : ; ; ; ; = = = ; ; ; & & & & & & & & X X X X ",
"2 2 2 2 2 2 2 2 2 2 2 2 2 2 2 2 2 2 2 2 2 2 2 2 2 2 2 2 2 2 2 2 2 2 2 2 2 2 2 2 2 2 2 2 2 2 2 2 2 2 2 2 2 2 2 2 2 2 2 2 2 2 2 2 2 2 2 2 2 2 2 2 2 2 2 2 2 2 2 2 2 2 2 2 2 2 2 2 2 2 2 2 2 2 2 2 2 2 2 2 2 2 2 2 2 2 2 2 2 2 2 2 2 2 2 2 2 2 2 4 2 & & & & & & & & & & & & & & & & & & & & & & & & & & & & & & & & & & & & & & & & & & & & & & & & & & & & & & & & & & & & & & & & & & & & & & & & & & & & & & & & & & & & & & & & & & & & & & & & & & & & & & & & & & & & & & & & & & & & & ; ; & & & & & & & & & & & & & & & & ",
"& & & & & & & & & & & & & & & & & & & & & & & & & & & & & & & & & & & & & & & & & & & & & & & & & & & & & & & & & & & & & & & & & & & & & & & & & & & & & & & & & & & & & & & & & & & & & & & & & & & & & & & & & & & & & & & & & & & & & & & & & & & & & & & & & & & & & & & & & & & & & & & & & & & & & & & & & & & & & & & & & & & & & & & & & & & & & & & & & & & & & & & & & & & & & & & & & & & & & & & & & & & & & & & & & & & & & & & & & & & & & & & & & & & & & & & & & & & & & & & & & & & & & & & & & & & & & & & & ",
"~ ~ ~ ~ ~ ~ ~ ~ ~ ~ ~ ~ ~ ~ ~ ~ ~ ~ ~ ~ ~ ~ ~ ~ ~ ~ ~ ~ ~ ~ ~ ~ ~ ~ ~ ~ ~ ~ ~ ~ ~ ~ ~ ~ ~ ~ ~ ~ ~ ~ ~ ~ ~ ~ ~ ~ ~ ~ ~ ~ ~ ~ ~ ~ ~ ~ ~ ~ ~ ~ ~ ~ ~ ~ ~ ~ ~ ~ ~ ~ ~ ~ ~ ~ ~ ~ ~ ~ ~ ~ ~ ~ ~ ~ ~ ~ ~ ~ ~ ~ ~ ~ ~ ~ ~ ~ ~ ~ ~ ~ ~ ~ ~ ~ ~ ~ ~ ~ ~ ~ ~ ~ ~ ~ ~ ~ ~ ~ ~ ~ ~ ~ ~ ~ ~ ~ ~ ~ ~ ~ ~ ~ ~ ~ ~ ~ ~ ~ ~ ~ ~ ~ ~ ~ ~ ~ ~ ~ ~ ~ ~ ~ ~ ~ ~ ~ ~ ~ ~ ~ ~ ~ ~ ~ ~ ~ ~ ~ ~ ~ ~ ~ ~ ~ ~ ~ ~ ~ ~ ~ ~ ~ ~ ~ ~ ~ ~ ~ ~ ~ ~ ~ ~ ~ ~ ~ ~ ~ ~ ~ ~ ^ u & 4 4 4 4 4 4 2 4 4 4 4 4 6 & & 6 4 4 4 6 4 4 6 & & 6 4 4 4 4 2 4 6 & & 6 4 4 6 4 6 6 ",
"^ ^ ^ ^ ^ ^ ^ ^ ^ ^ ^ ^ ^ ^ ^ ^ ^ ^ ^ ^ ^ ^ ^ ^ ^ ^ ^ ^ ^ ^ ^ ^ ^ ^ ^ ^ ^ ^ ^ ^ ^ ^ ^ ^ ^ ^ ^ ^ ^ ^ ^ ^ ^ ^ ^ ^ ^ ^ ^ ^ ^ ^ ^ ^ ^ ^ ^ ^ ^ ^ ^ ^ ^ ^ ^ ^ ^ ^ ^ ^ ^ ^ ^ ^ ^ ^ ^ ^ ^ ^ ^ ^ ^ ^ ^ ^ ^ ^ ^ ^ ^ ^ ^ ^ ^ ^ ^ ^ ^ ^ ^ ^ ^ ^ ^ ^ ^ ^ ^ ^ ^ ^ ^ ^ ^ ^ ^ ^ ^ ^ ^ ^ ^ ^ ^ ^ ^ ^ ^ ^ ^ ^ ^ ^ ^ ^ ^ ^ ^ ^ ^ ^ ^ ^ ^ ^ ^ ^ ^ ^ ^ ^ ^ ^ ^ ^ ^ ^ ^ ^ ^ ^ ^ ^ ^ ^ ^ ^ ^ ^ ^ ^ ^ ^ ^ ^ ^ ^ ^ ^ ^ ^ ^ ^ ^ ^ ^ ^ ^ ^ ^ ^ ^ ^ ^ ^ ^ ^ ^ ^ ^ / u & 6 6 6 4 a ( 1.( ~ 4 6 6 6 & & 6 6 a 6 ; 4 6 6 & & e 4 a r r d 4 6 & ; 4 r d 2 4 4 2 ",
"^ ^ ^ ^ ^ ^ ^ ^ ^ ^ ^ ^ ^ ^ ^ ^ ^ ^ ^ ^ ^ ^ ^ ^ ^ ^ ^ ^ ^ ^ ^ ^ ^ ^ ^ ^ ^ ^ ^ ^ ^ ^ ^ ^ ^ ^ ^ ^ ^ ^ ^ ^ ^ ^ ^ ^ ^ ^ ^ ^ ^ ^ ^ ^ ^ ^ ^ ^ ^ ^ ^ ^ ^ ^ ^ ^ ^ ^ ^ ^ ^ ^ ^ ^ ^ ^ ^ ^ ^ ^ ^ ^ ^ ^ ^ ^ ^ ^ ^ ^ ^ ^ ^ ^ ^ ^ ^ ^ ^ ^ ^ ^ ^ ^ ^ ^ ^ ^ ^ ^ ^ ^ ^ ^ ^ ^ ^ ^ ^ ^ ^ ^ ^ ^ ^ ^ ^ ^ ^ ^ ^ ^ ^ ^ ^ ^ ^ ^ ^ ^ ^ ^ ^ ^ ^ ^ ^ ^ ^ ^ ^ ^ ^ ^ ^ ^ ^ ^ ^ ^ ^ ^ ^ ^ ^ ^ ^ ^ ^ ^ ^ ^ ^ ^ ^ ^ ^ ^ ^ ^ ^ ^ ^ ^ ^ ^ ^ ^ ^ ^ ^ ^ ^ ^ ^ ^ ^ ^ ^ ^ ^ / u & 4 6 6 4 ~ l.1.,.( 4 6 4 6 & & 6 4 c.( 1.u 4 6 & ; 4 ~ B.~ c.1.6 6 & & u v.v.o.u d c.",
"^ ^ ^ ^ ^ ^ ^ ^ ^ ^ ^ ^ ^ ^ ^ ^ ^ ^ ^ ^ ^ ^ ^ ^ ^ ^ ^ ^ ^ ^ ^ ^ ^ ^ ^ ^ ^ ^ ^ ^ ^ ^ ^ ^ ^ ^ ^ ^ ^ ^ ^ ^ ^ ^ ^ ^ ^ ^ ^ ^ ^ ^ ^ ^ ^ ^ ^ ^ ^ ^ ^ ^ ^ ^ ^ ^ ^ ^ ^ ^ ^ ^ ^ ^ ^ ^ ^ ^ ^ ^ ^ ^ ^ ^ ^ ^ ^ ^ ^ ^ ^ ^ ^ ^ ^ ^ ^ ^ ^ ^ ^ ^ ^ ^ ^ ^ ^ ^ ^ ^ ^ ^ ^ ^ ^ ^ ^ ^ ^ ^ ^ ^ ^ ^ ^ ^ ^ ^ ^ ^ ^ ^ ^ ^ ^ ^ ^ ^ ^ ^ ^ ^ ^ ^ ^ ^ ^ ^ ^ ^ ^ ^ ^ ^ ^ ^ ^ ^ ^ ^ ^ ^ ^ ^ ^ ^ ^ ^ ^ ^ ^ ^ ^ ^ ^ ^ ^ ^ ^ ^ ^ ^ ^ ^ ^ ^ ^ ^ ^ ^ ^ ^ ^ ^ ^ ^ ^ ^ ^ ^ ^ / u & 4 6 6 2 / v.& ,.o.4 6 6 6 & & e 4 1.v.c.,.; e & & 4 r <.c.,.  e 6 ; . >.1.6 tX>.l.A.",
"^ ^ ^ ^ ^ ^ ^ ^ ^ ^ ^ ^ ^ ^ ^ ^ ^ ^ ^ ^ ^ ^ / ^ ^ ^ ^ ^ ^ ^ ^ ^ ^ ^ / ^ ^ ^ ^ ^ ^ ^ ^ ^ ^ ^ ^ ^ ^ ^ ^ ^ ^ ^ ^ ^ ^ ^ ^ ^ ^ ^ ^ ^ ^ ^ ^ ^ ^ ^ ^ ^ ^ ^ ^ ^ ^ ^ ^ ^ ^ ^ ^ ^ ^ ^ ^ ^ ^ ^ ^ ^ ^ ^ ^ ^ ^ ^ ^ ^ ^ ^ ^ ^ ^ ^ ^ ^ ^ ^ ^ ^ ^ ^ ^ ^ ^ ^ ^ ^ ^ ^ ^ ^ ^ ^ ^ ^ ^ ^ ^ ^ ^ ^ ^ ^ ^ ^ ^ ^ ^ ^ ^ ^ ^ ^ ^ ^ ^ ^ ^ ^ ^ ^ ^ ^ ^ ^ ^ ^ ^ ^ ^ ^ ^ ^ ^ ^ ^ ^ ^ ^ ^ ^ ^ ^ ^ ^ ^ ^ ^ ^ ^ ^ ^ ^ ^ ^ ^ ^ ^ ^ ^ ^ ^ ^ ^ ^ ^ ^ ^ ^ ^ ^ ^ ^ ^ ^ ^ ^ ^ / u & 4 6 6 4 d ,.<.tXc.2 6 6 6 & & 6 4 c.l.( 1.2 e & & 6 e <.c.c.>.4 6 & & u v.v.>.c.c.v.",
"/ / / / / / / / / / / / / / / / / / / / / ^ d ^ ^ ^ ^ ^ ^ ^ ^ ^ ^ ^ d / / / / / / / / / / / / / / / / / / / / / / / / / / / / / / / / / / / / / / / / / / / / / / / / / / / / / / / / / / / / / / / / / / / / / / / / / / / / / / / / / / / / / / / / / / / / / / / / / / / / / / / / / / / / / / / / / / / / / / / ^ / / / / / / / / / / / / / / / / / / / / / / / / / / / / / ^ / / / / / / / / / / / / / / / / / / / / / / / / / ^ / a & 4 6 6 4 a ^ ^ >.>.4 6 6 6 & & 6 6 a r e e 4 6 & & 6 e ~ 4 r d 4 6 & & 4 r d 2 a r r ",
"d d d ~ ~ ~ d d ~ ~ ~ ~ d d d d d d d d d ) k.x m m m m m m m m m { &.d d d d d d d d d d d d d d d d d d d d d d d d d d d d d d d d d d d d d d d d d d d d d d d d d d d d d d d d d d d d Q d d d d d d d d d d d d d d d d d d d d d d d d d d d d d ~ d d d d d d d d d d d d d d d d d d d d d d d d d d d d ~ d d d d d d d d d d d d d d d d d d d d d d d d d d d d d d d d d d d d d d d d d d d d d d d d d d d d d d d d d r & 4 6 6 6 4 4 4 2 2 6 6 6 6 & & 6 6 4 4 4 4 6 6 & & 6 4 4 6 4 4 6 6 & & e 4 4 6 4 4 4 ",
"4 4 4 $ $ $ 2 2 X @ X @ 2 6 e 4 4 4 4 e 2 ] wXv V b c c b V c c M 3.uX$ H 9 9 9 6 4 4 4 4 4 4 4 4 4 4 4 4 4 4 4 4 4 e 4 4 4 4 4 4 4 4 4 4 4 4 e 4 4 4 4 4 4 4 4 e 4 4 4 4 4 4 e 4 4 4 4 4 5 e -.s s s e 4 4 e 4 4 4 e 4 4 r 6 4 4 4 4 4 4 4 4 4 4 4 4 =  .%.y < e 4 4 4 e 4 4 4 4 4 4 4 4 4 4 4 4 e 4 4 4 4 4 4 2 r n.u u r e 4 4 e 4 4 4 4 4 e 4 4 4 4 e 4 4 4 e 4 4 4 e 4 ; { | r p r 5 4 4 4 4 4 4 4 4 4 4 4 4 4 4 4 4 e 4 4 4 4 4 4 6 & 4 6 6 6 6 ; & & 6 6 6 6 6 & & 6 4 6 6 6 6 4 6 & & 6 4 6 6 6 6 4 6 & & 6 4 6 4 6 6 4 ",
"; & 4 >X>X>X>X>X>X>X0X>X: 2 4 & & & & e X ] wXg b c v v c b v v c b pXpXD.3 7 7 2 ; & & & & & & & & & & & & & & & & 6 & & & & & & & & & & & & 6 & & & & & & & & 6 & & & & & & 4 2 & & & ; 5 , -., , s : ; & 4 2 & & 6 ; & 6 4 & & & & & & & & & & & ; +  .%., < > : & 2 4 & & & & & & & & & & & 2 4 & & & & & & & w n.u r w 4 ; & 6 & & & & & 6 & & & 2 4 & & & 6 & & & 6 2 . { | 5 5 5 2 & & & & & & & & & & & & & & & & 4 2 & & & & ; 6 & 4 6 6 6 6 ; & & 4 6 6 6 6 & & 5 8 8 8 8 8 8 5 & & 5 8 8 8 8 8 8 5 & & 5 8 8 8 8 8 8 ",
"2 X ' pX{ 1.2.2.g.g.g.iX_ + 6 & ; 2 & 2 # ] wXg b c v v c b v v b c c eXrX% 9 7 2 2 ; ; ; ; ; ; ; ; ; ; ; ; ; ; ; ; 6 ; ; ; ; ; ; ; ; ; ; ; ; 6 ; ; ; ; ; ; ; ; 6 ; ; ; ; ; & 4 2 ; ; ; ; 5 , -., , s : ; & 4 2 ; ; 6 2 & 6 4 & ; ; ; ; ; ; ; ; ; ; ; +  .%., < , : & 2 4 & ; ; ; ; ; ; ; ; ; ; 2 4 & ; ; ; ; 2 & e n.u u w 4 2 ; 6 ; ; ; ; ; 6 ; ; ; 2 4 & ; ; 6 ; ; ; 6 2 . { | 5 p 5 2 ; ; ; ; ; ; ; ; ; ; ; ; ; ; ; & 4 2 ; ; ; ; 2 6 & 4 6 6 4 6 & o . 4 6 6 6 6 & & 8 8 8 8 8 8 8 8 & & 8 8 8 8 8 8 8 8 & & 8 8 8 8 8 8 8 ",
"2 X _ wXg v c v g v g wX] X 6 & ; ; X n.qXpXl.g b c v v c b v v b b g 2.wX% 9 7 2 2 ; ; ; ; ; ; ; ; ; ; ; ; ; ; ; ; 6 ; ; ; ; ; ; ; ; ; ; ; ; 6 ; ; ; ; ; ; ; ; 6 ; ; ; ; ; & 4 2 & ; ; ; 5 , -., , s : ; & 4 2 & ; 6 ; & 6 4 & ; ; ; ; ; ; ; ; ; ; ; +  .%., < , : & 2 4 & ; ; ; ; ; ; ; ; ; & 2 4 & ; ; ; ; ; & w n.u u w 4 2 ; 6 ; ; ; ; ; 6 ; ; & 2 4 & ; ; 6 ; ; ; 6 2 . { | 5 p 5 2 ; ; ; ; ; ; ; ; ; ; ; ; ; ; ; & 4 2 & ; ; ; ; 6 & 4 6 6 6 4 ! $.$.e 4 6 6 6 & & 8 8 8 8 8 8 8 8 & & 8 8 8 8 8 8 8 8 & & 8 8 8 8 8 8 8 ",
"2 X ] wXg v b c v b g wX] X 6 & ; ; & pXl.:.c v b c v v c b c M b c v 2.wX# 3 7 2 2 ; ; ; ; ; ; ; ; ; ; ; ; ; ; ; ; 6 ; ; ; ; ; ; ; ; ; ; ; ; 6 ; ; ; ; ; ; ; ; 6 ; ; ; ; ; & 4 2 & ; ; ; 5 , -., , s : ; & 4 2 & ; 6 ; & 6 4 & ; ; ; ; ; ; ; ; ; ; ; +  .%., < , : & 2 4 & ; ; ; ; ; ; ; ; ; & 2 4 & ; ; ; ; ; & w n.u u w 4 2 ; 6 ; ; ; ; ; 6 ; ; & 2 4 & ; ; 6 ; ; ; 6 2 . { | 5 p 5 2 ; ; ; ; ; ; ; ; ; ; ; ; ; ; ; & 4 2 & ; ; ; ; 6 & 4 6 6 e = 4XDXFXy 4 6 6 6 & & 8 8 8 8 8 8 8 8 & & 8 8 8 8 8 8 8 8 & & 8 8 8 8 8 8 8 ",
"2 X ] wXg v b c v c g b.] X e & ; & 4 uXv v v v b c v v v b P 4.V c v n lX*.) 3 2 2 ; ; ; ; ; ; ; ; ; ; ; ; ; ; ; ; 6 ; ; ; ; ; ; ; ; ; ; ; ; 6 ; ; ; ; ; ; ; ; 6 ; ; ; ; ; & 4 2 & ; ; ; 5 , -., , s : ; & 4 2 & ; 6 ; & 6 4 & ; ; ; ; ; ; ; ; ; ; ; +  .%., < , : & 2 4 & ; ; ; ; ; ; ; ; ; & 2 4 & ; ; ; ; ; & w n.u u w 4 2 ; 6 ; ; ; ; ; 6 ; ; & 2 4 & ; ; 6 ; ; ; 6 2 . { | 5 p 5 2 ; ; ; ; ; ; ; ; ; ; ; ; ; ; ; & 4 2 & ; ; ; ; 6 & 4 6 6 e 2 2XDXSXy 4 6 6 6 & & 8 8 8 8 8 8 8 8 & & 8 8 8 8 8 8 8 8 & & 5 8 8 5 8 8 8 ",
"2 X ] b.g v b c v c g b.*.X 6 & 2 ; t iXc v v v b c v c M L 4.4.K c v c C.wXpXuX2 ; ; ; ; ; ; ; ; ; ; ; ; ; ; ; ; ; 6 ; ; ; ; ; ; ; ; ; ; ; ; 6 ; ; ; ; ; ; ; ; 6 ; ; ; ; ; & 4 2 & ; ; ; 5 , -., , s : ; & 4 2 & ; 6 ; & 6 4 & ; ; ; ; ; ; ; ; ; ; ; +  .%., < , : & 2 4 & ; ; ; ; ; ; ; ; ; & 2 4 & ; ; ; ; ; & w n.u u w 4 2 ; 6 ; ; ; ; ; 6 ; ; & 2 4 & ; ; 6 ; ; ; 6 2 . { | 5 p 5 2 ; ; ; ; ; ; ; ; ; ; ; ; ; ; ; & 4 2 & ; ; ; ; 6 & 4 6 6 e 2 2XDXSXy 4 6 6 6 & & 8 8 8 8 8 8 8 8 & & 5 8 8 8 8 8 8 8 & ; z A l k 8 8 8 ",
"4 X *.n.g v b c v c g x.>XX e & X o w iXv v v v b c v V 4.4.4.4.K c v c I g c pXy & ; ; ; ; ; ; ; ; ; ; ; ; ; ; ; ; 6 ; ; ; ; ; ; ; ; ; ; ; ; 6 ; ; ; ; ; ; ; ; 6 ; ; ; ; ; & 4 2 & ; ; ; 5 , -., , s : ; & 4 2 & ; 6 ; & 6 4 & ; ; ; ; ; ; ; ; ; ; ; +  .%., < , : & 2 4 & ; ; ; ; ; ; ; ; ; & 2 4 & ; ; ; ; ; & w n.u u w 4 2 ; 6 ; ; ; ; ; 6 ; ; & 2 4 & ; ; 6 ; ; ; 6 2 . { | 5 p 5 2 ; ; ; ; ; ; ; ; ; ; ; ; ; ; ; & 4 2 & ; ; ; ; 6 & 4 6 6 e 2 2XDXSXy 4 6 6 6 & & 8 8 8 8 8 8 8 8 & & 8 8 8 8 8 8 8 8 & > H.Y.Y.U.8 8 8 ",
"+ # *.x.g v b c v c g v.:X# $ 7 N.N.eXiXv v v v b c v K 4.4.4.4.K c v c I F M iXE 2 ; ; ; ; ; ; ; ; ; ; ; ; ; ; ; ; 6 ; ; ; ; ; ; ; ; ; ; ; ; 6 ; ; ; ; ; ; ; ; 6 ; ; ; ; ; & 4 2 & ; ; ; 5 , -., , s : ; & 4 2 & ; 6 ; & 6 4 & ; ; ; ; ; ; ; ; ; ; ; +  .%., < , : & 2 4 & ; ; ; ; ; ; ; ; ; & 2 4 & ; ; ; ; ; & w n.u u w 4 2 ; 6 ; ; ; ; ; 6 ; ; & 2 4 & ; ; 6 ; ; ; 6 2 . { | 5 p 5 2 ; ; ; ; ; ; ; ; ; ; ; ; ; ; ; & 4 2 & ; ; ; ; 6 & 4 6 6 e 2 2XDXSXy 4 6 6 6 & & 8 8 8 8 8 8 8 8 & > H.Y.Y.U.5 5 5 5 & & 8 8 8 8 U.Y.Y.",
"eXN.aXl.v v b c v c v 2.5X] ] uXiXb.wX2.v v v v c K L L 4.4.4.4.K c v c I D c wXE # 2 ; ; ; ; ; ; ; ; ; ; ; ; ; ; ; 6 ; ; ; ; ; ; ; ; ; ; ; ; 6 ; ; ; ; ; ; ; ; 6 ; ; ; ; ; & 4 2 & ; ; ; 5 , -.< , Q E ; & 4 2 & ; 6 ; & 6 4 & ; ; ; ; ; ; ; ; ; ; ; +  .%., < , : & 2 4 & ; ; ; ; ; ; ; ; ; & 2 4 & ; ; ; ; ; & w n.u u w 4 2 ; 6 ; ; ; ; ; 6 ; ; & 2 4 & ; ; 6 ; ; ; 6 2 . { | 5 p 5 2 ; ; ; ; ; ; ; ; ; ; ; ; ; ; ; & 4 2 & ; ; ; ; 6 & 4 6 6 e 2 2XDXSXy 4 6 6 6 & & 8 8 8 8 8 8 8 8 & ; z A l k U.U.U.l > & 5 8 8 5 k l A ",
"n.n.k.n v v b c v v v b N.eXeXN.v g g c c v v v c L 4.4.4.4.4.4.K v v c I D c wXpX] X & ; ; ; ; ; ; ; ; ; ; ; ; ; ; 6 ; ; ; ; ; ; ; ; ; ; ; ; 6 ; ; ; ; ; ; ; ; 6 ; ; ; ; ; & 4 2 & ; ; ; 5 , -.1 > *.>XX ; 4 2 & ; 6 ; & 6 4 & ; ; ; ; ; ; ; ; ; ; ; +  .%., < , : & 2 4 & ; ; ; ; ; ; ; ; ; & 2 4 & ; ; ; ; ; & w n.u u w 4 2 ; 6 ; ; ; ; ; 6 ; ; & 2 4 & ; ; 6 ; ; ; 6 2 . { | 5 p 5 2 ; ; ; ; ; ; ; ; ; ; ; ; ; ; ; & 4 2 & ; ; ; ; 6 & 4 6 6 e 2 2XDXSXy 4 6 6 6 & & 8 8 8 8 8 8 8 8 & & 5 8 5 5 U.U.U.l > & z A l k 5 5 8 ",
"g g g v v v b c v v v v g g v g v c v b c v v v c L 4.4.4.4.4.4.L c v c I D c b :.iX5XE X ; ; ; ; ; ; ; ; ; ; ; ; ; 6 ; ; ; ; ; ; ; ; ; ; ; ; 6 ; ; ; ; ; ; ; ; 6 ; ; ; ; ; & 4 2 & ; ; ; 5 , -.1 > *.uXX ; 4 2 & ; 6 2 & 6 4 & ; ; ; ; ; ; ; ; ; ; ; +  .%., < , : & 2 4 & ; ; ; ; ; ; ; ; ; & 2 4 & ; ; ; ; ; & w n.u u w 4 2 ; 6 ; ; ; ; ; 6 ; ; & 2 4 & ; ; 6 ; ; ; 6 2 . { | 5 p 5 2 ; ; ; ; ; ; ; ; ; ; ; ; ; ; ; & 4 2 & ; ; ; ; 6 & 4 6 6 e 2 2XDXSXy 4 6 6 6 & & 8 8 8 8 8 8 8 8 & & 8 z 8 8 5 5 5 5 = > H.Y.Y.Y.8 8 z ",
"c c c v v v b c v v v v c b b c c c v b c v c v c L 4.4.4.4.4.4.L v v c I D D c v v wX:XX 2 ; ; ; ; ; ; ; ; ; ; ; ; 6 ; ; ; ; ; ; ; ; ; ; ; ; 6 ; ; ; ; ; ; ; ; 6 ; ; ; ; 2 & 4 2 ; ; ; ; 5 , -.1 > |.pXX ; 4 2 ; ; e & & e 4 ; ; ; ; ; ; ; ; ; ; ; ; +  .%., < , : & 2 4 & 2 ; ; ; ; ; ; ; ; ; 4 4 & 2 ; ; ; 2 & e n.u u w 4 2 ; 6 ; ; ; 2 2 e 2 2 ; 4 6 & 2 ; 6 ; ; ; 6 2 . { | 5 p 5 2 ; ; ; ; ; ; ; ; ; ; ; ; ; ; 2 & 6 4 ; 2 ; ; 2 6 & 4 6 6 e 2 2XDXSXy 4 6 6 6 & & 8 8 8 8 8 8 8 8 & > A Y.Y.U.U.Y.Y.A > > A Y.Y.U.U.Y.Y.",
"v v v v v v b v v v v v v v c v v v v c v v v v c L 4.4.4.4.8.4.L c v c I c c c c g 2.>Xo ; & & & & & & & & & & & & 4 & & & & & & & & & & & & 4 & & & & & & & & 4 & & & & & & 4 2 & & & & 4 , -.1 7 .XlXX & 4 2 & & 2 *.{ 2 2 X & & & & & & & & & & ; X T %., < > : & 2 4 & & & & X X X X X & & 2 4 & & & & & & & w n.i i w 4 & & 6 & & & X X 4 X X X ; 2 X & & 4 & & & 4 &   { | 5 5 2 2 & & & & & & & & & & & & & & & & 4 2 & & & & & 4 & 4 6 6 e 2 2XDXSXy 4 6 6 6 & & 8 8 8 8 8 8 8 8 & > H.Y.Y.U.U.Y.Y.H.> > H.Y.Y.U.U.Y.Y.",
"!.!.!.!.!.!.!.!.!.!.!.!.!.!.!.I.I.L.L.!.L.L.L.J.C 5.7.4.4.0.4.4.e.4.b J I J L J F c g.>X2 e 6 9 9 0 0 0 0 0 q q q q S q S S S S S S S S S S S S q q q q q q 0 0 q 0 0 9 9 6 6 r e 6 6 6 e r s -.T x .XcX6 6 r 5 5 e 6 pX0Xs ! s s y e 5 5 5 6 e 6 6 e 7  .%.s ! y e e e r 7 6 r y Q ! ! ! ! Q y r r 7 5 e e 6 e 4 u wX~ ~ u r e 6 r 4 e u R W ` ) ` ` ` ` ` ` ` ] ` ` ` ] ` ` n.eX} } } ` ` ` ` ` ` ` ` ` ` ` ` ` ` ` ` ` ] ` ` ` ` ` ` R X 6 6 6 e 2 2XDXSXy 4 6 6 6 & & 8 8 8 8 8 8 8 8 & > H.Y.Y.U.U.Y.Y.H.> > H.Y.Y.U.U.Y.Y.",
"B B B B B B C B B B B B B B C B B B B C J.J.Q.!.[.[.[.[.`._.4.4.6.4.b D I J J c c v :.uX% q S S 0 0 0 0 0 0 0 0 0 0 9 0 0 0 0 0 0 0 0 0 0 0 0 9 0 0 0 0 0 0 0 0 q 0 0 0 S S 0 q 7 2 4 4 4 5 e -.1 x nXMX4 = y ! T  .X.9XuXX. .X.X. . .X.T y 4 2 : : 4 =  .%.y < y 4 2 6 ! T  . . . .[ [ [ [  . . . .T y 2 2 4 4 2 r b.u u r e 2 4 ) ` ` ` ` ` ` ) ' W ) ) R R R ) R R R ) R y } N.) ) W W R R R R R R R R R R R R R R R R ) R R R R R R r & 4 6 6 e 2 2XDXSXy 4 6 6 6 & & 8 8 8 8 8 8 8 8 & > H.Y.Y.U.U.Y.Y.H.> > H.Y.Y.U.U.Y.Y.",
"M M M M M M M M M M M M M M M M M M c M M v L 4.4.5.5._.`.[.[.5.4.4.c c I c c c v c J vX&.$ 3 3 3 3 3 3 3 3 3 3 3 3 9 3 3 3 3 3 3 3 3 3 3 3 3 9 3 3 3 3 3 3 3 3 9 3 3 3 3 3 $ 0 S % 3 & ; 4 , -., m NXxX< T  .T 1 1 > dXuX> y , , , , 1 T T X.1 z z * + T %., < : : T  . .T E < , , , , , , , , < T T [ T < X & & w n.u u 6 2 R ` ` R t w w w u w w w t u w w w u w w w u t : { g.u W u i w w w w w w w w w w w w w w t w u t w w w w t e & 4 6 6 e 2 2XDXSXy 4 6 6 6 & & 8 8 8 8 8 8 8 8 & > H.Y.Y.U.U.Y.Y.H.> > H.Y.Y.U.U.Y.Y.",
"M M M M M M V M M M M M M M V M M M N V M N P 5.5.5.5.5.4.5._.[.`.4.b c I D c c J J g <.>X$ 3 3 3 3 3 3 3 3 3 3 3 3 9 3 3 3 3 3 3 3 3 3 3 3 3 9 3 3 3 3 3 3 3 3 9 3 3 3 3 3 3 9 3 % S 0 & 5 , -.1 { mXxX .1 s , , , , lXuX, s , , , , , , , 1 T g.B * +  .%., , E  .T E y , < < < < < < < < < < < s , < T  .T 2 & e n.u r i ` ` u u w t t t t R t t t u u t t t R t t t R t , { g.W W u u t t t t t t t t t t t t t t t t u u t t t t t r & 4 6 6 e 2 2XDXSXy 4 6 6 6 & & 9 q q q q q q 9 ; * ^.$X$X^.^.$X$X^.* * ^.$X$X^.^.$X$X",
"M M M M M M M M M M M M M M V M M M M V M M P 5.5.5.5.5.5.5.4.5.`.[.V c I c D J J c v :.uX$ 3 3 3 3 3 3 3 3 3 3 3 3 9 3 3 3 3 3 3 3 3 3 3 3 3 9 3 3 3 3 3 3 3 3 9 3 3 3 3 3 3 9 3 3 3 % % 5 , -., K mXbX! > , < , , , lXpX6 1 x e , , , , , , > pXg.1 +  .%.: T %.T , < ! < < < < < < < < < < < < E < < < , T [ ; 6 n.r R ] ) w t R t t t t t R t t t u u t t t R t t t R t , { g.W W u u t t t t t t t t t t t t t t t t u u t t t t t r & 4 6 6 e 2 2XDXSXy 4 6 6 6 & & 9 q q q q q q 9 ; * OX#X@X+X+X@X#XOX* * OX#X@X+X+X@X#X",
"M M M M M M V M M M M M M M V M M M M V M M P 5.5.5.5.5.5.5.5.5.4.`.[.L I D Y J c c v :.uX$ 3 3 3 3 3 3 3 3 3 3 3 3 9 3 3 3 3 3 3 3 3 3 3 3 3 9 3 3 3 3 3 3 3 3 9 3 3 3 3 3 3 9 3 3 3 3 0 S e -.1 N.sXiX_ s :X, , , 1 fXpXs 1 K.f 1 , < , , , > pXg.X., T %.T %.E < < < E < < < < < < < < < < < < E < < < < , T [ i n.R } ) t t t R t t t t t R t t t u u t t t R t t t R t , { g.W W u u t t t t t t t t t t t t t t t t u u t t t t t r & 4 6 6 e 2 2XDXSXy 4 6 6 6 & & 9 q q q q q q 9 ; * OX@X@X+X+X@X@XOX* * OX@X@X+X+X@X@X",
"M M M P 5.P 5.5.P P 5.P M M V M M M M M M M 5.5.5.5.5.5.5.5.5.5.5.4.`.[.I J J D D c v G uX$ 3 3 3 3 3 3 3 3 3 3 3 3 9 3 3 3 3 3 3 3 3 3 3 3 3 9 3 3 3 3 3 3 3 3 9 3 3 3 3 3 3 9 3 3 3 3 3 0 F.3. .|.eXeX_ *.vX> , , , pXuX4 > G.z > ; > > > , > lXg.> X.%.;X%.T E < < < E < < < < < y y < < < < < E < < < < < , T *.wX} ` R R t t R t t t t t R t t t u u t t t R t t t R t , { g.W W u u t t t t t t t t t t t t t t t t u u t t t t t r & 4 6 6 e 2 2XDXSXy 4 6 6 6 & & 9 q q q q q q 9 ; * OX@X@X+X+X@X@XOX* * OX@X@X+X+X@X@X",
"M M M P 5.5.5.5.5.5.5.P M M V M M M M L P P 5.5.5.5.5.5.5.5.5.5.5.5.P `.^.D J D D c v G uX$ 3 3 3 3 3 3 3 3 3 3 3 3 9 3 3 3 3 3 3 3 3 3 3 3 3 9 3 3 3 3 3 3 3 3 9 3 3 3 3 3 3 9 3 3 3 3 3 > K.|.X.|.eXeX[ >XlX@ , ! *.lXvX5X5XsXuX5X>X>X*.[ T , vXg.@ , ;X=XT T E < < < E < < < < 1 B M 1 < < < < E < < < < < < , [ fX` ~ R u t t R t t t t t R t t t u u t t t R t t t R t , { g.W W u u t t t t t t t t t t t t t t t t u u t t t t t r & 4 6 6 e 2 2XDXSXy 4 6 6 6 & & 9 q q q q q q 9 ; * OX@X@X+X+X@X@XOX* * OX@X@X+X+X@X@X",
"M M M P 5.5.5.5.5.5.5.P M M V M M M N L 5.5.5.5.5.5.5.5.5.5.5.5.5.5.5.I ~.E.D J D c c F uX3 3 3 3 3 3 3 3 3 3 3 3 3 9 3 3 3 3 3 3 3 3 3 3 3 3 9 3 3 3 3 3 3 3 3 9 3 3 3 3 3 3 9 3 3 3 3 3 % eXvX0 |.wXeX_ *.MX5XkXxXmXgXVXVXVXBXBXBXVXVXCXnXxXvXMXpXT , ;X1XT T T a r < Q < < < < 1 B B 1 < < < < E < < < < < < , _ dX_ W R u t t R t t t t t R t t t u u t t t R t t t R t , { g.W W u u t t t t t t t t t t t t t t t t u u t t t t t r & 4 6 6 e 2 2XDXSXy 4 6 6 6 & & 9 q q q q q q 9 ; * OX@X@X+X+X@X@XOX* * OX@X@X+X+X@X@X",
"M M M P 5.5.5.5.5.5.5.5.M M V M M M M P 5.5.5.5.5.5.5.5.5.5.5.5.5.5.P W.W.~.J D D c c F uX3 $ 3 3 3 3 3 3 3 3 3 3 3 9 3 3 3 3 3 3 3 3 3 3 3 3 9 3 3 3 3 3 3 3 3 9 3 3 3 3 3 3 9 3 3 3 3 3 0 iXxXS |.wXN.9XkXmXBX.X/.I./.[.K.G./.[.G.G.G.I.[./.XX.XVXmXlXkX8X .1 1 C P.1 Q < < < < 1 B B 1 < < , < E < < < < < < E *.vX>XW R u t t R t t t t t R t t t u u t t t R t t t R t , { g.W W u u t t t t t t t t t t t t t t t t u u t t t t t r & 4 6 6 e 2 2XDXSXy 4 6 6 6 & & 9 q q q q q q 9 ; * OX@X@X+X+X@X@XOX* * OX@X@X+X+X@X@X",
"N N N P P P 5.5.P P P P N M M N M M N P 5.5.5.5.7.5.5.5.5.5.5.5.5.5.I _.{.`.!.D D c c c pX! $ 3 3 3 3 3 3 3 3 3 3 3 9 3 3 3 3 3 3 3 3 3 3 3 3 9 3 3 3 3 3 3 3 3 9 3 3 3 3 3 3 9 3 3 3 3 3 $.fXvXO.|.iXdXmX.X/.K.N 8 { sXpX{ j sX>X* [ [ :XMX6 f BX[.I..XBXmXkX>X[ B T., s P.y < y 1 P.B 1 , ' *.< ! < < < < < < ] ] lX:X&.u R t t R i i t t t R t t t u u t t t R t t t R t , { g.W W u u t t t t t t t t t t t t t t t t u u t t t t t r & 4 6 6 e 2 2XDXSXy 4 6 6 6 & & 9 q q q q q q 9 ; * OX@X@X+X+X@X@XOX* * OX@X@X+X+X@X@X",
"V V V 6.6.6.7.7.6.6.6.6.V M V M M M N P P P P P E.P P 5.5.5.5.5.5.q.I q.{.q.[.P c c c c N.vXQ $ 3 3 3 3 3 3 3 3 3 3 9 3 3 3 3 3 3 3 3 3 3 3 3 9 3 3 3 3 3 3 3 3 9 3 3 3 3 3 3 9 3 3 3 $ 1 $.iXzXO.|.MXBXT.|.aXT , > | sXuXg.T.aX5X# :X5Xn.MX< 1 vXuX .^ N.]..XVXxXbXeX[ ! I.5 > > > n.n.> , ] 9X, ! < < < < , ' ] ' xX&.*.' u t i E m L.< i t R t t t u u t w 4 R t t t R t , { g.W W u u t t t t t t t t t t t t t t t t u u t t t t t r & 4 6 6 e 2 2XDXSXy 4 6 6 6 & & 9 q q q q q q 9 ; * OX#X@X+X+X@X#XOX* * OX#X@X+X+X@X#X",
"vXvXxXxXxXxXxXxXxXxXxXxXvXvXvXvXvXvXvXvXvXbXaXsXeXN.a.5.P P 5.5.5.I 5.q.{.q._.!.c c c c g wX_ $ 3 3 3 3 3 3 3 3 3 3 9 3 3 3 3 % $ 3 3 3 3 3 3 9 3 3 3 3 3 3 3 3 9 3 3 3 3 3 3 9 3 3 3 3 X.O.iXfX:XMX.X/.0X5XbX1 , , g.eXuXgXT.vXVXg >XpX0XvXy E aXdX .T kX;Xs :.g.|.gXmXxXxX5X>X*.T iX5X> > ] pX> s < < < < < ] ' ' xX] &.*.p m t E m I.4 :X] r t t i u R 2 ] :XQ t t t R t , { g.W W u u t t t t t t t t t t t t t t t t u u t t t t t r & 4 6 6 e 2 2XDXSXy 4 6 6 6 & & 9 q q q q q q 9 ; * Y $X$X$X$X+X+XI * * I $X$X$XOX+X+X",
"3.3.g.a.a.a.M.a.a.a.a.a.g.g.g.g.N.N.N.N.eXeXeXsXaXvXxXxXaXN.P P q.q.5.q.{._.q.[.E.v c c g wX&.$ 3 3 3 3 3 3 3 3 3 3 9 3 3 3 $ wXk.# 3 3 3 3 3 9 3 3 3 3 3 3 3 3 9 3 3 3 3 3 3 9 3 3 $ s X.~ iXfXMX.XR.2.uXwXbX` N * n.b.wXMXBXbXVXj 9XpXwXfX! T aXpXT T kX;XT %.X.n.aXm g.gXVXaXbXmXxXxXvXpXlXxX*._ 6 : < , ] >Xy _ xX*._ %.{ G.< Q b /.7 5X*.w < m P.: ) ] lXMX) 4 t t R t , { g.W W u u t t t t t t t t t t t t t t t t u u t t t t t r & 4 6 6 e 2 2XDXSXy 4 6 6 6 & & r p p p u u a r & * N G.G.J.5._.`.G & * Z I.I.L.5XkXkX",
"P P P P P P P P P P P P U U P U P P P P P P P P E.P 6.N.sXxXxXN.W.q.5.q.{.q.q.W.!.c c c g b.*.$ 3 3 3 3 3 3 3 3 3 3 9 3 3 3 $ xX>X$ 3 3 3 3 3 9 3 3 3 3 3 3 3 3 9 3 3 3 3 7 7 9 3 $ 3 X.1 O.fXcXBX.X2.J iXiXbXsXT._ uXl.wXMXxXvXVXK.fXsXuXfX! f aXpXT Q xX;XT T  .dXvX< a xXeX$ ~ qXeXaX{ wXmXbXxXxXvXuX_ @ uX5X< _ xX*._ [ n.].< y { gX5 pX:XZ 5X| I.*.pXlXlXMX] _ w t R t , { g.W W u u t t t t t t t t t t t t t t t t u u t t t t t r & 4 6 6 e 2 2XDXSXy 4 6 6 6 ; * 8.`.`._.e e e e & * N R.R.Q.W.`.`.K * * B I.I.K.uXlXlX",
"7.7.7.5.5.5.e.7.5.5.5.5.7.e.e.7.7.7.5.e.7.7.7.7.e.7.5.P E.5.eXxXaXe.W._.{._._.q.`.E.D J c b.>X$ 9 9 3 0 9 9 9 9 9 9 9 9 9 0 ( xX:X% 9 9 9 9 9 9 9 9 9 9 9 9 9 9 9 9 9 9 9 I.N 9 9 0 $.$.s O.MXVX~.fX2.J iXvX.XgX~.xXMX:.wXwXiXxXgX|.eXVXdXiX9XeXsXuX .{ NX;X .+. .lXlX! { lXsXN [ 9XiXkX> *.MXlXpXn.|.nXMX5XlXaXf 5XMX*.] _ >XaXB f k.MX' lX0XT.NXeX[.vXMXvXxXMXuXuXr R ) R y { N.) ) ) ~ R R R R R R R R R R R R R R R R ~ Q R R R R R r & 4 6 6 e 2 2XDXSXy 4 6 6 6 & & x n n m z.b.b.#.& * N R.R.Q.W.`.`.K * * B I.I.K.uXlXlX",
"5.5.5.5.5.5.5.5.5.5.5.5.5.5.5.5.5.5.5.5.5.5.5.5.5.5.5.5.5.5.P I aXxXu.W.{.q.q.q._.[.L c v 3.aX>X$ 3 N ].x @ 3 3 3 3 9 3 3 $ :X>X:X$ 3 3 3 3 3 9 3 3 3 3 3 3 3 3 9 3 3 3 3 T.Z > 7 3 X.1 3 *.mX.XwXsX:.D rXxXK.gXBXwXkX:.n F wXvXxXbX|.BXlXwXMXMXeXiX[ n NXN.! !.V 9XdXT { fXVX8.[ lXiXvX2 *.MXMXMX>X|.BXaXaXMXnXiXlXMXk./ ' :XgXT.G.n.mX] lX0X|.aXbXbXxXMXMXgXaXuXpX4 t R t , { g.W W u u t t t t t t t t t t t t t t t t u u t t t t t r & 4 6 6 e 2 2XDXSXy 4 6 6 6 & & e r 5 r z.b.b.@.& * N R.R.Q.W.`.`.K * * B I.I.K.uXlXlX",
"5.5.5.5.5.5.5.5.5.5.5.5.5.5.5.5.5.5.5.5.5.5.5.5.5.5.5.5.5.5.q.I E.yXMXf.{.q.q.q.5.`.`.D c c v fXT h [.MX&.$ 3 3 3 3 9 3 3 $ :X*.>X$ 3 3 3 3 3 9 3 3 3 3 3 3 3 3 9 3 3 3 3 T.B > $ 1 X.q s cX.XC.gXeXG D wXbXN |.mXwXa.G c F :.,.n.MX.X[.iX2.k.xXwXwX[ n NX.Xl.eXn.5XaXm g.iXgXpX:XvXiXnXx >XMXxXMX9XbXnXiX0XgXMXMXMXMX.XwX' n.mX|.N.0XgX*.vXqXiX| xXMXMXsXxXiXN.lXpX5 t u t , { g.W W u u t t t t t t t t t t t t t t t t u u t t t t t r & 4 6 6 e 2 2XDXSXy 4 6 6 6 & & p f p p r r r e & * N R.R.Q.W.`.`.K * * B I.I.K.uXlXlX",
"5.5.5.5.5.5.5.5.5.5.5.5.5.5.5.5.5.5.5.5.5.5.5.5.5.5.5.5.5.5.I 5.q.E.eXMX{.W.q.q.q._.[.D c c v '.pX{ fX>X*.$ 3 3 3 3 9 3 3 $ >X&.>X$ 3 3 3 3 3 9 3 3 3 3 3 3 3 3 9 3 3 3 7 ~.B 3 9 X.( eX>XCX_.V.NXrXL J b.gXN l.MXBXT.G n G n v c xX].v n c F vXwXwX%.V NX.XnXMX9XwXbX|.aXpXaXvX>XxXiXmXpX>XMXvXMXlXmXnXaXuX[.M.MXMXMXmXMXuXfXMXvXvXvXsXqXgXbXwXj gXlXxX].fXiXx.vXNX{ E pXu : { g.W W u u t t t t t t t t t t t t t t t t u u t t t t t r & 4 6 6 e 2 2XDXSXy 4 6 6 6 ; * K `.`._.b.rXyXk.X * N R.R.Q.W.`.`.K * * B I.I.K.uXlXlX",
"5.5.5.5.5.5.5.5.5.5.5.5.5.5.5.5.5.5.5.5.5.5.5.5.5.5.5.5.5.q.I 5.q.q.E.aXxXW.q.q.q.5.`.U v c c g wXuX&.) >X$ 3 3 3 3 9 3 3 $ >X_ >X$ 3 3 3 3 3 9 3 3 3 3 3 3 3 3 9 3 3 > % VXwX$ X.X.2.MXxX.Xl.D.bXl.L G g.|.D G iX.XB G F G G n n |.!.x n G 2.fXn.b.>X8.NX.XxXxXfXiXvXMXxXn.fXMX>XxXsXMXMX5XMXiXMXxXbXnXsXpX[.M BXMXMXMXMXxXMXMXxXgXMXeXaXVXNXN.M [.C wX].fXwXN.NXxXuXuXMX_ , } g.W W u u t t p P.t t t t t t t t t t t t u u t t t t t r & 4 6 6 e 2 2XDXSXy 4 6 6 6 ; * K `.`.(.rXrXyXk.X * N R.R.Q.W.`.`.K * * B I.I.K.uXlXlX",
"5.5.5.5.5.5.5.5.5.5.5.5.5.5.5.5.5.5.5.5.5.5.5.5.5.5.5.5.5.W.q.5.q.q.5.W.xXyXW.q.q.5._.!.v c c v wXpXa / >X$ 3 3 3 3 9 3 3 $ 5XQ uXQ $ 3 3 3 3 9 3 3 3 3 3 3 3 3 9 3 3 ; 8 bX5X$  ., N.MXVXeXH D.L G 9.G U Q.H n N I.G G G G G n n T.!.n b :.2.n.l.g.MXBXmX.XlXiXgXfXfXMX>.v vXMXlXbXgXvXMXMXxXn lXNXgXgXsXbX!.n N.bXMXwXwXNX|.xXMXVX.X].bXsXxX:.n K.C n V 2.:.N.nXa.lXMXxXlX>XaX| R { L.t i t p I.t t t t t t t t t t t t u u t t t t t r & 4 6 6 e 2 2XDXSXy 4 6 6 6 ; * K `.`._.rXrXyXk.X * N R.R.Q.W.`.`.K * * B I.I.K.uXlXlX",
"5.5.5.5.5.5.5.5.5.5.5.5.5.5.5.5.5.5.5.5.5.5.5.5.5.5.5.5.q.q.5.5.q.q.5.W.}.MXM.W.q.q.5.[.J v c g b.vX9 :.wX$ 3 3 3 3 9 3 3 $ uX7 0X&.$ 3 3 3 3 9 3 3 3 3 3 3 3 3 9 3 3 @ x gXuXs  .% eXNXBXN.D D.H G 0.L F F F F n n G G G G G n n !.Q.n n 2.:.G G K bXVXmXVX.X!.gXfXiXwX:.n n.sXMXbXaXlXNXMXxXn 2.nXBXfXiXnXC :.:.:.mXiXx.NX!.fXxXbXT.L MXwXg.K b n n b K b b V /.(.kXbXBXMXvXgX| E P.I.y i t x I.t t t t t t t t t t t t u u t t t t t r & 4 6 6 e 2 2XDXSXy 4 6 6 6 ; * K `.`._.rXrXyXk.X * N R.R.Q.W.`.`.K * * B I.I.K.uXlXlX",
"5.5.5.5.5.5.5.5.5.5.5.5.5.5.5.5.5.5.5.5.5.5.5.5.5.5.5.5.I q.5.5.q.q.5.q.{.eXxXW.q.q.5.`.Q.v c c v 9 z G dX6 $ 3 3 3 9 $ 7 pXlX$ *.*.$ 3 3 3 3 9 3 3 3 3 3 3 3 3 9 3 3 @ x sXwX..1 ~ MXVXBXE.H D.G G 0.3.F F F F n F G G G G G n n b b n G 2.G :.:.L [.xXMXMX.XQ.gXdXiXb.2.G v I.xXfXxXfXmXVX|.m 8.[.BXpXwXnXV :.G :.eXxXwXnX!.fXvXvXV n MXn.v 3.b b b b K b b n J.8.MX|.XXuXMXBX|.*.eXI.i i t m I.i t t t t t t t t t t t u u t t t t t r & 4 6 6 e 2 2XDXSXy 4 6 6 6 ; * K `.`._.rXrXyXk.X * N R.R.Q.W.`.`.K * * B I.I.K.uXlXlX",
"5.5.5.5.5.5.5.5.5.5.5.5.5.5.5.5.5.5.5.5.5.5.5.5.5.5.5.P I q.5.5.q.q.5.q.{.W.xXeXE.q.5.q.~.M c c v x v v wX>X$ 3 3 3 9 $ s MXvX$ &.*.$ 3 3 3 3 9 3 3 3 3 3 3 3 3 9 3 3 @ { eXiX%.@ *.NXBXdXD G D.H G 0.9.F F F F F n G K K G G n n n n n 2.:.G :.:.G [.MXMXdX1.G VXlX].6.2.:.n !.bXwXpXiXiXXXG.m C T.eXiXwXfXb :.:.:.M.eXMXgXE.uXiXvX:.b vXx.c K b b b b K b b b G b xX.XI.I.|.gXnXMXNX|.n.E w { |.i t t t t t t t t t t t u u t t t t t r & 4 6 6 e 2 2XDXSXy 4 6 6 6 ; * K `.`._.rXrXyXk.X * N R.R.Q.W.`.`.K * * B I.I.K.uXlXlX",
"5.5.5.5.5.5.5.5.5.5.5.5.5.5.5.5.5.5.5.5.5.5.5.5.5.5.5.I q.q.5.5.q.q.5.q.{.W.M.xXq.I 5.4.Q.Q.v c c c c g ( >X$ 3 3 3 9 $ ) >X6 $ #.:X$ 3 3 3 3 9 3 3 3 3 3 3 3 3 9 3 3 @ { eXeX+.+.MXBXg.wXD G D.H G r.9.F F F F F n G K K G G n n n n G 2.G :.:.:.G 2.xXuXz.:.G BXlXG.P :.2.n C bX1.m :.m I.P m V /.g.2.b.wXb :.:.3.M.3.NXlXG :.wXvX2.V vXl.c K b b b b K b b b K b vX.XC C C MXMXgX].vXxXW 4 } bXi t t t t t t t t t t t u u t t t t t r & 4 6 6 e 2 2XDXSXy 4 6 6 6 ; * K `.`._.rXrXyXk.X * N R.R.Q.W.`.`.K * * B I.I.K.uXlXlX",
"5.5.5.5.5.5.5.5.5.5.5.5.5.5.5.5.5.5.5.5.5.5.5.5.5.5.5.I q.q.5.5.q.q.5.q.{.q.W.aXsXE.5.q.U !.c c c c c v >.>X$ 3 3 3 9 $ _ >X$ $ ` >X$ 3 3 3 3 9 3 3 3 3 3 3 3 3 9 3 3 @ } eXeX*.lXMX`.D F F G D.H G r.9.F F G F F F G K K G G F n n c 2.2.G :.:.:.G :.x.2.z.:.G |.fXF :.:.2.:.m lX2.n n n n n n n ].3.G :.:.:.:.:.:.S.3.eXxX:.b b.fX:.:.N.g.b K b b b b K b b b K c iX[.C n n aXMXBXG.lXMX/.h [ mX5 t t t t t t t t t t t u u t t t t t r & 4 6 6 e 2 2XDXSXy 4 6 6 6 ; * K `.`._.rXrXyXk.X * N R.R.Q.W.`.`.K * * B I.I.K.uXlXlX",
"5.5.5.5.5.5.5.5.5.5.5.5.5.5.5.5.5.5.5.5.5.5.5.5.5.5.I I 5.q.5.5.q.q.5.q.{.q.W.M.MXe.P q.L Q.U v c c c v :.>X$ 3 3 3 9 $ ] :X$ $ f fX6 $ 3 3 3 9 3 3 3 3 3 3 3 $ 0 3 3 # k.rXA.>XMXVXQ.H F F G D.H G r.9.F F L F F F G L K G G F F n n 2.:.G :.G :.:.G n l.z.:.H |.fXF :.:.:.2.n iX:.n n n n n n :.g.:.:.:.:.:.:.:.:.S.3.3.xXwXc x.iXG 2.J.V n K b b b b K b b b K b 3.~.L b M x.MX[.J.N.vX.XI.0XNXn.E t t t t t t t t t t u u t t t t t r & 4 6 6 e 2 2XDXSXy 4 6 6 6 ; * K `.`._.rXrXyXk.X * N R.R.Q.W.`.`.K * * B I.I.K.uXlXlX",
"5.5.5.5.5.5.5.5.5.5.5.5.5.5.5.5.5.5.5.5.5.5.5.5.5.5.I q.q.q.5.5.q.q.5.q.{.q.q.W.aXsXE.q.L U !.v c c c v :.uX$ 3 3 3 9 $ &.*.$ 3 $ wX! $ 3 @ $ 9 3 3 3 3 3 3 $ ) #.$ 3 $ *.rXm.5XMX[.J F F F L D.H L r.9.F F L F F F G L L G G F F n :.2.G :.:.:.3.:.:.G l.z.:.:.g.x.G :.:.G 2.G n n n n n n n n g.g.G :.:.:.:.:.:.3.S.g.3.eXxX:.:.:.:.2.:.b b K b b b b K b b b K b b K.K n c N.iXT.P J..XMXsXnXbXxX_ w t t t t t t t t t u u t t t t t r & 4 6 6 e 2 2XDXSXy 4 6 6 6 ; * K `.`._.rXrXyXk.X * N R.R.Q.W.`.`.K * * B I.I.K.uXlXlX",
"5.5.5.5.5.5.5.5.5.5.5.5.5.5.5.5.5.5.5.5.5.5.5.5.5.q.I 5.q.q.5.5.q.q.5.q.{.q.q.I a.MXe.P U c !.N v c c v :.uX$ 3 $ 3 9 # *.*.# 3 # wX_ @ % 2.9 3 3 $ $ $ $ 3 # *.pX# 3 $ :Xc.(.MXgXU H F F F L j.H L r.9.F F L F F D G L L G F F F n 2.:.G :.G G 3.:.G G l.z.:.:.:.G :.:.:.G :.:.n n n n n n n n g.:.:.:.:.:.:.:.G :.M.3.3.3.xXwXb :.G 2.:.b b K b b b b V b b b K b b b K b n 7.i.L.C C [.|.xXsXsXMX] = t t t t t t t t w u t w t t t t r & 4 6 6 e 2 2XDXSXy 4 6 6 6 ; * K `.`._.rXrXyXk.X * N R.R.Q.W.`.`.K * * B I.I.K.uXlXlX",
"5.5.5.5.5.5.q.5.5.5.5.5.5.5.q.5.5.5.5.q.5.5.5.5.7._.q.q.q._.q.q._.q.q._.{._._._.W.aXsXW.P J Q.Q.D J J D 3.uX0 9 9 9 q q pX( 0 9 % wX&.% |.xXuXa 9 9 9 9 9 9 g wXvX0 9 % uXg._.MX|.J G F G G 9.j.H 9.t.w.G L 9.G G L L 4.9.G G L K :.l.:.:.9.:.:.9.3.:.:.l.v.2.2.2.:.:.:.:.:.:.2.G G G G G G G 3.g.3.:.:.:.:.:.:.:.3.S.g.g.3.eXvX3.3.3.:.2.K K 3.K K K K 3.K K K 3.K K K 3.K b 7.].3.3.8./.B pXN.iXMX*.>X] r R R R R R R R ) ~ R R R R R r & 4 6 6 e 2 2XDXSXy 4 6 6 6 ; * K `.`._.rXrXyXk.X * N R.R.Q.W.`.`.K * * B I.I.K.uXlXlX",
"5.5.5.5.5.5.5.5.5.5.5.5.5.5.5.5.5.5.5.5.5.5.5.5.q._.q.q.q.q.q.q.q.q.5._.{._._.q.W.M.xXe.q.P J !.J D D c K uX3 9 > N BXgXuX$ 9 9 $ :X&.9 lX$ >Xn.$ 7 7 9 3 % N.wXvX9 7 3 dX3.N.nXQ.H F F F F 9.j.H L r.w.G L 9.F F F L 4.3.G G L K 2.2.:.:.9.:.:.3.3.:.G l.z.:.2.:.:.:.:.:.:.:.2.:.n G G G G G g.3.:.:.:.:.:.:.:.:.3.S.g.g.3.3.xXb.K :.3.2.:.V K b b b K K b b b K b b b K V n 7.].K 8.K !.V | b fXNX0XxX5X_ u u u u u u u Q u u u u u u r & 4 6 6 e 2 2XDXSXy 4 6 6 6 ; * K `.`._.rXrXyXk.X * N R.R.Q.W.`.`.K * * B I.I.K.uXlXlX",
"5.5.5.5.5.5.5.5.5.5.5.5.5.5.5.5.5.5.5.5.5.5.5.5.I I 5.5.q.q.5.5.q.q.5.q.{.q.q.q.q.P vXeXE.P c Q.U v c v F uX3 3 # 0XuX_ a $ 3 3 # *.:Xr >X# s fXN.% 3 $ r >XMXbXpX9 $ 1 dXL dXVXL D F F F F 9.j.H L r.w.F F 9.F F F L 0.3.L F K G 2.:.:.:.9.G G 3.3.G G l.z.:.:.:.:.:.:.:.:.G :.2.n G G n n G g.:.:.:.:.:.:.:.:.:.:.M.3.3.:.F iXfXG :.K :.2.b K b b b b V b b b K b b b K b n 7.].V V V b b b c pXgXuXvXxX>X2 t t t t t w u t t t t t t r & 4 6 6 e 2 2XDXSXy 4 6 6 6 ; * K `.`._.rXrXyXk.X * N R.R.Q.W.`.`.K * * B I.I.K.uXlXlX",
"5.5.5.5.5.5.5.5.5.5.5.5.5.5.5.5.5.5.5.5.5.5.5.5.I q.5.5.q.q.5.5.q.q.5.q.{.q.q.q.q.P N.xX5.P M U !.v c c F uX3 3 $ uX) # $ 3 3 3 @ f iX_ >X$ $ 9 uX&.$ $ *.mXn.s uXa $ X.uXv.mX.XG D F F F F 9.j.H 9.r.w.L F 9.F F F L 0.4.4.K L 3.2.:.:.:.9.G G 9.3.:.G l.z.:.:.:.:.3.:.:.3.:.G 2.G G G n n g.g.:.:.:.:.:.:.:.:.:.:.M.3.3.:.:.g.xX2.G 3.:.2.b K b b b b K b K V K b b b K b n 7.].V K V b b b c iXeXbXbXMX5X4 t t t t t t u u t t t t t r & 4 6 6 e 2 2XDXSXy 4 6 6 6 ; * K `.`._.rXrXyXk.X * N R.R.Q.W.`.`.K * * B I.I.K.uXlXlX",
"5.5.5.5.5.5.5.5.5.5.5.5.5.5.5.5.5.5.5.5.5.5.5.I _.5.5.5.q.q.5.5.q.q.5.q.{.q.q.q.q.q.P xXA.P J M !.U v c D uX6 $ $ uX~ $ 3 3 3 3 3 $ eXpX:X$ 7 $ ^ uX$ $ :X].# # uXm ,  .wXdXVXT.F F F F F F 9.j.H 9.r.w.L L 0.F L F L 0.0.e.3.L y.:.:.:.3.9.G G 9.3.:.G v.z.:.:.:.:.3.:.:.3.:.G 2.:.G G n n g.3.:.:.:.:.:.:.:.3.:.:.M.3.3.:.:.K aXiXb 3.G 2.:.K K V V b K b K K K b b b K b n 7.].V K V b b b b :.n fXBXNX5X2 t t t t t t u u t t t t t r & 4 6 6 e 2 2XDXSXy 4 6 6 6 ; * K `.`._.rXrXyXk.X * N R.R.Q.W.`.`.K * * B I.I.K.uXlXlX",
"5.5.5.5.5.5.5.5.5.5.5.5.5.5.5.5.5.5.5.5.5.5.5.I q.q.5.5.q.q.5.5.q.q.5.q.{.q.q.q.q.q.P eXvXP J c Q.Q.v c v sXwX# B aXs $ 3 3 3 3 3 @ n xX*.$ 3 9 $ pX_ # wX2.@ $ uXN.1 O.aXMX[.~.H F F F F F 9.C.G 9.r.w.9.L w.L L G 3.0.0.e.3.3.y.G :.3.3.9.:.:.9.3.:.G v.z.:.:.:.:.3.:.:.9.3.G :.2.G K n :.g.3.:.:.:.:.:.:.3.3.G 3.m.3.3.:.3.K N.xX:.9.:.g.2.L 8.K V K 4.K 3.8.K b b b K b n 7.].V K V b b b b b b V ].nXiX>X' w t t t t u u t t t t t r & 4 6 6 e 2 2XDXSXy 4 6 6 6 ; * K `.`._.b.rXyXk.X * N R.R.Q.W.`.`.K * * B I.I.K.uXlXlX",
"5.5.5.5.5.5.5.5.5.5.5.5.5.5.5.5.5.5.5.5.5.5.5.I q.q.5.5.q.q.5.5.q.q.5.q.{.q.q.q.q.q.P q.xXM.P P U !.c c v J.iX$ sX>X0 3 3 3 3 3 3 $ 7 MX*.$ 3 9 $ *.&.# wX{ @ $ 5XlX>X>.xXbXK.E.F F F F F F 9.C.G 9.r.w.9.L w.0.L G 9.0.0.w.4.y.y.:.3.3.3.w.9.3.9.9.:.G v.z.:.:.:.3.3.:.:.9.3.G G 2.:.K n g.g.3.:.:.3.3.:.:.3.6.:.3.m.3.3.:.3.3.K vXwX4.:.3.2.4.6.K L 8.6.L 4.4.K V b b K b n 7.].V K V b b b b b b n C XXVXMX_ w t t t t u u t t t t t r & 4 6 6 e 2 2XDXSXy 4 6 6 6 ; * 3.`.`.(.rXrXyXk.X * N R.R.Q.W.`.`.K * * B I.I.K.uXlXlX",
"5.5.5.5.5.5.5.5.5.5.5.5.5.5.5.5.5.5.5.5.5.5.I I q.q.5.5.q.q.5.5.q.q.5.q.{.q.q.q.q.q.q.E.sXaXE.q.L Q.U v J q 5XN.iX@ 9 3 3 3 3 3 3 3 3 xX*.$ 3 9 $ *.*.# uXf $ $ d dXMXuXxX|.J G F F F F F F 9.C.G 9.r.w.9.L w.0.L G 9.0.0.t.0.y.u.:.3.9.9.w.w.9.w.9.:.G y.v.:.:.:.3.3.:.:.w.3.:.:.2.2.L n g.3.9.3.3.3.3.3.:.g.i.3.3. X3.3.:.3.3.K eXvX4.:.3.2.y.6.3.4.4.6.8.4.4.3.K b b K b n 7.].V K V b b b b b b n V F.|.MX` w t t t t u u t t t t t r & 4 6 6 e 2 2XDXSXy 4 6 6 6 ; * V `.`._.b.rXrXk.X * N R.R.Q.P W.W.G * * N I.I.K.5X9XkX",
"5.5.5.5.5.5.5.5.5.5.5.5.5.5.5.5.5.5.5.5.5.5.I q.q.q.5.5.q.q.5.5.q.q.5.q.{.q.q.q.q.q.5.P a.xXe.I L U !.v J % *.pX! $ 9 3 3 3 3 3 3 3 $ lX*.$ 3 9 $ &.:X# uXa $ 3 0 kXiXVXNXQ.F F F F F F F G 9.C.3.w.r.0.0.9.0.0.L L 0.0.0.t.u.y.w.3.9.w.w.w.w.9.w.9.:.G y.v.:.g.:.3.9.:.3.w.9.:.:.3.2.3.3.g.3.6.3.3.3.9.3.:.g.i.3.g. Xu.g.3.3.9.3.g.NXN.G 3.3.s.6.4.6.6.6.4.4.4.3.8.b b 3.b n 7.].V K V b b b b b b b n b ].MX.Xz < t t t u u t t t t t r & 4 6 6 e 2 2XDXSXy 4 6 6 6 & * n E.E.C k.n.n.` & * v F.j j L P P n & * v J.J.B *XhXhX",
"5.5.5.5.5.5.5.5.5.5.5.5.5.5.5.5.5.5.5.5.5.I I 5.q.q.5.5.q.q.5.5.q.q.5.q.{.q.q.q.q.q.5.5.P bXeXE.P M !.P D q @ $ $ 3 9 3 3 3 3 3 3 3 $ a 6 $ 3 9 $ _ :X! gX% 3 3 9 fX.XBXsXU G F F F F L F L w.j.9.w.r.0.0.9.0.0.0.9.0.0.0.0.s.y.w.9.9.w.w.w.w.9.w.w.:.G y.v.2.y.:.3.9.3.w.w.9.:.:.3.3.9.g.:.9.u.6.3.9.6.3.:.u.i.9.u. Xi.i.3.u.6.3.L aXaXK u.9.M.7.6.6.6.7.4.6.6.8.6.V b 3.b n 7.].V K V b b b b b b b b b [.nXBX| < t t t u u t t t t t r & 4 6 6 e 2 2XDXSXy 4 6 6 6 & * n E.E.C k.n.n.#.& * v F.F.j L P P n & * N J.J.B *XhXhX",
"5.5.5.5.5.5.5.5.5.5.5.5.5.5.5.5.5.5.5.5.5.I q.5.q.q.5.5.q.q.5.5.q.q.5.q.{.q.q.q.q.q.5.5.P N.xX5.P c Q.`.D x 3 3 3 3 9 3 3 3 3 3 3 3 3 $ $ 3 3 9 $ ) >X` n.$ 3 $ O.Q.E.xX].L L F F F F L D 9.r.j.w.r.r.0.0.0.0.0.0.0.0.0.0.r.h.w.w.9.9.w.w.w.w.w.w.w.:.G y.c.2.y.:.3.9.9.u.w.9.3.:.3.3.s.g.:.9.u.u.3.6.6.9.:.u.u.w.i. Xi.i.g.u.e.9.4.N.xX3.6.6.s.u.6.6.6.7.6.6.6.6.6.K K 3.K n 7.].V K K b b b b V b b b n I.!.MXpX4 t t t u u t t t t t r & 4 6 6 e 2 2XDXSXy 4 6 6 6 & * n E.E.C k.n.n.#.& * v F.F.j L P P n & * N J.J.B *XhXhX",
"5.5.5.5.5.5.5.5.5.5.5.5.5.5.5.5.5.5.5.5.5.I 5.5.q.q.5.5.q.q.5.5.q.q.5.q.{.q.q.q.q.q.5.5.5.P xXN.P J P [.J q 3 3 3 3 9 3 3 3 3 3 3 3 3 3 3 3 3 9 $ s >X*.*.$ 3 3 >.v :XnXB 9.L F F F L L F 0.w.j.w.r.r.0.0.0.0.0.0.0.0.0.0.p.h.w.w.w.w.w.w.w.w.w.w.w.3.G y.c.g.y.2.3.9.w.u.w.w.3.:.3.3.M.a.3.u.u.u.g.6.7.6.3.u.u.u.i. Xi.i.u.u.e.6.9.e.xXb.4.u.a.M.6.6.6.7.6.6.6.e.6.K 3.6.3.K 7.].V K L b b b b V b b b n I.J.vXlX2 t t t u u t t t t t r & 4 6 6 e 2 2XDXSXy 4 6 6 6 & * n E.E.C k.n.n.#.& * v F.F.j L P P n & * N J.J.B *XhXhX",
"5.5.5.5.5.5.5.5.5.5.5.5.5.5.5.5.5.5.5.5.q.I 5.5.q.q.5.5.q.q.5.5.q.q.5.q.{.q.q.q.q.q.5.5.q.E.yXbXP 5.5.`.U x 0 3 3 3 9 3 3 3 3 3 3 3 3 3 3 3 3 9 3 3 uXuX` $ $ 1 2.D vXN.v 0.L F F F L 9.L 0.w.j.w.r.r.0.0.0.0.0.0.0.0.0.0.s.r.w.w.w.w.w.w.w.w.w.w.w.9.3.y.C.y.p.3.9.w.w.u.w.w.9.:.9.9.M.s.9.u.u.u.g.6.e.6.9.u.u.u.i. Xi.i.u.u.u.6.u.5.sXvX4.u.i.M.e.6.6.7.6.6.6.e.6.8.3.6.3.3.(.].V 4.L b b b b V b b b n !.J.fXMX*.t t t u u t t t t t r & 4 6 6 e 2 2XDXSXy 4 6 6 6 & * n E.E.C k.n.n.#.& * v F.F.j L P P n & * N J.J.B *XhXhX",
"5.5.5.5.5.5.5.5.5.5.5.5.5.5.5.5.5.5.5.5.I q.5.5.q.q.5.5.q.q.5.5.q.q.5.q.{.q.q.q.q.q.5.5.5.P i.xXi.P 5._.Q.c q 3 3 3 9 3 3 3 3 3 3 3 3 3 3 3 3 9 3 $ *.MXd % $ X.G 2.mXV H 0.L F F F L 0.0.0.w.j.w.r.r.0.0.0.0.0.0.0.0.0.w.M.r.r.w.w.w.w.w.w.w.w.w.w.9.9.y.C.p.p.3.9.w.w.u.w.w.9.3.w.u.d.s.u.u.u.u.u.u.u.u.7.u.u.u.i. Xi.i.u.u.u.6.u.e.M.xXa.e.i.a.a.4.7.7.6.6.6.e.6.4.4.e.4.3.(.].3.7.L b b b b K b b b n C N wXMXlXw t t u u t t t t t r & 4 6 6 e 2 2XDXSXy 4 6 6 6 & * n E.E.C k.n.n.#.& * v F.F.j L P P n & * N J.J.B *XhXhX",
"5.5.5.5.5.5.5.5.5.5.5.5.5.5.5.5.5.5.5.q.I 5.5.5.q.q.5.5.q.q.5.5.q.q.5.q.{.q.q.q.q.q.5.5.5.5.P aXsXE.5.q.!.J q 3 3 3 9 3 3 3 3 3 3 3 3 3 3 3 3 9 3 $ _ MXf % ,  .D fXVXN F 0.L F F F 0.0.0.0.w.j.w.r.r.0.0.0.0.0.0.0.w.0.s.s.r.r.w.w.w.w.w.w.w.w.w.w.w.9.s.C.y.p.g.9.w.w.u.w.w.w.9.w.m.a.s.a.e.u.u.u.u.u.u.u.u.u.u.i. Xi.i.i.u.u.u.u.u.5.bXeX5.i.u.s.6.6.7.6.6.6.e.6.6.4.e.6.4.'.].4.e.4.K b b b K b b b b n n b iXxXw t t u u t t t t t r & 4 6 6 e 2 2XDXSXy 4 6 6 6 & * n E.E.C k.n.n.#.& * v F.F.j L P P n & * N J.J.B *XhXhX",
"5.5.5.5.5.5.q.5.5.5.5.5.5.5.q.5.5.5.5._._.q.q.q._.q.q.q.q._.q.q._.q.q._.{._._._._.q.q.q.q.q.W.N.xXq.q.q.`.E.x 9 9 9 9 9 9 9 9 9 9 9 9 9 9 9 9 9 9 0 ) vXx q X.$.G xX].F G 0.9.G L L 0.0.0.t.r.C.r.r.r.r.w.0.r.w.0.0.t.w.s.p.p.r.r.u.u.u.u.u.u.u.u.u.u.w.C.C.p.s.y.w.u.p.p.u.u.u.w.u.m.a.s.M.i.i.i.i.i.i.i.i.i.i.i.f. Xd.d.f.i.i.i.i.i.e.eXxXe.i.i.M.u.e.e.e.e.e.e.e.e.6.e.e.6.'.].7.i.6.3.L K K 4.K K K K K K V g.pXQ u R ~ Q R R R R R r & 4 6 6 e 2 2XDXSXy 4 6 6 6 & * n E.E.C k.n.n.#.& * v F.F.j L P P n & * N J.J.B *XhXhX",
"5.5.5.5.5.5.5.5.5.5.5.5.5.5.5.5.5.5.5.W.q.5.5.5.q.q.5.5.q.q.5.5.q.q.5.q.{.q.q.q.q.q.5.5.5.5.5.P xXN.P 5._.!.c x 3 3 9 3 3 3 3 3 3 3 3 3 3 3 3 9 3 $ r uXx q X.0 wXnXU F F 0.9.F L 9.0.0.0.0.w.j.w.r.r.0.0.0.0.0.0.0.0.p.s.r.p.r.r.w.w.w.w.w.w.w.w.w.w.w.s.C.p.y.w.w.w.w.u.w.w.w.9.a.d.u.u.s.u.u.u.i.u.u.u.u.u.u.u.i. Xi.i.i.u.u.u.i.u.e.a.xXN.e.u.a.a.6.e.6.6.6.e.6.6.6.e.6.4.'.].6.7.7.3.L K K 8.b b b b b b b M iX' w t u u t t t t t r & 4 6 6 e 2 2XDXSXy 4 6 6 6 & * n E.E.C k.n.n.#.& * v F.F.j L P P n & * N J.J.B *XhXhX",
"5.5.5.5.5.5.5.5.5.5.5.5.5.5.5.5.5.5.I _.5.5.5.5.q.q.5.5.q.q.5.5.q.q.5.q.{.q.q.q.q.q.5.5.5.5.q.E.eXbXP q.5.!.U x 3 3 9 3 3 3 3 3 3 3 3 3 3 3 3 9 3 0 3 7 v d X.0 vXBXD F F 0.9.F 9.0.0.0.0.0.w.j.w.r.r.0.0.0.0.0.0.0.0.s.p.p.r.w.r.w.w.w.w.w.w.w.w.w.w.w.s.C.p.y.u.u.w.w.u.w.w.w.w.m.a.u.u.s.s.e.u.i.u.u.u.u.u.u.u.i. Xi.i.i.u.u.u.i.u.u.5.aXsXq.u.u.s.6.7.6.6.6.e.6.6.6.e.6.4.'.].7.e.7.4.4.8.8.8.b b b b b b b c iX' w t u u t t t t t r & 4 6 6 e 2 2XDXSXy 4 6 6 6 & * n E.E.C k.n.n.#.& * v F.F.j L P P n & * N J.J.B *XhXhX",
"5.5.5.5.5.5.5.5.5.5.5.5.5.5.5.5.5.5.I q.q.5.5.5.q.q.5.5.q.q.5.5.q.q.5.q.{.q.q.q.q.q.5.5.5.5.5.P i.xXi.P 4.E.Q.x 3 3 9 3 3 3 3 3 3 3 3 3 3 3 3 9 3 q 3 3 v O.1 _ NXE.F F F 0.0.G 9.0.0.0.0.0.w.j.w.r.r.0.0.0.0.0.0.0.r.s.w.p.r.w.r.r.w.w.w.w.w.w.w.w.w.w.s.C.p.y.u.u.w.w.u.w.w.w.u.m.u.u.u.a.s.u.u.i.u.u.u.u.u.u.u.i. Xi.i.i.u.u.u.i.u.u.6.N.xXi.u.u.s.u.7.6.6.6.e.6.6.6.e.6.4.'.'.7.e.7.6.6.4.6.8.K b b b b b b c iX_ w t u u t t t t t r & 4 6 6 e 2 2XDXSXy 4 6 6 6 & * n E.E.C k.n.n.#.& * v F.F.j L P P n & * N J.J.B *XhXhX",
"5.5.5.5.5.5.5.5.5.5.5.5.5.5.5.5.5.5.I q.q.5.5.5.q.q.5.5.q.q.5.5.q.q.5.q.{.q.q.q.q.q.5.5.5.5.5.5.P bXeXE.q.U !.v 0 q 9 3 3 3 3 3 3 3 3 3 3 3 3 9 3 q 3 3 D $.@ >XVXJ F F F 0.0.G 0.0.0.0.0.0.w.j.w.r.r.0.0.0.0.0.0.0.s.s.w.p.r.w.r.r.w.w.w.w.w.w.w.w.w.w.s.C.p.y.u.u.w.w.u.w.w.w.d.a.u.u.u.u.s.u.u.i.u.u.u.u.u.u.u.i. Xi.i.i.u.u.u.i.u.u.u.u.xXA.7.u.a.a.7.6.6.6.e.6.6.6.e.6.4.'.'.7.e.7.6.6.6.7.8.8.V b b b b b c iX] 4 t u u t t t t t r & 4 6 6 e 2 2XDXSXy 4 6 6 6 & * n E.E.C k.n.n.#.& * v F.F.j L P P n & * N J.J.B *XhXhX",
"5.5.5.5.5.5.5.5.5.5.5.5.5.5.5.5.5.I I q.q.5.5.5.q.q.5.5.q.q.5.5.q.q.5.q.{.q.q.q.q.q.5.5.5.5.5.5.P N.xXP q.J Q.B q x 9 3 3 3 3 3 3 3 3 3 3 3 3 9 3 v 3 % G O.1 xX].D F F F 0.0.L 0.0.0.0.0.0.w.j.w.r.r.0.0.0.0.0.0.0.s.p.w.p.r.w.w.r.r.w.w.w.w.w.w.w.w.w.s.C.p.y.u.u.w.w.u.w.w.u.m.u.u.u.u.u.s.s.u.i.u.u.u.u.u.u.u.i. Xi.i.i.u.u.u.i.u.u.u.5.aXaX5.u.u.M.7.6.6.6.e.6.6.6.e.6.4.'.'.7.e.7.7.6.6.6.4.4.K K b b b b c wXn.4 t u u t t t t t r & 4 6 6 e 2 2XDXSXy 4 6 6 6 & * n E.E.C k.n.n.#.& * v F.F.j L P P n & * N J.J.B *XhXhX",
"5.5.5.5.5.5.5.5.5.5.5.5.5.5.5.5.5.I 5.q.q.5.5.5.q.q.5.5.q.q.5.5.q.q.5.q.{.q.q.q.q.q.5.5.5.5.5.5.5.5.xXN.W.L U Q.v v 9 3 3 3 3 3 3 3 3 3 3 3 3 9 0 v 3 0 :.q *.nXP F F F L 0.0.L 0.0.0.0.0.0.w.j.w.r.r.0.0.0.0.0.0.w.s.w.w.p.r.w.w.r.r.w.w.w.w.w.w.w.w.w.s.C.p.y.u.u.w.w.u.w.w.a.m.u.u.u.u.u.u.s.u.i.u.u.u.u.u.u.u.i. Xi.i.i.u.u.u.i.u.u.u.e.N.xXu.u.u.M.u.6.6.6.e.6.6.6.e.6.4.'.'.7.e.7.7.6.6.6.4.6.K 3.K b b b c x.eX8 t u u t t t t t r & 4 6 6 e 2 2XDXSXy 4 6 6 6 & * n E.E.C k.n.n.#.& * v F.F.j L P P n & * N J.J.B *XhXhX",
"5.5.5.5.5.5.5.5.5.5.5.5.5.5.5.5.I I 5.q.q.5.5.5.q.q.5.5.q.q.5.5.q.q.5.q.{.q.q.q.q.q.5.5.5.5.5.5.q.E.sXaXE.L M !.J c q 3 3 3 3 3 3 3 3 3 3 3 3 9 0 c 3 9 :.q 9XBXJ F F F L 0.0.L 0.0.0.0.0.0.w.j.w.r.r.0.0.0.0.0.0.s.s.w.w.p.r.w.w.w.r.w.w.w.w.w.w.w.w.w.s.C.p.y.u.u.w.w.u.w.w.m.a.u.u.u.u.u.u.s.a.i.u.u.u.u.u.u.u.i. Xi.i.i.u.u.u.i.u.u.u.u.7.xXeX6.u.a.a.6.6.6.e.6.6.6.e.6.4.'.'.7.e.7.7.6.6.6.6.6.8.8.3.K b b b n iXR w u u t t t t t r & 4 6 6 e 2 2XDXSXy 4 6 6 6 & * n E.E.C k.n.n.#.& * v F.F.j L P P n & * N J.J.B *XhXhX",
"5.5.5.5.5.5.5.5.5.5.5.5.5.5.5.5.I q.5.q.q.5.5.5.q.q.5.5.q.q.5.5.q.q.5.q.{.q.q.q.q.q.5.5.5.5.5.5.5.P a.xXi.U c Q.Q.v x 3 3 3 3 3 3 3 3 3 3 3 3 9 q D % O.F >.xX_.F F F F L 0.0.9.0.0.0.0.0.0.w.j.w.r.r.0.0.0.0.0.0.s.p.w.w.p.r.w.w.w.r.r.w.w.w.w.w.w.w.w.s.C.p.y.u.u.w.w.u.w.u.m.u.u.u.u.u.u.u.a.s.i.u.u.u.u.u.u.u.i. Xi.i.i.u.u.u.i.u.u.u.u.5.sXaX5.u.u.M.6.6.6.e.6.6.6.e.6.4.'.'.7.e.7.7.6.6.6.6.6.6.4.3.K b b b b iXW w R u t t t t t r & 4 6 6 e 2 2XDXSXy 4 6 6 6 & * n E.E.C k.n.n.#.& * v F.F.j L P P n & * N J.J.B *XhXhX",
"5.5.5.5.5.5.5.5.5.5.5.5.5.5.5.5.I 5.5.q.q.5.5.5.q.q.5.5.q.q.5.5.q.q.5.q.{.q.q.q.q.q.5.5.5.5.5.5.5.5.P vXeXU M J !.c x 3 3 3 3 3 3 3 3 3 3 3 3 9 x M 9 O.J wXgXU G F F F L 0.0.0.0.0.0.0.0.0.w.j.w.r.r.0.0.0.0.0.p.s.r.r.w.p.r.w.w.w.r.r.w.w.w.w.w.w.w.w.s.C.p.y.u.u.w.w.u.9.a.d.u.u.u.u.u.u.u.u.M.i.u.u.u.u.u.u.u.i. Xi.i.i.u.u.u.i.u.u.u.u.e.M.xXa.e.u.M.w.6.6.e.6.6.6.e.6.4.'.'.7.e.7.7.6.6.6.6.6.6.6.3.K b b b c iX) w R u t t t t t r & 4 6 6 e 2 2XDXSXy 4 6 6 6 & * n E.E.C k.n.n.#.& * v F.F.j L P P n & * N J.J.B *XhXhX",
"5.5.5.5.5.5.5.5.5.5.5.5.5.5.5.I I 5.5.q.q.5.5.5.q.q.5.5.q.q.5.5.q.q.5.q.{.q.q.q.q.q.5.5.5.5.5.5.5.5.P eXxXU M c !.U x 3 3 3 3 0 3 3 3 3 3 3 3 9 x M ~ O.D xX|.D G F F F L 0.0.0.0.0.0.0.0.0.w.j.w.r.r.0.0.0.0.0.s.p.p.w.w.p.r.w.w.w.w.r.w.w.w.w.w.w.w.w.s.C.p.y.u.u.w.w.u.w.m.a.u.u.u.u.u.u.u.u.s.s.e.u.u.u.u.u.u.i. Xi.i.i.u.u.u.i.u.u.u.u.u.e.xXeX5.u.a.a.6.6.e.6.6.6.e.6.4.'.'.7.e.7.7.6.6.6.6.6.6.6.6.3.K b b c iX) 4 R u t t t t t r & 4 6 6 e 2 2XDXSXy 4 6 6 6 & * n E.E.C k.n.n.#.& * v F.F.j L P P n & * N J.J.B *XhXhX",
"5.5.5.5.5.5.5.5.5.5.5.5.5.5.5.I q.5.5.q.q.5.5.5.q.q.5.5.q.q.5.5.q.q.5.q.{.q.q.q.q.q.5.5.5.5.5.5.5.5.5.5.xXg.j M U Q.D q 3 3 3 9 0 3 3 3 3 3 3 9 v M O.H l.mXE.F F F F F L 0.0.0.0.0.0.0.0.0.w.j.w.r.r.0.0.0.0.w.s.w.p.w.w.p.r.w.w.w.w.r.r.w.w.w.w.w.w.w.s.C.p.y.u.u.w.u.w.u.m.u.u.u.u.u.u.u.u.u.a.M.u.u.u.u.u.u.u.i. Xi.i.i.u.u.u.i.u.u.u.u.u.q.sXvX5.u.i.s.6.6.e.6.6.6.e.6.4.'.'.7.e.7.7.6.6.6.6.6.6.6.6.4.3.V b c iXqXE u u t t t t t r & 4 6 6 e 2 2XDXSXy 4 6 6 6 & * n E.E.C k.n.n.#.& * v F.F.j L P P n & * N J.J.B *XhXhX",
"5.5.5.5.5.5.5.5.5.5.5.5.5.5.q.I 5.5.5.q.q.5.5.5.q.q.5.5.q.q.5.5.q.q.5.q.{.q.q.q.q.q.5.5.5.5.5.5.5.5.q.P aXiXj J M !.U q 3 3 3 q 0 3 3 3 3 3 3 9 v D 2.v fXVXJ F L F L F L 0.0.0.0.0.0.0.0.0.w.j.w.r.r.0.0.0.0.s.p.w.p.w.w.p.r.w.w.w.w.w.r.w.w.w.w.w.w.w.s.C.p.y.u.u.w.u.w.d.a.u.u.u.u.u.u.u.u.u.u.M.u.u.u.u.u.u.u.i. Xi.i.i.u.u.u.i.u.u.u.u.u.e.N.xXa.e.i.s.w.6.e.6.6.6.e.6.4.'.'.7.e.7.7.6.6.6.6.6.6.6.6.4.4.L b c iXMX' u u t t t t t r & 4 6 6 e 2 2XDXSXy 4 6 6 6 & * n E.E.C k.n.n.#.& * v F.F.j L P P n & * N J.J.B *XhXhX",
"5.5.5.5.5.5.5.5.5.5.5.5.5.5.q.I 5.5.5.q.q.5.5.5.q.q.5.5.q.q.5.5.q.q.5.q.{.q.q.q.q.5.5.5.5.5.5.5.5.5.5.P M.xXJ M c Q.Q.q 3 3 3 q 0 $ 3 3 3 3 3 9 v G G G xX].D F L L L F L 0.0.0.0.0.0.0.0.0.w.j.w.w.r.0.0.0.w.s.w.w.p.w.w.p.r.w.w.w.w.w.r.r.w.w.w.w.w.w.s.C.p.y.u.u.w.w.u.m.u.u.u.u.u.u.u.u.u.u.u.s.s.e.u.u.u.u.w.i. Xi.i.i.u.u.u.i.u.u.u.u.u.i.7.xXeX7.i.a.a.4.e.6.6.6.e.6.4.'.'.7.7.7.6.6.6.6.6.6.6.6.6.4.6.8.b c wXMX' i u t t t t t r & 4 6 6 e 2 2XDXSXy 4 6 6 6 & * n E.E.C k.n.n.#.& * v F.F.j L P P n & * N J.J.B *XhXhX",
"5.5.5.5.5.5.5.5.5.5.5.5.5.5._.q.q.q.q.q.q.q.q.q.q.q.q.q.q.q.q.q.q.q.5._.{._._.q.q.q.q.q.q.q.q.q.q.q.q.q.P xXb.j J U !.x 3 3 9 x q 3 0 7 7 7 3 q c 2.D wXnXU G F 0.0.3.G 0.0.0.w.0.0.0.0.0.e.r.C.r.r.r.w.0.0.p.s.r.p.p.p.r.p.p.r.r.r.r.p.r.r.u.u.u.u.u.w.C.C.p.p.u.u.u.w.d.m.u.a.a.a.a.a.a.a.a.a.a.a.M.u.u.u.u.i.u.i. Xf.f.i.i.u.u.i.u.u.u.u.u.i.q.sXvXe.i.u.M.7.e.7.7.7.e.7.6.'.}.e.e.7.7.7.7.7.7.7.7.7.7.6.6.4.K c wXMX_ u R u u u u u r & 4 6 6 e 2 2XDXSXy 4 6 6 6 & * n E.E.C k.n.n.#.& * v F.F.j L P P n & * N J.J.B *XhXhX",
"5.5.5.5.5.5.q.5.5.5.5.5.5.q._.q.q.q.q._.q.q.q.q._.q.q.q.q._.q.q._.q.q._.{._._._._.q.q.q.q.q.q.q.q.q.q.q.W.eXvXJ J J !.U x 9 9 x x 9 9 9 9 9 9 q G 2.D vX|.J G F 0.e.w.L 0.r.0.t.r.0.0.0.0.t.r.C.r.r.r.r.w.0.s.s.p.p.p.p.p.p.p.p.p.p.p.p.p.t.p.u.u.u.u.w.C.C.p.s.p.p.u.p.m.a.a.a.a.a.a.a.a.a.a.a.a.a.s.a.i.i.i.i.i.f. Xd.d.f.i.i.i.i.i.i.i.i.i.i.i.M.xXM.i.i.M.i.e.e.e.e.i.e.6.'.}.i.i.i.e.e.e.e.e.e.e.e.e.7.e.7.3.M wXNX] d ~ R R R R R r & 4 6 6 e 2 2XDXSXy 4 6 6 6 & * n E.E.C k.n.n.#.& * v F.F.j L P P n & * N J.J.B *XhXhX",
"5.5.5.5.5.5.5.5.5.5.5.5.5.I q.5.5.5.5.q.q.5.5.5.q.q.5.5.q.q.5.5.q.q.5.q.{.q.q.q.5.5.5.5.5.5.5.5.5.5.5.5.P e.xX3.N c E.Q.v 3 3 x q 3 $ $ $ $ @ x :.F 2.NXE.F F F 0.0.0.L 0.0.0.0.0.0.0.0.0.0.0.j.w.w.r.0.0.0.s.r.w.w.p.w.w.p.r.w.w.w.w.w.w.r.r.w.w.w.w.w.s.C.p.y.u.u.w.u.m.u.u.u.u.u.u.u.u.u.u.u.u.a.a.s.e.u.u.u.w.i. Xi.i.i.u.u.u.i.u.u.u.u.u.i.u.5.bXeXe.u.a.a.7.6.6.6.e.6.4.'.'.7.7.7.6.6.6.6.6.6.6.6.6.6.6.6.8.b n sX] i u w t t t t r & 4 6 6 e 2 2XDXSXy 4 6 6 6 & * n E.E.C k.n.n.#.& * v F.F.j L P P n & * N J.J.B *XhXhX",
"5.5.5.5.5.5.5.5.5.5.5.5.5.I q.5.5.5.5.q.q.5.5.5.q.q.5.5.q.q.5.5.q.q.5.q.{.q.q.q.q.q.5.5.5.5.5.5.5.5.5.5.q.E.aXwXj J U !.M 0 0 c x 3 3 3 3 3 3 x 2.D uXVXU G F F 0.0.0.0.0.0.0.0.0.0.0.0.0.0.w.j.w.r.r.w.0.p.s.r.w.w.p.r.w.p.r.w.w.w.w.w.w.r.r.w.w.w.w.w.s.C.p.y.u.u.w.d.d.u.u.u.u.u.u.u.u.u.u.u.a.a.u.s.u.u.u.u.u.i. Xi.i.i.u.u.u.i.u.u.u.u.u.i.u.5.eXvXe.u.u.s.7.6.6.6.e.6.4.'.'.7.e.7.7.6.6.6.6.6.6.6.6.6.6.6.6.3.v eX] r u t t t t t r & 4 6 6 e 2 2XDXSXy 4 6 6 6 & * n E.E.C k.n.n.#.& * v F.F.j L P P n & * N J.J.B *XhXhX",
"5.5.5.5.5.5.5.5.5.5.5.5.I q.q.5.5.5.5.q.q.5.5.5.q.q.5.5.q.q.5.5.q.q.5.q.{.q.q.q.q.q.5.5.5.5.5.5.5.5.5.5.5.P N.xXM M J Q.E.q q J x 3 3 3 3 3 $ H G F xX].L G F F 0.0.0.0.0.0.0.0.0.0.0.0.0.0.w.j.w.r.r.0.0.s.p.r.w.w.p.w.w.p.r.w.w.w.w.w.w.w.r.w.w.w.w.w.s.C.p.y.u.u.w.m.a.u.u.u.u.u.u.u.u.u.u.u.a.a.u.s.a.e.u.u.u.i. Xi.i.i.u.u.u.i.u.u.u.u.u.i.u.e.M.xXM.e.u.s.i.6.6.6.e.6.4.'.'.7.e.7.7.6.6.6.6.6.6.6.6.6.6.6.6.3.v eX] e u t t t t t r & 4 6 6 e 2 2XDXSXy 4 6 6 6 & * n E.E.C k.n.n.#.& * v F.F.j L P P n & * N J.J.B *XhXhX",
"5.5.5.5.5.5.5.5.5.5.5.5.I q.q.5.5.5.5.q.q.5.5.5.q.q.5.5.q.q.5.5.q.q.5.q.{.q.q.q.q.q.5.5.5.5.5.5.5.5.5.5.5.5.P xXv.j J U !.v x c x 3 3 3 3 3 3 2.D x.nXU 9.L F F 0.0.0.0.0.0.0.0.0.0.0.0.0.0.w.j.w.r.r.0.w.s.r.r.w.w.p.w.w.p.r.w.w.w.w.w.w.w.r.r.w.w.w.w.s.C.p.y.u.w.a.m.a.u.u.u.u.u.u.u.u.u.u.u.a.a.u.a.s.u.u.u.u.i. Xi.i.i.u.u.u.i.u.u.u.u.u.i.u.u.5.bXeX5.u.a.a.6.6.6.e.6.4.'.'.7.e.7.7.6.6.6.6.6.6.6.6.6.6.6.7.3.v wX:X5 u t t t t t r & 4 6 6 e 2 2XDXSXy 4 6 6 6 & * n E.E.C k.n.n.#.& * v F.F.j L P P n & * N J.J.B *XhXhX",
"5.5.5.5.5.5.5.5.5.5.5.P I 5.q.5.5.5.5.q.q.5.5.5.q.q.5.5.q.q.5.5.q.q.5.q.{.q.q.q.q.q.5.5.5.5.5.5.5.5.5.5.5.q.P yXfXj J M !.M v c v 3 3 3 3 $ 9 2.D lXBXJ 9.L F F 0.0.0.0.0.0.0.0.0.0.0.0.0.0.w.j.w.r.r.0.s.p.r.r.w.w.p.w.w.p.r.w.w.w.w.w.w.w.w.r.w.w.w.w.s.C.p.y.u.w.d.a.a.u.u.u.u.u.u.u.u.u.u.u.a.a.u.u.s.u.u.u.u.i. Xi.i.i.u.u.u.i.u.u.u.u.u.i.u.u.5.eXvX6.u.u.s.6.6.6.e.6.4.'.'.7.e.7.7.6.6.6.6.6.6.6.6.6.6.6.7.3.v wX0X5 u t t t t t r & 4 6 6 e 2 2XDXSXy 4 6 6 6 & * n E.E.C k.n.n.#.& * v F.F.j L P P n & * N J.J.B *XhXhX",
"5.5.5.5.5.5.5.5.5.5.5.I I 5.q.5.5.5.5.q.q.5.5.5.q.q.5.5.q.q.5.5.q.q.5.q.{.q.q.q.q.q.5.5.5.5.5.5.5.5.5.5.5.5.P 6.xX3.J c Q.Q.v c c 0 3 3 q x O.G :.NXE.F 0.L F F w.0.0.0.0.0.0.0.0.0.0.0.0.0.w.j.w.r.r.w.s.w.p.r.w.w.p.w.w.p.r.w.w.w.w.w.w.w.w.r.r.w.w.w.s.C.p.y.u.u.m.a.a.u.u.u.u.u.u.u.u.u.u.u.a.a.u.u.s.s.e.u.u.i. Xi.i.i.u.u.u.i.u.u.u.u.u.i.u.u.e.M.xXM.e.u.M.6.6.6.e.6.4.'.'.7.e.7.7.6.6.6.6.6.6.6.6.6.6.6.7.4.v b.0X5 u t t t t t r & 4 6 6 e 2 2XDXSXy 4 6 6 6 & * n E.E.C k.n.n.#.& * v F.F.j L P P n & * N J.J.B *XhXhX",
"5.5.5.5.5.5.5.5.5.5.5.I 5.q.q.5.5.5.5.q.q.5.5.5.q.q.5.5.q.q.5.5.q.q.5.q.{.q.q.q.q.q.5.5.5.5.5.5.5.5.5.5.5.5.q.U fXwXj J U !.c c c 0 3 q c D 2.D wXgXU G 0.L F L r.0.0.0.0.0.0.0.0.0.0.0.0.0.w.j.w.r.r.p.s.w.p.r.w.w.p.w.w.p.r.w.w.w.w.w.w.w.w.r.r.w.w.w.s.C.p.y.w.a.d.u.a.u.u.u.u.u.u.u.u.u.u.u.a.a.u.u.a.s.u.u.u.i. Xi.i.i.u.u.u.i.u.u.u.u.u.i.u.u.u.5.bXeX5.u.M.u.6.6.e.6.4.'.'.7.e.7.7.6.6.6.6.6.6.6.6.6.6.6.6.4.c b.0Xe u t t t t t r & 4 6 6 e 2 2XDXSXy 4 6 6 6 & * n E.E.C k.n.n.#.& * v F.F.j L P P n & * N J.J.B *XhXhX",
"5.5.5.5.5.5.5.5.5.5.I I 5.q.q.5.5.5.5.q.q.5.5.5.q.q.5.5.q.q.5.5.q.q.5.q.{.q.q.q.q.q.5.5.5.5.5.5.5.5.5.5.5.5.q.U N.xXJ M c !.U v c x q v c F :.F xX|.D F 0.L F 9.0.0.0.0.0.0.0.0.0.0.0.0.0.0.w.j.w.r.r.s.p.w.p.r.w.w.p.w.w.p.r.w.w.w.w.w.w.w.w.w.r.w.w.w.s.C.p.y.w.m.a.u.a.u.u.u.u.u.u.u.u.u.u.u.a.a.u.u.u.s.a.u.u.i. Xi.i.i.u.u.u.i.u.u.u.u.u.i.u.u.u.5.eXvX6.u.a.s.6.6.e.6.4.'.'.7.e.7.7.6.6.6.6.6.6.6.6.6.6.6.6.6.c b.0Xe u t t t t t r & 4 6 6 e 2 2XDXSXy 4 6 6 6 & * n E.E.C k.n.n.#.& * v F.F.j L P P n & * N J.J.B *XhXhX",
"5.5.5.5.5.5.5.5.5.5.I q.5.q.q.5.5.5.5.q.q.5.5.5.q.q.5.5.q.q.5.5.q.q.5.q.{.q.q.q.q.q.5.5.5.5.5.5.5.5.5.5.5.5.5.5.P xXN.j c E.Q.v c x v c c :.D c.mXE.F F 0.L F 9.0.0.0.0.0.0.0.0.0.0.0.0.0.0.w.j.w.w.p.s.w.w.p.r.w.w.p.w.w.p.r.w.w.w.w.w.w.w.w.w.r.r.w.w.s.C.p.y.a.m.u.a.a.u.u.u.u.u.u.u.u.u.u.u.a.a.u.u.u.a.s.u.u.i. Xi.i.i.u.u.u.i.u.u.u.u.u.i.u.u.u.e.M.xXa.e.i.s.6.6.e.6.4.'.'.7.e.7.7.6.6.6.6.6.6.6.6.6.6.6.6.6.M x.eXr u t t t t t r & 4 6 6 e 2 2XDXSXy 4 6 6 6 & * n E.E.C k.n.n.#.& * v F.F.j L P P n & * N J.J.B *XhXhX",
"5.5.5.5.5.5.5.5.5.5.I 5.5.q.q.5.5.5.5.q.q.5.5.5.q.q.5.5.q.q.5.5.q.q.5.q.{.q.q.q.q.q.5.5.5.5.5.5.5.5.5.5.5.5.5.q.E.yXfXj J M !.M c c c c D 2.D lXBXP G L 0.L F 0.0.0.0.0.0.0.0.0.0.0.0.0.0.0.w.j.w.w.s.s.w.w.p.r.w.w.p.w.w.p.r.w.w.w.w.w.w.w.w.w.r.r.w.w.s.C.p.y.s.d.u.a.a.u.u.u.u.u.u.u.u.u.u.u.a.a.u.u.u.u.M.u.e.i. Xi.i.i.u.u.u.i.u.u.u.u.u.i.u.u.u.u.e.xXeX5.i.s.u.6.e.6.4.'.'.7.e.7.7.6.6.6.6.6.6.6.6.6.6.6.6.7.L 2.qXr u t t t t t r & 4 6 6 e 2 2XDXSXy 4 6 6 6 & * n E.E.C k.n.n.#.& * v F.F.j L P P n & * N J.J.B *XhXhX",
"5.5.5.5.5.5.5.5.5.I I 5.5.q.q.5.5.5.5.q.q.5.5.5.q.q.5.5.q.q.5.5.q.q.5.q.{.q.q.q.q.q.5.5.5.5.5.5.5.5.5.5.5.5.5.5.P i.xX3.N c Q.E.v c c c G G :.NX`.0.F L 0.L L 0.0.0.0.0.0.0.0.0.0.0.0.0.0.0.w.j.w.r.C.p.w.w.p.r.w.w.p.w.w.p.r.w.w.w.w.w.w.w.w.w.w.r.w.w.s.C.p.y.m.a.u.a.a.u.u.u.u.u.u.u.u.u.u.u.a.a.u.u.u.u.s.a.7.i. Xi.i.i.u.u.u.i.u.u.u.u.u.i.u.u.u.u.q.sXvX5.i.a.a.6.e.6.4.'.'.7.e.7.7.6.6.6.6.6.6.6.6.6.6.6.6.7.L :.iXp u t t t t t r & 4 6 6 e 2 2XDXSXy 4 6 6 6 & & x N N v ` #.&.) & & z h h g v c c x & & z Z h k &X%X%X",
"5.5.5.5.5.5.5.5.5.I q.5.5.q.q.5.5.5.5.q.q.5.5.5.q.q.5.5.q.q.5.5.q.q.5.q.{.q.q.q.q.q.5.5.5.5.5.5.5.5.5.5.5.5.5.5.q.P aXwXj J U !.v c c c :.D uXgXE.w.L L 0.L L 0.0.0.0.0.0.0.0.0.0.0.0.0.0.0.w.C.w.p.C.r.r.w.p.r.w.w.p.r.w.p.r.w.w.w.w.w.w.w.w.w.w.r.r.w.s.C.w.s.M.u.u.a.a.u.u.u.u.u.u.u.u.u.u.u.a.a.u.u.u.u.a.s.e.i. Xi.i.i.u.u.u.i.u.u.u.u.u.i.u.u.u.u.e.N.xXa.i.u.M.6.e.6.4.'.'.7.e.7.7.6.6.6.6.6.6.6.6.6.6.6.6.7.L :.iXd y t t t t t r & 4 6 6 e 2 2XDXSXy 4 6 6 6 & & x N N v ` #.&.) & & z h h g v c c x & & z h h k &X%X%X",
"5.5.5.5.5.5.5.5.P I 5.5.5.q.q.5.5.5.5.q.q.5.5.5.q.q.5.5.q.q.5.5.q.q.5.q.{.q.q.q.q.5.5.5.5.5.5.5.5.5.5.5.5.5.5.5.5.P N.xXM M M !.J v c F :.F xX].L 0.L L 0.L L 0.0.0.0.0.0.0.0.0.0.0.0.0.0.0.w.C.w.s.s.w.w.w.p.r.w.w.p.w.w.p.r.w.w.w.w.w.w.w.w.w.w.w.r.w.y.C.w.M.s.u.u.u.a.u.u.u.u.u.u.u.u.u.u.u.u.a.u.u.u.u.u.s.u.i. Xi.i.i.u.u.u.i.u.u.u.u.u.i.u.u.u.u.i.6.xXeXe.u.s.u.7.6.4.'.'.7.7.7.6.6.6.6.6.6.6.6.6.6.6.6.6.6.8.n iXW t t t t t t r & 4 6 6 e 2 2XDXSXy 4 6 6 6 & & x N N v ` #.&.) & & z h h g v c c x & & z h h k &X%X%X",
"5.5.5.5.5.5.5.5.I q.q.q.q.q.q.q.q.q.q.q.q.q.q.q.q.q.q.q.q.q.q.q.q.q.q._.{._._._._.q.q.q.q.q.q.q.q.q.q.q.q.q.q.q.q.q.W.xXb.j J E.E.D J :.F wXnXP 9.e.9.0.0.0.0.0.r.0.0.0.0.0.0.r.0.0.0.0.0.e.r.C.p.C.p.p.p.p.p.p.p.p.p.p.p.p.p.p.p.p.p.p.p.p.p.p.p.p.r.r.C.C.a.m.s.a.a.a.a.a.a.a.a.a.a.a.a.a.a.a.a.a.a.a.a.a.a.s.s.i. Xf.f.i.i.i.i.i.i.i.i.i.i.i.i.i.i.i.i.q.sXaXe.i.a.a.e.e.6.'.}.e.i.e.e.7.7.7.7.7.7.7.7.7.7.7.7.e.6.V iX} u u u u u R r & 4 6 6 e 2 2XDXSXy 4 6 6 6 & & x N N v ` #.&.) & & z h h g v c c x & & z h h k &X%X%X",
"5.5.5.5.5.5.5.5.I q.q.q.q.q.q.q.q.q.q.q.q.q.q.q.q.q.q.q.q.q.q.q.q.q.5.q.{._._.q.q.q.q.q.q.q.q.q.q.q.q.q.q.q.q.q.q.q.W.N.vXN J P !.c D :.F vX|.J 0.0.0.0.0.0.0.0.w.0.0.0.0.0.0.0.0.0.0.0.0.0.w.j.s.h.p.p.r.r.p.p.r.r.p.r.r.p.p.r.r.r.r.r.r.r.r.r.r.r.r.r.s.C.s.M.a.a.a.a.a.u.a.a.a.a.a.a.a.a.a.a.a.a.u.a.a.a.u.a.s.i. Xi.i.i.i.u.u.i.u.u.u.u.u.i.u.u.u.i.i.e.M.xXa.u.u.s.e.7.6.'.}.e.e.7.7.6.6.6.6.6.6.6.6.6.6.6.6.7.6.M iXk.i u u u u u r & 4 6 6 e 2 2XDXSXy 4 6 6 6 & & x N N v ` #.&.) & & z h h g v c c x & & z h h k &X%X%X",
"5.5.5.5.5.5.5.q.I 5.5.5.5.q.q.5.5.5.5.q.q.5.5.5.q.q.5.5.q.q.5.5.q.q.5.q.{.q.q.q.q.5.5.5.5.5.5.5.5.5.5.5.5.5.5.5.5.5.q.P xXv.j L !.B H F x.mXE.G 0.0.0.0.0.0.0.0.0.0.0.0.0.0.0.0.0.0.0.0.0.0.w.j.s.p.p.p.w.w.p.r.w.w.p.w.w.p.r.w.w.w.w.w.w.w.w.w.w.w.w.r.s.C.m.s.a.a.u.u.a.u.u.u.u.u.u.u.u.u.u.u.a.a.u.u.u.u.u.u.s.a. Xi.i.i.u.u.u.i.u.u.u.u.u.i.u.u.u.u.i.u.7.xXeX6.u.s.i.6.4.'.'.7.e.7.6.6.6.6.6.6.6.6.6.6.6.6.6.6.6.V wXn.4 t t t t t r & 4 6 6 e 2 2XDXSXy 4 6 6 6 & & x N N v ` #.&.) & & z h h g v c c x & & z h h k &X%X%X",
"5.5.5.5.5.5.5.I q.5.5.5.5.q.q.5.5.5.5.q.q.5.5.5.q.q.5.5.q.q.5.5.q.q.5.q.{.q.q.q.q.q.5.5.5.5.5.5.5.5.5.5.5.5.5.5.5.5.e.U b.vXN L E.Q.:.F vX|.D G 0.0.0.0.0.0.0.0.0.0.0.0.0.0.0.0.0.0.0.0.0.0.0.C.C.p.p.p.r.w.p.r.w.w.p.w.w.p.r.w.w.w.w.w.w.w.w.w.w.w.w.r.j.C.m.s.a.a.u.a.a.u.u.u.u.u.u.u.u.u.u.u.a.a.u.u.u.u.u.u.s.M. Xi.i.i.u.u.u.i.u.u.u.u.u.i.u.u.u.u.i.u.5.sXaX5.u.a.a.6.4.'.'.7.e.7.7.6.6.6.6.6.6.6.6.6.6.6.6.6.6.L wXn.4 t t t t t r & 4 6 6 e 2 2XDXSXy 4 6 6 6 & & x N N v ` #.&.) & & z h h g v c c x & & z h h k &X%X%X",
"5.5.5.5.5.5.q.I 5.5.5.5.5.q.q.5.5.5.5.q.q.5.5.5.q.q.5.5.q.q.5.5.q.q.5.q.{.q.q.q.q.q.5.5.5.5.5.5.5.5.5.5.5.5.5.5.5.5.q.5.P xXb.U L !.F n.nXQ.H L 0.0.0.0.0.0.0.0.0.0.0.0.0.0.0.0.0.0.0.0.0.0.0.C.s.p.p.p.r.w.p.r.w.w.p.w.w.p.r.w.w.w.w.w.w.w.w.w.w.w.r.w.j.S.s.s.a.a.u.a.a.u.u.u.u.u.u.u.u.u.u.u.a.a.u.u.u.u.u.u.u.M. Xi.i.i.u.u.u.i.u.u.u.u.u.i.u.u.u.u.i.u.e.N.xXu.e.u.s.6.4.'.'.7.e.7.7.6.6.6.6.6.6.6.6.6.6.6.6.6.6.L b.aXt t t t t t r & 4 6 6 e 2 2XDXSXy 4 6 6 6 & & x N N v ` #.&.) & & z h h g v c c x & & z h h k &X%X%X",
"5.5.5.5.5.5.I q.5.5.5.5.5.q.q.5.5.5.5.q.q.5.5.5.q.q.5.5.q.q.5.5.q.q.5.q.{.q.q.q.q.q.5.5.5.5.5.5.5.5.5.5.5.5.5.5.5.5.q.q.P M.MX4.U W.w.MX|.D F 9.0.0.0.0.0.0.0.0.0.0.0.0.0.0.0.0.0.0.0.0.0.0.w.C.p.p.p.p.r.w.p.r.w.w.p.w.w.p.r.w.w.w.w.w.w.w.w.w.w.w.r.w.h.S.s.s.a.a.u.a.a.u.u.u.u.u.u.u.u.u.u.u.a.a.u.u.u.u.u.u.u.M. Xi.i.i.u.u.u.i.u.u.u.u.u.i.u.u.u.u.i.u.u.u.xXN.6.u.M.7.4.'.'.7.e.7.7.6.6.6.6.6.6.6.6.6.6.6.6.6.7.L x.MX] 4 t t t t r & 4 6 6 e 2 2XDXSXy 4 6 6 6 & & x N N v ` #.&.) & & z h h g v c c x & & z h h k &X%X%X",
"5.5.5.5.5.5.W.q.5.5.5.5.5.q.q.5.5.5.5.q.q.5.5.5.q.q.5.5.q.q.5.5.q.q.5.q.{.q.q.q.q.q.5.5.5.5.5.5.5.5.5.5.5.5.5.5.5.5.q.5.q.U sXxX3.y.xXBXU G F 9.0.0.0.0.0.0.0.0.0.0.0.0.0.0.0.0.0.0.0.0.0.0.p.C.p.p.p.p.r.w.p.r.w.w.p.w.w.p.r.w.w.w.w.w.w.w.w.w.w.w.r.w.h.Z.s.s.a.a.u.a.a.u.u.u.u.u.u.u.u.u.u.u.a.a.u.u.u.u.u.u.u.s.S.i.i.i.u.u.u.i.u.u.u.u.u.i.u.u.u.u.i.u.u.5.aXaX5.u.M.u.4.'.'.7.e.7.7.6.6.6.6.6.6.6.6.6.6.6.6.6.7.P l.MX:X4 t t t t r & 4 6 6 e 2 2XDXSXy 4 6 6 6 & & x N N v ` #.&.) & & z h h g v c c x & & z h h k &X%X%X",
"5.5.5.5.5.I _.5.5.5.5.5.5.q.q.5.5.5.5.q.q.5.5.5.q.q.5.5.q.q.5.5.q.q.5.q.{.q.q.q.q.q.5.5.5.5.5.5.5.5.5.5.5.5.5.5.5.5.q.5.q.P U sXxXNXVXQ.H F F 0.0.0.0.0.0.0.0.0.0.0.0.0.0.0.0.0.0.0.0.0.0.0.s.C.p.p.p.p.r.w.p.r.w.w.p.w.w.p.r.w.w.w.w.w.w.w.w.w.w.w.r.w.Z.Z.s.s.a.a.u.a.a.u.u.u.u.u.u.u.u.u.u.u.a.a.u.u.u.u.u.u.u.a.S.a.i.i.u.u.u.i.u.u.u.u.u.i.u.u.u.u.i.u.u.6.eXxXe.u.a.a.4.'.'.7.e.7.7.6.6.6.6.6.6.6.6.6.6.6.6.6.6.P 2.MXuX4 t t t t r & 4 6 6 e 2 2XDXSXy 4 6 6 6 & & x N N v ` #.&.) & & z h h g v c c x & & z h h k &X%X%X",
"5.5.5.5.5.I q.5.5.5.5.5.5.q.q.5.5.5.5.q.q.5.5.5.q.q.5.5.q.q.5.5.q.q.5.q.{.q.q.q.q.q.5.5.5.5.5.5.5.5.5.5.5.5.5.5.5.5.q.5.5.5.P E.].[.~.E.F F F 0.0.0.0.0.0.0.0.0.0.0.0.0.0.0.0.0.0.0.0.0.0.r.C.C.p.p.p.p.r.w.p.r.w.w.p.w.w.p.p.w.r.w.w.w.w.w.w.w.w.w.w.w.S.Z.p.s.a.a.u.a.a.u.u.u.u.u.u.u.u.u.u.u.a.a.u.u.u.u.u.u.u.a. Xs.i.i.u.u.u.i.u.u.u.u.u.i.u.u.u.u.i.u.u.u.i.xXN.7.i.M.4.'.'.7.e.7.7.6.6.6.6.6.6.6.6.6.6.6.6.6.6.P <.nXiXy t t t t r & 4 6 6 e 2 2XDXSXy 4 6 6 6 & & x N N v ` #.&.) & & z h h g v c c x & & z h h k &X%X%X",
"5.5.5.5.5.I q.q.5.5.5.5.5.q.q.5.5.5.5.q.q.5.5.5.q.q.5.5.q.q.5.5.q.q.5.q.{.q.q.q.q.q.5.5.5.5.5.5.5.5.5.5.5.5.5.5.5.5.q.5.5.5.5.q.r.F L !.F F F 0.0.0.0.0.0.0.0.0.0.0.0.0.0.0.0.0.0.0.0.0.0.p.s.C.p.p.p.p.r.w.p.r.w.w.p.w.w.p.r.w.w.w.w.w.w.w.w.w.w.w.w.f.Z.C.f.s.a.a.u.a.a.u.u.u.u.u.u.u.u.u.u.u.a.a.u.u.u.u.u.u.u.a. XM.i.i.u.u.u.i.u.u.u.u.u.i.u.u.u.u.i.u.u.u.q.aXsX5.i.s.6.'.'.7.e.7.7.6.6.6.6.6.6.6.6.6.6.6.6.6.6.5.<.VXsXE z 5 t y r & 4 6 6 e 2 2XDXSXy 4 6 6 6 & & x N N v ` #.&.) & & z h h g v c c x & & z h h k &X%X%X",
"5.5.5.5.I I q.q.5.5.5.5.5.q.q.5.5.5.5.q.q._._._.q.q.5.5.q.q.5.5.q.q.5.q.{.q.q.q.q.q.5.q._.q.q.5.5.5.5.5.5.5.5.5.5.5.q.5.5.5.P e.p.L L E._.9.9.0.0.0.0.0.0.0.0.0.0.0.0.0.0.0.0.0.t.w.r.0.0.s.p.C.p.p.p.p.r.w.p.r.w.w.p.w.w.p.f.p.p.w.w.w.w.w.w.w.w.w.w.d.Z.C.f.s.a.a.u.u.d.a.d.a.u.u.u.u.u.u.u.u.a.a.u.u.u.u.u.u.u.a. XZ.d.i.u.u.u.i.u.u.u.u.u.i.u.u.u.u.i.u.u.u.e.eXxXe.i.a.u.'.'.7.e.7.7.6.6.6.6.6.6.6.6.6.6.6.6.6.6.6.:._.VX].T.g.8 8 r & 4 6 6 e 2 2XDXSXy 4 6 6 6 & & x N N v ` #.&.) & & z h h g v c c x & & z h h k &X%X%X",
"5.(.5.5.I q.q.q.5.5.5.5.5.q.q.5.5.5.5.q._.(.5._._.5.5.5.q.q.5.5.q.q.5.q.{.q.q.q.q.q.5.(.q._.(.5.5.5.5.5.5.5.5.5.5.5.q.5.5.5.5.p.e.w.L _.`.0.0.0.0.0.0.0.0.0.0.0.0.0.0.0.0.0.0.t.r.t.t.0.w.s.p.C.p.p.p.p.r.w.p.r.w.w.p.r.w.f.p.f.f.w.w.w.w.w.w.w.w.w.p.d.Z.C.f.f.a.a.u.a.d.u.d.d.u.u.u.u.u.u.u.u.a.a.u.u.u.u.u.u.u.d. XM.S.f.u.u.u.i.u.u.u.u.u.i.u.u.u.u.i.u.u.u.f.M.xXM.e.u.y.'.'.7.e.7.7.6.6.6.6.6.6.6.6.6.6.6.6.6.6.6.n B BXgXnXxXiX|.r & 4 6 6 e 2 2XDXSXy 4 6 6 6 & & x N N v ` #.&.) & & z h h g v c c x & & z h h k &X%X%X",
"5.(.5.5.I 5.q.q.5.5.5.5.5.q.q.5.5.5.5.q._.(.q.(.q.q.5.5.q.q.5.5.q.q.5.q.{.q.q.q.q.q.5.(.q._.(.5.5.5.5.5.5.5.5.5.5.5.q.5.5.5.q.p.e.r.9.).`.0.0.0.0.0.0.0.0.0.0.0.0.0.0.0.0.0.0.t.r.0.t.0.s.s.r.C.p.p.p.p.r.w.p.r.w.w.p.r.w.f.p.f.d.p.w.w.w.w.w.w.r.w.d.f.Z.Z.s.h.a.a.u.a.d.u.d.u.u.u.u.u.u.u.u.u.a.a.u.u.u.u.u.u.u.d. Xm.S.f.u.u.u.i.u.u.u.u.u.i.u.u.u.u.i.u.u.u.d.q.bXyXe.u.y.'.].7.e.7.7.6.6.6.6.6.6.6.6.6.6.6.6.6.6.6.G M .XkXiXBXMXxXu & 6 6 6 e 2 2XDXSXy 4 6 6 6 & & x N N v ` #.&.) & & z h h g v c c x & & z h h k &X%X%X",
"5.5.5.I I 5.q.q.5.5.5.5.5.q.q.5.5.5.5.q.q._._._.q.q.5.5.q.q.5.5.q.q.5.q.{.q.q.q.q.q.5.q._._.q.5.5.5.5.5.5.5.5.5.5.5.q.5.5.P r.t.q.0.t.0.`.).9.0.0.0.0.0.0.0.0.0.0.0.0.0.0.0.0.0.t.w.r.0.s.p.p.C.p.p.p.p.r.w.p.r.w.w.p.r.w.p.f.p.p.w.w.w.w.w.w.w.w.r.m.i.Z.Z.s.f.p.a.u.u.d.a.a.u.u.u.u.u.u.u.u.u.a.a.u.u.u.u.u.u.u.a. Xd.Z.a.u.u.u.i.u.u.u.u.u.i.u.u.u.u.i.u.u.u.f.e.eXvXe.u.a.'.].7.e.7.7.6.6.6.6.6.6.6.6.6.6.6.6.6.6.6.K m ~.].8 8.mXxXR X 6 6 6 e 2 2XDXSXy 4 6 6 6 & & x N N v ` #.&.) & & z h h g v c c x & & z h h k &X%X%X",
"5.5.5.I q.5.q.q.5.q.5.5.5.q.q.5.q.q.5.q.q.5.5.5.q.q.5.5.q.q.5.5.q.q.5.q.{.q.q.q.q.q.q.5.5.5.5.5.q.5.5.5.5.5.q.5.5.q.q.5.5.q.p.e.e.e.e.e._.`.0.0.0.0.0.0.0.0.0.0.w.0.0.0.0.0.0.0.0.0.0.p.s.r.p.C.p.p.p.p.w.w.p.r.w.r.p.w.w.p.r.w.w.w.r.r.w.w.r.r.w.f.m.u.Z.Z.s.s.f.a.u.a.a.u.u.u.u.u.u.u.u.u.u.u.a.a.u.u.u.u.u.u.u.a. Xa.M.s.u.u.u.i.u.u.u.u.u.i.u.u.u.u.i.u.u.u.i.7.N.MXM.e.u. X].e.e.7.7.6.6.6.6.6.6.6.6.6.6.6.6.6.6.7.L m m B < m L.uX_ . 6 6 6 e 2 2XDXSXy 4 6 6 6 & & x N N v ` #.&.) & & z h h g v c c x & & z h h k &X%X%X",
").7.P _.).5.5.(.(.)._.P q.).q.P (.).5.5.(.q.)._.P _.).q.P (.(.).(.P q.).{.q._.).q.P (.q.(.(.P q.)._.P _.(.(.).5.5.).(.P q.'.f.q.t.t.t.).0.`.).t.0.e.t.t.t.0.0.t.t.0.0.t.t.0.t.t.t.f.0.y.h.f.p.C.h.s.h.p.w.p.h.w.w.f.f.w.p.f.p.h.p.w.f.d.w.w.f.f.f.m.a.f.Z.Z.s.d.h.a.u.d.a.m.d.u.a.m.a.u.d.d.d.d.u.a.m.d.u.a.m.a.u.m. Xm.Z.M.i.d.i.6.f.d.d.d.u.u.d.d.w.u.d.i.6.f.f.f.'.xXeX).a. X}.'.'.'.e.4.i.'.i.7.7.7.7.7.7.7.7.7.7.e.L { R E u R 8 5X]   6 6 6 e 2 2XDXSXy 4 6 6 6 & & x N N v ` #.&.) & & z h h g v c c x & & z h h k &X%X%X",
"'.7.I (.).5.5.).(.).(.P _.).q.P (.).5.5.).q.)._.P _.).q.P (.(.).(.P q.).{.q._.).q.P (.q.).(.P q.)._.P _.(.(.).5.5.).(.P _.'.t.0.t.t.t.).0._.`.r.0.e.t.t.f.0.0.t.t.0.0.f.t.0.t.t.t.t.w.y.f.f.p.C.h.h.h.p.w.f.h.w.w.d.d.w.p.f.p.h.p.w.f.h.w.w.d.f.d. Xu.f.Z.Z.s.m.h.p.u.m.a.m.d.u.a.m.a.u.d.d.m.m.u.a.m.d.u.a.m.a.u.m. Xm.m.M.a.'.f.6.f.d.d.d.u.u.d.d.6.u.d.i.6.f.f.d.).sXaX).d.m.}.'.'.'.e.4.i.'.i.6.6.6.6.6.6.6.6.6.6.6.L m t i t t : 0X*.o e 6 6 e 2 2XDXSXy 4 6 6 6 & & x N N v ` #.&.) & & z h h g v c c x & & z h h k &X%X%X",
"'.q.I (.).5.5.).(.)._.P _.).q.P (.).5.5.(.q.)._.P _.).q.P (.(.).(.P q.).{.q._.).q.P (.q.).(.P q.)._.P _.(.(.).5.5.).(.P q.h.t.0.t.t.t.).0.q.`.t.0.e.t.t.f.0.0.t.t.0.0.f.t.0.t.t.t.t.s.y.f.f.p.C.h.h.h.p.w.f.h.w.w.f.f.w.p.f.p.h.p.w.f.h.w.w.d.p.Z.m.u.f.Z.Z.s.d.Z.f.u.m.a.m.d.u.a.m.a.u.d.d.m.m.u.a.m.d.u.a.m.a.u.m. Xm.m.s.M.'.f.6.f.d.d.d.u.u.d.d.w.u.d.i.6.f.f.d.'.N.xXd.f.m. X'.'.'.e.4.i.'.i.6.6.6.6.6.6.6.6.6.6.7.L n y t t t < | | . 6 6 6 e 2 2XDXSXy 4 6 6 6 & & x N N v ` #.&.) & & z h h g v c c x & & z h h k &X%X%X",
"'._.I (.).5.5.).(.)._.P _.).q.P (.).5.5.(.q.)._.P _.).q.P (.(.).(.P q.).{.q._.).q.P (.q.).(.P q.)._.P _.(.(.).5.5.).(.P t.h.t.0.(.t.t.).q.0.`.).9.e.t.t.f.0.0.t.t.0.0.f.t.0.t.t.t.f.s.w.f.f.p.C.h.h.h.p.w.f.h.w.w.f.f.w.p.f.p.h.p.w.f.h.w.w.f.f. Xd.u.f.Z.Z.s.h.Z.f.p.m.a.m.d.u.a.m.a.u.d.d.m.m.u.a.m.d.u.a.m.a.u.m. Xm.m.a.M.d.f.6.f.d.d.d.u.u.d.d.w.u.d.i.6.f.f.f.d.u.xXtXi.'. X'.'.'.e.4.i.'.i.6.6.6.6.6.6.6.6.6.6.6.L n y t t t t i p & 4 6 6 e 2 2XDXSXy 4 6 6 6 & & x N N v ` #.&.) & & z h h g v c c x & & z h h k &X%X%X",
"'._.P (.).5.P ).(.)._.P q.).q.P (.).P 5.(.q.)._.P _.).q.P (.(.).(.P q.).{.I _.).q.P (.q.).(.P q.)._.P _.(.(.).5.5.).(.P p.'.t.0.t.t.t.).q.0.).`.9.e.t.t.f.0.0.t.t.0.0.f.t.4.t.t.t.h.s.w.f.f.p.C.h.h.h.p.w.p.h.w.w.f.f.w.p.f.p.h.p.9.f.h.w.w.f.d. Xd.u.f.Z.Z.p.h.Z.p.p.m.a.m.d.u.a.m.a.u.d.d.m.m.u.a.m.d.u.a.m.a.u.m. Xm.m.a.M.Z.i.6.f.d.d.d.u.u.d.d.6.u.d.i.6.f.f.f.m.5.aXgXe.'. X'.'.'.e.4.i.'.i.6.6.6.6.6.6.6.6.6.6.6.4.n y t t t t t t & 4 6 6 e 2 2XDXSXy 4 6 6 6 & & x N N v ` #.&.) & & z h h g v c c x & & z h h k &X%X%X",
")._._.).)._._.).(.).(.q.(.)._._.).)._.(.).q.).(._.(.)._._.).(.).).q.(.).{._.).)._._.).q.).).q.(.).(._.).(.(.)._._.).(.e.h.).t.t.).t.t.).t.t.).`.t.t.t.t.f.t.t.t.t.r.t.t.t.r.t.t.t.Z.s.p.d.d.p.C.h.h.h.f.p.f.d.p.p.d.d.p.f.f.p.h.f.p.d.d.p.f.f.m. Xd.d.d.Z.Z.d.Z.Z.d.h.m.a.m.d.a.d.m.d.a.m.d.d.m.a.d.m.d.a.d.m.d.a.m. Xm.Z.d.m.Z.d.i.d.d.d.d.i.f.d.d.i.d.d.d.i.d.i.f.m.e.eXxXf.'. Xd.'.'.i.i.f.'.i.6.6.6.6.6.6.6.6.6.6.6.4.n t t t t t t r & 4 6 6 e 2 2XDXSXy 4 6 6 6 & & x N N v ` #.&.) & & z h h g v c c x & & z h h k &X%X%X",
")._.(.).).(.).).(.).).(.).).(.(.).).(.).).q.).).(.).).(.(.).(.).).(.).).{.).).).(.).).q.).).(.).).(.(.).(.(.).(.).).).f.h.).).).'.t.t.'.).).t.`.`.f.t.t.f.t.t.f.t.t.t.t.t.t.f.t.t.Z.f.d.h.d.s.C.h.h.h.d.f.h.d.f.d.d.d.f.h.f.p.h.f.f.h.d.f.d.d. Xh.h.d.d.Z.S.Z.Z.Z.d.h.h.a.m.m.d.m.m.d.d.m.d.m.m.d.m.m.m.d.m.m.d.d.Z. Xm.Z.m.m.Z.d.d.d.d.d.d.d.d.d.d.d.d.d.d.d.d.i.f.d.f.m.xXM.'. Xm.'.'.f.f.'.'.i.6.6.6.6.6.6.6.6.6.6.6.4.n t t t t t t r & 4 6 6 e 2 2XDXSXy 4 6 6 6 & & x N N v ` #.&.) & & z h h g v c c x & & z h h k &X%X%X",
").(.(.).)._.(.)._.).(.(.).).(.(.).)._.).(.q.).(.(.).).(.(.)._.(.)._.).).{.(.).).(.(.).q.(.)._.).).(.(.).(.(.)._.(.).).h.).).).(.).t.t.).t.).).).`.t.t.t.t.t.t.t.t.t.t.t.t.t.f.t.p.Z.f.f.d.f.s.C.h.s.h.f.f.d.d.f.f.d.d.f.d.f.p.d.f.f.d.d.f.f.Z.m.d.d.d.d.Z.Z.d.Z.Z.d.h.h.a.m.d.d.m.m.d.d.m.d.d.m.d.m.m.d.d.m.m.d.d.m. Xm.Z.m.m.Z.m.f.d.d.d.d.f.d.d.d.f.d.d.d.f.d.i.f.d.d.).bXyX'. Xm.'.'.i.i.'.'.i.6.6.6.6.6.6.6.6.6.6.6.6.:.t t t t t t r & 4 6 6 e 2 2XDXSXy 4 6 6 6 & & x N N v ` #.&.) & & z h h g v c c x & & z h h k &X%X%X",
"I 5.q.q.q.5.q.q.5.q.q.5.5.q.q.5.q.q.5.q.q.5.q.5.q.q.5.5.q.q.5.5.q.q.5.q.{.q.q.q.q.q.q.5.5.q.5.q.q.5.5.q.5.5.q.5.q.5.t.p.q.e.e.e.e.e.e.e.e.e.e.e.`._.0.0.0.0.0.0.w.0.0.0.0.0.0.0.s.p.w.r.r.p.p.C.p.p.p.p.r.r.p.r.r.r.p.r.w.p.p.r.r.r.r.r.r.w.m.f.p.p.p.p.Z.Z.s.s.s.f.p.f.a.u.a.u.u.u.u.u.u.u.u.u.a.a.u.a.u.u.u.u.u.a. Xd.d.a.a.a.s.i.u.u.u.u.u.i.u.u.u.u.i.u.u.u.i.u.u.u.e.sXvX).|.M.i.7.7.6.6.6.6.6.6.6.6.6.6.6.6.6.6.6.6.:.t t t t t t r & 4 6 6 e 2 2XDXSXy 4 6 6 6 & & x N N v ` #.&.) & & z h h g v c c x & & z h h k &X%X%X",
"I 5.5.5.5.5.q.q.5.5.5.5.5.q.q.5.5.5.5.q.q.5.5.5.q.q.5.5.q.q.5.5.q.q.5.q.{.W.q.q.I 5.5.5.5.5.5.5.5.5.5.5.5.5.5.5.5.5.p.t.q.q.q.q.e.e.e.e.e.e.e.e.).`.0.0.0.0.0.0.0.0.0.0.0.0.0.r.s.w.w.w.w.r.p.C.p.p.p.p.r.w.p.r.w.w.p.w.w.p.r.w.w.w.w.w.w.p.m.p.p.p.p.u.Z.Z.s.s.a.p.p.f.f.u.u.u.u.u.u.u.u.u.u.u.a.a.u.u.u.u.u.u.u.a. Xa.a.a.a.u.s.a.e.u.u.u.u.i.u.u.u.u.i.u.u.u.i.u.u.u.e.M.xX'.'.a.i.7.7.6.6.6.6.6.6.6.6.6.6.6.6.6.6.6.6.:.t t t t t t r & 4 6 6 e 2 2XDXSXy 4 6 6 6 & & x N N v ` #.&.) & & z h h g v c c x & & z h h k &X%X%X",
"u.e.5.5.5.5.q.q.5.5.5.5.5.q.e.u.e.u.5.q.q.5.5.5.q.q.5.5.q.q.5.5.q.q.5.q.{.t.t.p.r.u.5.5.5.5.5.5.5.5.5.5.5.5.5.5.5.q.p.p.p.p.p.p.e.e.e.e.e.e.e.t.p.}.p.y.y.0.0.0.0.0.0.0.0.0.0.p.C.y.y.y.y.p.p.C.p.p.p.p.r.w.p.r.w.w.p.w.w.p.p.y.y.p.w.r.w.d.d.p.p.p.p.u.Z.Z.s.s.a.p.p.f.f.s.s.a.u.u.u.u.u.u.u.u.a.a.s.s.a.u.u.u.u.a. Xa.d.a.a.u.s.s.a.s.a.u.u.i.u.u.u.u.i.u.u.u.i.u.u.u.i.e.xXeX'.M.M.a.u.6.6.6.6.6.6.6.6.6.6.6.6.6.6.6.7.3.u ) ) ( ~ u r & 4 6 6 e 2 2XDXSXy 4 6 6 6 & & x N N v ` #.&.) & & z h h g v c c x & & z h h k &X%X%X",
"u.u.5.5.5.5.q.q.5.5.5.5.5.q.e.p.p.u.e.q.q.5.5.5.q.q.5.5.q.q.5.5.q.q.5.q.{.t.p.t.s.u.e.P 5.5.5.5.5.5.5.5.5.5.5.5.P t.t.e.s.p.s.p.r.q.e.e.e.e.e.e.w.m.f.y.p.w.0.0.0.0.0.0.0.0.0.s.s.y.y.C.y.s.p.C.p.p.p.p.r.w.p.r.w.w.p.w.w.p.p.y.y.y.w.w.w.m.f.p.p.p.p.u.Z.Z.s.s.a.p.p.f.f.p.M.C.a.u.u.u.u.u.u.u.a.a.s.C.M.u.u.u.u.a. Xa.a.a.a.u.a.s.a.s.M.a.u.i.u.u.u.u.i.u.u.u.i.u.u.u.i.5.aXgX'.M.M.M.M.6.6.6.6.6.6.6.6.6.6.6.6.6.6.6.7.3.t ~ ( ) l.~ w & 4 6 6 e 2 2XDXSXy 4 6 6 6 & & x N N v ` #.&.) & & z h h g v c c x & & z h h k &X%X%X",
"a.u.5.5.5.5.q.q.5.5.5.5.5.q.q.u.a.p.5.q.q.5.5.5.q.q.5.5.q.q.5.5.q.q.5.q.{.e.t.p.p.p.q.5.5.5.5.5.5.5.5.5.5.5.5.5.5.p.t.s.p.s.s.s.e.q.e.e.e.e.e.t.p.d.'.y.y.0.0.0.0.0.0.0.0.0.w.s.p.y.y.y.y.p.p.C.p.p.p.p.w.w.p.r.w.w.p.w.w.p.r.y.y.y.w.w.p.m.p.p.p.p.p.u.Z.C.s.s.a.p.p.p.f.C.s.C.a.u.u.u.u.u.u.u.u.a.s.C.M.u.u.u.u.a. Xa.a.a.a.u.u.M.a.s.M.a.u.i.u.u.u.u.i.u.u.u.i.u.u.u.i.6.A.NX'.a.M.M.s.6.6.6.6.6.6.6.6.6.6.6.6.6.6.6.7.3.R >.) ( >.) w & 4 6 6 e 2 2XDXSXy 4 6 6 6 & & x N N v ` #.&.) & & z h h g v c c x & & z h h k &X%X%X",
"q.q.5.5.5.5.q.q.5.5.5.5.5.q.q.q.5.q.P q.q.5.5.5.q.q.5.5.q.q.5.5.q.q.5.q.{.q._.q.q.q.5.5.5.5.5.5.5.5.5.5.5.5.5.P q.p.e.e.e.e.e.e.q.e.q.q.q.q.q.t.e.0.`.q.0.0.0.0.0.0.0.0.0.0.s.p.p.p.r.r.p.p.p.C.p.p.p.p.r.w.p.r.w.r.p.r.w.p.r.w.r.r.r.w.d.d.p.p.p.p.p.u.Z.Z.s.s.f.f.p.f.f.f.a.u.u.u.u.u.u.u.u.u.a.a.a.u.u.u.u.u.u.a. Xd.d.a.a.u.u.s.s.u.u.u.u.i.u.u.u.u.i.u.u.u.i.u.u.u.i.e.a.NX Xe.d.a.6.6.6.6.6.6.6.6.6.6.6.6.6.6.6.6.7.3.y u u u t u i & 4 6 6 e 2 2XDXSXy 4 6 6 6 & & x N N v ` #.&.) & & z h h g v c c x & & z h h k &X%X%X",
"q.q.q.q.q.5.q.q.q.q.q.q.q.q.q.5.q.5.5.q.q.q.q.5.q.q.q.q.q.q.5.5.q.q.5.q._.q.q.q.q.q.q.q.q.q.q.q.q.q.q.q.q.q.q.5.p.r.e.e.e.e.e.e.e.e.e.e.e.e.e.e.e.0.).).9.0.0.0.w.0.0.0.0.w.s.p.p.w.w.w.w.p.p.C.p.p.p.p.p.p.p.p.p.p.p.p.w.p.p.w.p.p.w.p.m.p.p.p.p.p.p.p.s.Z.s.s.s.a.p.p.a.p.p.a.u.a.a.a.a.a.a.u.a.a.u.a.u.a.a.a.u.a.m.a.a.a.a.a.u.s.s.u.u.u.u.u.u.u.u.u.u.u.u.u.u.u.u.u.u.u.7.bXeXe.a.s.6.6.6.6.6.6.6.6.6.6.6.6.6.6.6.6.7.3.u t u u u u r & 4 6 6 e 2 4XDXFXy 4 6 6 6 & & x N N v ` #.&.) & & z h h g v c c x & & z h h k &X%X%X",
"5 5 5 5 5 5 5 5 5 5 5 5 5 5 5 5 5 5 5 5 5 5 5 5 5 5 5 5 5 5 5 5 5 5 5 5 5 5 5 5 5 5 5 5 5 5 5 5 5 5 5 5 5 5 5 5 5 5 5 5 5 5 5 5 5 5 5 5 5 5 5 5 5 5 5 5 5 5 5 5 5 5 5 5 5 5 6 5 5 5 5 5 5 5 5 5 5 5 5 5 5 5 5 5 5 5 5 5 5 5 5 5 5 5 5 5 5 5 5 5 5 5 5 5 5 5 5 5 5 5 5 5 5 5 5 5 5 5 5 5 5 5 5 5 5 5 5 5 5 5 5 5 5 5 4 5 5 5 5 5 5 5 6 5 5 5 5 5 5 5 5 5 5 5 5 5 5 5 5 5 5 5 5 w w 5 5 6 5 5 5 5 5 5 5 5 5 5 5 5 5 5 5 5 5 5 4 4 4 4 4 4 2 & 4 6 6 4 2 $.+.$.e 4 6 4 6 & & m N N c ` &.&.) & & z h h g v c M x & & z Z h h &X%X%X",
"& & & & & & & & & & & & & & & & & & & & & & & & & & & & & & & & & & & & & & & & & & & & & & & & & & & & & & & & & & & & & & & & & & & & & & & & & & & & & & & & & & & & & & & & & & & & & & & & & & & & & & & & & & & & & & & & & & & & & & & & & & & & & & & & & & & & & & & & & & & & & & & & & & & & & & & & & & & * & & & & & & & & & & & & & & & & & & & & & & & & & & & & & & & & & & & & & & & & & & & & & & & & & & & & & & & & & & 4 6 4 r u = 5 5 e u 4 6 6 & & 8 m m m ) ) ) Q & & 8 g g z x x x f & & z k k z [ [ [ ",
"6 6 6 6 6 6 6 6 6 e e e 6 6 6 6 6 6 6 6 6 6 6 6 6 6 6 6 6 6 6 6 6 6 6 6 6 6 6 6 6 6 6 6 6 6 6 6 e e 6 6 6 6 6 6 6 6 6 6 6 6 6 6 6 6 6 6 6 6 6 6 6 6 6 6 6 6 6 6 6 6 6 e e 6 6 6 6 6 6 6 6 6 6 6 6 6 6 6 6 6 6 6 6 6 6 6 6 6 6 6 6 6 6 6 6 6 6 6 6 6 6 6 6 e r r r r r r r r r r r r r r r e 6 e r e r r r r e r e e 6 & 4 e r a u u u u u u u u u u u u u u u u u u a u a a a a a u a u u u u u u u u u u u u u u u u u u u u u u a r e 4 & 4 6 4 v.c.e v.c.c.c.e 4 6 & & 6 : > : 4 4 2 4 & & w , , w : > : 6 & & e , , , 4 3 3 ",
"& & & & ; 6 4 4 6 4 4 4 e 6 6 6 6 6 6 4 & & & & & & & & & & & & & & & & & & & & & & & ; 6 4 6 4 2 4 6 6 6 6 6 6 6 ; & & & & & & & & & & & & & & & ; & & & & & 4 6 4 6 4 4 6 6 6 6 6 6 6 6 6 6 6 ; & & & & & & & & & & & & & & & & & & ; & & & & & 4 6 4 e d d d d d d d d d d d d d d d d a 6 d d d d d d d d d d e 4 & 4 4 d a r r r r r r r r r r r r r r r r r r r r r r r r r r r r r r r r r r r r r r r r r r r r r r r r r a d 4 4 & 4 4 a <.1.o.>.v.b.1.^ 2 e & & 4 5 m x m 6 n r & & , z z 8 k k 8 e & & , z z z k k z ",
"X & & X ; 6 6 6 4 u ~ d & 4 2 2 4 2 6 4 & .   X . & X & X X X X X & & .   & & X & & X ; 6 6 4 r ~ u 4 4 ; 4 4 2 6 & . & & &   & X & X & X & . & & & & X & X & 4 6 6 4 r d 2 2 4 4 4 2 4 2 4 2 6 ; . & & . & & . X . . & & . & & X   & ; & X & X & 4 6 4 e d 4 4 4 4 4 4 4 4 4 4 4 4 4 4 e a e d 4 2 4 2 4 4 4 4 d e 4 & 4 6 a 6 4 4 4 4 4 4 4 4 4 4 4 4 4 4 4 4 4 4 6 4 e r 4 4 e 4 e 4 4 4 4 4 4 4 4 4 4 4 4 4 4 4 4 4 4 4 4 4 4 6 a 6 4 & 4 6 4 l.c.>.l.c.v.c.r 4 6 & & r p n m n 5 m p & & e H.k 5 A k 8 e & & e H.k k U.l k ",
"  b.b.  ; 6 6 4 ~ b.>.,.( ~ ( >.r >.r 4   ~ >.1./   e <.1.<.e ~ 6 & & d ~ & ;   b.b.  ; 6 6 4 r A.l.r ^ 1.~ d ( 4 & ,.>.& & ( 2 2 & 4 4 4 ; ; o.r & . ( yX2 & 6 6 6 4 B.o.~ o.a d ~ o.d >.^ ( 4 & ( & & & l.<.6 d l.,.a ; 4 a ,.& / 4 &   ( yX2 & 6 6 4 e d 4 >.o.@.( 1.~ u @.~ >.1.( d 6 d e d 4 >.a >.>.( ^ 4 d e 4 & 4 6 d e 4 6 6 6 6 6 6 6 6 6 6 6 6 6 6 6 e 2 @.a ( ,.x.~ @.,.@.6 6 6 6 6 6 6 6 6 6 6 6 6 6 6 6 6 6 6 6 6 4 e d 6 4 & 4 6 4 r u e r r r u 4 6 6 & & e r f f m f n e & & 6 k k z k z 8 e & & 6 k k k k k z ",
"& 1.1.& & 6 6 4 r l.<.b.<.v.b.l.A.tXo.& & c.l.B.>.4 v.v.v.c.o.<.<.,.1.<.c.X & & 1.1.& & 6 4 e ; ,.>.c.b.v.c.tXA.u & b.~ <.l.c.<.b.b.>.l.v.a v.c.r & X ) k.r X 6 6 6 4 1.l.v.l.B.( B.l.l.>.A.A.r & l.& v.b.c.b.>.>.b.c.1.,.l.l.b.<.B.e & X ) k.r X 6 6 4 e d 4 l.1.l.,.l.d ~ x.k.,.( x.a 6 d e d 4 z.k.l.( k.>.; d e 4 & 4 6 d e 4 6 6 6 6 6 6 6 6 6 6 6 6 6 6 6 6 2 @.u ~ @.l.x.( tX^ ; 4 4 6 6 6 6 6 6 6 6 6 6 6 6 6 6 6 6 6 6 4 e d 6 4 & 4 6 6 4 4 4 4 4 4 4 6 4 6 & & 6 4 4 4 4 4 4 6 & & 6 , , 6 , , 6 6 & & 6 , , 4 , , , ",
". B.B.. ; 6 6 4 r <.B.l.v.<.b.v.v.c.a & a A.A.v.1.a l.l.v.v.b.( ,.l.v.d <.. ; . B.B.. ; 6 6 6 2 l.r A.1.B.l.c.l.e & b.~ v.v.>.v.c.c.r >.( c.A.A.e &   @.yXw & 6 6 6 4 o.b.v.l.<.b.b./ >.<.c.<.e & v.a A.l.,.o.l./ l.v.l.v.>.c./ ,.v.2 &   @.yXw & 6 6 4 e d 4 1.e 1.>.,.^ ^ k.<.@.,.1.^ 6 d e d 4 >.l.@.,.1.@.4 d e 4 & 4 6 d e 4 6 6 6 6 6 6 6 6 6 6 6 6 6 6 6 6 2 @.,.>.,.~ l.,.@.1.( ( ( 6 6 6 6 6 6 6 6 6 6 6 6 6 6 6 6 6 6 4 e d 6 4 & 4 6 6 6 4 o.l.l.<.6 6 6 6 & & 4 e ( ~ ( e @.r & & , z z 8 k k 8 e & & , z z 8 k z z ",
". u u . ; 6 6 4 e ~ e 4 a e v.a 2 d e 4 X 2 r / r X ( d ~ ( a & ( e u / ~ 2 & . u u . ; 6 6 6 6 6 d l.~ l.4 e a 6 & ~ ( u r ~ u ~ u 4 e e d ^ a 2 & & 4 ) X & 4 6 6 4 d e e a 4 d e e 4 d e a 6 & / ( r ~ e e o.2 e 4 d r A.,.4 e ~ r & & 4 ) X & 4 6 4 e a 4 4 4 4 4 r e 2 6 4 e r 4 6 6 a e a 4 6 4 6 r 6 6 4 a e 4 & 4 6 d e 4 4 4 4 4 4 4 4 4 4 4 4 4 4 4 4 4 4 e a u r 6 4 e 4 e r r r 4 4 4 4 4 4 4 4 4 4 4 4 4 4 4 4 4 4 4 e d 6 4 & 4 6 6 2 >.b.c.b.b.e 4 6 6 & & r a @.( @.e ( u & & e H.k 5 k A z e & & e H.k 5 k A k ",
"& . . & & 6 4 6 4 4 4 6 4 4 e 4 6 4 6 4 & & .   . &         . &   . .     & & & . . & & 6 4 6 6 4 r r 6 6 4 4 4 6 &     . .   .   . & . X     . & & & &   & & 4 6 4 6 4 4 4 4 6 4 4 4 6 4 4 4 6 ;     . . . . o & . X o 4 / & . X   . ; & &   & & 4 6 4 e d r r r r r r r u r r r r r r a d 6 d r r r r r r r r d e 4 & 4 4 d r e e e e e e e e e e e e e e e e e e e 4 6 6 e e e e e 6 6 6 e e e e e e e e e e e e e e e e e e e r d 4 4 & 4 6 6 2 <.v.c.b.b.r 4 6 6 & & e r a ~ ( ~ 1.e & & 6 k k k k k z e & & 6 k k z 8 k k ",
"4 4 4 4 4 6 6 6 6 6 6 6 6 6 6 6 6 6 6 4 4 4 4 4 4 4 4 4 4 4 4 4 4 4 4 4 4 4 4 4 4 4 4 4 6 6 6 6 6 4 4 6 6 6 6 6 6 4 4 4 4 4 4 4 4 4 4 4 4 4 4 4 4 4 4 4 4 4 4 6 6 6 6 6 6 6 6 6 6 6 6 6 6 6 6 6 4 4 4 4 4 4 4 4 4 4 4 4 2 & 4 4 4 4 4 4 4 4 4 4 4 6 6 6 6 r u u u u u u u u u u u u u u u r 6 r u u u u u u u u r 6 6 & 4 6 a d d d d d d d d d d d d d d d d d d d d d d d d d d d d d d d d d d d d d d d d d d d d d d d d d d d a 6 4 & 6 6 6 4 u ,.~ 1.( 6 6 6 e & & 6 4 4 4 4 6 4 e & & e , e 6 6 6 e e & & e , e 6 e , e ",
"4 4 4 4 4 4 4 4 4 4 4 4 4 4 4 4 4 4 4 4 4 4 4 4 4 4 4 4 4 4 4 4 4 4 4 4 4 4 4 4 4 4 4 4 4 4 4 4 4 4 4 4 4 4 4 4 4 4 4 4 4 4 4 4 4 4 4 4 4 4 4 4 4 4 4 4 4 4 4 4 4 4 4 4 4 4 4 4 4 4 4 4 4 4 4 4 4 4 4 4 4 4 4 4 4 4 4 4 4 4 4 4 4 4 4 4 4 4 4 4 4 4 4 4 4 2 2 2 2 2 2 2 2 2 2 2 2 2 2 2 2 2 4 2 2 2 2 2 2 2 2 2 2 4 2 & ; 4 2 2 2 2 2 2 2 2 2 2 2 2 2 2 2 2 2 2 2 2 2 2 2 2 2 2 2 2 2 2 2 2 2 2 2 2 2 2 2 2 2 2 2 2 2 2 2 2 2 2 2 2 2 4 ; & 2 4 4 4 2 & ; & & 4 4 4 4 & & 4 4 4 4 4 4 4 4 & & 4 2 4 4 4 4 4 4 & & 4 2 4 4 4 4 4 ",
"& & & & & & & & & & & & & & & & & & & & & & & & & & & & & & & & & & & & & & & & & & & & & & & & & & & & & & & & & & & & & & & & & & & & & & & & & & & & & & & & & & & & & & & & & & & & & & & & & & & & & & & & & & & & & & & & & & & & & & & & & & & & & & & & & & & & & & & & & & & & & & & & & & & & & & & & & & & & & & & & & & & & & & & & & & & & & & & & & & & & & & & & & & & & & & & & & & & & & & & & & & & & & & & & & & & & & & & & & & & & & & & & & & & & & & & & & & & & & & & & & & & & & & & & & & & & & & & & ",
"> > > > > > > > > > > > > > > > > > > > 6 4 & & & & & & & & & & & & & & & & & & & & & & & & & & & & & & & & & & & & & & & & & & & & & & & & & & & & & & & & & & & & & & & & & & & & & & & & & & & & & & & & & & & & & & & & & & & & & & & & & & & & & & & & & & & & & & & & & & & & & & & & 6 4 = = = = = = = = = = = = = = = = = = = = = = = = = = = = = = = = = 4 4 & 2 6 2 = 2 2 2 2 2 2 2 2 2 2 2 2 2 2 2 2 2 2 2 2 2 2 2 2 2 2 2 2 2 2 = 2 6 2 & 4 4 ; ; ; ; ; ; ; ; ; ; ; ; ; ; ; ; ; ; ; ; ; ; ; ; ; ; ; ; ; ; ; ; ; 4 6 ",
"[.[.[.[.[.[.[.[.[.[.[.[.[.[.[.[.[.[.[.L.: 4 & & ; w w w w w w w w w w w w w w w w w 4 6 w w w w w w w w w w w w w w e 2 & & & & r >.( o.o.o.o.o.o.o.o.o.o.o.o.o.o.o.( o.o.o.o.o.o.o.o.o.o.o.o.o.o.o.( : & & & & 4 e w w w w w w w w w w w w w w w w 6 w w w w w w w w w w w w w w e 2 & & ; 2  .ZX<X<X<X<X<X<X<X<X<X<X<X<X<X<X<X<X<X<X<X<X<X<X<X<X<X<X<X<X<X<X<X<Xy 4 & 4 2 ;X7X7X7X7X7X7X7X7X7X7X7X7X7X7X7X7X7X7X7X7X7X7X7X7X7X7X7X7X7X7X7X7X;X2 4 & 4 r aXaXaXaXaXaXaXaXaXaXaXaXaXaXaXaXaXaXaXaXaXaXaXaXaXaXaXaXaXaXaXaXaX` 2 ",
"I.I.I.I.I.I.I.I.I.I.I.I.I.I.I.I.I.I.oX[.> 4 & & : e ; : : : : : : : : : : : : : ; ; 4 4 ; : : : : : : : : : : : : ; 4 4 & & & & ~ >.u d d d d d d d d d d d d d d d ~ d d d d d d d d d d d d d d u 1.4 & & & & e 4 ; : : : : : : : : : : : : ; : ; 2 : : : : : : : : : : : : : ; 4 4 & & : = %.AX1X,X,X,X,X,X,X,X,X,X,X,X,X,X,X,X,X,X,X,X,X,X,X,X,X,X,X,X,X,X,XAXs 4 & 4 2 7XjX6X6X6X6X6X6X6X6X6X6X6X6X6X6X6X8X8X6X6X6X6X6X6X6X6X6X6X6X6X6XjX7X2 4 & 2 Q nXiXiXiXiXiXiXiXiXiXiXiXiXiXiXiXiXaXiXiXiXiXiXiXiXiXiXiXiXiXiXiXnXn.; ",
"L.oXoXoXL.L.L.L.L.L.L.L.L.L.L.L.L.L.I.[.> 4 & & : 6 & & & & & & & & & & & & & & : ) u u & & & & & & & & & & & & & & 4 4 & & & & d ( w r r r r r r r r r r r r e ~ ` ) ~ e r r r r r r r r r r r r e >.4 & & & & 6 ; & & & & & & & & & & & & & 4 ) u Q & & & & & & & & & & & & & & 4 4 & & : = %.ZX=.=.=.=.=.=.=.=.=.=.=.=.=.=.<X<X1X=.=.=.=.=.=.=.=.=.=.=.=.=.=.ZXs 4 & 4 2 7X6X-X-X-X-X-X-X-X-X-X-X-X-X-X6X7X8X=X-X-X-X-X-X-X-X-X-X-X-X-X-X6X7X2 4 & 2 Q nX0X0X0X0X0X0X0X0X0X0X0X0X0X0XaXiXaXqX0X0X0X0X0X0X0X0X0X0X0X0X0XbXn.; ",
"L.XXoXoXL.L.L.L.L.L.L.L.L.L.L.L.L.L.I.[.> 4 & & : w & & & & & & & & & & & & ; & w #.a u & & & & & & & & & & & & & & 4 4 & & & & d ( e r r r r r r r r r r r r e ` #.) ) e r r r r r r r r r r r r r >.4 & & & & w : & & & & & & & & & & & ; & e #.) ) & ; & & & & & & & & & & & & 4 4 & & : = %.ZX=.=.=.=.=.=.=.=.=.=.=.=.=.,XZX,X,X=.=.=.=.=.=.=.=.=.=.=.=.=.=.ZXs 4 & 4 2 7X6X-X=X=X=X=X=X=X=X=X=X=X=X-X7XjXjX6X=X=X=X=X=X=X=X=X=X=X=X=X-X6X7X2 4 & 2 Q nXqXqXqXqXqXqXqXqXqXqXqXqXqXqXnXaXiXqXqXqXqXqXqXqXqXqXqXqXqXqX0XbXn.; ",
"L.L.L.L.L.L.L.L.L.L.L.L.L.L.L.L.L.L.I.[.> 4 & & : 6 & & & & & & & & & & & & & & : 4 t e & & & & & & & & & & & & & & 4 4 & & & & d ( w r r r r r r r r r r r r e u u ~ u e r r r r r r r r r r r r e >.4 & & & & 6 ; & & & & & & & & & & & & & : 4 4 w & & & & & & & & & & & & & & 4 4 & & : = %.ZX=.=.=.=.=.=.=.=.=.=.=.=.=.=.=.=.=.=.=.=.=.=.=.=.=.=.=.=.=.=.=.ZXs 4 & 4 2 7X6X-X-X-X-X-X-X-X-X-X-X-X-X-X=X=X6X=X-X-X-X-X-X-X-X-X-X-X-X-X-X6X7X2 4 & 2 Q nX0X0X0X0X0X0X0X0X0X0X0X0X0X0XqXqXqX0X0X0X0X0X0X0X0X0X0X0X0X0X0XbXn.; ",
"I.I.I.I.I.I.I.I.I.I.I.I.I.I.I.I.I.I.oX[.> 4 & & : e ; : : : : : : : : : : : : : ; ; & & : : : : : : : : : : : : : ; 4 4 & & & & ~ >.u d d d d d d d d d d d d d a a a a d d d d d d d d d d d d d u 1.4 & & & & e 4 ; : : : : : : : : : : : : ; & ; & : : : : : : : : : : : : : ; 4 4 & & : = %.AX1X,X,X,X,X,X,X,X,X,X,X,X,X,X,X,X,X,X,X,X,X,X,X,X,X,X,X,X,X,X,XAXs 4 & 4 2 7XjX6X6X6X6X6X6X6X6X6X6X6X6X6X6X6X6X6X6X6X6X6X6X6X6X6X6X6X6X6X6XjX7X2 4 & 4 Q nXiXiXiXiXiXiXiXiXiXiXiXiXiXiXiXiXiXiXiXiXiXiXiXiXiXiXiXiXiXiXiXnXn.; ",
"[.[.[.[.[.[.[.[.[.[.[.[.[.[.[.[.[.[.[.L.: 4 & & ; w w w w w w w w w w w w w w w w w w w w w w w w w w w w w w w w 6 e 2 & & & & r >.( o.o.o.o.o.o.o.o.o.o.o.o.o.o.o.o.o.o.o.o.o.o.o.o.o.o.o.o.o.o.o.( : & & & & 4 e w w w w w w w w w w w w w w w w w w w w w w w w w w w w w w 6 e 2 & & ; 2  .ZX<X<X<X<X<X<X<X<X<X<X<X<X<X<X<X<X<X<X<X<X<X<X<X<X<X<X<X<X<X<X<X<Xy 4 & 4 2 ;X7X7X7X7X7X7X7X7X7X7X7X7X7X7X7X7X7X7X7X7X7X7X7X7X7X7X7X7X7X7X7X7X;X2 4 & 4 r aXaXaXaXaXaXaXaXaXaXaXaXaXaXaXaXaXaXaXaXaXaXaXaXaXaXaXaXaXaXaXaXaX` 2 ",
"> > > > > > > > > > > > > > > > > > > > 6 4 & & & & & & & & & & & & & & & & & & & & & & & & & & & & & & & & & & & & & & & & & & & & & & & & & & & & & & & & & & & & & & & & & & & & & & & & & & & & & & & & & & & & & & & & & & & & & & & & & & & & & & & & & & & & & & & & & & & & & & & & e 4 = 2 = 2 2 2 = = = = = = = = = = = = = = 2 2 2 2 2 2 = = = = = = = 4 4 & 4 e 2 2 2 2 2 2 2 2 2 2 2 2 2 2 2 2 2 2 2 2 2 2 2 2 2 2 2 2 2 2 2 2 2 2 e 4 & 4 4 ; ; ; ; 2 2 ; ; ; ; ; ; ; ; ; ; ; ; ; ; 2 ; 2 ; 2 ; ; ; ; ; ; ; ; 4 e ",
"6 6 4 6 6 6 6 6 6 6 6 6 6 6 6 6 6 6 6 6 6 4 & & & & & & & & & & & & & & & & & & & & & & & & & & & & & & & & & & & & & & & & & & & ; ; ; & & ; ; ; ; ; ; ; ; ; ; ; ; ; ; ; ; & ; & ; & & ; ; ; ; ; ; ; & & & & & & & ; ; & & & & & & & & & & & & & & & & & & & & & & & & & & & & & & & & & & 6 6 e e e 6 4 e e e e e e e e e e e e e e e e 4 4 4 4 4 e e e e e e e 6 4 & 4 6 e e e e 4 4 e e e e e e e e e e e e e e 6 e 4 6 4 4 4 4 e e e e e e 6 4 & 4 6 e e e e 4 6 e e e e e e e e e e e e e 6 4 e 4 e 4 e e e e e e e e 6 6 ",
"4 6 a 4 6 6 6 6 6 6 6 6 6 6 6 6 6 6 6 6 6 4 & & & & & & & : ; & & & & & & & & & & & & & & & ; : 4 & & w & & & & & & & & & & & & & & & & & : & & & & & & & & & & & & & & & & 4 & 4 & 4 : & & & & & & & & & & & & & ; & & : ; & & & & & & & & & & & & & & & 6 4 2 4 4 4 & & & & & & & & & & & 6 4 6 4 = e s 6 4 6 6 6 6 6 6 6 6 6 6 6 6 4 6 a a r a r 4 6 6 6 6 6 6 6 4 & 4 6 6 e 2 2 r r 2 2 6 6 6 6 6 6 6 6 6 6 6 4 r 6 a r r r ~ u 4 6 6 6 6 6 6 4 & 4 6 6 6 ; 4 u e ; 4 6 6 6 6 6 6 6 6 6 6 4 r d 4 d 4 a 4 e e 4 6 6 6 6 6 6 ",
"2 >.B.~ 4 6 6 6 6 6 6 6 6 6 6 6 6 6 6 6 6 4 & & & & & e u a a u : & & & & & & & & & & & & & 1.( 1.e a ,.r & ; & & & & & & & & & & & : r a a a e & & & & & & & & & & & & & & 1.a >.@.1.^ & ; & & & & & & & & & & & & u ^ u a u 4 & & & & & & & & & & & & & ~ @.l.~ a 1.: & & & & & & & & & & 6 6 2 s ;.SXSX;.! 4 4 6 6 6 6 6 6 6 6 6 6 2 v.<.o.c.>.c.e 4 6 6 6 6 6 6 4 & 4 6 6 2 #.rXHXHXrX#.2 6 6 6 6 6 6 6 6 6 6 4 B.>.A.( B.l.<.c.2 6 6 6 6 6 6 4 & 4 6 4 4 c.yXyXyXtXu 2 e 6 6 6 6 6 6 6 6 4 ~ c.c.v.v.A.d B.~ 4 6 6 6 6 6 6 ",
"4 <.>.,.; e 6 6 6 6 6 6 6 6 6 6 6 6 6 6 6 4 & & & & u u & & & e d 2 & & & & & & & & & ; & ~ l.1.a ~ ~ ~ ^ & ; & & & & & & & & & & ; a w & & & u u & & & & & & & & & & & ; & ~ @.u l.~ ( & & & & & & & & & & & ; & ~ l.e . & 4 d e & & & & & & & & & & & & : ( u ( 4 / & & & & & & & & & & & e 4 s SX;., e 1  .$.4 6 6 6 6 6 6 6 6 6 4 r B.l./ b.r <.6 6 6 6 6 6 6 6 4 & 4 e 2 *.HX+.e y +.HX&.2 e 6 6 6 6 6 6 6 e ; <.( o.c.A.1.( >.2 6 6 6 6 6 6 4 & 4 6 4 yXyX^ w a B.VX~ 4 6 6 6 6 6 6 6 6 6 4 c.b.v.tXB.c.tX^ 2 6 6 6 6 6 6 ",
"2 o.A.^ 2 6 6 6 6 6 6 6 6 6 6 6 6 6 6 6 6 4 & & & e u .       o 4 u & & & & & & & & & & & a ,.>.>./ ~ ,.r & ; & & & & & & & & & & ( e   O       u e & & & & & & & & & & ; & ~ d >.@.1./ & ; & & & & & & & & & & w l.& Q x.O   & d 2 & & & & & & & & & & & ,.( u @.k.( & & & & & & & & & & ; 6 4 GX..o o yX<.O ..X.4 6 6 6 6 6 6 6 6 6 6 l.c.,.v.A.l.4 6 6 6 6 6 6 6 4 & 4 4 Q HXy O X o r Q *.y 4 6 6 6 6 6 6 6 e ; 1.( >.b.c.<.l.r 4 6 6 6 6 6 6 4 & 6 ; c.yX  o X   O x.yX2 6 6 6 6 6 6 6 6 4 ~ c.1.c.v.c.v.A.o.2 6 6 6 6 6 6 ",
"6 6 a 4 6 6 6 6 6 6 6 6 6 6 6 6 6 6 6 6 6 4 & & & a & O o . . . . u 4 & & & & & & & & & & & & ; 4 2 2 w & & & & & & & & & & & & r <.: tX1.  .   & u & & & & & & & & & & & & : & 4 & 4 : & & & & & & & & & & & & ( ( O w tX:     e r & & & & & & & & & & & w e e 4 4 e ; & & & & & & & & & ; 2 $.GX& & & PX( o , ..4 6 6 6 6 6 6 6 6 6 4 r u d u a d e 4 6 6 6 6 6 6 4 & 4 = V.V.o :   x.IXe ! +.2 6 6 6 6 6 6 6 6 4 e e ~ 4 a r e 4 6 6 6 6 6 6 6 4 & 4 4 yX/   & & ; 4 & yX( 2 6 6 6 6 6 6 6 4 u d r r 4 d ; 4 6 6 6 6 6 6 6 6 ",
"4 4 2 6 4 6 6 6 6 6 6 6 6 6 6 6 6 6 6 6 6 4 & & : a & b.b.&   .   r w & & & & & & & & & & ; & & & & & & & & & & & & & & & & & & ~ >.O ~ k.  .   & a : & & & & & & & & & & & & & & & & & & & & & & & & & & & & & >.a o . : * .   4 u & & & & & & & & & & & & & & & & & & & & & & & & & & & ; - +.3X  & & w & & : ..e 4 6 6 6 6 6 6 6 6 4 4 4 2 4 2 ; 4 6 6 6 6 6 6 6 4 & 4 = rX&.o &   ,.^ o ! +.2 6 6 6 6 6 6 6 6 6 2 4 ; 6 2 4 4 4 6 6 6 6 6 6 6 4 & 4 u yXw X &   tXIX( k.} 2 6 6 6 6 6 6 6 4 2 4 4 4 4 4 4 6 4 6 6 6 6 6 6 6 ",
"r 6 a 4 a 4 6 6 6 6 6 6 6 6 6 6 6 6 6 6 6 4 & & ; ,.4 ( ) *   .   u 4 & & & & & & & & & & & & r & e u r & & & & & & & & & & & & u 1.  o O . .   & a ; & & & & & & & & & & & 4 4 e : e ; & & & & & & & & & & & & @.~ o .     .   4 r & & & & & & & & & & & & e 2 : u u : & & & & & & & & & ; 2 $.3XX & & X & & > ..e 4 6 6 6 6 6 6 6 4 e e r a r u d d 6 4 6 6 6 6 6 4 & 4 = rX*.o & & o . X ! +.2 6 6 6 6 6 6 6 4 6 d 4 a 6 u e 4 e 4 6 6 6 6 6 6 4 & 4 e yXu . & & r a & } ~ 4 6 6 6 6 6 6 4 r d 4 e e a 4 a 4 a 4 6 6 6 6 6 6 ",
"b.o.b.v.b.^ 4 6 6 6 6 6 6 6 6 6 6 6 6 6 6 4 & ; & >.( O O   .   & d ; & & & & & & & & & & & ( @.^ 1.l.( & ; & & & & & & & & & & : l.e o * . . o e r & & & & & & & & & & & 4 ,.u ( ( / ( & ; & & & & & & & & & & a <..   . .     u 4 & & & & & & & & & ; & a >.( @.l.k.; & & & & & & & & & ; 4 e SX! o & & &   X.$.4 6 6 6 6 6 6 6 6 ; l.<.b.1.l.b.o.A.r 4 6 6 6 6 6 4 & 4 2 #.HX& X & & & & *.! 4 6 6 6 6 6 6 6 4 r l.c.v.l.A.>.,.l.& e 6 6 6 6 6 4 & 6 ; tXA.O & & X o i n.e 4 6 6 6 6 6 6 4 d b.~ c.v.c.v.c.v.b.^ 4 6 6 6 6 6 ",
"l.<.o.tX( <.; e 6 6 6 6 6 6 6 6 6 6 6 6 6 4 & & & 4 l.~   .   & d 6 & & & & & & & & & & & 2 >.. 1.@.@.d & ; & & & & & & & & & ; & d l.2   .   4 d : & & & & & & & & & ; & a ,.~ ~ ( e ~ & ; & & & & & & & & & ; & >.1..   . . r u & & & & & & & & & & ; & @.: ~ ,.( ( & ; & & & & & & & & & e = +.SXs X & X 1 ..e 4 6 6 6 6 6 6 6 6 2 / <.~ v.B.b.a l.2 6 6 6 6 6 6 4 & 4 e 2 rXrX& & & & +.+.4 6 6 6 6 6 6 6 6 6 2 >.A.l.A.A.c.A.l.; e 6 6 6 6 6 4 & 6 4 a PXl.  & & w n.) 4 6 6 6 6 6 6 6 6 2 >.v.A.B./ tX^ tX( <.; e 6 6 6 6 ",
"<.>.b.l.b./ 2 6 6 6 6 6 6 6 6 6 6 6 6 6 6 4 & & ; & r ~ & & & 4 w & & & & & & & & & & & & & ( @./ ~ ^ u & ; & & & & & & & & & & & & ~ r & & & w 4 & & & & & & & & & & & & w >.( / >.l.u & & & & & & & & & & & & & : ^ : & & ; e & & & & & & & & & & & ; & a >.( ~ ~ ~ & ; & & & & & & & & & 6 6 2 +.$.2 4 4 ! s 4 6 6 6 6 6 6 6 6 6 4 ~ ,.~ c.c.l.l.( 2 6 6 6 6 6 6 4 & 4 6 4 e *.e 2 4 e _ 6 4 6 6 6 6 6 6 6 6 4 r l.<.l.c.v.c.c.c.; e 6 6 6 6 6 4 & 4 e ; ( l.; 4 2 u ) 4 6 6 6 6 6 6 6 6 ; ,.A.>.B.c.c.v.c.v.b./ 2 6 6 6 6 6 ",
"e 6 a 4 a 4 6 6 6 6 6 6 6 6 6 6 6 6 6 6 6 4 & & & ; & & ; & & & & & & & & & & & & & & & & & & e & : : ; & & & & & & & & & & & & & & & & ; & & & & & & & & & & & & & & & & & 4 4 e 2 e 4 & & & & & & & & & & & & & & & & ; & & & & & & & & & & & & & & & & & e 4 & : : & & & & & & & & & & & 6 6 6 2 4 6 6 6 4 4 6 6 6 6 6 6 6 6 6 6 4 e e d r r a e 6 6 6 6 6 6 6 6 4 & 4 6 6 4 2 4 6 6 6 4 6 6 6 6 6 6 6 6 6 6 4 e ~ e a 4 d 6 ; 6 4 6 6 6 6 6 6 4 & 4 6 6 4 ; 6 6 6 4 4 6 6 6 6 6 6 6 6 6 4 r ~ 6 2 6 a 4 a 4 a 4 6 6 6 6 6 6 ",
"5 5 4 5 4 6 5 5 5 5 5 5 5 5 5 5 5 5 5 6 6 4 & & & ; ; ; ; ; ; ; ; ; ; ; ; ; ; ; ; ; ; ; ; ; ; & ; & & ; ; ; ; ; ; ; ; & & & & & & ; ; ; ; ; ; ; ; ; ; ; ; ; ; ; ; ; ; ; ; ; & & & & & & ; ; ; ; ; ; ; & & & & & & ; : ; ; ; ; ; ; ; ; ; ; ; ; ; ; ; ; ; ; ; & & ; & & ; ; ; ; ; ; ; & & & & 6 6 e e e e e e e e e e e e e e e e e e e e e 4 6 6 4 e e e e e e e e 6 4 & 4 6 e e e e e e e e e e e e e e e e e e e e 4 e 4 e 4 e e e e e e e e e 6 4 & 4 6 e e e e e e e e e e e e e e e e e e 6 4 e e e 4 e 4 e 4 e e e e e 6 6 ",
"> > > > > > > > > > > > > > > > > > > > 6 4 & & & & & & & & & & & & & & & & & & & & & & & & & & & & & & & & & & & & & & & & & & & & & & & & & & & & & & & & & & & & & & & & & & & & & & & & & & & & & & & & & & & & & & & & & & & & & & & & & & & & & & & & & & & & & & & & & & & & & ; & & e 4 = = = = = = = = = = = = = = = = = = = = = = = = = = = = = = = = = 6 4 & 4 e 2 + + + + + + + + + + + + + + + + + + + = + + + + + + + + + + + + 2 e 4 & 4 4 ; @ @ @ @ @ @ @ @ @ @ @ @ @ @ @ @ @ @ ; @ @ @ @ @ @ @ @ @ @ @ @ @ 4 e ",
"C C C C C C C C C C C C C C C C C C C m 4 4 & & ; a d d d d d d d d d d d d d d d d d d d d d d d d d d d d d d d d d 4 & & & & 4 d d d d d d d d d d d d d d d d d d d d d d d d d d d d d d d d d a ; & & & & r ~ d d d d d d d d d d d d d d d d d d d d d d d d d d d d d d d d 4 & & ; 4 s %.%.%.%.%.%.%.%.%.%.%.%.%.%.%.%.%.%.%.%.%.%.%.%.%.%.%.%.%.%.%.%...e 4 & 4 4  .%.%.%.%.%.%.%.%.%.%.%.%.%.%.%.%.%.%.%.%.%.%.%.%.%.%.%.%.%.%.%.%. .4 4 & 4 e n.n.n.n.n.n.n.n.n.n.n.n.n.n.n.n.n.n.n.n.n.n.n.n.n.n.n.n.n.n.n.n.n.~ 4 ",
"XXXXXXXXXXXXXXXXXXXXXXXXXXXXXXXXXXXXXX[.> 4 & & 4 <.( ( ( ( ( ( ( ( ( ( ( ( ( ( ( ( / ( ( ( ( ( ( ( ( ( ( ( ( ( ( / ,.d & & & & d ,./ ( ( ( ( ( ( ( ( ( ( ( ( ( ( ( / ( ( ( ( ( ( ( ( ( ( ( ( ( ( ( <.4 & & & & >.>.( ( ( ( ( ( ( ( ( ( ( ( ( ( ( / / ( ( ( ( ( ( ( ( ( ( ( ( ( / ,.d & & : = %.AXZXZXZXZXZXZXZXZXZXZXZXZXZXZXZXZXZXZXZXZXZXZXZXZXZXZXZXZXZXZXZXAXs 4 & 4 2 7XKXjXjXjXjXjXjXjXjXjXjXjXjXjXjXjXjXjXjXjXjXjXjXjXjXjXjXjXjXjXjXKX7X2 4 & 4 u mXbXbXbXbXbXbXbXbXbXbXbXbXbXbXbXbXbXbXbXbXbXbXbXbXbXbXbXbXbXbXaXCXn.; ",
"L.I.I.I.P.P.P.P.P.P.P.P.P.P.P.P.P.P.L.[.> 4 & & 4 >.6 e w w w w w w w w w w w w ~ ) ) a w w w w w w w w w w w w e 4 / d & & & & d / 4 e w w w w w w w w w e w r ) ~ ) u w e w w w w w w w w w w e 6 >.4 & & & & ( u w e w w w w w w w w w e w a ) ) ~ r w e w w w w w w w w w e 4 / d & & : = %.ZX%.=.=.=.=.=.=.=.=.=.=.=.=.=.,X,X,X=.=.=.=.=.=.=.=.=.=.=.=.=.=.ZXs 4 & 4 2 7X6X-X-X-X-X-X-X-X-X-X-X-X-X-X6X6X6X6X-X-X-X-X-X-X-X-X-X-X-X-X-X6X7X2 4 & 2 Q nX0X0X0X0X0X0X0X0X0X0X0X0X0X0XiXiXiXqX0X0X0X0X0X0X0X0X0X0X0X0Xn.aXn.; ",
"I.I.XXXXL.L.L.L.L.L.L.L.L.L.L.L.L.L.I.[.> 4 & & 4 >.r r r r r r r r r r r r r u ( ) k.k.r r r r r r r r r r r r r e ( d & & & & d ( e r r r r r r r r r r r r ~ ) ( k.( e u r r r r r r r r r r r r >.4 & & & & o.d r r r r r r r r r r r r r ) ) #.k.a r r r r r r r r r r r r e ( d & & : = %.ZX=.=.=.=.=.=.=.=.=.=.=.=.=.,X,XZXZX1X=.=.=.=.=.=.=.=.=.=.=.=.=.ZXs 4 & 4 2 7X6X=X=X=X=X=X=X=X=X=X=X=X=X6X8X8XJXjX=X=X=X=X=X=X=X=X=X=X=X=X=X6X7X2 4 & 2 Q nXqXqXqXqXqXqXqXqXqXqXqXqXqXiXiXaXnXaX0XqXqXqXqXqXqXqXqXqXqXqX0XbXn.; ",
"I.I.I.I.L.L.L.L.L.L.L.L.L.L.L.L.L.L.I.[.> 4 & & 4 >.r r r r r r r r r r r r r r ) ) ~ ( r r r r r r r r r r r r r e ( d & & & & d ( e r r r r r r r r r r r r u ( ~ ) ) r r r r r r r r r r r r r r >.4 & & & & o.d r r r r r r r r r r r r r ~ ( ~ ( a r r r r r r r r r r r r e ( d & & : = %.ZX=.=.=.=.=.=.=.=.=.=.=.=.=.,X<X,X<X1X=.=.=.=.=.=.=.=.=.=.=.=.=.ZXs 4 & 4 2 7X6X-X=X=X=X=X=X=X=X=X=X=X=X=X8X8X6X8X=X=X=X=X=X=X=X=X=X=X=X=X-X6X7X2 4 & 2 Q nXqXqXqXqXqXqXqXqXqXqXqXqXqXqXaXiXiXiX0XqXqXqXqXqXqXqXqXqXqXqX0XbXn.; ",
"L.L.L.P.L.L.L.L.L.L.L.L.L.L.L.L.L.P.I.[.> 4 & & 4 >.w r r r r r r r r r r r r r e e e w r r r r r r r r r r r r r 6 ( d & & & & d ( 6 r r r r r r r r r r r r e e e e e r r r r r r r r r r r r r w >.4 & & & & o.u e r r r r r r r r r r r r e e e w e r r r r r r r r r r r r 6 ( d & & : = %.ZX=.=.=.=.=.=.=.=.=.=.=.=.=.=.=.=.=.=.=.=.=.=.=.=.=.=.=.=.=.=.=.ZXs 4 & 4 2 7X6X-X=X=X=X=X=X=X=X=X=X=X=X-X-X-X-X-X=X-X=X=X=X=X=X=X=X=X=X=X-X6X7X2 4 & 2 Q nX0XqX0X0X0X0X0X0X0X0X0X0X0X0X0X0X0X0X0X0X0X0X0X0X0X0X0X0X0XqX0XbXn.; ",
"XXXXXXXXXXXXXXXXXXXXXXXXXXXXXXXXXXXXXX[.> 4 & & 4 ,.>.>.>.>.>.>.>.>.>.>.>.>.>.>.>.>.>.>.>.>.>.>.>.>.>.>.>.>.>.>.>.>.<.a & & & & a <.>.>.>.>.>.>.>.>.>.>.>.>.>.>.>.>.>.>.>.>.>.>.>.>.>.>.>.>.>.>.>.>.,.4 & & & & ( 1.>.>.>.>.>.>.>.>.>.>.>.>.>.>.>.>.>.>.>.>.>.>.>.>.>.>.>.>.>.>.>.<.a & & : = ..AXZXZXZXZXZXZXZXZXZXZXZXZXZXZXZXZXZXZXZXZXZXZXZXZXZXZXZXZXZXZXZXAXs 4 & 4 2 7XKXJXJXJXJXJXJXJXJXJXJXJXJXJXJXJXJXJXJXJXJXJXJXJXJXJXJXJXJXJXJXKX7X2 4 & 4 u mXnXnXnXnXnXnXnXnXnXnXnXnXnXnXnXnXnXnXnXnXnXnXnXnXnXnXnXnXnXnXnXmXn.; ",
"p p p p p p p p p p p p p p p p p p p 5 6 4 & & & 2 4 4 4 4 4 4 4 4 4 4 4 4 4 4 4 4 4 4 4 4 4 4 4 4 4 4 4 4 4 4 4 4 4 ; & & & & ; 4 4 4 4 4 4 4 4 4 4 4 4 4 4 4 4 4 > > > > > > > > > > > > > > > > > & & & & & : 4 4 4 4 4 4 4 4 4 4 4 4 4 4 4 4 4 4 4 4 4 4 4 4 4 4 4 4 4 4 4 4 4 ; & & ; 6 e s s s s s s s s s s s s s s s s s s s s s s s s s s s s s s s s y 6 4 & 4 6 y ! ! ! ! ! ! ! ! ! ! ! ! ! ! ! ! ! ! ! ! ! ! ! ! ! ! ! ! ! ! ! ! y 6 4 & 4 6 u R R R R R R R R R R R R R R R Q R R R R R R R R R R R R R R R u e 6 ",
"a e e a a a a a a a a a u u a a a a a r 6 4 & & ; 4 4 4 4 4 4 4 4 4 4 4 4 4 4 4 4 & 4 4 4 4 4 4 4 4 4 4 4 4 4 4 4 4 6 2 & & & & 2 6 4 4 4 4 4 4 4 4 4 4 4 4 4 4 : = H.H.H.H.H.H.H.H.H.H.H.H.H.H.H.H.H.- & & & & 4 4 4 4 4 4 4 4 4 4 4 4 4 4 4 6 ; ; 6 4 4 4 4 4 4 4 4 4 4 4 4 4 4 6 2 & & ; 6 r d p p p p p r p p r p p p p d 5 5 d p p p p p p p p r r p p p p a 6 4 & 4 6 r p p p p r r p p p r p p p p p 4 r p p p p p p p p r r r p p p p r 6 4 & 4 6 a a a a r r r r a r r a a r a r 4 a a a a r r r r r r r r a a r a e 6 ",
"a r r a 6 e e r r r r r d a r e e e r d 4 4 & & : e ; : : : 4 4 4 : 2 w ; : : ; e ; w 4 : : : 4 : 4 : 4 w 4 4 : : ; 4 4 & & & & 4 4 ; : ; 4 4 4 4 ; 4 4 ; : : 4 w 7 I.H.H.H.H.H.H.H.H.H.H.H.H.H.H.H.I.7 * & & & e 4 : : : 4 4 4 : : w : : : ; 4 4 4 4 ; : : 4 : 4 : 4 w 4 4 : : ; 4 4 & & ; 4 u a e e e r r a e e a e e e e a r r a e e e r e r e r a a r e e e d e 4 & 4 4 d r e e e u u u e r a e e e e d e d r e e e r e r e a a u e e e r d 4 4 & 4 e d e e e r r a r e u u e e e r d e d e e e r r r r r a a u e e e a u 4 ",
"r r r r 4 6 2 ~ 1.,./ / 1.k.^ 4 6 4 e d 6 4 & & : 6 & & & w Q u ~ y y ~ 4 & & & w ; 6 ; & & & Q ~ ) e a ) ) 4 & & & 4 4 & & & & 4 4 & & & u Q Q Q w a Q & & & ; 4 7 K.l l l l H.H.H.H.H.H.H.l l l l H.7 * & & & 6 ; & & : Q u Q a w ~ y & & & 4 4 4 4 & & & Q ~ ) e a ) ) 4 & & & 4 4 & & ; 4 r r 4 4 e >.( @.( a >.^ 4 6 4 r r r r 4 6 2 @.>.,.~ ( ,.,.r 4 6 4 d e 4 & 4 6 d e 4 4 d >.( >.^ ~ 1.u 4 6 4 d e a e 4 4 e 1.1.@.~ @.,.@.4 4 4 e d 6 4 & 4 e d 4 6 4 ( @.@.@.a ( @.6 4 4 e a e d 4 6 2 ~ 1.,./ / 1.k.^ 4 6 4 r r 4 ",
"u r r u 4 6 4 a x.k.@.( ~ ,./ 4 6 4 e d 4 4 & & : w & & & : ) ~ Q ~ u Q w & ; & w ; 6 : & ; & a #.) Q u u ) 4 & & & 4 4 & & & & 4 4 & ; & w ` u ) Q a Q : & & 2 4 7 I.l l l l H.H.H.H.H.H.H.l l l l I.7 * & & & w : & & & Q ) u ) u Q u & ; & 4 4 4 4 & ; & a #.) Q u u ) 4 & & & 4 4 & & ; 4 r r 4 6 4 @.k.( ,.( @.( 4 6 4 u r r u 4 6 4 ( c.1.@./ / k.r 4 6 4 d e 4 & 4 6 d e 6 4 e k.>.@.1.( @.d 4 6 4 d e a e 4 6 6 k.x.@.@.~ @.1.4 6 4 e d 6 4 & 4 e d 4 6 4 d l.( ,.@.( @.r 4 4 e a e d 4 6 4 a x.k.@.( ~ ,./ 4 6 4 r r 4 ",
"r r r r 4 6 4 e d u ~ a e ~ a 4 4 4 e d 6 4 & & : 6 & & & 4 w t w e w y & & & & w ; 6 ; & & & 4 w 4 y 4 4 y 4 & & & 4 4 & & & & 4 4 & & & w w y w t t w & & & ; 4 7 K.l l l l H.H.l H.l H.H.l l l l H.7 * & & & 6 ; & & & w w y w w y 4 & & & 4 4 4 4 & & & 4 w 4 y 4 4 y 4 & & & 4 4 & & ; 4 r r 4 4 6 ~ d ~ d ~ ^ r 4 6 4 r r r r 4 6 4 r ~ r ^ r r ~ r 4 6 4 d e 4 & 4 6 d e 4 4 r ~ ~ ~ ~ d ^ 4 4 4 4 d e a e 4 4 4 a a a ~ e a ~ 6 4 4 e d 6 4 & 4 e d 4 6 4 a d ^ a ~ ~ ~ 4 6 4 e a e d 4 4 4 e d u ~ a e ~ a 4 6 4 r r 4 ",
"a r r a 6 e e e 4 6 4 6 e 4 6 e e e r d 4 4 & & : e ; : : ; & & & & & & : : : ; e ; w 4 ; : : ; & ; & ; ; & ; : : ; 4 4 & & & & 4 4 ; : : & & & & & & & : : ; 4 w - I.H.H.H.H.H.H.H.H.H.H.H.H.H.H.H.I.7 * & & & e 4 ; : : & & & & & & ; : : ; 4 4 4 4 ; : : ; & ; & ; ; & ; : : ; 4 4 & & ; 4 u a 6 e e 4 4 4 6 4 4 6 e e 6 a r r a 6 e e 6 4 6 4 e 6 4 e e e e d e 4 & 4 4 d r e e e 4 4 4 4 4 4 e e e e d e d r e e e 6 6 6 4 e 6 4 e e e r d 4 4 & 4 e d e e e 6 6 4 6 4 4 4 e e e r d e d e e e e 4 6 4 6 e 4 6 e e 6 a u 4 ",
"d e e d d d d d d d d d d d d d d d d u 6 4 & & ; w w w w w w w w w w w w w w w w & 4 e w w w w w w w w w w w w w 6 e 2 & & & & 2 e 6 w w w w w w w w w w w w e 4 = H.H.H.H.H.H.H.H.H.H.H.H.H.H.H.H.H.- & & & & 4 e w w w w w w w w w w w w 6 e : : e 6 w w w w w w w w w w w w 6 e 2 & & ; 6 r d d d d d d d d d d d d d d d e e d d d d d d d d d d d d d d d d 6 4 & 4 6 u d d d d d d d d d d d d d d d 6 u d d d d d d d d d d d d d d d u 6 4 & 4 6 d d d d d d d d d d d d d d d u 6 d d d d d d d d d d d d d d d d r 6 ",
"4 4 6 4 4 4 4 4 4 4 4 4 4 4 4 4 4 4 4 4 6 4 & & & & & & & & & & & & & & & & & & & & & & & & & & & & & & & & & & & & & & & & & & & & & & & & & & & & & & & & & & & & * * * * * * * * * * * * * * * * * & & & & & & & & & & & & & & & & & & & & & & & & & & & & & & & & & & & & & & & & & & & 6 4 4 4 4 4 4 4 4 4 4 4 4 4 4 4 4 4 6 4 4 4 4 4 4 4 4 4 4 4 4 4 4 4 4 6 4 & 4 6 4 4 4 4 4 4 4 4 4 4 4 4 4 4 4 4 6 4 4 4 4 4 4 4 4 4 4 4 4 4 4 4 4 4 6 4 & 4 6 4 4 4 4 4 4 4 4 4 4 4 4 4 4 4 4 6 4 4 4 4 4 4 4 4 4 4 4 4 4 4 4 4 4 6 ",
"6 6 4 : 4 4 6 6 6 6 6 6 6 6 6 6 6 4 6 6 6 4 & & & & & & & & & & & & & & & & & & & & & & & & & & & & & & ; & & ; & & ; & & & & & & & & & & & & & & & & & & & & & & & & & & & & & & & & = 2 & & & & & = & & & & & & & & & & & & & & & & & & & & & & & & & & & & & & & & ; & & & & & ; & & & & 6 6 6 6 6 4 4 4 6 6 6 6 6 6 6 6 6 6 4 4 4 4 6 6 6 6 6 6 6 6 6 6 4 6 6 6 4 & 4 6 6 6 6 4 4 4 4 6 6 6 6 6 6 6 6 6 4 4 2 4 6 6 6 6 6 6 6 6 6 6 6 4 6 6 6 4 & 4 6 6 6 6 4 4 4 4 6 6 6 6 6 6 6 6 6 4 4 4 4 6 6 6 6 6 6 6 6 6 6 6 4 6 6 6 ",
"4 4 p x f 6 4 6 6 6 6 6 4 4 6 4 6 e 4 4 6 4 & & & & & & 4 w 4 ; & & & & & & & & & & 4 w 4 & & & & & & & & ; & & : ; & & & & & & & & & & 4 w 4 & & & & & & & & & & 2 6 w 2 & & & & & & & & ; & & 4 & & & & & & & & & & 2 6 w 2 & & & & & & & & & & 4 w 4 ; & & & & & & & & ; & ; : & & ; & & 6 6 6 4 6 s ! s 4 4 6 6 6 6 6 6 4 4 s ! s e 4 6 6 6 6 4 2 6 4 4 e 6 4 6 4 & 4 6 6 6 4 y ! ! y 4 4 6 6 6 6 6 6 4 e ! ! s 4 4 6 6 6 6 4 4 e 4 4 r 4 4 6 4 & 4 6 6 4 4 u ) ~ e 4 6 6 6 6 6 6 4 4 r ) ) r 4 4 6 6 6 6 4 4 6 4 6 e 4 4 6 ",
"p V V V V C x 4 6 6 6 4 ( v.d r r a a r 4 4 & & & & 2 u u r u d 6 & & & & & & & 6 d u r u a 2 & & & & & ( / 4 4 4 4 w & & & & & & & 6 d u r u a 2 & & & & & & & r a r r d r & & & & & 4 @.u 4 4 w 4 4 & & & & & & & r a r r d r & & & & & & & 2 u u r u d 6 & & & ; & a @.w 4 4 4 4 4 & & & 6 6 4 ! .. . .....e 4 6 6 6 6 4 y .... . ...! 4 6 6 6 4 <.<.r r a r a 6 4 & 4 6 4 4 +.*.+.+.*.+.4 4 6 6 6 6 4 ! *.+.+.*.*.y 4 6 6 4 a v.( r r a r a 4 4 & 4 6 4 r k.} } } n.) 4 6 6 6 6 4 4 ` k.} } n.` 4 4 6 6 4 ( v.d r r a a r 4 ",
"C z & * * 8 C x 4 6 4 e c.^ / l.b.l.B.l.4 4 & & & : d 4       & d 6 & & & & & 6 d &     . 4 d : & ; & u ( r r 1.@.@.,.d & & & & & 6 d &     . 4 d : & & & & & u r .     * r u & & ; & ( d u a ,.( >.1.6 & & & & & u r .     * r u & & & & & : d 4       & d 6 & & & : @.r r ( 1.( 1.( & & & 6 4 ! .., X X & ! ..e 4 6 6 4 e ..! & X & , ..! 4 e 2 ( l.^ / b.v.v.B.>.2 & 4 6 4 +.+.: X X : +.+.4 6 6 6 4 ! *.y X X & ! *.e 4 e ; l.>./ o.B.l.c.b.d ; & 6 4 r k.) & . X i n.) 4 6 6 6 4 } } & X X & } } 4 6 4 e c.^ / l.b.l.B.l.4 ",
"m   & & & * 8 C 6 4 6 6 v.<.tXA.tXb.>.l.r 2 & & & r w o . . .   & d & & & & ; d &   . . . o e r & ; & r ( @.k.l.k.@.~ ( & & & & ; d &   . . . o e r & & & & 4 u     . .     u 4 & ; & ^ / ,.,.z.,.( ) u & & & & 4 u     . .     u 4 & & & & r w o . . .   & d & & & & @./ l.,.l.1.~ ( 2 & ; 6 e .., X & & &   X.$.4 6 6 4 $.X.X & & & X , ..6 6 4 ~ v.v.A.A.A.c.>.<.; & 4 4 ! *.& & & & X & *.Q 4 6 4 e *.< o & & & o +.+.2 e ; ,.<.A.A.tXB.<.<.( & & 6 4 } `   & & &   t k.6 4 6 4 ~ k.& & & & X & k.~ 4 6 6 v.<.tXA.tXb.>.l.r ",
"7 * & . & & * V f 4 6 4 a ,./ >./ ^ a d e 4 & & ; a &     o . .   u 4 & & & 4 u   .     .   & a & & & & u ~ u d r r w w & & & & 4 u   .     .   & a & & & & r 4   . o . .   4 r & & & ; ~ a a a r e e 4 & & & & r 4   . o . .   4 r & & & ; a &     o . .   u 4 & ; & 6 ^ u ~ u r w e ; & ; 4 s  .& . o & & & > ..6 6 4 e ..>   o X & & X  .s 4 6 4 ( >./ >.^ ~ a d 4 & 4 4 +.! X . o & & . ! +.2 e 4 ! +.X 4 4 & & X , *.6 6 4 6 1.( o.( ~ d d r 2 & 4 e k.w o o & & & X } ~ 4 e 2 } ) O   & & & . ) } 2 e 4 a ,./ >./ ^ a d e ",
"2 . 4 r X & * V x : 6 6 4 ; 2 2 2 4 4 4 6 4 & & : a & o & 4   .   r w & ; & w r   o 4 &     & a : & & & & & & & & & & & ; & & & w r   o 4 &     & a : & & & u 4     w . .   4 u & & & & & & & & & & & & & & & & u 4     w . .   4 u & & & : a & o & 4   .   r w & & & & & & & & & & & & & ; 4 !  .  u c.& & & : ..e 4 4 e ..: r tXu . & X  .! 4 6 6 2 ; 2 2 4 4 4 4 6 & 4 4 +.! o ( ,.  & X ! +.2 e 2 _ +./ IXtXo & & : *.e 4 6 4 ; 2 2 2 4 4 4 4 4 & 4 r k.& / yXr . & . } ) 2 e 4 } t 1.PX1.o & . W } 2 6 6 4 ; 2 2 2 4 4 4 6 ",
"8 o yXtXo & & V p 4 6 6 6 e 6 6 6 6 6 6 6 4 & & & a & O b.z.O . . u 4 & & & 4 u   & yXu o   & a & & & & ; ; ; ; ; ; & & & & & & 4 u   & yXu o   & a & & & & r e O ( yX. .   e r & & & & ; ; ; ; ; & & & & & & & r e O ( yX. .   e r & & & & a & O b.z.O . . u 4 & & & & ; ; ; ; ; & & & & ; 4 s ..& PXyX. & X , ..4 6 6 6 ..> yXyX2 & & & ..s 4 6 6 6 e 6 6 6 6 6 6 4 & 4 4 +.! r IXx.  &   +.+.2 e 2 ) dX4 ~ 4 & & X y *.4 6 6 6 e 6 6 6 6 6 6 6 4 & 4 6 k.w tXtX2 & & & k.u 4 e ; k.k.o.c.4 & &   ` ` 2 6 6 6 e 6 6 6 6 6 6 6 ",
"V & tXr . * z V 4 6 6 6 6 6 6 6 6 6 6 6 6 4 & & & e r . z.4 o   4 u & & & & & a 2 y k.o .   u e & & & & & & & & & & & & & & & & & a 2 y k.o .   u e & & & & 4 d   @.) O   & d 2 & & & & & & & & & & & & & & & & 4 d   @.) O   & d 2 & & & & e r . z.4 o   4 u & & & & & & & & & & & & & & ; 6 4 ....r   & & &  .X.4 6 6 2 $.2X2 o X & X ! ..4 6 6 6 6 6 6 6 6 6 6 6 4 & 4 4 y *.) d o & X , *.y 4 6 6 4 rX*.O & & & & +._ 2 6 6 6 6 6 6 6 6 6 6 6 4 & 6 ; k.yX& O X & . ) k.4 6 6 2 / PXr O & & X w n.u 4 6 6 6 6 6 6 6 6 6 6 6 ",
"8.6.o & * 8 C p 4 6 6 4 y Q Q u u Q Q y 6 4 & & & & d ^ O . . 2 d 2 & & & & & ; ( e O . . e u & & & & & 4 4 4 2 4 4 4 ; & & & & & ; ( e O . . e u & & & & & & e o.& o . & u e & & & & ; 4 4 4 2 4 4 4 & & & & ; & e o.& o . & u e & & & & & & d ^ O . . 2 d 2 & & & & 2 4 4 4 4 4 4 2 & & & e 4 s SX! X & & X.$.4 6 6 6 4 4 GX;.X & & 1 ..y 4 6 6 6 u Q Q u Q Q Q e 4 & 4 e 2 *.HX& & & : *.! 4 6 6 6 2 Q HX+.X & & +.+.4 6 6 4 e Q Q Q u Q Q u 6 4 & 4 4 4 yXA.X & & u n.r 4 6 6 e ; x.VX4 & & 2 k.) 4 6 6 4 y Q Q u u Q Q y 6 ",
"r f e 6 4 r r 4 6 6 6 4 y Q Q u u Q Q y 6 4 & & & & 4 e ; ; & 2 2 & & & & & & & 6 4 ; & ; 4 ; & & & & & 4 4 4 4 4 4 4 ; & & & & & & 6 4 ; & ; 4 ; & & & & & & & e : ; & : 4 & & & & & ; 4 4 4 4 4 4 4 & & & & & & & e : ; & : 4 & & & & & & & 4 e ; ; & 2 2 & & & & & 2 4 4 4 4 4 4 2 & & & 6 6 4 s s 6 6 6 s e 6 6 6 6 6 4 e ! 6 6 6 r e 4 6 6 6 6 u Q Q u Q Q Q e 4 & 4 6 6 4 ~ r 6 6 e s 4 6 6 6 6 6 4 a a 4 6 6 s e 4 6 6 4 e Q Q Q u Q Q u 6 4 & 4 6 4 e ^ 4 6 4 r r 4 6 6 6 6 6 4 ^ e 6 6 e u 4 6 6 6 4 y Q Q u u Q Q y 6 ",
"; 4 2 2 4 : 2 2 6 6 6 4 y Q Q u u Q Q y 6 4 & & & & & & & & & & & & & & & & & & & & & & & & & & & & & & 4 4 4 4 4 4 4 ; & & & & & & & & & & & & & & & & & & & & & & & & & & & & & & & ; 4 4 4 4 4 4 4 & & & & & & & & & & & & & & & & & & & & & & & & & & & & & & & & 2 4 4 4 4 4 4 2 & & & 6 6 : 2 4 2 4 2 2 2 4 6 6 6 6 4 2 4 2 2 4 2 2 2 6 6 6 6 u Q Q u Q Q Q e 4 & 4 6 4 ; 2 4 ; 2 2 2 ; 4 6 6 6 6 2 2 4 ; 4 2 2 2 4 6 6 4 e Q Q Q u Q Q u 6 4 & 4 6 6 2 ; e 4 4 2 ; 6 6 6 6 6 4 2 2 4 ; 4 ; 4 2 6 6 6 4 y Q Q u u Q Q y 6 ",
"o.2 ( ( ^ ( ^ o.4 6 6 4 y Q Q a a Q Q y 6 4 & & & u a & u u r u r a & & & & & ~ e & ~ w ~ w ~ e & & & & 4 4 4 4 4 4 4 ; & & & & & ~ e & ~ w ~ w ~ e & & & & 4 ~ & 4 ~ 4 ~ 4 ~ ; & & & ; 4 4 4 4 4 4 4 & & & & & 4 ~ & 4 ~ 4 ~ 4 ~ ; & & & & u a & u u r u r a & & & & 2 4 4 4 4 4 4 2 & & ; 6 4 >.d 4 o.d >.d >.d 4 6 6 4 / o.; ( ( ^ ( ^ o.4 6 6 6 a Q Q u Q Q Q e 4 & 4 4 u 1.6 ~ <.( >.a 1.e 4 6 6 4 >.d 4 >.d >.d ( r 4 6 4 e Q Q Q u Q Q a 6 4 & 4 6 4 ~ ^ 2 ^ d ^ o.4 6 6 6 4 u 1.6 u >.a >.u ( 4 6 6 4 y Q Q a a Q Q y 6 ",
"v.d l.c.b.c.b.v.a 4 6 4 y E E E E E E y 6 4 & & : @.@.w ( >.1.@.1.@.4 & ; & r >.^ r @.,.( ,.@.( & & & & 4 4 4 4 4 4 4 ; & & & & r >.^ r @.,.( ,.@.( & & ; & ^ >.u ~ @.<.( <.@.a & ; & ; 4 4 4 4 4 4 4 & & & & & ^ >.u ~ @.<.( <.@.a & ; & : @.@.w ( >.1.@.1.@.4 & & & : 4 4 4 4 4 4 : & & ; 4 / c.<.r tXB.l.A.v.l.4 6 4 r v.v.d l.c.b.c.b.v.a 4 6 6 E E E E E E E w 4 & 4 2 ,.c.o.4 v.A.l.A.v.o.2 e 2 / c.,.~ v.B.v.<.B.^ 2 6 4 w E E E E E E E 6 4 & 4 6 ; <.l.. <.v.<.c.a 4 6 6 2 ,.c./ >.v.A.l.<.b.4 6 6 4 y E E E E E E y 6 ",
"<.>.,.v.c.l.b.<.~ 4 6 w x Y Y Y Y Y Y x w 4 & & 4 ( ( ~ ^ @.>.( 1./ r & ; & a / ( ~ ~ l.~ l.^ ( & & & & 7 7 7 7 7 7 7 2 & & & & a / ( ~ ~ l.~ l.^ ( & & ; & / / ~ ~ ~ l.a z.~ ^ & ; & 2 7 7 7 7 7 7 7 & & & & & / / ~ ~ ~ l.a z.~ ^ & ; & 4 ( ( ~ ^ @.>.( 1./ r & ; & 2 7 7 7 7 7 7 2 & & ; 2 ( <.l.^ B.tXo.tX,.l.4 6 4 u <.<.>.,.v.c.l.b.<.~ 4 6 6 Y Y Y Y Y Y Y q 4 & 4 4 <.,.<.4 l.<.1.tX>.,.; e 2 o.<.<.>.>.tX<.,.,./ 2 6 4 q Y Y Y Y Y Y Y 6 4 & 4 6 2 ~ <.2 ~ v.1.l.~ 4 6 6 2 <.<.1.1.1.tX>.1.<.e 4 6 w x Y Y Y Y Y Y x w ",
"l.( <.<.,.<.,.l.4 6 6 4 H j.j.j.j.j.j.H 4 4 & & & ^ ( u / ( ^ ( ^ ( & & & & : @.^ u @.~ ( ~ @.a & ; & & 7 7 7 7 7 7 7 2 & & & & : @.^ u @.~ ( ~ @.a & ; ; & r @.d a @.a @.a >.4 & & & 2 7 7 7 7 7 7 7 & & & & & r @.d a @.a @.a >.4 & & & & ^ ( u / ( ^ ( ^ ( & & & & 2 7 7 7 7 7 7 2 & & ; 4 e v.1.>.l.1.v.>.v.o.4 6 6 4 ,.l.( <.<.,.<.,.l.4 6 4 6 9.j.j.9.j.j.j.f 4 & 4 4 ^ c.>.( ( d c.o.c.a 4 6 4 e v.,.( v.>.v.( / d 4 6 4 f j.j.j.9.j.j.9.e 2 & 4 6 4 d o./ d ( >.l.4 6 6 6 4 ^ c.>.o.v.o.c.a >.6 6 6 4 H j.j.j.j.j.j.H 4 ",
"4 4 4 4 4 4 4 4 4 6 e 2 >XMXcXlXlXcXMX>X2 4 & & & & & & & & & & & & & & & & & & & & & & & & & & & & & & 4 4 4 4 4 4 4 ; & & & & & & & & & & & & & & & & & & & & & & & & & & & & & & & ; 4 4 4 4 4 4 4 & & & & & & & & & & & & & & & & & & & & & & & & & & & & & & & & : 4 4 4 4 4 4 : & & & 6 4 4 4 4 4 4 4 4 4 4 6 6 6 6 4 4 4 4 4 4 4 4 4 4 6 4 e lXcXcX9XcXcXcX_ 2 & 4 6 4 4 4 4 4 4 4 4 4 4 6 6 6 4 4 4 4 4 4 4 4 4 4 6 e 2 _ cXcXcX9XcXcXlXe 2 & 4 6 6 4 4 4 4 4 4 4 4 6 6 6 6 4 4 4 4 4 4 4 4 4 6 6 e 2 >XMXcXlXlXcXMX>X2 ",
"6 6 6 6 6 6 6 6 6 6 e 2 :XcXzXdXdXzXcX:X2 4 & & & & ; & & ; ; ; ; ; & & & & & ; & & & ; & ; ; & & & & & 4 4 4 4 4 4 4 ; & & & & & ; & & & ; & ; ; & & & & & & ; & & & ; & ; ; & & & & ; 4 4 4 4 4 4 4 & & & & & & ; & & & ; & ; ; & & & & & & ; & & ; ; ; ; ; & & & & 2 4 4 4 4 4 4 2 & & & 6 6 6 6 6 6 6 6 6 6 6 6 6 6 6 6 6 6 6 6 6 6 6 6 6 6 4 e dXzXzXuXzXzXzX_ 2 & 4 6 6 6 6 6 6 6 6 6 6 6 6 6 6 6 6 6 6 6 6 6 6 6 6 6 e 2 _ zXzXzXuXzXzXdXe 2 & 4 6 6 6 6 6 6 6 6 6 6 6 6 6 6 6 6 6 6 6 6 6 6 6 6 6 e 2 :XcXzXdXdXzXcX:X2 ",
"6 6 6 6 6 6 6 6 6 6 e 2 :XcXzXdXdXzXcX:X2 4 & & & & & & & & & & & & & & & & & & & & & & & & & & & & & & 4 4 4 4 4 4 4 ; & & & & & & & & & & & & & & & & & & & & & & & & & & & & & & & ; 4 4 4 4 4 4 4 & & & & & & & & & & & & & & & & & & & & & & & & & & & & & & & & 2 4 4 4 4 4 4 2 & & & 6 6 6 6 6 6 6 6 6 6 6 6 6 6 6 6 6 6 6 6 6 6 6 6 6 6 4 e dXzXzXdXzXzXzX_ 2 & 4 6 6 6 6 6 6 6 6 6 6 6 6 6 6 6 6 6 6 6 6 6 6 6 6 6 e 2 _ zXzXzXdXzXzXdXe 2 & 4 6 6 6 6 6 6 6 6 6 6 6 6 6 6 6 6 6 6 6 6 6 6 6 6 6 e 2 :XcXzXdXdXzXcX:X2 ",
"6 4 : : : 4 6 6 6 6 e 2 :XcXzXdXdXzXcX:X2 4 & & & & & & & & & & & & & & & & & & & & & & & & & & & & & & 4 4 4 4 4 4 4 ; & & & & & & & & & & & & & & & & & & & & & & & & & & & & & & & ; 4 4 4 4 4 4 4 & & & & & & & & & & & & & & & & & & & & & & & & & & & & & & & & 2 4 4 4 4 4 4 2 & & & 6 6 6 6 4 4 4 4 4 6 6 6 6 6 6 6 6 4 4 4 4 4 6 6 6 6 4 e dXzXzXdXzXzXzX_ 2 & 4 6 4 6 4 2 2 2 2 4 6 6 6 6 6 6 6 6 4 2 2 2 4 6 6 6 e 2 _ zXzXzXdXzXzXdXe 2 & 4 6 6 6 4 2 2 2 4 6 6 6 6 6 6 6 6 4 2 2 2 2 4 6 6 6 e 2 :XcXzXdXdXzXcX:X2 ",
"4 p m V b x 4 4 6 6 e 2 :XcXzXdXdXzXcX:X2 4 & & & & & 2 r u r 4 & & & & & & & & & 4 r u r 4 & & & & & & 4 4 4 4 4 4 4 ; & & & & & & & 4 r u r 4 & & & & & & & & ; e u u e ; & & & & & ; 4 4 4 4 4 4 4 & & & & & & & ; e u u e ; & & & & & & & & 2 r u r 4 & & & & & & 2 4 4 4 4 4 4 2 & & & 6 6 4 4 s $.$.$.s 4 6 6 6 6 6 6 4 y $.$.$.s 4 4 6 6 4 e dXzXzXdXzXzXzX_ 2 & 4 6 6 4 e _ +.+._ e 4 6 6 6 6 6 4 4 ! +.+.+.y 4 6 6 e 2 _ zXzXzXdXzXzXdXe 2 & 4 6 6 4 u ` } } ~ 4 4 6 6 6 6 6 4 e ) } } ) e 4 6 6 e 2 :XcXzXdXdXzXcX:X2 ",
"m C m z m C b 4 6 6 e 2 :XcXzXdXdXzXcX:X2 4 & & & & w d w 4 4 u u & & & & & & & u u 4 4 e d w & & & & & 4 4 4 4 4 4 4 ; & & & & & & u u 4 4 e d w & & & & & & 2 d r 4 4 r d 2 & & & & ; 4 4 4 4 4 4 4 & & & & & & 2 d r 4 4 r d 2 & & & & & & w d w 4 4 u u & & & & & 2 4 4 4 4 4 4 2 & & & 6 4 4 $...! 1 X...! 4 6 6 6 6 4 ! ..X.1 T ..$.4 6 6 4 e dXzXzXdXzXzXzX_ 2 & 4 6 4 y *.+.! ! +.*.y 4 6 6 6 6 4 +.*.! ! +.*.! 4 6 e 2 _ zXzXzXdXzXzXdXe 2 & 4 6 4 ) n.` W ) k.} 4 4 6 6 6 4 u k.} W W } k.u 4 6 e 2 :XcXzXdXdXzXcX:X2 ",
"C 7 * * * * V n : 6 e 2 :XcXzXdXdXzXcX:X2 4 & & & 4 d &         r r & & & & & r r         & d 4 & & & & 4 4 4 4 4 4 4 ; & & & & & r r         & d 4 & & & & ; d 4         4 d & & & & ; 4 4 4 4 4 4 4 & & & & & ; d 4         4 d & & & & & 4 d &         r r & & & & 2 4 4 4 4 4 4 2 & & & 6 4 $. .& X X X > ..s 4 6 6 4 s ..> X X X &  .$.4 6 4 e dXzXzXdXzXzXzX_ 2 & 4 6 e *.!   X X   ! *.6 4 6 6 4 +.+.& . X   , *.Q 4 e 2 _ zXzXzXdXzXzXdXe 2 & 6 4 ~ n.w   . . & } ` 4 6 6 4 e k.W . . .   W k.6 4 e 2 :XcXzXdXdXzXcX:X2 ",
"z . & & & * = C r 4 e 2 :XcXzXdXdXzXcX:X2 4 & & & u 4 o . . .   * a : & & & 2 a *   . . . o 4 u & & & & 4 4 4 4 4 4 4 ; & & & & 2 a *   . . . o 4 u & & & & e r   . . . .   r e & & & ; 4 4 4 4 4 4 4 & & & & & e r   . . . .   r e & & & & u 4 o . . .   * a : & & & 2 4 4 4 4 4 4 2 & & ; 4 y ..: X & & & X 1 $.4 6 6 4 ..1 X & & & & : ..e 4 4 e dXcXzXdXzXzXzX_ 2 & 4 4 _ +.. & & & & . +.! 2 6 4 y *.: X & & &   ! +.4 e 2 _ zXzXzXdXzXzXdXe 2 & 6 4 } W   & & & X & k.r 4 6 2 ) } . & & & &   } ) 2 e 2 :XcXzXdXdXzXcX:X2 ",
"2 & . o & & * V x : e 2 :XcXzXdXdXzXcX:X2 4 & & ; a & . o o . .   r 6 & ; & w r   . o o .   & a ; & & & 4 4 4 4 4 4 4 ; & & & & w r   . o o .   & a ; & & & u 4   . O   .   4 u & & & ; 4 4 4 4 4 4 4 & & & & & u 4   . O   .   4 u & & & ; a & . o o . .   r 6 & & & 2 4 4 4 4 4 4 2 & & ; 4 !  .X & o . & & : ..e 4 4 e ..: & . o & & X  .! 4 6 e dXzXzXuXzXzXzX_ 2 & 4 4 +.! X & o & & X ! +.2 e 2 ! +.X & o . & & : *.e 6 2 _ zXzXzXdXzXzXdXe 2 & 4 e k.4 & . o & & X } ) 4 e 2 } ) O w w X & . W } 2 e 2 :XcXzXdXdXzXcX:X2 ",
"2 o / ,.  & * V x : e 2 :XcXzXdXdXzXcX:X2 4 & & ; a & O u ) o .   r w & ; & 6 r   o ( w o . & a ; & & & 4 4 4 4 4 4 4 ; & & & & 6 r   o ( w o . & a ; & & & u 4 o & @.* .   4 u & & & ; 4 4 4 4 4 4 4 & & & & & u 4 o & @.* .   4 u & & & ; a & O u ) o .   r w & & & 2 4 4 4 4 4 4 2 & & ; 4 !  .&   l.~ . & : ..e 4 4 e ..: o / ,.  & X  .! 4 6 6 Q Q u &.zXzXzX_ 2 & 4 4 +.!   4 x.& & X ! +.2 e 4 ! +.X   l.~ . & : *.e 6 2 _ zXzXzXdXzXzXdXe 2 & 4 e k.4 o / ,.  & X } ) 4 e 2 } t l.IX,.o & . W } 2 e 2 :XcXzXdXdXzXcX:X2 ",
"z   PXB.o * = C p 4 e 2 :XcXcXdXdXcXcX:X2 4 & & & u 4 o tX,.O . * a 2 & & & 2 d   w yXw o   4 u & & & & 4 4 4 4 4 4 4 ; & & & & 2 d   w yXw o   4 u & & & & e u O k.tXo .   r e & & & ; 4 4 4 4 4 4 4 & & & & & e u O k.tXo .   r e & & & & u 4 o tX,.O . * a 2 & & & 2 4 4 4 4 4 4 2 & & ; 4 y ..* ~ IXd . X 1 ..4 6 6 4 ..1 o PXB.o & : ..y 4 6 6 u Q y &.cXcXcX_ 2 & 4 4 _ +.O A.PX. & . +._ 2 6 4 y *.* d IXd . X ! *.4 e 2 _ zXzXzXdXzXzXdXe 2 & 6 4 k.W o PXB.o & & k.r 4 e 2 } b.a / & & &   } ) 2 e 2 :XcXzXdXdXzXcX:X2 ",
"P p @.& & & V n : 6 e 2 *.uXuX>X>XuXuX*.2 4 & & & 4 d 2 ~ .   . r r & & & & & r r w u o . & d 4 & & & & 4 4 4 4 4 4 4 ; & & & & & r r w u o . & d 4 & & & & ; d 4 u 4 o   4 d & & & & ; 4 4 4 4 4 4 4 & & & & & ; d 4 u 4 o   4 d & & & & & 4 d 2 ~ .   . r r & & & & 2 4 4 4 4 4 4 2 & & & 6 4 $. .a (   & > ..s 4 6 6 4 s ..s >.& X &  .$.4 6 6 6 u Q u _ uXuXuXQ 2 & 4 6 e *.! ( u   & ! *.6 4 6 6 4 +.+.a (   & , *.Q 4 e 2 _ zXzXzXdXzXcXdXe 2 & 6 4 ~ n.u >.& X & } ` 4 6 6 4 r VXk.O & & X W k.6 4 e 2 :XcXzXdXdXzXcX:X2 ",
"n e.  2 ; f V 4 6 6 6 4 e y r e e r y e 6 4 & & & & u / o & * 4 u & & & & & & & / r o & & r e & & & & & 4 4 4 4 4 4 4 ; & & & & & & / r o & & r e & & & & & & 4 o.&   & & u 4 & & & & ; 4 4 4 4 4 4 4 & & & & & & 4 o.&   & & u 4 & & & & & & u / o & * 4 u & & & & & 2 4 4 4 4 4 4 2 & & & 6 6 4 ;.$.o 2 = $.! 4 6 6 6 6 2 $.;.  ; = s $.4 6 6 6 6 u Q Q y e y y e 4 & 4 e 4 s rX4 & 2 4 +.y 4 6 6 6 6 4 V.+.o 2 = +._ 4 6 e 2 _ zXzXzXuXzXzXdXe 2 & 4 6 2 1.b.  2 & R } 4 6 6 6 6 2 / yXr & ; 4 } u 4 6 e 2 :XcXzXdXdXzXcX:X2 ",
"4 6 e e e 6 4 6 6 6 6 4 y Q Q Q Q Q Q y 6 4 & & & & & & : ; ; ; & & & & & & & & & ; : ; ; ; & ; & & & & 4 4 4 4 4 4 4 ; & & & & & & & ; : ; ; ; & & & & & & & & & ; : ; ; & & ; & & & ; 4 4 4 4 4 4 4 & & & & & & & & : : ; ; & & & & & & & & & ; : ; ; ; & & & & & & 2 4 4 4 4 4 4 2 & & & 6 6 6 6 6 e e e 6 4 6 6 6 6 6 6 4 6 e e e 6 4 6 6 6 6 6 u Q Q u Q Q Q e 4 & 4 6 6 4 6 e e e e 6 4 6 6 6 6 6 6 4 6 e e e 6 4 6 6 6 4 e Q Q Q Q Q Q Q 6 4 & 4 6 6 4 6 e e e e 4 6 6 6 6 6 6 4 4 6 6 6 e 6 4 6 6 e 2 :XcXzXdXdXzXcX:X2 ",
"4 4 4 4 4 4 4 4 4 6 6 4 y Q Q u u Q Q y 6 4 & & & & & & & & & & & & & & & & & & & & & & & & & & & & & & 4 4 4 4 4 4 4 ; & & & & & & & & & & & & & & & & & & & & & & & & & & & & & & & ; 4 4 4 4 4 4 4 & & & & & & & & & & & & & & & & & & & & & & & & & & & & & & & & 2 4 4 4 4 4 4 2 & & & 6 4 4 4 4 4 4 4 4 4 4 6 6 6 6 4 4 4 4 4 4 4 4 4 4 6 6 6 u Q Q u Q Q Q e 4 & 4 6 4 4 4 4 4 4 4 4 4 4 6 6 6 4 4 4 4 4 4 4 4 4 4 6 6 4 e Q Q Q u Q Q u 6 4 & 4 6 4 4 4 4 4 4 4 4 4 4 6 6 6 6 4 2 6 4 4 2 4 4 6 6 e 2 :XcXzXdXdXzXcX:X2 ",
"b.r ^ c.o.v.o.c.u 4 6 4 y Q Q u u Q Q y 6 4 & & & / ( & / ( ^ ( ^ ( & & & & & / ( & / ( ^ ( ^ ( & & & & 4 4 4 4 4 4 4 ; & & & & : >.a & @.~ @.~ @.a & ; & & : >.a & @.~ @.~ @.a & ; & ; 4 4 4 4 4 4 4 & & & & & r 1.4 r @.a @.a >.4 & & ; & r 1.4 r @.a @.a >.4 & & & 2 4 4 4 4 4 4 2 & & ; 4 e c.( 6 c.>.v.>.v.o.4 6 6 4 <.l.2 <.<.,.<.,.l.4 6 6 6 u Q Q u Q Q Q e 4 & 4 4 ^ b.r ^ c.o.v.o.c.u 4 6 4 e c.( 6 c.>.v.>.v.o.4 6 4 e Q Q Q u Q Q u 6 4 & 6 4 <.l.2 <.<.,.<.,.l.4 6 6 6 4 d v.2 ^ l.>.c.u 4 6 e 2 :XcXzXdXdXzXcX:X2 ",
"<.o.>.1.tXo.tX>.1.; e 4 y Q Q u u Q Q y 6 4 & & 4 ( / u ^ @.1.( 1.^ r & & & 4 ( / u ^ @.1.( 1.^ r & & & 4 4 4 4 4 4 4 ; & & & & a / ^ u ~ l.~ l./ ( & & ; & a / ^ u ~ l.~ l./ ( & & & ; 4 4 4 4 4 4 4 & & & & & / / a ~ ~ z.a z.~ ~ & ; ; & / / a ~ ~ z.a z.~ ~ & ; & 2 4 4 4 4 4 4 2 & & ; 2 o.<.,.( 1.tX>.tX,.l.4 6 4 u l.<./ ,.v.b.l.b.,.~ 4 6 6 u Q Q u Q Q Q e 4 & 4 4 <.<.o.>.1.tXo.tX>.1.; e 2 o.<.,.( 1.tX>.tX,.l.4 6 4 e Q Q Q u Q Q u 6 4 & 4 u l.<./ ,.v.b.l.b.,.~ 4 6 6 4 r b.4 6 c.A.>.1.; e e 2 :XcXzXdXdXzXcX:X2 ",
"c.<.,.v.A.l.A.v.>.2 e 4 y Q Q u u Q Q y 6 4 & & : ( @.~ ( >.1.@.1.@.6 & & & : ( @.~ ( >.1.@.1.@.6 & & & 4 4 4 4 4 4 4 ; & & & & r @.( ~ ( ,.( ,.@.( & & ; & r @.( ~ ( ,.( ,.@.( & ; & ; 4 4 4 4 4 4 4 & & & & & ~ @./ / @.<.( <.@.~ & ; ; & ~ @./ / @.<.( <.@.~ & ; & 2 4 4 4 4 4 4 2 & & ; 4 ^ c.l.>.l.A.l.B.v.l.4 6 4 e l.c.>.l.c.b.c.b.v.a 4 6 6 u Q Q u Q Q Q e 4 & 4 4 1.c.<.,.v.A.l.A.v.>.2 e 2 ^ c.l.>.l.A.l.B.v.l.4 6 4 e Q Q Q u Q Q u 6 4 & 4 e l.c.>.l.c.b.c.b.v.a 4 6 6 6 4 l.d ~ v.A.v.>.2 6 e 2 :XcXzXdXdXzXcX:X2 ",
">.~ ~ >.a >.a 1.e 4 6 4 y Q Q u u Q Q y 6 4 & & & u a e u u r u r a & & & & & u a e u u r u r a & & & & 4 4 4 4 4 4 4 ; & & & & & ~ u w ~ w ~ w ~ e & & & & & ~ u w ~ w ~ w ~ e & & & ; 4 4 4 4 4 4 4 & & & & & 4 ~ e e ~ 4 ~ 4 ~ ; & & & & 4 ~ e e ~ 4 ~ 4 ~ ; & & & 2 4 4 4 4 4 4 2 & & ; 6 4 >./ d >.d >.d >.d 4 6 6 4 / o.d ( ( ^ ( ^ o.4 6 6 6 u Q Q u Q Q Q e 4 & 4 4 u >.~ ~ >.a >.a 1.e 4 6 6 4 >./ d >.d >.d >.d 4 6 4 e Q Q Q u Q Q u 6 4 & 6 4 / o.d ( ( ^ ( ^ o.4 6 6 6 6 6 d d ( o.a 1.e 4 6 e 2 :XcXzXdXdXzXcX:X2 ",
"; 4 4 2 4 ; 4 ; 4 6 6 4 y Q Q u u Q Q y 6 4 & & & & & & & & & & & & & & & & & & & & & & & & & & & & & & 4 4 4 4 4 4 4 ; & & & & & & & & & & & & & & & & & & & & & & & & & & & & & & & ; 4 4 4 4 4 4 4 & & & & & & & & & & & & & & & & & & & & & & & & & & & & & & & & 2 4 4 4 4 4 4 2 & & & 6 6 2 2 4 2 4 2 4 2 4 6 6 6 6 2 2 4 2 2 4 2 4 2 6 6 6 6 u Q Q u Q Q Q e 4 & 4 6 4 ; 4 4 2 4 ; 4 ; 4 6 6 6 6 2 2 4 2 4 2 4 2 4 6 6 4 e Q Q Q u Q Q u 6 4 & 4 6 2 2 4 2 2 4 2 4 2 6 6 6 6 6 6 4 4 2 2 4 ; 4 6 6 e 2 :XcXzXdXdXzXcX:X2 ",
"6 6 6 e 6 6 6 e 6 6 6 4 y Q Q u u Q Q y 6 4 & & & ; ; & ; ; ; ; ; ; & & & & & ; ; & ; ; ; ; ; ; & & & & 4 4 4 4 4 4 4 ; & & & & & ; ; & ; & ; & ; & & & & & & ; ; & ; ; ; & ; & & & & ; 4 4 4 4 4 4 4 & & & & & & ; & & ; & ; & ; & & & & & & ; & ; ; ; ; & ; & & & & 2 4 4 4 4 4 4 2 & & & 6 6 6 6 6 e 6 6 6 6 6 6 6 6 6 6 6 6 6 6 6 6 6 6 6 6 6 6 u Q Q u Q Q Q e 4 & 4 6 6 6 6 6 e 6 e 6 e 6 6 6 6 6 6 6 6 e 6 6 6 6 6 6 6 4 e Q Q Q u Q Q u 6 4 & 4 6 6 6 6 6 6 6 6 6 6 6 6 6 6 6 6 6 6 6 e 6 e 6 6 6 e 2 :XcXzXdXdXzXcX:X2 ",
"6 6 6 4 4 6 6 6 6 6 6 4 y Q Q u u Q Q y 6 4 & & & & & & & & & & & & & & & & & & & ; & & & ; & & & & & & 4 4 4 4 4 4 4 ; & & & & & & & & & & & & & & & & & & & & ; & & & & ; & & & & & ; 4 4 4 4 4 4 4 & & & & & & & & & & & & & & & & & & & & & ; & & & & & & & & & & 2 4 4 4 4 4 4 2 & & & 6 6 6 6 6 4 4 6 6 6 6 6 6 6 6 6 6 e 6 4 4 6 6 6 6 6 6 6 u Q Q u Q Q Q e 4 & 4 6 6 6 6 6 4 4 6 6 6 6 6 6 6 6 6 6 6 4 4 6 6 6 6 6 6 4 e Q Q Q u Q Q u 6 4 & 4 6 6 6 6 6 4 4 6 6 6 6 6 6 6 6 6 6 6 4 4 6 6 6 6 6 e 2 :XcXzXdXdXzXcX:X2 ",
"6 : 4 p e : 4 6 6 6 6 4 y Q Q u u Q Q y 6 4 & & & & & & & : ; & & & & & & & & ; & & ; 4 & & & & & & & & 4 4 4 4 4 4 4 ; & & & & & & & & & : & & & & & & & & & ; & & 2 2 & & ; & & & & ; 4 4 4 4 4 4 4 & & & & & & & & & ; ; & & & & & & & & & & & & 4 : & & & & & & & 2 4 4 4 4 4 4 2 & & & 6 4 6 4 4 6 e 4 4 6 6 6 6 6 6 6 6 = 4 e 6 4 4 6 6 6 6 6 u Q Q u Q Q Q e 4 & 4 6 6 6 4 4 e e 4 4 6 6 6 6 6 6 6 4 2 e e 4 2 6 6 6 6 4 e Q Q Q u Q Q u 6 4 & 4 6 6 6 2 4 r e 2 4 6 6 6 6 6 6 6 4 4 e e 4 4 6 6 6 e 2 :XcXzXdXdXzXcX:X2 ",
"4 9..X.X.X'.p : 6 6 6 4 y Q Q u u Q Q y 6 4 & & & & & e a a a u : & & & & & ; & 4 >.<.<.<./ & & & & & & 4 4 4 4 4 4 4 ; & & & & & & ; u a a a e & & & & & & & & u 1.<.<.,.u & & & & & ; 4 4 4 4 4 4 4 & & & & & & & 4 u a a u 4 & & & & & & & & ^ ,.<.<.d ; & & & & & 2 4 4 4 4 4 4 2 & & & 6 6 4 e $.......$.4 4 6 6 6 6 4 4 *.......$.e 4 6 6 6 6 u Q Q u Q Q Q e 4 & 4 6 6 2 Q *.*.*.*.Q 4 6 6 6 6 6 4 e +.*.*.*._ 4 4 6 6 4 e Q Q Q u Q Q u 6 4 & 4 6 4 4 ` k.k.k.} r 4 6 6 6 6 6 4 ~ } k.k.k.~ 4 6 6 e 2 :XcXzXdXdXzXcX:X2 ",
"}.}.x 5 p i..Xf 4 6 6 4 y Q Q u u Q Q y 6 4 & & & ; d r & & & e d 2 & & & & & 6 l.( 2 & e ,.>.& & & & & 4 4 4 4 4 4 4 ; & & & ; & 4 ~ 4 & & & u u & & & & ; & ~ l.u & ; d l.~ & ; & & ; 4 4 4 4 4 4 4 & & & & & & r a & & & 4 d e & & & & & & >.1.6 & 2 e d 2 & & & & 2 4 4 4 4 4 4 2 & & & e 4 s ..1 > : ,  .$.4 6 6 6 6 4 2XGX, ; > X...y 4 6 6 6 u Q Q u Q Q Q e 4 & 4 e 4 +.*.< : : ! *.! 4 6 6 6 4 y *.+., : y +.+.4 6 6 4 e Q Q Q u Q Q u 6 4 & 4 4 6 k.` w 4 w ` n.u 4 6 6 6 2 ) n.R 4 4 W n.) 4 6 e 2 :XcXzXdXdXzXcX:X2 ",
".X    * . O 9..X: 6 6 4 y Q Q u u Q Q y 6 4 & ; & / >.w : O . o 4 u & & & & & ,.~ O         ,.^ & ; & & 4 4 4 4 4 4 4 ; & & & & & ,.a w         u e & & & & w l.2 O   O O 4 <.4 & & & ; 4 4 4 4 4 4 4 & & & & & e <.4 w O . o & d 2 & & ; & ^ ,.  O 4 b.. 4 a & & & & 2 4 4 4 4 4 4 2 & & ; 6 4 GX..d & . X X ..X.4 6 e = *.GXO A.x.O X T ..4 6 6 6 u Q Q u Q Q Q e 4 & 4 4 ~ HXQ d o &   , *.y 4 6 6 4 *.! O o & X X *._ 2 6 4 e Q Q Q u Q Q u 6 4 & 6 ; b.tXu e o & o ) k.4 6 6 4 ~ eXw o o &   w n.u 4 e 2 :XcXzXdXdXzXcX:X2 ",
"m   & & & & & .Xm : 6 4 y Q Q u u Q Q y 6 4 & & & <.2 ) yXw   . . u 4 & ; & r <.. . .   O O w ,.& & & & 4 4 4 4 4 4 4 ; & & & & r <.  b.rX  .   & u & & ; & ( ( O *   e tX) 2 r & & & ; 4 4 4 4 4 4 4 & & & & & ( / & yX@.o X   e r & & & & <.w   O @.b.O . u 4 & & & 2 4 4 4 4 4 4 2 & & ; 2 $.SX. yXHX& & X , ..4 6 6 4 SX! O c.HX  & & ..s 4 6 6 u Q Q u Q Q Q e 4 & 4 = V.V.2 IXc.  &   +.+.2 e 2 O.rXu yX1.& & X y *.4 6 4 e Q Q Q u Q Q u 6 4 & 4 4 yX~ <.IXa . & & k.u 4 e & A.b.@.PX^ . &   ` ` 2 e 2 :XcXzXdXdXzXcX:X2 ",
"5 * & & X &   }.:.: 6 4 y Q Q u u Q Q y 6 4 & & 4 <.& O ( w o .   r w & ; & ~ >.o .   & k.) & <.4 & & & 4 4 4 4 4 4 4 ; & & & & d >.o & ` .     & a : & ; & >.a o . o ) z.& 2 u & & & ; 4 4 4 4 4 4 4 & & & & & >.d O u ) o .   4 u & ; & 4 <.&     & &     r w & & & 2 4 4 4 4 4 4 2 & & ; - +.3Xo 4 x.& & & : ..e 4 4 y SX, X ; e & & X  .! 4 6 6 u Q Q u Q Q Q e 4 & 4 = rX&.O / ,.  & X ! +.2 e = *.rXX B.tX. & & : *.e 4 4 e Q Q Q u Q Q u 6 4 & 4 u yXe o l.d . & . } ) 2 e ; yX<.. B.,.  & . W } 2 e 2 :XcXzXdXdXzXcX:X2 ",
"p *   ( yX& . }.:.: 6 4 y Q Q u u Q Q y 6 4 & & : <.2   o   . .   u 4 & ; & u 1.  .   & k.b.: >.: & & & 4 4 4 2 4 4 4 ; & & & & u 1.    O   .   & a ; & ; & >.~ o . . o O o 4 r & & & ; 4 4 4 2 4 4 4 & & & & & @.~ o   o . .   4 r & & & ; <.2   .     .   u 4 & & & 2 4 4 4 4 4 4 2 & & ; 2 $.3XX & o & & & > ..e 6 4 e SX1 X & X & & X  .s 4 6 6 u Q Q u Q Q Q e 4 & 4 = rX*.o . o & & . ! +.2 e 2 #.rX  o   & & X , *.e 4 4 e Q Q Q u Q Q u 6 4 & 4 e yXu . o . & & X } ~ 4 e & tXx.O o   & & . ) } 2 e 2 :XcXzXdXdXzXcX:X2 ",
"'.O & 2 PXQ 8 .Xe 4 6 4 y Q Q Q Q Q Q y 6 4 & ; & >.( O . . .   & d ; & & & : l.e o .   O O w r & & & & 4 4 4 4 4 4 4 ; & & & & : l.w o * . . o e r & & ; & a <..   . . . . u 4 & & & ; 4 4 4 4 4 4 4 & & & & & a <.    . .     u 4 & & ; & >.( O . . .   & d ; & & & 2 4 4 4 4 4 4 2 & & ; 4 e SX! o ; & & X X.$.4 6 6 = ;.;.o & & & X , ..e 4 6 6 Q Q Q u Q Q Q e 4 & 4 2 #.HX& & & & & & *.! 4 6 4 r HX! o & & & o _ +.2 6 4 e Q Q Q u Q Q Q 6 4 & 6 ; tXA.O & & & . i k.e 4 e ; 1.VX& & & & & & k.~ 4 e 2 :XLXcXzXzXcXLX:X2 ",
".X3.. X : f .X:.: 6 6 4 e e e e e e e e 6 4 & & & 4 l.d   .   & d 6 & & & ; & d l.2   . . 4 d : & & & & ; : ; ; ; ; ; & & & & ; & d l.2   .   4 d : & & & & & >.1..   . . r u & & & & & ; ; ; ; ; : ; & & & & ; & >.1..   . . r u & & & & & 4 l.d   .   & d 6 & & & & ; : ; ; ; ; : ; & & & e = +.SXs X & X 1 ..e 4 6 6 4 s SX..X & & > ..! 4 6 6 6 e e e e e r e e 4 & 4 e 2 rXrX& & & & +.+.4 6 6 e 2 &.HXs X & X ! *.e 4 6 6 6 e e e e e e e 6 4 & 6 4 a PXl.  & X w n.) 4 6 6 6 2 yXyX& & & & } } 4 6 6 4 ! &.` _ _ ` &.! 4 ",
"m 3.: 4 & m :.: 6 6 6 6 4 e y e e 4 y 6 6 4 & & ; & r ~ & & & 4 w & & & & & & & ~ r & & & e 4 & & & & & & & & & & & & & & & & & & & ~ r & & & e 4 & & & & & & : ^ : & & ; e & & & & & & & & & & & & & & & & & & & : ^ : & & ; e & & & & & ; & r ~ & & & 4 w & & & & & & & & & & & & & & & & 6 6 2 +.$.2 4 4 ! s 4 6 6 6 6 2 ! ..2 4 2 s ! 4 6 6 6 6 4 e e e e 4 e 6 4 & 4 6 4 e *.r 4 4 e _ 6 4 6 6 6 6 2 *.) 2 4 4 ! s 4 6 6 6 6 4 u 6 y 6 u e 6 4 & 4 e ; ( l.2 4 2 u ) 4 6 6 6 6 4 e c.r 4 4 e ` 6 4 6 6 6 2 2 2 2 + 2 2 2 e ",
"4 : 6 4 e : : 6 6 6 6 6 6 e &.&._ r >Xy 4 4 & & & & & & & & & & & & & & & & & ; * & & & ; & & & & & & & & & & & & & & & & & & & & & & & & & & & & & & & & & & & . & & ; & & & & & & & & & & & & & & & & & & & & & & & & & ; & & & & & & & & ; & * & & ; & & ; & & & & & & & & & & & & & & & 6 6 4 2 4 4 6 4 4 4 4 6 6 6 6 6 4 2 4 4 e 4 2 6 6 6 6 6 2 _ ` *._ r *.4 6 & 4 6 6 4 2 4 4 6 4 4 4 6 6 6 6 6 6 & 4 4 4 e 2 4 6 6 6 6 6 4 _ *.*.4 _ _ 2 4 & 4 6 4 2 2 4 4 6 4 4 4 6 6 6 6 6 4 & 4 4 6 4 2 6 6 6 6 6 e 6 u _ _ :Xy 4 6 ",
"6 r 4 a 6 a e 4 6 6 6 4 u _ &.' _ Q >XQ 4 4 & & & 4 4 & 4 4 : 4 : 4 & & & & & & 4 : 4 4 & 4 : & & & & & & & & & & & & & & & & ; & 4 : & 4 & 4 & 4 : & & & & & 4 r 2 2 & & w & & & & & & & & & & & & & & & & & & & w & & 4 & 6 & w & & & & & & 4 w e e & 4 4 & & & & & & & & & & & & & & & & 6 4 a e 4 a 6 a 6 a e 4 6 6 6 6 6 e a r 4 r u 4 6 6 6 4 Q _ ` :X&.&.>X4 4 & 4 6 6 a 4 6 a 4 a 4 a 4 6 6 6 6 6 ~ 6 u e 4 a e 4 6 6 4 e ' &.*.:XQ &._ 4 4 & 6 4 r u 4 r r e r e u 4 6 6 6 4 r d 4 a 4 6 d 4 6 6 6 6 4 y &.:X*.*.4 6 6 ",
"4 B.o.c.v.b.,.4 6 6 6 6 4 u _ y y u _ e 6 4 & & & @.>.: @.@.@.@.@.@.: & & & & 4 ,.@.l.6 4 ,.^ & ; & & & & & & & & & & & & & & & w ,.~ 4 1.@.>.@.1.^ & ; & & & e 1.( 1.& ~ ,.r & ; & & & & & & & & & & & & & & & ~ ,.e a 1.@.>.@.1.r & ; & ; & k.^ u k.4 ( >.: & & & & & & & & & & & & & & ; 4 a B.1.u B.v.c.v.b.,.4 6 6 6 2 d B.o.b.6 v.c.e 4 6 6 6 4 e y ' Q u Q 6 4 & 4 2 >.A.d o.b.v.c.v.b.^ 4 6 6 4 r l.c.B.,.r B.,.4 6 6 6 4 6 _ Q ' Q ` u 4 4 & 4 4 v.c.e v.c.c.c.c.c.e 4 6 6 4 ~ c.v.B.d o.A.~ 4 6 6 6 6 4 y Q u Q 4 6 6 ",
"2 1.v./ tX>.l.6 6 6 6 6 6 6 e 6 e 4 e 4 6 4 & & 4 / ~ a ~ @.>.( 1.~ r & & & & 6 l.( ~ ~ u ~ ( & & & & & & & & & & & & & & & & & d ~ ^ a a l.a l.~ ( & & & & ; & ( 4 @.& / ~ ^ & ; & & & & & & & & & & & & & & & / ~ ~ ~ a x.r x.u / & ; & & & u ( e / : / ^ r & & & & & & & & & & & & & & ; 2 o.>.,.o.o.tX( tX>.l.6 6 6 6 6 c.A.d b.a ,.,.^ 2 6 6 6 4 y e 4 4 e e 4 4 & 4 4 <.>.>.1.o.tX^ tX( <.; e 6 6 2 ^ <.A.1./ >.l.6 6 6 6 6 4 e 6 r 4 4 e 6 4 & 4 a <.1.o.>.v.c.l.b.1.^ 2 6 6 6 4 c.A.o.>.>.>.,.; e 6 6 6 6 4 2 2 6 e 4 6 ",
"; >.o.c.v.b.<.4 6 6 6 6 4 e &.&._ r >Xy 4 4 & & & ( >.~ ( >.@.@.@.>.: & & & & r 1.( ~ @.~ 1./ & ; & & & & & & & & & & & & & & & 4 1.( ~ >.@.>.@.1./ & ; & & & r ( & ( r / ,.r & ; & & & & & & & & & & & & & & & a ,.^ ^ 1.@.>.( 1.r & ; & & & a ( ( u u @.>.: & & & & & & & & & & & & & & ; 4 a b.l.>.c.v.c.v.b.<.4 6 6 4 e <.A.1.c.>.l.c.e 4 6 6 6 4 Q &.*.u &.` 2 6 & 4 4 o.B.,.,.b.v.c.v.b./ 2 6 6 4 d tX,.c.v.>.b.<.4 6 6 6 6 4 _ *.*.4 *.Q 4 4 & 4 4 l.c.>.l.c.v.c.v.c.r 4 6 6 4 ^ v.c.c.,.1.B.^ 2 6 6 6 6 4 y _ _ :Xy 4 6 ",
"4 e 4 a 6 a e 4 6 6 6 4 u _ &.' _ Q >XQ 4 4 & & & 4 4 : 4 4 : 4 : 4 & & & & & & w 4 e : : 4 : & & & & & & & & & & & & & & & & & & 4 4 : 4 & 4 & 4 : & & & & & : ; & : 4 : 4 & & & & & & & & & & & & & & & & & & & 4 : : 4 & 6 & w & & & & & & e 4 ; & 4 4 4 & & & & & & & & & & & & & & & & 6 4 a r e a 6 a 6 a e 4 6 6 6 4 ; 4 d r e r r 4 6 6 6 4 Q ` ` _ Q _ *.4 4 & 4 6 6 a e e a 4 a 4 a 4 6 6 6 4 e d u a r e a e 4 6 6 4 e ! &._ *.' :X` 4 4 & 4 4 r u e r r e r e u 4 6 6 6 4 u d 4 a e e a 4 6 6 6 6 4 y &.:X*.*.4 6 6 ",
"6 4 6 4 6 4 4 6 6 6 6 6 4 u ` y u u _ e 6 4 & & & & & & & & & & & & & & & & & & & & & & & & & & & & & & & & & & & & & & & & & & & & & & & & & & & & & & & & & & & & & & & & & & & & & & & & & & & & & & & & & & & & & & & & & & & & & & & & & & & & & & & & & & & & & & & & & & & & & & & ; 6 6 4 4 4 4 6 4 6 4 4 6 6 6 6 6 e 6 4 4 4 4 4 6 6 6 6 6 4 _ _ y y Q ' 4 6 & 4 6 6 4 4 4 4 6 4 6 4 6 6 6 6 6 4 4 4 4 4 4 4 4 6 6 6 6 6 6 ` Q _ u _ Q 4 4 & 4 6 4 4 4 4 4 4 4 4 4 6 6 6 6 6 4 4 6 4 4 4 4 6 6 6 6 6 6 4 y Q u Q 4 6 6 ",
"4 4 4 6 4 6 4 4 4 4 4 4 6 4 2 4 4 4 2 4 6 4 & & & & & & & & & & & & & & & & & & & & & & & & & & & & & & & & & & & & & & & & & & & & & & & & & & & & & & & & & & & & & & & & & & & & & & & & & & & & & & & & & & & & & & & & & & & & & & & & & & & & & & & & & & & & & & & & & & & & & & & & 6 4 6 4 4 6 4 6 4 6 4 4 4 4 4 4 4 4 6 6 4 4 6 4 4 4 4 4 6 2 2 4 4 4 2 4 4 & 2 6 4 6 4 4 6 4 6 4 6 4 4 4 4 4 4 6 6 6 4 4 6 4 4 4 4 4 4 4 2 4 2 4 2 4 6 2 & 4 4 4 6 4 4 4 4 4 4 6 4 4 4 4 4 4 6 4 6 4 4 6 4 4 4 4 4 4 4 4 4 4 4 4 4 6 ",
"& & & & & & & & & & & & & & & & & & & & & & & & & & & & & & & & & & & & & & & & & & & & & & & & & & & & & & & & & & & & & & & & & & & & & & & & & & & & & & & & & & & & & & & & & & & & & & & & & & & & & & & & & & & & & & & & & & & & & & & & & & & & & & & & & & & & & & & & & & & & & & & & & & & & & & & & & & & & & & & & & & & & & & & & & & & & & & & & & & & & & & & & & & & & & & & & & & & & & & & & & & & & & & & & & & & & & & & & & & & & & & & & & & & & & & & & & & & & & & & & & & & & & & & & & & & & & & & & ",
"4 4 4 4 2 2 2 2 2 4 4 4 4 4 4 4 4 4 4 4 4 4 4 4 4 4 4 4 4 4 4 4 4 4 4 4 4 4 4 4 4 4 4 4 4 4 4 4 4 4 4 4 4 4 4 4 4 4 4 4 4 4 4 4 4 4 4 4 4 4 4 4 4 4 4 4 4 4 4 4 4 4 4 4 4 4 4 4 4 4 4 4 4 4 4 4 4 4 4 4 4 4 4 4 4 4 4 4 4 4 4 4 4 4 4 4 4 4 4 4 4 4 4 4 4 4 4 4 4 4 4 4 4 4 4 4 4 4 4 4 4 4 4 4 4 4 4 4 4 4 4 4 4 4 4 4 4 4 4 4 4 4 4 4 4 4 4 4 4 4 4 4 4 4 4 4 4 4 4 4 4 4 4 4 4 4 4 4 4 4 4 4 4 4 4 4 4 4 4 4 4 4 4 4 4 4 4 4 4 4 4 4 4 4 4 4 4 4 4 4 4 4 4 4 4 4 4 4 4 4 4 4 4 4 4 4 4 4 4 4 4 4 4 4 4 4 4 4 4 4 4 4 4 4 4 4 ",
"6 6 6 6 a d a d r 4 6 6 6 6 6 6 6 6 6 6 6 6 6 6 6 6 6 6 6 6 6 6 6 6 6 6 6 6 6 6 6 6 6 6 6 6 6 6 6 6 6 6 6 6 6 6 6 6 6 6 6 6 6 6 6 6 6 6 6 6 6 6 6 6 6 6 6 6 6 6 6 6 6 6 6 6 6 6 6 6 6 6 6 6 6 6 6 6 6 6 6 6 6 6 6 6 6 6 6 6 6 6 6 6 6 6 6 6 6 6 6 6 6 6 6 6 6 6 6 6 6 6 6 6 6 6 6 6 6 6 6 6 6 6 6 6 6 6 6 6 6 6 6 6 6 6 6 6 6 6 6 6 6 6 6 6 6 6 6 6 6 6 6 6 6 6 6 6 6 6 6 6 6 6 6 6 6 6 6 6 6 6 6 6 6 6 6 6 6 6 6 6 6 6 6 6 6 6 6 6 6 6 6 6 6 6 6 6 6 6 6 6 6 6 6 6 6 6 6 6 6 6 6 6 6 6 6 6 6 6 6 6 6 6 6 6 6 6 6 6 6 6 6 6 6 6 ",
"6 6 6 4 d @.>.>.d 4 6 4 e e 4 6 4 4 4 6 6 6 6 6 6 6 6 6 6 6 6 6 6 6 6 6 6 6 6 6 6 6 6 6 6 6 6 6 6 6 6 6 6 6 6 6 6 6 6 6 6 6 6 6 6 6 6 6 6 6 6 6 6 6 6 6 6 6 6 6 6 6 6 6 6 6 6 6 6 6 6 6 6 6 6 6 6 6 6 6 6 6 6 6 6 6 6 6 6 6 6 6 6 6 6 6 6 6 6 6 6 6 6 6 6 6 6 6 6 6 6 6 6 6 6 6 6 6 6 6 6 6 6 6 6 6 6 6 6 6 6 6 6 6 6 6 6 6 6 6 6 6 6 6 6 6 6 6 6 6 6 6 6 6 6 6 6 6 6 6 6 6 6 6 6 6 6 6 6 6 6 6 6 6 6 6 6 6 6 6 6 6 6 6 6 6 6 6 6 6 6 6 6 6 6 6 6 6 6 6 6 6 6 6 6 6 6 6 6 6 6 6 6 6 6 6 6 6 6 6 6 6 6 6 6 6 6 6 6 6 6 6 6 6 6 6 ",
"4 6 6 4 a e @.^ r 4 6 e ! ! e 4 s ! s 6 6 6 6 6 6 6 6 6 6 6 6 6 6 6 6 6 6 6 6 6 6 6 6 6 6 6 6 6 6 6 6 6 6 6 6 6 6 6 6 6 6 6 6 6 6 6 6 6 6 6 6 6 6 6 6 6 6 6 6 6 6 6 6 6 6 6 6 6 6 6 6 6 6 6 6 6 6 6 6 6 6 6 6 6 6 6 6 6 6 6 6 6 6 6 6 6 6 6 6 6 6 6 6 6 6 6 6 6 6 6 6 6 6 6 6 6 6 6 6 6 6 6 6 6 6 6 6 6 6 6 6 6 6 6 6 6 6 6 6 6 6 6 6 6 6 6 6 6 6 6 6 6 6 6 6 6 6 6 6 6 6 6 6 6 6 6 6 6 6 6 6 6 6 6 6 6 6 6 6 6 6 6 6 6 6 6 6 6 6 6 6 6 6 6 6 6 6 6 6 6 6 6 6 6 6 6 6 6 6 6 6 6 6 6 6 6 6 6 6 6 6 6 6 6 6 6 6 6 6 6 6 6 6 6 6 6 ",
"6 6 6 6 a 4 >.^ r 4 6 4 s s 4 6 e e e 6 6 6 6 6 6 6 6 6 6 6 6 6 6 6 6 6 6 6 6 6 6 6 6 6 6 6 6 6 6 6 6 6 6 6 6 6 6 6 6 6 6 6 6 6 6 6 6 6 6 6 6 6 6 6 6 6 6 6 6 6 6 6 6 6 6 6 6 6 6 6 6 6 6 6 6 6 6 6 6 6 6 6 6 6 6 6 6 6 6 6 6 6 6 6 6 6 6 6 6 6 6 6 6 6 6 6 6 6 6 6 6 6 6 6 6 6 6 6 6 6 6 6 6 6 6 6 6 6 6 6 6 6 6 6 6 6 6 6 6 6 6 6 6 6 6 6 6 6 6 6 6 6 6 6 6 6 6 6 6 6 6 6 6 6 6 6 6 6 6 6 6 6 6 6 6 6 6 6 6 6 6 6 6 6 6 6 6 6 6 6 6 6 6 6 6 6 6 6 6 6 6 6 6 6 6 6 6 6 6 6 6 6 6 6 6 6 6 6 6 6 6 6 6 6 6 6 6 6 6 6 6 6 6 6 6 6 ",
"6 6 6 4 u u ~ d r 4 6 4 6 6 4 6 4 4 4 6 6 6 6 6 6 6 6 6 6 6 6 6 6 6 6 6 6 6 6 6 6 6 6 6 6 6 6 6 6 6 6 6 6 6 6 6 6 6 6 6 6 6 6 6 6 6 6 6 6 6 6 6 6 6 6 6 6 6 6 6 6 6 6 6 6 6 6 6 6 6 6 6 6 6 6 6 6 6 6 6 6 6 6 6 6 6 6 6 6 6 6 6 6 6 6 6 6 6 6 6 6 6 6 6 6 6 6 6 6 6 6 6 6 6 6 6 6 6 6 6 6 6 6 6 6 6 6 6 6 6 6 6 6 6 6 6 6 6 6 6 6 6 6 6 6 6 6 6 6 6 6 6 6 6 6 6 6 6 6 6 6 6 6 6 6 6 6 6 6 6 6 6 6 6 6 6 6 6 6 6 6 6 6 6 6 6 6 6 6 6 6 6 6 6 6 6 6 6 6 6 6 6 6 6 6 6 6 6 6 6 6 6 6 6 6 6 6 6 6 6 6 6 6 6 6 6 6 6 6 6 6 6 6 6 6 6 ",
"6 6 6 6 4 4 4 4 4 6 6 6 6 6 6 6 6 6 6 6 6 6 6 6 6 6 6 6 6 6 6 6 6 6 6 6 6 6 6 6 6 6 6 6 6 6 6 6 6 6 6 6 6 6 6 6 6 6 6 6 6 6 6 6 6 6 6 6 6 6 6 6 6 6 6 6 6 6 6 6 6 6 6 6 6 6 6 6 6 6 6 6 6 6 6 6 6 6 6 6 6 6 6 6 6 6 6 6 6 6 6 6 6 6 6 6 6 6 6 6 6 6 6 6 6 6 6 6 6 6 6 6 6 6 6 6 6 6 6 6 6 6 6 6 6 6 6 6 6 6 6 6 6 6 6 6 6 6 6 6 6 6 6 6 6 6 6 6 6 6 6 6 6 6 6 6 6 6 6 6 6 6 6 6 6 6 6 6 6 6 6 6 6 6 6 6 6 6 6 6 6 6 6 6 6 6 6 6 6 6 6 6 6 6 6 6 6 6 6 6 6 6 6 6 6 6 6 6 6 6 6 6 6 6 6 6 6 6 6 6 6 6 6 6 6 6 6 6 6 6 6 6 6 6 6 6 "
};
