/* XPM */
static char *mb_ringmod_sc_mono[] = {
/* columns rows colors chars-per-pixel */
"256 256 256 2 ",
"   c #15161C",
".  c #17181E",
"X  c #1A191E",
"o  c #161418",
"O  c #0E0F13",
"+  c #1A271E",
"@  c #2A2B1D",
"#  c #151B22",
"$  c #1C1D24",
"%  c #171824",
"&  c #1F1E32",
"*  c #101924",
"=  c #231E24",
"-  c #281D22",
";  c #211C29",
":  c #201E32",
">  c #1F2026",
",  c #1E2229",
"<  c #16262B",
"1  c #0C2A33",
"2  c #192132",
"3  c #142A32",
"4  c #1C2C33",
"5  c #152D37",
"6  c #1B3239",
"7  c #0E282C",
"8  c #212126",
"9  c #252A23",
"0  c #24252D",
"q  c #29262B",
"w  c #26282F",
"e  c #2A2A2D",
"r  c #2C2624",
"t  c #3A232A",
"y  c #332A2C",
"u  c #372729",
"i  c #2C3329",
"p  c #39382A",
"a  c #252730",
"s  c #262A32",
"d  c #2A2B34",
"f  c #2B2E3A",
"g  c #262D39",
"h  c #352D32",
"j  c #22323A",
"k  c #2E313B",
"l  c #283335",
"z  c #31333D",
"x  c #383735",
"c  c #241A1F",
"v  c #59311B",
"b  c #632F16",
"n  c #602F18",
"m  c #7B3B1C",
"M  c #683116",
"N  c #462C2A",
"B  c #473829",
"V  c #5E3B27",
"C  c #5D3C2B",
"Z  c #59372B",
"A  c #4D3A34",
"S  c #483837",
"D  c #563B32",
"F  c #593D34",
"G  c #563A37",
"H  c #4D2D2F",
"J  c #653D26",
"K  c #6D3E26",
"L  c #65352C",
"P  c #6A372A",
"I  c #643D2B",
"U  c #6D3A29",
"Y  c #623725",
"T  c #72342B",
"R  c #723D2C",
"E  c #763B28",
"W  c #6B3B31",
"Q  c #673B36",
"!  c #753D37",
"~  c #6E292E",
"^  c #3F580D",
"/  c #32471B",
"(  c #3A4333",
")  c #105B18",
"_  c #425D0C",
"`  c #47571B",
"'  c #6E4801",
"]  c #754D00",
"[  c #794F00",
"{  c #735216",
"}  c #567B08",
"|  c #4A680D",
" . c #5C442C",
".. c #474836",
"X. c #5C4333",
"o. c #5D4139",
"O. c #594839",
"+. c #4D5331",
"@. c #664226",
"#. c #6C4226",
"$. c #62432E",
"%. c #6A422A",
"&. c #6D492A",
"*. c #654C2A",
"=. c #734325",
"-. c #73432A",
";. c #774727",
":. c #7B5A2B",
">. c #614534",
",. c #644A34",
"<. c #61453C",
"1. c #634A3C",
"2. c #6B4A3A",
"3. c #7D4C3B",
"4. c #784636",
"5. c #73523A",
"6. c #6C6F1F",
"7. c #0D3947",
"8. c #1B3C47",
"9. c #1D3349",
"0. c #2A3143",
"q. c #283C45",
"w. c #253A45",
"e. c #333642",
"r. c #373944",
"t. c #383A45",
"y. c #363A4A",
"u. c #3A3D4B",
"i. c #333748",
"p. c #2F374F",
"a. c #313F60",
"s. c #4D3F41",
"d. c #1D545B",
"f. c #1A474F",
"g. c #23434C",
"h. c #3E414E",
"j. c #364648",
"k. c #244A55",
"l. c #3E4152",
"z. c #3D4259",
"x. c #26535B",
"c. c #1A5966",
"v. c #045C6A",
"b. c #2D5F6D",
"n. c #245865",
"m. c #344870",
"M. c #006375",
"N. c #016779",
"B. c #0D6674",
"V. c #296976",
"C. c #256A5B",
"Z. c #594744",
"A. c #585243",
"S. c #424453",
"D. c #46495B",
"F. c #4A4D5D",
"G. c #444758",
"H. c #545D52",
"J. c #484C49",
"K. c #624642",
"L. c #654B43",
"P. c #694E49",
"I. c #694B45",
"U. c #774C46",
"Y. c #6B5243",
"T. c #655348",
"R. c #795349",
"E. c #6A5753",
"W. c #4A4D61",
"Q. c #4E5163",
"!. c #4E5269",
"~. c #515465",
"^. c #52566A",
"/. c #56596C",
"(. c #585C6E",
"). c #5A5E72",
"_. c #555A73",
"`. c #5D6177",
"'. c #62667C",
"]. c #736462",
"[. c #606A52",
"{. c #813C1A",
"}. c #89392E",
"|. c #87352A",
" X c #873836",
".X c #953537",
"XX c #93352C",
"oX c #B23C2E",
"OX c #9D471E",
"+X c #9D471E",
"@X c #8C5C03",
"#X c #A1481E",
"$X c #9A6503",
"%X c #836901",
"&X c #A56C04",
"*X c #85472A",
"=X c #944527",
"-X c #824239",
";X c #844938",
":X c #944235",
">X c #984335",
",X c #8C5132",
"<X c #8A552C",
"1X c #BC433B",
"2X c #AA472F",
"3X c #8A6136",
"4X c #C94633",
"5X c #B73D42",
"6X c #903E41",
"7X c #844D43",
"8X c #89534A",
"9X c #99554B",
"0X c #95564B",
"qX c #985A52",
"wX c #934846",
"eX c #A45D53",
"rX c #A95F53",
"tX c #A85A4D",
"yX c #926C56",
"uX c #AB6257",
"iX c #B76558",
"pX c #B0664C",
"aX c #A86F68",
"sX c #C94847",
"dX c #C66B5D",
"fX c #CF6D5C",
"gX c #D87262",
"hX c #CE6F60",
"jX c #E27061",
"kX c #C83F2B",
"lX c #5B8207",
"zX c #659119",
"xX c #6C9056",
"cX c #CBCA0C",
"vX c #9EB530",
"bX c #375082",
"nX c #017888",
"mX c #09748B",
"MX c #2A7787",
"NX c #676C86",
"BX c #6E7492",
"VX c #5B6D9D",
"CX c #507AC8",
"ZX c #018399",
"AX c #028894",
"SX c #2E8798",
"DX c #048AA6",
"FX c #0398B6",
"GX c #3497AC",
"HX c #3496AA",
"JX c #359EB4",
"KX c #2C91A6",
"LX c #2FA2B9",
"PX c #34A3BF",
"IX c #888FB3",
"UX c #979EC6",
/* pixels */
"a a a w w w w w w 0 q q q q w w w w w w w w w w w w w w w w w w w w w w w w w w w w w w w w w w w w w w w w w w w w w w w w w w w w w w w w w w w w w w w w w w w w w w w w w w w w w w w w w w w w w w w w w w w w w w w w w w w w 0 0 w 0 0 0 0 0 0 w 0 8 8 8 0 0 8 0 w 0 0 w 0 w 0 0 8 0 w w 0 8 0 0 8 0 0 w 0 w 0 8 0 w 0 0 w 0 w 0 8 w 0 8 0 w 0 w 0 0 0 w w 0 0 0 8 8 0 8 0 0 8 w w w 0 8 0 8 0 8 8 w 0 8 0 w 8 0 0 w 0 w 0 0 0 8 0 0 w 0 w 0 0 w 0 0 w 8 0 w 0 w 0 w 0 8 w w w 0 w w 0 0 w 0 0 0 0 w 0 0 w 0 w 0 0 w 0 0 ",
"8 8 = 0 w w w w q s 9.9.9.9.0 0 w w w w w w w w w w w w w w w w w w w w w w w w w w w w w w w w w w w w w w w w w w w w w w w w w w w w w w w w w w w w w w w w w w w w w w w w w w w w w w w w w w w w w w w w w w w w w w w w w 0 k s w k d d d d f w f u.t.r.e.s t.k 0 s f 0 k 0 f d t.z 0 w a u.k d r.d f 0 k 8 k t.s 0 f f 0 k w d u.w s u.k 8 k w f d f w 0 f s z u.r.k u.k z t.0 w 0 f r.k e.s t.e.8 d u.k 0 t.k f 0 f w d d d r.d f 0 k w a k 0 d f 0 t.k 0 k 0 k 0 k r.0 w w s w 0 g s 0 j s w.j 0 j w.0 j w s j 0 w.g ",
"k.k.k.w.8 w w q w.b.xXvXxXC.x.j 0 w w w w w w w w w w w w w w w w w w w w w w w w w w w w w w w w w w w w w w w w w w w w w w w w w w w w w w w w w w w w w w w w w w w w w w w w w w w w w w w w w w w w w w w w w w w w w w w w 8 NXS.t.'.G.u.h.S.Q.z d `./.D.^.u.`.).d h.'.0 NXt.F.G.)./.l.$ u.).^.G.).e.NXz Q.u.).F.k $ W.`.0 BXr./.~.Q.S._._.e.^.d Q.u.~.0 8 `.G.k NXG.^./.r.).^.Q.8 d `.S.h.).r.)./.u.D.).z Q./.u./.d /.s W./.f `.z NXz ~.w d BXa _.Q.S.^./.t.NXr.W.u./.^.F.8 a d w 8 n.n.s V.q.b.n.w.n.n.g.V.w.g.b.k.n.j ",
"LXLXLXLXk.0 q 9.C.vXxX6.zXvXvXx.j 0 w w w w w w w w w w w w w w w w w w w w w w w w w w w w w w w w w w w w w w w w w w w w w w w w w w w w w w w w w w w w w w w w w w w w w w w w w w w w w w w w w w w w w w w w w w w w w w w 8 ).~.Q./.F.t.u.G.W.f X S.u.k G.t.).).f /.NXr./.^.Q.G.h.a ).$ t.`./.r.F.k `.^.F./.e.F.u.$ G.`.S.`.D.Q.o ^.^.z e.Q.~.0 Q.u.Q.$ k NX`.$ ^.a Q.^.e.!.X ).f 0 W.G.e.D.r.G.w ^.D./.r.).$ $ `.^.'.d `.NXz W.k `.^.^.w d NXS.).F._.$ u.^.^./.W.~.u.$ `.0 w d w 8 x.n.k.b.q.n.n.w.n.n.q.n.x.n.n.w.n.w.",
"MXMXSXLXSX8 6 [.vX+.& & % = [.MXn.s 0 w w w w w w w w w w w w w w w w w w w w w w w w w w w w w w w w w w w w w w w w w w w w w w w w w w w w w w w w w w w w w w w w w w w w w w w w w w w w w w w w w w w w w w w w w w w w w w 0 Q._.).W.S.!.^.u.^.W.w D.S.u.^.u./.^.F.).~.).W.h.BXS./.Q.F.$ u.).^.S._.t.D.Q.`.S.Q./.D.X D.^.`.!.l./.S.^.F.^./.u.Q.F./.e.`.r.!.^.`.r./.f ^.W.z ).D._.0 s t.`.W.^.t.).Q.G.F.^.f /.D.e._.d ~.D._.^.^._.r.W.G.NX8 z ^.)./.D.Q.D.^.G.F.S.NXu./.D.^.8 a d w 0 k.n.n.x.k.n.n.g.n.n.g.x.n.n.x.j n.n.",
"= = q.LXSXq d.xX+.% e q l x.$ MXV.w.0 w w w w w w w w w w w w w w w w w w w w w w w w w w w w w w w w w w w w w w w w w w w w w w w w w w w w w w w w w w w w w w w w w w w w w w w w w w w w w w w w w w w w w w w w w w w w w w w e.e.e.e.w l.S.0 t.W.k k k e.l.f D.u.z k 8 u.r.w u.k D.l.w 0 k k k l.l.k z d u.0 l.G.f 0 z z e.e.d e.F.f f F.u.0 d D.e.0 S.G.u.8 k z e.s r.F.e.h.D.d 0 s G.t.z S.d D.S.0 e.F.e.d F.r.e.s e.t.d 0 l.S.k e.a u.0 d e.e.z z a D.u.w r.w u.0 u.G.s 0 w d w 0 j j j j j k.g.s w.s w.j j j j w.k.s ",
"= - w.LXSX8 x.MXMXg.0 0 w.g.- k.MXg.0 w w w w w w w w w w w w w w w w w w w w w w w w w w w w w w w w w w w w w w w w w w w w w w w w w w w w w w w w w w w w w w w w w w w w w w w w w w w w w w w w w w w w w w w w w w w 0 0 0 0 > 8 8 > 0 $ $ 0 > $ 8 8 8 > $ 8 $ > 8 8 0 $ > 0 $ 8 $ $ 0 0 8 8 8 $ $ 8 8 8 $ 0 $ $ 8 0 8 8 > > 8 > $ 8 8 $ $ 0 8 $ > 0 $ $ $ 0 8 8 > 8 > $ 8 $ $ 8 0 8 $ > 8 $ 8 $ $ 0 8 $ > 8 $ > 8 0 8 8 0 0 > > 8 8 0 > 0 0 8 8 8 8 0 $ > 0 8 0 > 0 > $ 0 0 0 0 0 0 8 8 8 8 8 = = 0 8 8 8 8 8 8 8 8 = 8 ",
"MXV.SXLXSX0 0 n.PXV.= s 0 0 8 g.SXk.0 w w w w w w w w w w w w w w w w w w w w w w w w w w w w w w w w w w w w w w w w w w w w w w w w w w w w w w w w w w w w w w w w w w w w w w w w w w w w w w w w w w w w w w w w w w 0 $ $ $ $ $ $ $ $ $ $ $ $ $ $ $ $ $ $ $ $ $ $ $ $ $ $ $ $ $ $ $ $ $ $ $ $ $ $ $ $ $ $ $ $ $ $ $ $ $ $ $ $ $ $ $ $ $ $ $ $ $ $ $ $ $ $ $ $ $ $ $ $ $ $ $ $ $ $ $ $ $ $ $ $ $ $ $ $ $ $ $ $ $ $ > > $ ; > > 8 8 > > > 8 > > > > $ = $ 8 > > > > 8 > > 8 > $ $ $ $ $ $ $ $ $ $ $ $ $ $ $ $ $ $ $ $ $ $ $ ",
"LXLXLXLXk.- MXLXLXSXa = 0 s = n.V.g.0 w w w w w w w w w w w w w w w w w w w w w w w w w w w w w w w w w w w w w w w w w w w w w w w w w w w w w w w w w w w w w w w w w w w w w w w w w w w w w w w w w w w w w w w w w 0 $ $ $ $ $ X $ $ $ $ $ $ $ $ $ $ $ $ $ $ $ $ $ $ $ $ $ $ $ $ $ X . $ $ # $ $ X $ # .   $ $ X $ $ $ # $ $ # $ $ . . $ $ $ $ $ $ $ $ $ $ $ $ $ $ $ $ $ $ $ $ $ $ $ $ $ X $ $ $ $ $ $ $ $ $ $ > > > $ > , $ > > > , , , , > > > $ , 8.4 = > > > > > > > > $ $ $ X X X $ $ o $ . . . $   . # . X # . $ $ $ ",
"x.x.x.w.0 0 g.k.MXLXSXx.w.= s KXV.j 0 w w w w w w w w w w w w w w w w w w w w w w w w w w w w w w w w w w w w w w w w w w w w w w w w w w w w w w w w w w w w w w w w w w w w w w w w w w w w w w w w w w w w w w w w 0 $ $ $ $ X $ 6 $ $ $ $ $ $ $ $ $ $ $ $ $ $ $ $ $ $ $ $ $ $ $ $ . d ~.z $ # D.w >   8 z u.# $ 0 $ $ 8 > # $ 0 $ $ e.z . $ $ $ $ $ $ $ $ $ $ $ $ $ $ $ $ $ $ $ $ $ $ $ $ 6 X $ $ $ $ $ $ $ $ $ > > > ; ) ) ; > > > = c c = = > , = f.B.B.4 = > > > > > > $ $ $ $ f.k.d.6 $ /.# h.h.F.u.F.z d h.f s r.  $ $ ",
"c 8 = 0 w a - q.LXKXKXPXMXg MXV.x.0 w w w w w w w w w w w w w w w w w w w w w w w w w w w w w w w w w w w w w w w w w w w w w w w w w w w w w w w w w w w w w w w w w w w w w w w w w w w w w w w w w w w w w w w w 0 $ $ $ $ $ $ d.4 X $ $ $ $ $ $ $ $ $ $ $ $ $ $ $ $ $ $ $ $ $ $ $ o h.).> (.`.^.Q.'.Q.F.^.'.o F.).G.(.G.`.).`.t.Q.`.NXW.  $ $ $ $ $ $ $ $ $ $ $ $ $ $ $ $ $ $ $ $ $ $ $ X g.g.X $ $ $ $ $ $ $ > > > > > ) ) > $ > = 8.d.f.B.6 = , = f.B.B.4 = > > > > > $ $ $ $ $ c.V.MX8.X BXz '.~.`.r./.'.u.^.u.z F.o $ , ",
"0 s a w w w 0 g.MXj KXMXMXV.MXk.g 0 w w w w w w w w w w w w w w w w w w w w w w w w w w w w w w w w w w w w w w w w w w w w w w w w w w w w w w w w w w w w w w w w w w w w w w w w w w w w w w w w w w w w w w w 0 $ $ $ $ $ $ $ c.4 X $ $ $ $ $ $ $ $ $ $ $ $ $ $ $ $ $ $ $ $ $ $ $ $ X h.'.NXG./.BXF.'.z f D.O ^.e.).Q.u.NXS.S.^.NXG./.f   $ $ $ $ $ $ $ $ $ $ $ $ $ $ $ $ $ $ $ $ $ $ $ X 8.f.X $ $ $ $ $ $ > > > > ; ) ) ) ) ; > = 6 f.f.c.4 = , c f.c.v.6 = , > > > $ $ $ $ $ $ c.V.V.8.= /.`.).D.).d G.D.NXF.h.e.D.o $ , ",
"0 w w w w w w 0 - j KXw.n.V.g.s 0 w w w w w w w w w w w w w w w w w w w w w w w w w w w w w w w w w w w w w w w w w w w w w w w w w w w w w w w w w w w w w w w w w w w w w w w w w w w w w w w w w w w w w w w 0 $ $ $ $ $ $ $ X , 6 X $ $ $ $ $ $ $ $ $ $ $ $ $ $ $ $ $ $ $ $ $ $ $ . f Q.u.D.S.u.S.F.k ^.u.~.. Q.'.u.u.0 ~.r.S.F.S.S.u.F.. $ $ $ $ $ $ $ $ $ $ $ $ $ $ $ $ $ $ $ $ $ $ $ $ 8.X $ $ $ $ $ $ > > > > > ; + > > + ; > > = c = = = > > = 4 d.8.$ > > > > $ $ $ $ $ $ $ d.c.c.6 = u.F.h.t.~.S.S.8 /.z F.^.a X $ $ ",
"w w w w w w w w s w s w w g 0 w a w w w w w w w w w w w w w w w w w w w w w w w w w w w w w w w w w w w w w w w w w w w w w w w w w w w w w w w w w w w w w w w w w w w w w w w w w w w w w w w w w w w w w w 0 $ $ $ $ $ $ $ $ $ $ X $ $ $ $ $ $ $ $ $ $ $ $ $ $ $ $ $ $ $ $ $ $ $ $ $ $ $   X $ X . $ # # $ $   F.d o # # # $ $ . . $ X $ $ $ $ $ $ $ $ $ $ $ $ $ $ $ $ $ $ $ $ $ $ $ $ $ $ X $ $ $ $ $ > > > > > > > > ; ; > ; > > > , , , , > > > > = c = > > > > $ $ $ $ $ $ $ $ X X X $ $ X   X X $ > X $   X X # X $ $ $ ",
"0 0 0 0 0 0 0 0 0 0 0 0 0 8 0 0 0 0 0 0 0 0 0 0 0 0 0 0 0 0 0 0 0 0 0 0 0 0 0 0 0 0 0 0 0 0 0 0 0 0 0 0 0 0 0 0 0 0 0 0 0 0 0 0 0 0 0 0 0 0 0 0 0 0 0 0 0 0 0 0 0 0 0 0 0 0 0 0 0 0 0 0 0 0 0 0 0 0 0 0 0 0 8 $ $ $ $ $ $ $ $ $ $ $ $ $ $ $ $ $ $ $ $ $ $ $ $ $ $ $ $ $ $ $ $ $ $ $ $ $ $ $ $ $ $ $ $ $ $ $ $ $ $ 8 $ $ $ $ $ $ $ $ $ $ $ $ $ $ $ $ $ $ $ $ $ $ $ $ $ $ $ $ $ $ $ $ $ $ $ $ $ $ $ $ $ $ $ $ $ $ $ $ $ $ $ > $ $ > $ $ $ $ $ $ $ $ $ $ $ $ > > $ $ $ $ $ $ $ $ $ $ $ $ $ $ $ $ $ $ $ $ $ $ $ $ $ $ $ $ $ $ $ $ $ ",
"$ $ $ $ $ $ $ $ $ $ $ $ $ $ $ $ $ $ $ $ $ $ $ $ $ $ $ $ $ $ $ $ $ $ $ $ $ $ $ $ $ $ $ $ $ $ $ $ $ $ $ $ $ $ $ $ $ $ $ $ $ $ $ $ $ $ $ $ $ $ $ $ $ $ $ $ $ $ $ $ $ $ $ $ $ $ $ $ $ $ $ $ $ $ $ $ $ $ $ $ $ $ $ $ $ $ $ $ $ $ $ $ $ $ $ $ $ $ $ $ $ $ $ $ $ $ $ $ $ $ $ $ $ $ $ $ $ $ $ $ $ $ $ $ $ $ $ $ $ $ $ $ $ $ $ $ $ $ $ $ $ $ $ $ $ $ $ $ $ $ $ $ $ $ $ $ $ $ $ $ $ $ $ $ $ $ $ $ $ $ $ $ $ $ $ $ $ $ $ $ $ $ $ $ $ $ $ $ $ $ $ $ $ $ $ $ $ $ $ $ $ $ $ $ $ $ $ $ $ $ $ $ $ $ $ $ $ $ $ $ $ $ $ $ $ $ $ $ $ $ $ $ $ $ $ $ ",
"e.e.z z z z e.e.e.z e.e.e.e.e.e.e.e.e.e.e.e.e.e.e.e.e.e.e.e.e.e.e.e.e.e.e.e.e.e.e.e.e.e.e.e.e.e.e.e.e.e.e.e.e.e.e.e.e.e.e.e.e.e.e.e.e.e.e.e.e.e.e.e.e.e.e.e.e.e.e.e.e.e.e.e.e.e.e.e.e.e.e.e.e.e.e.e.e.e.e.e.e.e.e.e.e.e.e.e.e.e.e.e.e.e.e.e.e.e.e.e.e.e.e.e.e.e.e.e.e.e.e.e.e.e.e.e.e.e.e.e.e.e.e.e.e.e.e.e.e.e.e.e.e.e.e.e.e.e.e.e.e.e.e.e.e.e.e.e.e.e.e.e.e.e.e.e.e.e.e.e.e.e.e.e.e.e.e.e.e.e.e.e.e.$ > 0 0 0 0 0 8 8 0 0 0 0 0 0 $ 0 0 0 0 w w 0 0 0 $ 8 0 0 0 0 0 0 0 0 $ 8 w 0 0 0 0 0 w 0 $ d r.e.z z e.e.e.e.e.e.e.z e.e.",
"t.e.h.u.u.u.r.t.t.h.r.t.t.t.t.t.t.t.t.t.t.t.t.t.t.t.t.t.t.t.t.t.t.t.t.t.t.t.t.t.t.t.t.t.t.t.t.t.t.t.t.t.t.t.t.t.t.t.t.t.t.t.t.t.t.t.t.t.t.t.t.t.t.t.t.t.t.t.t.t.t.t.t.t.t.t.t.t.t.t.t.t.t.t.t.t.t.t.t.t.t.t.t.t.t.t.t.t.t.t.t.t.t.t.t.t.t.t.t.t.t.t.t.t.t.t.t.t.t.t.t.t.t.t.t.t.t.t.t.t.t.t.t.t.t.t.t.t.t.t.t.t.t.t.t.t.t.t.t.t.t.t.t.t.t.t.t.t.t.t.t.t.t.t.t.t.t.t.t.t.t.t.t.t.t.t.t.t.t.t.t.t.t.t.t.$ 8 a w w a e.u.h.r.d 0 w w 0 $ 0 w s d 8 8 w w 0 $ 0 w 0 k 0 d d 0 w $ 0 0 d s 0 0 0 8 w $ d u.r.h.h.t.z r.e.e.r.z S.t.t.",
"t.F.`.G.`.`.S.`.G.NX).Q.S.~.z t.r.r.r.r.r.r.r.r.r.r.r.r.r.r.r.r.r.r.r.r.r.r.r.r.r.r.r.r.r.r.r.r.r.r.r.r.r.r.r.r.r.r.r.r.r.r.r.r.r.r.r.r.r.r.r.r.r.r.r.r.r.r.r.r.r.r.r.r.r.r.r.r.r.r.r.r.r.r.r.r.r.r.r.r.r.r.r.r.r.r.r.r.r.r.r.r.r.r.r.r.r.r.r.r.r.r.r.r.r.r.r.r.r.r.r.r.r.r.r.r.r.r.r.r.r.r.r.r.r.r.r.r.r.r.r.r.r.r.r.r.r.r.r.r.r.r.r.r.r.r.r.r.r.r.r.r.r.r.r.r.r.r.r.r.r.r.r.r.r.r.r.r.r.r.r.r.r.r.r.$ > w w 0 w S.W.F.S.k 0 w w 0 $ 0 8 u.^.e.u.0 w 0 $ 0 8 F.Q.u.).u.0 w $ $ t.(.~.z d t.~.w $ d e.Q.`.G.h.F.S.D.G.h.S.).u.e.",
"u.`.S.^.NX`.~.BX/.NX~.NXNX/.z t.r.r.r.r.r.r.r.r.r.r.r.r.r.r.r.r.r.r.r.r.r.r.r.r.r.r.r.r.r.r.r.r.r.r.r.r.r.r.r.r.r.r.r.r.r.r.r.r.r.r.r.r.r.r.r.r.r.r.r.r.r.r.r.r.r.r.r.r.r.r.r.r.r.r.r.r.r.r.r.r.r.r.r.r.r.r.r.r.r.r.r.r.r.r.r.r.r.r.r.r.r.r.r.r.r.r.r.r.r.r.r.r.r.r.r.r.r.r.r.r.r.r.r.r.r.r.r.r.r.r.r.r.r.r.r.r.r.r.r.r.r.r.r.r.r.r.r.r.r.r.r.r.r.r.r.r.r.r.r.r.r.r.r.r.r.r.r.r.r.r.r.r.r.r.r.r.r.r.r.$ 8 w w w 0 /.z s Q.d 0 w w 0 $ 0 0 z F./.).z 0 0 $ 0 0 h.F.).f $ a 0 $ $ /.d S.'.t.)./.0 $ d r.G.).^.'.).'.`.`.W.NX'.u.r.",
"u.^.).NX).).'.Q.NXQ.z ).D.^.z t.r.r.r.r.r.r.r.r.r.r.r.r.r.r.r.r.r.r.r.r.r.r.r.r.r.r.r.r.r.r.r.r.r.r.r.r.r.r.r.r.r.r.r.r.r.r.r.r.r.r.r.r.r.r.r.r.r.r.r.r.r.r.r.r.r.r.r.r.r.r.r.r.r.r.r.r.r.r.r.r.r.r.r.r.r.r.r.r.r.r.r.r.r.r.r.r.r.r.r.r.r.r.r.r.r.r.r.r.r.r.r.r.r.r.r.r.r.r.r.r.r.r.r.r.r.r.r.r.r.r.r.r.r.r.r.r.r.r.r.r.r.r.r.r.r.r.r.r.r.r.r.r.r.r.r.r.r.r.r.r.r.r.r.r.r.r.r.r.r.r.r.r.r.r.r.r.r.r.r.$ 8 w w 0 s S.D.^.NXz 0 w w 0 $ 0 8 t.`.S.D.r.8 0 $ 0 w k (.(.~.z 0 w $ $ S.^.Q.F.)./.Q.a $ d t.u.).NX).(.NXQ.^.NXNXNXu.r.",
"t.r.F.S.t.u.S.z S.u.t.u.t.u.r.t.t.t.t.t.t.t.t.t.t.t.t.t.t.t.t.t.t.t.e.r.t.t.t.t.t.t.t.t.t.t.t.t.t.t.t.t.t.t.t.t.t.t.t.t.t.t.t.t.t.t.t.t.t.t.t.t.t.t.t.t.t.t.t.t.t.t.t.t.t.t.t.t.t.t.t.t.t.t.t.t.t.t.t.t.t.t.t.t.t.t.t.t.t.t.t.t.t.t.t.t.t.t.t.t.t.t.t.t.t.t.t.t.t.t.t.t.t.t.t.t.t.t.t.t.t.t.t.t.t.t.t.t.t.t.t.t.t.t.t.t.t.t.t.t.t.t.t.t.t.t.t.t.t.t.t.t.t.t.t.t.t.t.t.t.t.t.t.t.t.t.t.t.t.t.t.t.t.t.t.$ 8 w w 0 a t.t.u.^.k 0 w w 0 $ 0 0 d e.d d s w 0 $ 0 0 z r.8 t.z 0 w $ 8 0 t.k 0 t.d z d # d t.h.D.t.h.NX(.t.u.S.S.u.t.t.",
"z z k z z z z e.z z z z z z z z z z z z z z z z z z z z z z z k g z s.r.z z z z z z z z z z z z z z z z z z z z z z z z z z z z z z z z z z z z z z z z z z z z z z z z z z z z z z z z z z z z z z z z z z z z z z z z z z z z z z z z z z z z z z z z z z z z z z z z z z z z z z z z z z z z z z z z z z z z z z z z z z z z z z z z z z z z z z z z z z z z z z z z z z z z z z z z z z z z z z e.$ 8 w w w 0 0 w 0 8 0 w w w 0 $ 0 w 0 0 0 0 0 w 0 $ 0 w 0 8 w 8 0 w 0 $ 8 w 8 0 w 8 0 0 0 $ d e.z z z r.S.e.z z z z z z z ",
"0 0 w w 0 0 0 0 0 d w 0 0 0 0 0 0 s w 0 0 0 0 s w 0 , B X.e h G G 0X0X8Xs w 0 w s 0 d s 0 0 0 0 0 0 0 0 i +.e i e e 0 0 0 w s 0 0 0 0 0 0 0 0 0 0 d 0 0 0 0 0 0 w s 0 0 0 0 0 d 0 0 0 0 q 8.d.g j s w w s 0 0 s w 0 d w 0 0 0 0 0 0 0 0 0 0 0 0 0 0 0 0 0 s w 0 0 0 0 0 0 0 0 0 s w 0 0 0 0 0 0 s w 0 0 0 0 s s 0 0 0 w s 0 0 w d 0 0 s w 0 w s 0 s d 0 0 0 0 0 0 0 0 0 0 0 0 0 0 0 0 0 w s 0 0 0 0 w > > w w w w 0 $ $ 8 w w w w 0 $ 0 w w w w w w w 0 $ 0 w w w 0 w w w 0 $ 8 w w w w w w w w $ 8 w 0 w 0 0 8 0 w 0 w w 0 0 0 ",
"$ $ $ $ $ $ $ $ $ w 8 $ $ $ $ $ $ 0 8 $ $ $ $ 0 8 > # B ,.8 Q eXU.<.> 8Xe 8 $ 8 w $ w 0 $ $ $ $ $ $ > $ i +.9 9 9 8 > $ $ 0 0 $ $ $ $ $ $ $ $ $ $ w $ $ $ $ $ $ 8 0 $ $ $ $ $ w > $ $ > q 8.c.4 j 4 , 8 w $ $ w 8 $ s 8 $ $ $ $ $ $ $ $ $ $ $ $ $ $ $ $ $ 0 8 $ $ $ $ $ $ $ $ $ 0 8 $ $ $ $ $ $ 0 0 $ $ $ $ 0 0 $ > $ 0 0 $ $ > w $ $ w 8 $ 8 0 $ 0 w $ > $ $ $ $ $ $ $ $ $ $ $ $ $ $ $ 8 0 $ $ $ $ 0 > > w w w w 0 $ $ 8 w w w w 0 $ 0 y y y y y y y 0 $ 0 q y y y y y y q $ 8 q y y y y y y q $ 8 w w w w a s w w a w w w w w ",
"> > > > > > > > $ w 8 > > > > > $ w 8 > > > $ w 8 8 % B ,.8 2.<.* , 8 8Xh 8 $ 8 w $ w 0 $ > > > > > 8 $ i +.9 e 9 8 8 > $ 0 0 $ > > > > > > > > > w > > > > > > 8 0 $ > > > > w 8 > > > q 8.c.4 j 4 , 8 w > > w 8 $ s 8 > > > > > > > > > > > > > > > > $ 0 8 > > > > > > > > $ 0 0 $ > > > > $ 0 0 $ > > $ 0 0 $ 8 $ 0 0 $ > 8 w > $ w 8 $ 0 0 $ 0 w $ 8 > > > > > > > > > > > > > > > 8 w $ > > $ 0 > > w w w w 0 . o $ w w w w 0 $ 0 t t t t t t t q $ 0 t t t t t t t q $ 8 t t t t t t t q $ 8 w w w a 8 = 0 0 8 0 w w w w ",
"> > > > > > > > $ w 8 > > > > > $ w 8 $ > > $ 0 8 8 % B ,.8 2.2.> e $ 7Xh , $ 8 w $ w 0 $ > > > > > 8 $ i +.9 e 9 8 > > $ 0 0 $ > > > > > > > > > w > > > > > $ 8 0 $ > > > > w > > > > q 8.c.4 j 4 , 8 w $ $ w 8 $ s 8 $ > > > > > > > > > > > > > > > $ 0 8 $ > > > > > > > $ 0 8 $ > > > > $ 0 0 $ > > $ 0 0 $ > $ 0 0 $ > 8 w > $ w 8 $ 0 0 $ 0 w $ > > > > > > > > > > > > > > > $ 8 w $ > > $ 0 > > w w w 0 s j j g 0 w w w 0 $ 0 t t t t t t t q $ 0 u t t t t t t q $ 8 u t t t t t t q $ 8 w w w 8 q.MXSXKXMXw.0 w w w ",
"> > > > > > > > $ w 8 > > > > > $ w 8 $ > > $ 0 8 8 % B ,.8 2.<.> e $ 7Xx , $ 8 w $ w 0 $ > > > > > 8 $ i +.9 e 9 8 > > $ 0 0 $ > > > > > > > > > w > > > > > $ 8 0 $ > > > > w > > > > q 8.c.4 j 4 , 8 w $ $ w 8 $ s 8 $ > > > > > > > > > > > > > > > $ 0 8 $ > > > > > > > $ 0 8 $ > > > > $ 0 0 $ > > $ 0 0 $ > $ 0 0 $ > 8 w > $ w 8 $ 0 0 $ 0 w $ > > > > > > > > > > > > > > > $ 8 w $ > > $ 0 > > w w w 8 q.JXPXb.= s w w 0 $ 0 t t t t t t t q $ 0 t t t t t t t q $ 8 u t t t t t t q $ 8 w w 0 b.JXSXV.b.V.b.k.w 0 w ",
"> > > > > > > > $ w 8 > > > > > $ w 8 $ > > $ 0 8 8 % B ,.8 2.<.> e # 7Xh $ $ 8 w $ w 0 $ > > > > > 8 $ i +.9 e 9 8 > > $ 0 0 $ > > > > > > > > > w > > > > > $ 8 0 8 8 > > > w > > > > q 8.c.4 j 4 , 8 w $ $ w 8 $ s 8 $ > > > > > > > > > > > > > > > $ 0 8 $ > > > > > > > $ 0 8 $ > > > > $ 0 0 $ > > $ 0 0 $ > $ 0 0 $ > 8 w > $ w 8 $ 0 0 $ 0 w $ > > > > > > > > > > > > > > > $ 8 w $ > > $ 0 > > w w w 8 q.HXJXb.= a w w 0 $ 0 t t t t t t t q $ 0 t t t t t t t q $ 8 u t t t t t t q $ 8 s = b.JXx.X o q t.< c.k.0 w ",
"> > > > > > > > $ w 8 > > > > > $ w 8 $ > > $ 0 8 8 % B ,.8 2.Q > e # 8XI.e $ 8 w $ w 0 $ > > > > > 8 $ i +.9 e 9 8 > > $ 0 0 $ > > > > > > > > > w > > > > > $ 0 , 7XS # 8 > w > > > > q 8.c.4 j 4 , 8 w 8 $ w 8 $ s 8 $ > > > > > > > > > > > > > > > $ 0 8 $ > > > > > > > $ 0 8 $ > > > > $ 0 0 $ > > $ 0 0 $ > $ 0 0 $ > 8 w > $ w 8 $ 0 0 $ 0 w $ > > > > > > > > > > > > > > > $ 8 w $ > > $ 0 > > w w w 8 q.GXJXb.= a w w 0 $ 0 t t t t t t t q $ 0 t t t t t t t q $ 8 u t t t t t t q $ 8 0 j GXn.o $ O NXBXO 4 c.w.0 ",
"> > > > > > > > $ w 8 > > > > > $ w 8 $ > > $ 0 8 8 % B ,.8 3.<.8 S N F 8X0X$ 8 w $ w 0 $ > > > > > 8 $ i +.9 e 9 8 > > $ 0 0 $ > > > > > > > > > w > > > > > 8 > h dXA # 8 > w > > > > q 8.c.4 j 4 , 8 w $ $ w 8 $ s 8 $ > > > > > > > > > > > > > > > $ 0 8 $ > > > > > > > $ 0 8 $ > > > > $ 0 0 $ > > $ 0 0 $ > $ 0 0 $ > 8 w > $ w 8 $ 0 0 $ 0 w $ > > > > > > > > > > > > > > > $ 8 w $ > > $ 0 > > w w w 8 q.GXJXb.= a w w 0 $ 0 t t t t t t t q $ 0 u t t t t t t q $ 8 u t t t t t t q $ 0 8 x.HX, $ $ $ IXu.o $ k.k.0 ",
"> > > > > > > > $ w 8 > > > > > $ w 8 $ > > $ 0 8 8 % B ,.8 U.;XH F L u , 8X8 > w $ w 0 $ > > > > > 8 $ i +.9 e 9 8 > > $ 0 0 $ > > > > > > > > > w > > > > > 8 $ G dXG # 8 > w > > > > q 8.c.4 j 4 , 8 0 y 8 w 8 $ s 8 $ > > > > > > > > > > > > > > > $ 0 8 $ > > > > > > > $ 0 8 $ > > > > $ 0 0 $ > > $ 0 0 $ > $ 0 0 $ > 8 w > $ w 8 $ 0 0 $ 0 w $ > > > > > > > > > > > > > > > $ 8 w $ > > $ 0 > > w w w 8 q.GXJXb.= a w w 0 $ 0 t t t t t t t q $ 0 t t t t t t t q $ 8 u t t t t t t q $ 0 = V.SXX $ $ $ d $ $ X 8.n.0 ",
"> > > > > > > > $ w 8 > > > > > $ w 8 $ > > $ 0 8 8 % B ,.8 U.;XZ F Z u w 8X8 > w $ w 0 $ > > > > > 8 $ i +.9 e 9 8 > > $ 0 0 $ > > > > > > > > > w > > > > > 8 $ G iXF # 8 > w > > > > q 8.c.4 j 4 , 8 0 0Xy 0 8 $ s 8 $ > > > > > > > > > > > > > > > $ 0 8 $ > > > > > > > $ 0 8 $ > > > > $ 0 0 $ > > $ 0 0 $ > $ 0 0 $ > 8 w > $ w 8 $ 0 0 $ 0 w $ > > > > > > > > > > > > > > > $ 8 w $ > > $ 0 > > w w w 8 q.GXJXb.= a w w 0 $ 0 t t t t t t t q $ 0 t t t t t t t q $ 8 u t t t t t t q $ 0 = V.SX$ $ $ $ . $ $ X g.d.0 ",
"> > > > > > > > $ w 8 > > > > > $ w 8 $ > > $ 0 8 8 % B ,.8 U.;XZ F Z N 0 8Xq > w $ w 0 $ > > > > > 8 $ i +.9 e 9 8 > > $ 0 0 $ > > > > > > > > > w > > > > > 8 # G tXQ # 8 > w > > > > q 8.c.4 j 4 , 8 0 9Xh , 8 $ s 8 $ > > > > > > > > > > > > > > > $ 0 8 $ > > > > > > > $ 0 8 $ > > > > $ 0 0 $ > > $ 0 0 $ > $ 0 0 $ > 8 w > $ w 8 $ 0 0 $ 0 w $ > > > > > > > > > > > > > > > $ 8 w $ > > $ 0 > > w w w 8 q.GXJXb.= a w w 0 $ 0 t t t t t t t q $ 0 t t t t t t t q $ 8 u t t t t t t q $ 8 8 k.JX4 . $ $ $ $ $ $ d.g.0 ",
"> > > > > > > > $ w 8 > > > > > $ w 8 $ > > $ 0 8 8 % B ,.8 7X3.Z F Z N 0 8Xr > w $ w 0 $ > > > > > > $ i +.9 e 9 8 > > $ 0 0 $ 8 > > > > > > > > w > > > 8 8 8 # K.tX2.# 8 > w > > > > q 8.c.4 j 4 , 8 0 rXN , 8 $ s 8 $ > > > > > > > > > > > > > > > $ 0 8 $ > > > > > > > $ 0 8 $ > > > > $ 0 0 $ > > $ 0 0 $ > $ 0 0 $ > 8 w > $ w 8 $ 0 0 $ 0 w $ > > > > > > > > > > > > > > > $ 8 w $ > > $ 0 > > w w w 8 q.GXJXb.= a w w 0 $ 0 t t t t t t t q $ 0 u t t t t t t q $ 8 u t t t t t t q $ 8 w w SXMXX $ $ $ $ X 8.c.j 0 ",
"8 8 8 8 8 8 8 8 = e 8 8 8 8 8 8 = w 8 > > > $ w 8 8 % B ,.9 7X4.Z F Z N , 8Xy > w $ w 0 $ > > > > > 8 % i +.9 e 9 8 8 > $ 0 0 $ $ 8 > > > > > > 8 w > 8 > 8 $ $ # K.9X2.# 8 > w 8 > > > q 8.c.4 j 4 , 8 0 iXH , 8 $ s 8 > > > > > > > > > > > > > > > > > w 8 > > > > > > > > > 0 0 > > > > > > 0 0 > > > > 0 0 > > > 0 0 > > 8 w > > w 8 $ 0 0 $ 0 a $ > > > > > > > > > > > > > > > > 8 w > > > > 0 > > w w w 8 q.GXJXb.= a w w 0 $ 0 t t t t t t t q $ 0 t t t t t t t q $ 8 u t t t t t t q $ 8 s 8 q.JXMX$ $ $ $ 8.c.w.0 w ",
"# # # # # # # # * < < * # # # # # 0 > $ = $ $ 0 8 $ # B X.> 7X4.Z C Z N 0 8Xy $ 0 $ 0 0 $ $ $ $ $ $ $ 8 7XiXy 9 9 8 8 = $ 0 8 y h $ = ; ; ; ; $ ; w $ ; $ Q A Q $ I.wXU.# 8 = w = = = $ q 8.c.4 j 4 , > w iXA , 8 X q = X $ X X X X $ $ $ $ $ $ $ $ $ $ X 8 = X $ $ $ $ $ $ $ X 8 8 X $ $ $ $ X 8 8 X $ $ X 8 8 X = X 8 8 X $ = q X X q = X 8 8 X 8 q X $ $ $ $ $ $ $ $ $ $ $ $ $ $ $ X = q X $ $ X 8 > > w w w 8 q.GXJXb.= a w w 0 $ 0 t t t t t t t q $ 0 t t t t t t t q $ 8 u t t t t t t q $ 8 w w 8 g.n.0 0 0 0 j w.0 w w ",
"|.|.|.|.|.|.|.|.~  XT ~ ~ ~ ~ H N t q , < , q d w q , B 5.<.eX4.C Q C Z D 9Xh q h r h d 0 0 0 q q q 0 0X8XyXS 4 w , < < < < s uXqX< + + + 9 9 9 9 i 9 + i iX0XuX9 Y.7XU.7 < < 4 < < < , 0 f.v.g w.g s w h iXF a d g q.w.8.8.8.8.8.8.8.8.8.8.8.8.8.8.8.8.8.g.w.8.8.8.8.8.8.8.8.8.g.w.8.8.8.8.8.8.g.w.8.8.8.8.g.g.8.8.8.g.g.8.8.8.g.8.8.g.w.8.w.g.8.g.g.8.8.8.8.8.8.8.8.8.8.8.8.8.8.8.8.8.w.g.8.8.8.8.w.$ > w w w 8 q.GXJXb.= a w w 0 $ 0 t t t t t t t q $ 0 t t t t t t t q $ 8 u t t t t t t q $ 8 w 0 w 0 8 w w w w 0 0 w w w ",
"L L L L L L L L ~ ~ ~ ~ ~ ~ tXdXiXiXtX.X! N < s a , 2 p pXU.o.F D F Z $.%.eX .p B p B B p i 0 < < < w 0Xi yX9XB Z Z L T T R ,X1X2X*X*X*X*X*X*X*X*X*X*X*X*XsX1XsX*X2X2X2X;.;.T W L Z Z H H j.n.j 8.6 4 < j dXF.f.f.f.f.7.7.7.7.7.7.7.7.7.7.7.7.7.7.7.7.7.7.7.7.7.7.7.7.7.7.7.7.7.7.7.7.7.7.7.7.7.7.7.7.7.7.7.7.7.7.7.7.7.7.7.7.7.7.7.7.7.7.7.7.7.7.7.7.7.7.7.7.7.7.7.7.7.7.7.7.7.7.7.7.7.7.7.7.7.7.7.8.= > w w w 8 q.GXJXb.= a w w 0 $ 0 t t t t t t t q $ 0 u t t t t t t q $ 8 u t t t t t t q $ 8 w w w w w w w w w w w w w w ",
"r r r r r r r r r y r r r r 0XN u G 9XH ~ oXXXN u t t Y pXL Y }.XXXX#X2X#X1XXX|.XX|.XXXXXX#X#XXXXXoXoXkXoXkX4XkXoXoX2XoXXXXXoX1X1XXXXXXXXXXXXXXXXXXXXXXXXX4X4X1XoX1X2X1XXXXXXXoX2XoXoXoXoXoX1XoXoXoXoXXX>XsX2X}.XX|.}.|.|.|.|.|.|.|.|.|.|.|.|.|.|.|.|.|.|.}.|.|.|.|.|.|.|.|.|.|.}.|.|.|.|.|.|.|.}.}.|.|.|.|.}.}.|.|.|.}.}.|.|.|.}.|.|.}.|.|.|.}.|.}.}.|.|.|.|.|.|.|.|.|.|.|.|.|.|.|.|.|.|.}.|.|.|.|.T $ 8 w w w 8 q.GXJXb.= a w w 0 $ 0 t t t t t t t q $ 0 u t t t t t t q $ 8 u t t t t t t q $ 8 w w w w a 0 0 0 0 w w w w w ",
"oXoXoXoXoXoXoXoXoXkXkXkXkX4X4XoXoXoX4XoXoXoXkXkXkXoXoX1X4XoXoXkX1X2XoXoXoX4XXXXXXXXXXX}.|.T E E |.m L wXB +.7XS 9 / @ > > < S R.R.9 < < < < < < < 4 < + i qXuX8XS R.$.7X+ < < 9 9 @ 9 $ r q.x.N G Z.Z.W  XsX>XE }.}.}.}.}.}.}.}.}.}.}.}.}.}.}.}.}.}.}.}.}.}.}.}.}.}.}.}.}.}.}.}.}.}.}.}.}.}.}.}.}.}.}.}.}.}.}.}.}.}.}.}.}.}.}.}.}.}.}.}.}.}.}.}.}.}.}.}.}.}.}.}.}.}.}.}.}.}.}.}.}.}.}.}.}.}.}.}.}.}.! $ 8 w w w 8 q.GXJXb.= a w w 0 $ 0 t t t t t t t q $ 0 t t t t t t t q $ 8 u t t t t t t q $ 8 w 0 w w = 0 j j s 0 0 w w w ",
"N H H H H H H H N tXtXtXtXtX! N N H 9XN N t t t .XXX* B pXy B =.I C V V Z qXo.9 9 + e < A qXy + 9 @ B U.i +.U. ./ i 9 9 9 9 o.3.7Xy 9 9 9 9 9 + 9 i 9 9 B 9X8X7X2.7XI 0X+ 9 9 i 9 9 i @ ; 8.v.< f.f.1 1 q.dXZ.1 5 1 7.1 1 1 1 1 1 1 1 1 1 1 1 1 1 1 1 1 1 5 1 1 1 1 1 1 1 1 1 1 5 5 1 1 1 1 1 1 5 5 1 1 1 1 5 5 1 1 1 5 5 1 1 1 5 1 1 5 1 1 5 5 1 5 5 1 1 1 1 1 1 1 1 1 1 1 1 1 1 1 1 1 1 5 1 1 1 1 5 8 > w w w 8 q.GXJXb.= a w w 0 $ 0 u t t t t t t q $ 0 u t t t t t t q $ 8 u t t t t t t q $ 8 w w 0 0 n.KXGXJXKXk.a 0 w w ",
"r r r r r r r r r 0Xu r r r r r r q qXG H H r y q .X~ p pXB V J J I Y Y I 4.8XeXp - y D 0X8X7X- c r 9X7Xi +.U.*.+ 9 9 9 9 > o.3.7Xy 9 9 9 9 9 3.p 9 9 + B 0Xy 3.R.7XI 0X+ 9 9 i 9 9 9 i i 8.d.8.c.6 R.l t.dXI.6 g 4 j g 4 4 4 4 4 4 4 4 4 4 4 4 4 4 4 4 4 j g 4 4 4 4 4 4 4 4 4 j j 4 4 4 4 4 4 j j 4 4 4 4 j j 4 4 4 j j 4 4 s j 4 4 j g 4 j j 4 j j 4 4 4 4 4 4 4 4 4 4 4 4 4 4 4 4 4 g j 4 4 4 4 g > > w w w 8 q.GXJXb.= a w w 0 $ 0 p p p p p p p e $ 0 p p p p p p p e $ 8 p ( p ( ( ( ( e $ 8 a 0 s MXJXV.g.8.f.c.n.g 0 a ",
"u u u u u u u u t 0Xu r u u u r r y Q 0X7XeXQ q u 8 .X-XpXV N J J I Y Y U B X 0Xp u 3.eXF u 9X0X2.Q 0XV ;.+.,X2.p 9 9 9 9 > <.3.8X>.+ 9 9 + y dX2.9 9 + B 8Xr 2.uX;XI 0X9 9 9 i 9 9 9 9 p ( B.f.8.j uXk t.iXI.5 g 4 j 4 4 4 4 4 4 4 4 4 4 4 4 4 4 4 4 4 4 j 4 4 4 4 4 4 4 4 4 4 j 4 4 4 4 4 4 4 j j 4 4 4 4 j j 4 4 4 j j 4 4 4 j 4 4 j 4 4 6 j 4 j j 4 4 4 4 4 4 4 4 4 4 4 4 4 4 4 4 4 4 j 4 4 4 4 g > > w w w 8 q.GXJXb.= a w w 0 $ 0 p p p p p p p e $ 0 p p p p p p p e $ 8 e i i i i i i w $ 8 s 8 MXGXj o O z ~.. d.n.w w ",
"u u u u u u u r t 0Xu r u r u N t N r - $ Q U.q u r t oXpXB B J I I Y Y U Z c 7XqX0X7Xu c r r u 7XiXD u <X{ 2.eXeXp 9 9 + + 1.3.B 0XA p 9 + B rX3., B 9 A 8Xp B eX4.I 0X> 9 9 i 9 9 9 9 i ( B.8.8.q.iXk t.iXI.5 g 4 6 Z.Z.3 4 4 4 4 4 4 4 4 4 4 4 4 4 4 4 j l s 4 4 4 4 4 4 4 4 j 4 4 4 4 4 4 4 j j 4 4 4 4 j j 4 4 4 j j 4 4 4 j 4 4 j 4 4 6 j 4 j j 4 4 4 4 4 4 4 4 4 4 4 4 4 4 4 4 4 4 j 4 4 4 4 g > > w w w 8 q.GXJXb.= a w w 0 $ 0 p p p p p p p e $ 0 p p p p p p p e $ 8 6.6.6.6.6.6.6.( % 0 0 q.JXk.o , o BXBXO , c.w.0 ",
"u u u u u u u r t 0Xu u u r N P L W N u - F U.q u u = K dX%.K J I I Y Y U Z r u F r 9 y r r r 9 r 7Xu N ;.:.B 9 7XX.+ + 2.R.qX3.@ 2.jX2.+ + <.9X7X< eX7XA 7XB B i B J tXy 9 9 i 9 9 9 9 r d.C.6 8.r.fXz s.iXI.5 g 4 5 U.U.7 4 4 4 4 4 4 4 4 4 4 4 4 4 4 4 5 R.A 3 4 4 4 4 4 4 4 j 4 4 4 4 4 4 4 j j 4 4 4 4 j j 4 4 4 j j 4 4 4 j 4 4 j 4 4 6 j 4 j j 4 4 4 4 4 4 4 4 4 4 4 4 4 4 4 4 4 4 j 4 4 4 4 g > > w w w 8 q.GXJXb.= a w w 0 $ 0 p p p p p p p e $ 0 p p p p p p p e % 0 cXcXcXcXcXcXcX*.* 0 8 b.KX$ $ $ $ BXk   X f.x.0 ",
"u u u u u u u r N 0Xr r r r H P L W N r - G 7Xq u r t ;.fX*XJ J I I Y Y U Z r r r @ y y r r r r r c r B :.<X .9 X.rX9 + qXdX7XB B > o.0XB + 8X>.qXx 8XeX2.U.B V 9 B Y iXD + 9 i 9 9 9 9 l c.C.j 8.t.hXz J.iXU.5 g 4 5 R.U.7 4 4 4 4 4 4 4 4 4 4 4 4 4 4 4 5 8XG 3 4 4 4 4 4 4 4 j 4 4 4 4 4 4 4 j j 4 4 4 4 j j 4 4 4 j j 4 4 4 j 4 4 j 4 4 6 j 4 j j 4 4 4 4 4 4 4 4 4 4 4 4 4 4 4 4 4 4 j 4 4 4 4 g > > w w w 8 q.GXJXb.= a w w 0 $ 0 p p p p p p p e $ 0 p p p p p p p e % 0 vXcXcXcXcXcXcX+.* 0 = V.SXX $ $ $ # $ $ X 8.n.0 ",
"u u u u u u u r H 9XN N N N Z L L W H r - H 8Xq r 7XtXtXpX2XK J I I Y Y I Z r r y r y y r r r r r r r V &.:.=.p + 7X2.B 7XuXU.B B + 9 dXuX+ 0XB X.uX8X8XeX2.Z V 9 B V 8Xo.+ 9 i 9 9 + 9 g.d.c.( 8.J.dXx J.pXU.5 g 4 5 8XU.7 4 4 4 4 4 4 4 4 4 4 4 4 4 4 4 5 qXZ.3 4 4 4 4 4 4 4 j 4 4 4 4 4 4 4 j j 4 4 4 4 j j 4 4 4 j j 4 4 4 j 4 4 j 4 4 6 j 4 j j 4 4 4 4 4 4 4 4 4 4 4 4 4 4 4 4 4 4 j 4 4 4 4 g > > w w w 8 q.GXJXb.= a w w 0 $ 0 p p p p p p p e $ 0 p p p p p p p e % 0 vXcXcXcXcXcXcX+.* 0 = b.KX$ $ $ $ $ $ $ X f.d.0 ",
"u u r - - - - = t tXL P P P L L L W H r r t eX8X0XtXv C ;.2X=XY J I Y Y I Z u u y r y r u V r r r r @ @.&.:.#.` 9 p 9XuXB 7X<.B B 9 9 i 0Xp 8XC r S p C dX4.V V i D V 3.2.+ 9 i 9 i ;Xl f.f.c.( 8.J.iXS J.rXU.6 g s 6 qXR.7 4 4 4 4 4 4 4 4 4 4 4 4 4 4 4 5 qXZ.7 4 4 4 4 4 4 4 j 4 4 4 4 4 4 4 j j 4 4 4 4 j j 4 4 4 j j 4 4 4 j 4 4 j 4 4 6 j 4 j j 4 4 4 4 4 4 4 4 4 4 4 4 4 4 4 4 4 4 j 4 4 4 4 g > > w w w 8 q.GXJXb.= a w w 0 $ 0 p p p p p p p e $ 0 p p p p p p p e $ 0 vXcXcXcXcXcXcX` * 0 0 q.JXw.o $ $ $ $ X $ c.g.0 ",
"u r u Q 4.4.4.2.7XtXY L L L L L L W L H Z H N A H v u V <X;.2XJ I I Y Y I I J B e r y B Z J N u r r ` @.&.:.@.` i + D 0X9 9 i Z B 9 9 + 2.3.7XI B < p Z o.%.V V p Z V 4.2.+ 9 i + B dXk.j f.c.j ( P.iXS Z.tXU.6 4 4 6 eX8X7 4 4 4 4 4 4 4 4 4 4 4 4 4 4 4 5 qXK.7 4 4 4 4 4 4 4 j j 7 K.Z.3 4 4 j j 4 4 4 4 j j 4 4 4 j j 4 4 4 j 4 4 j 4 4 6 j 4 j j 4 4 4 4 4 4 4 4 4 4 4 4 4 4 4 4 4 4 j 4 4 4 4 g > > w w w 8 q.GXJXb.= a w w 0 $ 0 p B B B B B B e # 0 p B B B B B B e % 0 vXcXcXcXcXcXcX+.* 8 a 8 MXKX4 X $ $ $ $ f.n.s 0 ",
"u - G eXQ Q Q Q Q Q L L L L L L L W P P P L u q u v u V ,XU 2X}.I I Y Y I I Y Z y N Z I Y Y J Y N @ *.J &.:.@. .B 9 9 + 9 9 p V V r 9 + A 7X8XC B i p V @ Z I V B C V 4.3.+ 9 i + B dXg.l ].C.6 qXiX0XZ.Z.tXR.5 x x 5 uX8X7 4 4 4 4 4 4 4 4 4 3 I.S 3 4 4 5 uXL.7 4 4 4 4 4 4 4 j j 7 8XK.7 4 4 j j 4 4 4 4 j j 4 4 4 j j 4 4 4 j 4 4 j 4 4 6 j 4 j j 4 4 4 4 4 4 4 4 4 4 4 4 4 4 4 4 4 4 j 4 4 4 4 g > > w w w 8 q.GXJXb.= a w w 0 # e 0X9X9X9X9X9X9Xh # q =X#XOXOXOXOX#XN # 0 8XrXeXeXeXeXrXS # 8 a 0 s KXMX$ $ $ $ w.c.j 0 w ",
"u - Q 2.. - - - = H P L L L L L L P L L L L t y v N u V <XR }.2XI I Y Y I I Y Y I Y U I Y Y Y Y Y B @.Y &.:.@.#.#.9 9 9 @ 9 B V J B @ 9 p iX7XZ B p B V p Z V V V I V -.U.+ 9 i + D hXx 6 iXH.5 iXY.I.Z.L.9XR.1 P.I.1 iX8X7 4 4 4 4 4 4 4 4 4 7 8XS 7 4 4 5 uXI.7 4 4 4 4 4 4 4 j j 7 0XK.7 4 4 j 4 4 4 4 4 j 6 4 4 4 6 j 4 4 4 j 4 4 j 4 4 4 j 4 j j 4 4 4 4 4 4 4 4 4 4 4 4 4 4 4 4 4 4 j 4 4 4 4 g > > w w w 8 q.GXJXb.= a w w 0 # e 0X9X9X9X9X9X9Xh # q =X#XOXOXOXOX#XN # 0 0XrXeXeXeXeXrXS # 8 w w 8 j q.0 w w 0 g j 0 w w ",
"q $ I.U.q h h h y F W W W W W W P W W W W W N N V N u  .,X4.-.2X*X$.I I %.I I I %.I %.I I I I I I &.%.I &.:.&.&.;.B i i p p S I I C Z i p fXo.C D B C I B C I I $.>.C 4.8X9 i i 9 o.hX( j iXH.f.iX1.R.Z.P.0X8X5 U.U.9.iX8X5 j j j j j j j j j 5 0XZ.5 j j 6 uXU.5 j j j j j j j j j 5 qXP.5 j j j j j j j j j j j j j j j j j j w.j j w.j j j j j j w.j j j j j j j j j j j j j j j j j j w.j j j j j $ > w w w 8 q.GXJXb.= a w w 0 # e 0X9X9X9X9X9X9Xh # q =X#XOXOXOXOX#XN # 0 0XrXeXeXeXeXrXS # 8 w 0 w 0 8 w w w w 0 0 w w w ",
"U.U.eXF r u u u u Z U L L L L L L W P L L P t B B N H %.,X-.-.*X2XI I I I I Y I I Y I I I I I L @.&.J J &.:.#.%.&.@.9 9 B B A I C I I B p F B I V B V I Z V I V I $.V %.8X> 9 i > K.dX..6 iXE.g.uX( 8XZ.R.7X8X5 R.R.6 iX8X3 g 4 4 4 4 4 4 4 g 3 qXZ.3 g 4 6 iXU.3 g 4 4 4 4 4 4 j j 3 uXI.3 j 4 j j 4 4 4 4 j j 4 4 4 j j 4 4 4 j 4 4 j j 4 j j 4 j j 4 4 4 4 4 4 4 4 4 4 4 4 4 4 4 4 4 j j 4 4 4 4 j > > w w w 8 q.GXJXb.= a w w 0 # e 0X9X9X9X9X9X9Xh # q =X#X+XOXOXOX#XN # 0 8XrXeXeXeXeXrXS # 8 w w w w s w 0 0 w w w w w w ",
"Q Q Q u r r r r - Z P L L L L L L W L L L L Z #.Z Y U *X,XR R R 2XR V Y I I Y I I Y I I Y Y Y Y &.@.J J &.:.#.#.@.=.p 9 V B Z V V V V B N + p J V B V V Z V V V V I V %.0X9 p i < E.iX..6 dXE.g.uXx 8XK.R.;X8X5 R.8X6 iX8X3 4 4 4 4 4 4 4 4 4 7 qXZ.7 4 4 j iXU.7 4 4 3 4 4 4 4 j 4 3 uXI.7 4 4 j 4 4 4 4 4 j j 4 4 4 j j 4 4 4 j 4 4 j 4 4 4 j 4 j j 4 4 4 4 4 4 4 4 4 4 4 4 4 4 4 4 4 4 j 4 4 4 4 g > > w w w 8 q.GXJXb.= a w w 0 # e 8X9X9X9X9X9X9Xh # q =X#X+XOXOX+X#XN # 0 8XrXeXeXeXeXrXS # 8 w 0 w w 8 0 g g 0 8 w w w w ",
"- - - t t t t t t Z P L L L L L L W L L L L E ;.R R P *X,X-.E U XXXXV Y I I Y I I Y I I Y Y Y @.&.J J J &.:.#.#.@.=.@.y Y C C V V V V V Z 9 B I V B V V V V V V C I V %.7XF qX9 6 E.pXO.6 dXE.g.eXp 7XI.R.3.0X5 8X8Xj iX8X3 4 4 4 4 4 3 4 4 4 3 rXZ.7 s 3 6 iX8X7 4 3 Z.S 3 4 4 j 4 3 iXI.7 l s 6 j 4 4 4 4 j j 4 4 4 j j 4 4 4 j 4 4 j 4 4 6 j 4 j j 4 4 4 4 4 4 4 4 4 4 4 4 4 4 4 4 4 4 j 4 4 4 4 g > > w w w 8 q.GXJXb.= a w w 0 # e 0X9X9X9X9X9X9Xh # q =X#XOXOXOXOX#XN # 0 0XrXeXeXeXeXrXS # 8 w w 0 0 x.SXHXGXSXk.0 0 w w ",
"u u u Z L L L L L W L L L L L L L W L L L L ;.R U U P *X,X-.R R E 2XY Y I I Y I I Y I I Y Y Y @.@.J J J &.:.#.#.@.@.=.V V I I V V V V V V r B J V Z V V V V V V C I V I 7X<.iXi f.R.tXZ.6 iXE.j.qXp 7XY.8X2.0X5 8X0Xq.uX8XqXx 3 3 4 4 S l 4 4 3 uXZ.3 4 S Z.qX0XU.z 7 R.Z.7 4 4 j 4 4 iXU.7 I.Z.5 j 4 3 4 4 j j 4 4 4 j j 4 4 4 j 4 4 j 4 4 6 j 4 j j 4 4 4 4 4 4 4 4 4 4 4 4 4 4 4 4 4 4 j 4 4 4 4 g > > w w w 8 q.GXJXb.= a w w 0 # e 0X9X9X9X9X9X9Xh # q =X#XOXOXOXOX#XN # 0 0XrXeXeXeXeXrXS # 8 w 0 w MXJXMXk.g.d.c.n.s 0 w ",
"u u u L P L L L L W L L L L L L L W L L L U ;.R R U P *X,X-.R R U 2X|.V I I Y I I Y I I Y Y J &.J J J J &.:.#.#.@.@.=.#.V I I V V V V V Y y Z I V C V V V V V V C I Y Z 7X0XiXx g.7X9XL.j iXR.j.qXB 7XR.8X<.qX5 8XqXr.eXqXhXZ.7 A k 7 qXK.7 4 3 uXZ.3 7 8XgXrX8XdXA 7 R.Z.7 4 4 j 4 4 dXU.7 R.I.3 j 4 z g 4 j j 4 4 4 j j 4 4 4 j 4 4 j 4 4 6 j 4 j j 4 4 4 4 4 4 4 4 4 4 4 4 4 4 4 4 4 4 j 4 4 4 4 g > > w w w 8 q.GXJXb.= a w w 0 # e 8X9X9X9X9X9X9Xh # q =X#X+XOXOX+X#XN # 0 8XrXeXeXeXeXrXS # 8 s 8 V.JXw.o O f F.# c.n.w w ",
"r r u L L L L L L W L L L L L L L W L L L =.E R R U P *X,X-.R R U :XoXV I I Y I I Y I I Y Y @.#.J J J J &.:.#.#.@.@.#.=.V I I V V V V V V B V V V $.V V V V V V C I V V D iXrXj.aXuX8XY.l uXyXJ.qX..7XR.8XQ 9X6 8XuXJ.qXeXdXK.7 qXS 7 qXU.7 4 4 iXK.3 S 0XjX9X8XdXS 7 8XK.7 4 4 j 4 4 iXeXl R.U.3 j 4 eXx 3 j j 4 4 4 j j 4 4 4 6 4 4 j 4 4 6 j 4 j j 4 4 4 4 4 4 4 4 4 4 4 4 4 4 4 4 4 4 j 4 4 4 4 g > > w w w 8 q.GXJXb.= a w w 0 # e 8X9X9X9X9X9X9Xh # q =X#X+XOXOX+X#XN # 0 8XrXeXeXeXeXrXS # 0 0 w.JXk.o , o BXBXO , c.w.0 ",
"N t N L L L L L L W L L L L L L L W L L P ;.U R U U P *X,X-.R R R R 2XU I I Y I I Y I I Y Y #.@.J J J J &.:.#.#.@.@.J =.J C I V V V V V V V V V V $.V V V V V V C I V I p 9 7X].iXiX3.R.l uXyXJ.qX..3.8X0XF 9Xj 8XrXZ.0XuXiXI.7 qXS 7 eXR.7 4 4 iXL.3 iXuXqX9X0XhXZ.7 0XK.7 s 4 j 4 l uXgXs.R.8X5 6 d dXx 3 j j 4 4 4 j j 4 4 3 Z.z 3 j 4 4 6 j 4 j j 4 4 4 4 4 4 4 4 4 4 4 4 4 4 4 4 4 4 j 4 4 4 4 g > > w w w 8 q.GXJXb.= a w w 0 # e 0X9X9X9X9X9X9Xh # q =X#XOXOXOXOX#XN # 0 0XrXeXeXeXeXrXS # 0 8 n.KX> $ $ $ BXe.  X f.x.0 ",
"L L L L L L L L L W L L L L L L L W L L K ;.P R U U P *X,X-.R R R U XX}.C I Y I I Y I I Y J &.J J J J J &.:.#.#.@.@.J #.#.C I V V V V V V V V V V $.V V V V V V C I V I B + S dX0XqXX.uXL.yXyXT.qX..2.hXpX .0XJ.iX9XP.8XuXeXU.7 eXS 7 uX8X7 4 4 iXI.3 dXuXZ.0X0XgXZ.7 0XR.k 4 3 j 4 l uXgXZ.8X0X5 4 x fXS 7 j j 4 4 4 j j 4 4 3 qXA 7 j 4 4 6 j 4 j j 4 4 4 4 4 4 4 4 4 4 4 4 4 4 4 4 4 4 j 4 4 4 4 g > > w w w 8 q.GXJXb.= a w w 0 # e 0X9X9X9X9X9X9Xh # q =X#XOXOXOXOX#XN # 0 0XrXeXeXeXeXrXS # 0 = V.SXX $ $ $ $ $ $ X 8.n.0 ",
"L L L L L L L L L W L L L L L L L W L L ;.E U R U U P *X,X-.R R R U E 2XI I Y I I Y I I Y @.@.J J J J J &.:.#.#.@.@.J J =.I I V V V V V V V V V V $.V V V V V V C I V I B 9 g.aXO.x D O.uXyXyXR.8X..2.hX0X .0XZ.eX8XE.7XrX8XR.3 uXs.7 iX8X7 4 g dXI.4 dXiXz S eXgXZ.7 8XiXR.g A j 4 z rXgXK.8X0XZ.Z.l dXs.3 k 6 4 4 4 j j 4 4 7 qXZ.7 j 4 4 j j 4 j j 4 4 4 4 4 4 4 4 4 4 4 4 4 4 4 4 4 4 j 4 4 4 4 g > > w w w 8 q.GXJXb.= a w w 0 # e 8X9X9X9X9X9X9Xh # q =X#X+XOXOX+X#XN # 0 8XrXeXeXeXeXrXS # 0 = b.KX$ $ $ $ $ $ $ X f.d.0 ",
"L L L L L L L L L W L L L L L L L W L P ;.U U R U U P *X,X-.R R R R P 2XR I Y I I Y I I Y &.J J J J J J &.:.#.#.@.@.J J =.%.C V V V V V V V V V V $.V V V V V V C I V I B i j.( l i >.i qXuX[.iX8X..2.dXO. .0XP.8X7XuX7XrXL.8Xg iXZ.7 uXqXZ.4 l dXI.g iXuXk x tXgXZ.4 0XgX8XS eX1 4 x eXhXU.0X0XI.U.I.uX8X8XP.3 3 4 4 j j 4 g k qXK.7 j 4 3 4 j 4 j j 4 4 4 4 4 4 4 4 4 4 4 4 4 4 4 4 4 4 j 4 4 4 4 g > > w w w 8 q.GXJXb.= a w w 0 # e 8X9X9X9X9X9X9Xh # q =X#X+XOXOX+X#XN # 0 8XrXeXeXeXeXrXS # 0 8 g.JXw.o $ $ $ $ $ $ c.g.0 ",
"L L L L L L L L L W L L L L L L L W L E =.U U R U U P *X,X-.R R R R P XX>XV Y I I Y I I J &.J J J J J J &.:.#.#.@.@.J J #.=.C V V V V V V V V V V $.V V V V V V C I V V V x j.l 6 x >.p I.aXj.dX8X..2.iXO. .0XiX8X7XdX<.U.S 8Xx uXZ.3 eXiXuX4 k iX8XS 8XS S S tXhXI.8XqXjX8XS fXU.R.s.eXdXU.0XqXR.qXuXU.iXiXP.j Z.4 4 j j 3 z 8XuXI.7 j x I.s.6 4 j j 4 4 4 4 4 4 4 4 4 4 4 4 4 4 4 4 4 4 j 4 4 4 4 g > > w w w 8 q.GXJXb.= a w w 0 # e 0X9X9X9X9X9X9Xh # q =X#XOXOXOXOX#XN # 0 0XrXeXeXeXeXrXS # 8 w 0 SXSX, # $ $ $ $ f.n.s 0 ",
"L L L L L L L L L W L L L L L L L W L ;.E U U R U U P *X,X-.R R R R U E 2XI Y I I Y I I @.@.J J J J J J &.:.#.#.@.@.J J J ;.I V V V V V V V V V V $.V V V V V V I I V I V j.O.x l x >.B O.yXx.iXR...5.uX.. .0XhX7X8XiXD x x 8XS dXK.4 qXdXiX3 k rXiXU.U.w <.S eXdXiXrXqXjXqXZ.eXgXiXK.0XZ.qXqXiXfXqXK.x hXdXqX8XiX3 4 5 Z.I.k qXuXU.7 5 Z.dXR.5 3 j j 4 4 4 4 4 4 4 4 4 4 4 4 4 4 4 4 4 4 j 4 4 4 4 g > > w w w 8 q.GXJXb.= a w w 0 # e 0X9X9X9X9X9X9Xh # q =X#XOXOXOXOX#XN # 0 0XrXeXeXeXeXrXS # 8 a 0 j HXMX$ $ $ $ 8.c.j 0 w ",
"L L L L L L L L L W L L L L L L L W U ;.U U U R U U P *X,XR R R R R U P 2XE V J I Y I I &.J J J J J J J &.:.#.#.@.@.J J J =.#.V V V V V V V V V V I V V V V V V V I V V Z J. .x x A X.A x J.j.uXY.X.2.0XO.D 0XgXU.7XiXD S B 7XqXrXZ.4 qXdXdXl Z.9XiX8XU.h o.A eXiXfXiXeXgXqXU.K.iXdXP.7Xe hXuX0XgXiXK.S fXdXdXiXuXx L.P.P.iXs.uXuXuXx Z.uXiXdXZ.l 4 j 4 4 4 4 4 4 4 4 4 4 4 4 4 4 4 4 4 4 j 4 4 4 4 g > > w w w 8 q.GXJXb.= a w w 0 # e 8X9X9X9X9X9X9Xh # q =X#X+XOXOX+X#XN # 0 8XrXeXeXeXeXrXS # 8 w w 8 j k.0 w 0 0 g j 0 w w ",
"L L L L L L L P L W P L L L L P P W -.;.U R U R R R U *X,X-.-.R R R R P :X>XV I I I I %.&.J %.%.%.%.%.J &.:.&.&.%.%.%.%.J #.;.C I I I I I I I I I $.I I I I I I I $.C Y O.A.X...X.X.X.X...A.H.T.L.O.X...O.X.0XhX2.8XiXD S S 0XiXo.R.S qXiXiXL.hX0X0XeXU.x <.D eXuXfXdXuXdXiXfXx Z.gXeX7Xx dXqXS fXgXZ.S hXhXfXdXuXiXiXiXiXqXuXiXuXhX8XiXuXiXfX8XU.6 j 4 j 4 4 4 4 4 4 4 4 4 4 4 4 4 4 4 j j 4 6 4 4 j $ > w w w 8 q.GXJXb.= a w w 0 # e 8X9X9X9X9X9X9Xh # q =X#X+XOXOX+X#XN # 0 8XrXeXeXeXeXrXS # 8 w 0 w 0 8 w w w w 0 0 w w w ",
"W W W W W W W W W W W W W W W W W W *X-.R R R 4.-.R U *X,X4.4.-.-.4.R R 4.2XI I %.I %.&.&.%.%.%.%.%.%.%.&.:.&.&.&.&.%.%.%.%.;.$.$.$.$.$.$.$.$.$.$.>.$.$.$.$.$.$.$.>.$.I A.O.X...O.o.o.>.O.A.H.( A.1.O...1.X.0XiXG <.Z.o.G A 0XeXG eXdXqXeXqX8XgX8XZ.hXU.S <.G eXqXrXiXiXiXZ.dXS J.hXgX7XA iXZ.S iXqXz o.U.dXhXdXeXiXiXgXiXR.jXiXuXdXqXdXL.iXhXqX8X6 J.e.j j j j j j j j j j j j j j j j j w.j j j j j $ > w w w 8 q.GXJXb.= a w w 0 # e 0X9X9X9X9X9X9Xh # q =X#XOXOXOXOX#XN # 0 0XrXeXeXeXeXrXS # 8 w 0 w w w w w w w w w w w w ",
"L L L L L L L L L P L L L L L L L U ;.P U U U R U U P *X,XR R R R R U U U 2XE V I Y I &.J J J J J J J J &.:.#.#.@.@.J J J J =.@.V V V V V V V V V I V V V V V V V I V C A. .X...X.X.X.X.X.A.H.( O.X.X.A >.D 8XpXD A x F D B 0X0Xy iXjX0X9XU.iXdX7Xw qXU.B o.A eX7X3 8XdX7XS iXS x fXuXG D 8XS h x S x D S dXhXiX0X8XqXjXqXZ.gXdXrXdXuXhXZ.uXhXuX8X1 qXo.7 4 4 4 4 4 4 4 4 4 4 4 4 4 4 4 4 j 4 4 4 4 g > > w w w 8 q.GXJXb.= a w w 0 # e 0X9X9X9X9X9X9Xh # q =X#XOXOXOXOX#XN # 0 0XrXeXeXeXeXrXS # 0 s w w w w w w w w w w w w w ",
"L L L L L L L L L W L L L L L L L -.=.U U U U R R U P *X,X-.R R R R U U U }.XXV I Y %.&.J J J J J J J J &.:.#.#.@.@.J J J %.#.=.V V V V V V V V V $.V V V V V V I I V O.O. .X...X.X.X.X.X.A.H.( O.O.X.X.X.X.X...,.D S F D A 0X8Xy o.eX0X0Xo.uXK.D x Z.<.A o.D 9X7X< S o.S x uXD x 8XS S Q h x S k l S F D eXiXfXS 4 qXdXx Z.gXdX8X0XdXgXZ.uXgXdX0X1 eXK.7 s 4 4 4 4 4 4 4 4 4 4 4 4 4 4 4 j 4 4 4 4 g > > w w w 8 q.GXJXb.= a w w 0 # e 8X9X9X9X9X9X9Xh # q =X#X+XOXOX+X#XN # 0 8XrXeXeXeXeXrXS # $ > $ > > > > > > > > > > > > ",
"L L L L L L L L L W L L L L L L L ;.R U U U U R U U P *X,X-.R R R R U U R R 2XJ I Y &.#.J J J J J J J J &.:.#.#.@.@.J J J %.%.=.J V V V V V V V V $.V V V V V V C I V A.X.X.X.X.X.X.X.X.>.A.H...O.O.X.X.X.X.A x *.D A F F D U.Z.B 4 Z.0XA x S k S D d S F o.D 7X2.d s h D S rXQ x l 4 D F S S B x k A F A h eX7Xh 4 S s.j A 7XuXR.x hXhXG rXgXgXqX1 uXU.4 3 4 4 4 4 4 4 4 4 4 4 4 4 4 4 4 j 4 4 4 4 g > > w w w 8 q.GXJXb.= a w w 0 # e 8X9X9X9X9X9X9Xh # q =X#X+XOXOX+X#XN # 0 8XrXeXeXeXeXrXS # $ $ $ $ $ $ $ $ $ $ $ $ $ $ $ ",
"L L L L L L L L L W L L L L L L U *XU U U U U R U U P *X,X-.R R R R U U R P oX}.I Y &.%.J J J J J J J J &.:.#.#.@.@.J J J %.%.=.#.V V V V V V V V $.V V V V V V C I C A.X.X.X.X.X.X.X.X.>.A.H.O.O.O.X.X.X.X.A S *.X.G F D F A s D h l F B S s l D F x A F o.F S A x x S D A U.Q A x s D F A A D S x D F A h S l S x 4 j x S 7 qXU.x dXfXA qXhXfXeX1 uXuX0Xx z 4 4 4 4 4 4 4 4 4 4 4 4 4 4 j 4 4 4 4 g > > w w w 8 q.GXJXb.= a w w 0 # e 0X9X9X9X9X9X9Xh # q =X#XOXOXOXOX#XN # 0 0XrXeXeXeXeXrXS # 0 a s j j j j j j j j j j j j ",
"L L L L L L L L L W L L L L L L E ;.U U U U U R U U P *X,X-.R R R R U U R U }.>XC @.&.I J J J J J J J J &.:.#.#.@.@.J J J %.%.#.=.V V V V V V V V $.V V V V V V C I O.O. .X.X.X.X.X.X.X.>.A.H.O.O.O.X.X.X.X.X...,. .o.F D F A h F h g A A S x x D F S D D o.F A A A S G D D A D G S x D F D D D G S D F D B x x A S x S S A d qXI.S iXZ.S G uXdXqXZ.uXdXiXrXZ.7 4 4 4 4 4 4 4 4 4 4 4 4 4 j 4 4 4 4 g > > w w w 8 q.GXJXb.= a w w 0 # e 0X9X9X9X9X9X9Xh # q =X#XOXOXOXOX#XN # 0 0XrXeXeXeXeXrXS # 0 - B.DXAXAXAXAXAXAXAXAXAXAXAX",
"L L L L L L L L L W L L L L L L ;.R U U U U U R U U P *X,X-.R R R R U U R U E 2XU @.&.%.J J J J J J J J &.:.#.#.@.@.J J J %.%.J =.J V V V V V V V $.V V V V V V C I A.X.X.X.X.X.X.X.X.X.>.A.H.O.O.O.X.X.X.X.X.X.X.*.o.F D F A x F x x D A D A D D F A D D o.F D D F G D D F F D F G A D F D D F F G F F D A S A D A A A S D S G A A I.k G x eXo.qXiXR.eXqXdXZ.3 4 3 4 4 4 4 4 4 4 4 4 4 4 j 4 4 4 4 g > > w w w 8 q.GXJXb.= a w w 0 # e 8X9X9X9X9X9X9Xh # q =X#X+XOXOX+X#XN # 0 8XrXeXeXeXeXrXS # 0 - B.N.v.v.v.v.v.v.v.v.v.v.v.",
"L L L L L L L L L W L L L L L U ;.R U U U U U R U U P *X,X-.R R R R U U R R J 2X*X@.%.%.J J J J J J J J &.:.#.#.@.@.J J J %.%.J =.#.V V V V V V V $.V V V V V V I >.A.X.X.X.X.X.X.X.X.X.>.A.H.O.O.O.X.X.X.X.X.X.X. .>.F D F D A F S S D D D D F F F D F D o.F D D F D D F F F D F G D F F D F D F F D F F A A G D D A G A D A S A D e x F S 8Xx iX0Xj S s Z.8X7 4 I.l 4 4 4 4 4 4 4 4 4 4 j 4 4 4 4 g > > w w w 8 q.GXJXb.= a w w 0 # e 8X9X9X9X9X9X9Xh # q =X#X+XOXOX+X#XN # 0 8XrXeXeXeXeXrXS # 0 - B.N.v.N.M.N.N.nXnXnXM.N.nX",
"L L L L L L L L L W L L L L L =.E R U U U U U R U U P *X,X-.R R R R U U R R P }.2X@.%.%.J J J J J J J J &.:.#.#.@.@.J J J %.%.J #.=.V V V V V V V $.V V V V V V Y O.O. .X.X.X.X.X.X.X.X.>.A.H.O.O.O.X.X.X.X.X.X.X. .,.F F F F F F A D F D D F F F F F F D o.F D D F D D F F F D o.F D F F F F D F F D F F D F G D F D F F D D A G D x S F A A A 7XZ.x x 4 4 qXR.4 uXx 3 4 4 4 4 4 4 4 4 4 j 4 4 4 4 g > > w w w 8 q.GXJXb.= a w w 0 # e 0X9X9X9X9X9X9Xh # q =X#XOX#X#XOX#XN # 0 0XuXeXeXeXeXuXS # 0 - B.N.v.AXnXN.v.N.N.nXnXnXnX",
"L L L L L L L L L W L L L L L ;.U R U U U U U R U U P *X,X-.R R R R U U R R U R =X@.%.%.J J J J J J J J &.:.#.#.@.@.J J J %.%.J J =.J V V V V V V $.V V V V V V V A.X.X.X.X.X.X.X.X.X.X.>.A.H.O.O.O.X.X.X.X.X.X.X.X.,.F D F F F F D D F F F F F F F F F D o.F D D F F F F F F D o.F D F F F F D F F D F F D F F D F D F F D D G o.D D G F D F o.x x S x d 7 Z.jXz eXs.3 4 4 4 4 4 4 4 4 4 j 4 4 4 4 g > > w w w 8 q.GXJXb.= a w w 0 # e 7X0X0X0X0X0X0Xh # q *X+X+X+X+X+X+XN # 0 8XtX9X9X9X9XtXS # 0 - B.N.M.nXnXnXM.N.N.N.nXN.nX",
"L L L L L L L L L W L L L L U ;.U R U U U U U R U U P *X,X-.R R R R U U R R U J =X;.$.%.J J J J J J J J &.:.#.#.@.@.J J J %.%.J J =.#.V V V V V V $.V V V V V V X.A. .X.X.X.X.X.X.X.X.X.>.A.H.O.O.O.X.X.X.X.X.X.X.X.,.X.D F F F F F F F F F F F F F F F D o.F D F F F F F F F D o.F D F F F F D F F D F F D F F D F D F F D D D o.F D G F D F o.A S S S x w Z.gXqXdXZ.7 4 4 4 4 4 4 4 4 4 j 4 4 4 4 g > > w w w 8 q.GXJXb.= a w w 0 # q ! -X4.4.4.4.-Xy # q m m m m m m {.u # 0  X:X}..X.X}.:XH # 0 - B.N.v.v.v.v.v.v.v.v.v.v.M.",
"L L L L L L L L L W L L L L =.E P R U U U U U R U U P *X,X-.R R R R U U R R U #.<X=X$.%.J J J J J J J J &.:.#.#.@.@.J J J %.%.J J #.=.V V V V V V $.V V V V V V O.O. .X.X.X.X.X.X.X.X.X.>.A.H.O.O.O.X.X.X.X.X.X.X.X.,. .D F F F F F F F F F F F F F F F D o.F D F F F F F F F D o.F D F F F F D F F D F F D F F D F D F F D D F o.F D G F D F o.A G G S D h Z.uXdXjXZ.S 0Xg 4 4 4 4 4 4 4 j 4 4 4 4 g > > w w w 8 q.GXJXb.= a w w 0 # q 4.-X-X-X-X-X-Xy # q m {.{.{.{.{.{.u # 0  X>X:X:X:X:X>XH # 0 - B.AXnXnXnXnXnXnXnXnXnXnXnX",
"L L L L L L L L L W L L L L ;.R U R U U U U U R U U P *X,X-.R R R R U U R R U &.;.2X%.%.J J J J J J J J &.:.#.#.@.@.J J J %.%.J J J =.J V V V V V $.V V V V V V A.O.X.X.X.X.X.X.X.X.X.X.>.A.H.O.O.O.X.X.X.X.X.X.X.X.>.*.F F F F F F F F F F F F F F F F D o.F D F F F F F F F D o.F D F F F F D F F D F F D F F D F D F F D D F o.F D o.F D F o.D F o.D D B 2.qXeXgXZ.eXgXl 4 4 4 4 4 4 4 j 4 4 4 4 g > > w w w 8 q.GXJXb.= a w w 0 # q 4.-X-X-X-X-X-Xy # q m {.{.{.{.{.{.u # 0  X>X:X:X:X:X>XH # 0 q f.c.c.c.c.c.c.c.c.c.c.c.c.",
"L L L L L L L L L W L L L U ;.U U R U U U U U R U U P *X,XR R R R R U U R U U ;.%.=X*X@.J J J J J J J J &.:.#.#.@.@.J J J @.%.J J J =.#.V V V V V I V V V V V C A.X.X.X.X.X.X.X.X.X.X.X.X.A.H.O.O.O.X.X.X.X.X.X.X.X.o.*.X.D D D D D D D D D D D D D D D D F F D D D D D D D D D F F D D D D D D F F D D D D F F D D D F F D D F o.D D o.F D F F D F o.D D D F <.o.dXU.uXfXg 3 4 4 4 4 4 4 j 4 4 4 4 g > > w w w 8 q.GXJXb.= a w w 0 # q 4.-X-X-X-X-X-Xy # q m {.{.{.{.{.{.u # 0  X>X:X:X:X:X>XH # 8 0 = - - - - - - - - - - - - ",
"P P P P P P P P P W W P W ;.;.U R -.R R R R R -.R R U *X,X-.-.R R -.R R -.R -.;.%.*X>X$.%.%.%.%.%.%.%.J &.:.&.&.%.%.%.%.%.%.%.%.%.%.#.;.C I I I I $.I I I I I O.A.>.X.X.X.X.X.>.X.X.X.X.>.A.H.O.O.O.O.X.>.X.X.>.X.X.1.,.,.F o.F F F F F F F F F F F F F F o.o.F F F F F F F F F o.o.F F F F F F o.o.F F F F o.o.F F F o.o.F F o.o.F F o.o.F o.o.F o.o.F F o.A x <.iXfXfXdXqXS 6 j j j j j j j j j j j $ > w w w 8 q.GXJXb.= a w w 0 # q 4.-X-X-X-X-X-Xy # q m {.m {.{.m {.u # 0  X>X:X:X:X:X>XH # $ $ $ $ $ $ $ $ $ $ $ $ $ $ $ ",
"L P L L L L L P L W P L P ;.R R R R R R R R R R R R U *X,X-.-.R R R R R R R &.-.-.-.2X%.@.%.%.%.%.%.%.J &.:.&.&.%.%.%.%.@.%.%.@.%.%.@.;.@.C I I I $.I I I I I A.O.>.X.X.X.X.X.>.X.X.X.X.>.A.H.O.O.O.X.X.>.X.X.>.X.X.1.X.*.F F F F F F F F F F F F F F F F o.o.F F F F F F F F F o.o.F F F F F F o.o.F F F F o.o.F F F o.o.F F F o.F F o.F F o.o.F o.o.F F F G A G 7X8XI.hXjXqX3 j 6 6 4 j j 4 j j 4 j $ > w w w 8 q.GXJXb.= a w w 0 # q 4.-X-X-X-X-X-Xy # q m {.m {.{.m {.u # 0  X>X:X:X:X:X>XH # d e.z e.e.e.e.e.e.z e.e.e.e.z ",
"L L L L L L L L L W L L U ;.U U U R U U U U U R U U P *X,XR R R R R U U R R =.-.-.J >X*XJ J J J J J J J &.:.#.#.@.@.J J J @.%.J J J J =.#.V V V V I V V V V  .A.X.X.X.X.X.X.X.X.X.X.X.X.X.A.H.O.O.O.X.X.X.X.X.X.X.X.>.X.*.X.D D D D D D D D D D D D D D D o.F D D D D D D D D D F F D D D D D D F F D D D D F F D D D F F D D F o.D D o.F D F F D F o.D D D D D B B 4 S gXfXdXS 3 4 4 4 4 j 4 4 4 4 g > > w w w 8 q.GXJXb.= a w w 0 # q 4.-X-X-X-X-X-Xy # q m {.{.{.{.{.{.u # 0  X>X:X:X:X:X>XH # d u.r.t.t.e.e.r.e.S.r.r.e.r.u.",
"L L L L L L L L L W L L E E U U U R U U U U U R U U P *X,X-.R R R R U U R -.=.-.-.J *X=XV J J J J J J J &.:.#.#.@.@.J J J %.%.J J J J #.=.V V V V $.V V V V O.O.X.X.X.X.X.X.X.X.X.X.X.X.>.A.H.O.O.O.X.X.X.X.X.X.X.X.>.X. . .D F F F F F F F F F F F F F D o.F D F F F F F F F D o.F D F F F F D F F D F F D F F D F D F F D F F o.F D o.F D F o.D F o.D F F F D A D y G gXdXgXZ.7 4 4 4 4 j 4 4 4 4 g > > w w w 8 q.GXJXb.= a w w 0 # q 4.-X-X-X-X-X-Xy # q m {.m {.{.{.{.u # 0  X>X:X:X:X:X>XH # d t.e.'.S.D.S.h.S.).G.u.D.D.S.",
"L L L L L L L L L W L L ;.R U U U R U U U U U R U U P *X,X-.R R R R U U R ;.#.-.-.K -.2XJ J J J J J J J &.:.#.#.@.@.J J J %.%.J J J J J =.J V V V $.V V V V A.X.X.X.X.X.X.X.X.X.X.X.X.X.>.A.H.O.O.O.X.X.X.X.X.X.X.X.>.X.X.*.F F F F F F F F F F F F F F D o.F D F F F F F F F D o.F D F F F F D F F D F F D F F D F D F F D F F o.D D o.F D F o.D F o.D F F F D A D h <.uX0XjXK.3 4 4 4 4 j 4 4 4 4 g > > w w w 8 q.GXJXb.= a w w 0 # q 4.-X-X-X-X-X-Xy # q m {.m {.{.m {.u # 0  X>X:X:X:X:X>XH # d r.S.BX).`.`.W.NX'.`.).'.).).",
"L L L L L L L L L W L U ;.U U U U R U U U U U R U U P *X,X-.R R R R U U R ;.K -.-.K %.2X*XJ J J J J J J &.:.#.#.@.@.J J J %.%.J J J J J =.#.V V V $.V V V  .A. .X.X.X.X.X.X.X.X.X.X.X.X.>.A.H.O.O.O.X.X.X.X.X.X.X.X.>.X.X.*.X.D F F F F F F F F F F F F D o.F D F F F F F F F D o.F D F F F F D F F D F F D F F D F D F F D F F o.D D o.F D F o.D F o.D F F F D A D B 2.8XU.gXdXS 3 4 4 4 j 4 4 4 4 g > > w w w 8 q.GXJXb.= a w w 0 # q 4.-X-X-X-X-X-Xy # q m {.m {.{.m {.u # 0  X>X:X:X:X:X>XH # f e.^.^.NX^.^.NXNX`.^.NXS.NX).",
"L L L L L L L L L W L E E U U U U R U U U U U R U U P *X,X-.R R R R U U -.;.K -.-.K %.*X=XV J J J J J J &.:.#.#.@.@.J J J %.%.J J J J J #.=.V V V $.V V V O.O. .X.X.X.X.X.X.X.X.X.X.X.X.>.A.H.O.O.O.X.X.X.X.X.X.X.X.>.X.X. . .D F F F F F F F F F F F F D o.F D F F F F F F F D o.F D F F F F D F F D F F D F F D F D F F D F F o.D D o.F D F o.D F o.D F F F D D D B 2.0XU.gXgXZ.7 4 4 4 j 4 4 4 4 g > > w w w 8 q.GXJXb.= a w w 0 # q 4.-X-X-X-X-X-Xy # q m {.{.{.{.{.{.u # 0  X>X:X:X:X:X>XH # d t.u.e.h.h.u.S.S.u.(.W.h.S.u.",
"L L L L L L L L L W L ;.R U U U U R U U U U U R U U P *X,X-.R R R R U U ;.=.K -.-.K -.-.2XJ J J J J J J &.:.#.#.@.@.J J J %.%.J J J J J J =.J V V $.V V V A.O.X.X.X.X.X.X.X.X.X.X.X.X.X.>.A.H.O.O.O.X.X.X.X.X.X.X.X.>.X.X.X.*.F F F F F F F F F F F F F D o.F D F F F F F F F D o.F D F F F F D F F D F F D F F D F D F F D F F o.D D o.F D F o.D F o.D F F F D D F A 2.eXD iXgXK.7 4 4 4 j 4 4 4 4 g > > w w w 8 q.GXJXb.= a w w 0 # q 4.-X-X-X-X-X-Xy # q m {.m {.{.{.{.u # 0  X>X:X:X:X:X>XH # d e.z e.z z z z z z h.z z z z ",
"L L L L L L L L L W U ;.U U U U U R U U U U U R U U P *X,X-.R R R R U U ;.-.K -.-.K -.%.2X;.J J J J J J &.:.#.#.@.@.J J J %.%.J J J J J J =.#.V V $.V V  .A.X.X.X.X.X.X.X.X.X.X.X.X.X.X.>.A.H.O.O.O.X.X.X.X.X.X.X.X.>.X.X.X.*.X.D F F F F F F F F F F F D o.F D F F F F F F F D o.F D F F F F D F F D F F D F F D F D F F D F F o.D D o.F D F o.D F o.D F F F D D F D >.3.D iXjXL.7 4 4 4 j 4 4 4 4 g > > w w w 8 q.GXJXb.= a w w 0 # q 4.-X-X-X-X-X-Xy # q m {.m {.{.m {.u # 0  X>X:X:X:X:X>XH # 8 w 0 0 0 0 0 w w 0 0 0 w w 0 ",
"L L L L L L L L L W =.E U U U U U R U U U U U R U U P *X,X-.R R R R U #.;.-.#.-.-.K -.%.=X=XV J J J J J &.:.#.#.@.@.J J J %.%.J J J J J J #.=.V V $.V V O.O. .X.X.X.X.X.X.X.X.X.X.X.X.X.>.A.H.O.O.O.X.X.X.X.X.X.X.X.>.X.X.X. . .D F F F F F F F F F F F D o.F D F F F F F F F D o.F D F F F F D F F D F F D F F D F D F F D F F o.D D o.F D F o.D F o.D F F F F F F F D D D iXgXI.3 4 4 4 j 4 4 4 4 g > > w w w 8 q.GXJXb.= a w w 0 # q 4.-X-X-X-X-X-Xy # q m {.m {.{.m {.u # 0  X>X:X:X:X:X>XH # 8 w w w w w w a w w w w w w w ",
"L L L L L L L L L W ;.R U U U U U R U U U U U R U U P *X,X-.R R R R U =.;.-.K -.-.K -.-.=.2XJ J J J J J &.:.#.#.@.@.J J J %.%.J J J J J J J ;.J V $.V V A.O.X.X.X.X.X.X.X.X.X.X.X.X.X.X.>.A.H.O.O.O.X.X.X.X.X.X.X.X.>.X.X.X.X.*.F F F F F F F F F F F F D o.F D F F F F F F F D o.F D F F F F D F F D F F D F F D F D F F D F F o.D D o.F D F o.D F o.D F F F F F F F F F D uXhXI.7 4 4 4 j 4 4 4 4 g > > w w w 8 q.GXJXb.= a w w 0 # q 4.-X-X-X-X-X-Xy # q m {.{.{.{.{.{.u # 0  X>X:X:X:X:X>XH # 8 a 8 8 8 8 8 > 0 8 0 s w w w ",
"L L L L L L L L L R ;.U U U U U U R U U U U U R U U P *X,X-.R R R R U &.-.-.K -.-.K -.-.J 2X;.J J J J J &.:.#.#.@.@.J J J %.%.J J J J J J J =.#.V $.V C A.X.X.X.X.X.X.X.X.X.X.X.X.X.X.X.>.A.H.O.O.O.X.X.X.X.X.X.X.X.>.X.X.X.X.*.X.D F F F F F F F F F F D o.F D F F F F F F F D o.F D F F F F D F F D F F D F F D F D F F D F F o.D D o.F D F o.D F o.D F F F F F F F F F D iXdXeXx 3 4 4 j 4 4 4 4 g > > w w w 8 q.GXJXb.= a w w 0 # q 4.-X-X-X-X-X-Xy # q m {.m {.{.{.{.u # 0  X>X:X:X:X:X>XH # 8 0 e.u.e.u.u.S.d r.d $ 0 w w ",
"L L L L L L L L L -.=.U U U U U U R U U U U U R U U P *X,X-.R R R R #.=.-.-.K -.-.K -.-.J =X=XV J J J J &.:.#.#.@.@.J J J %.%.J J J J J J J #.=.V $.V O.O. .X.X.X.X.X.X.X.X.X.X.X.X.X.X.>.A.H.O.O.O.X.X.X.X.X.X.X.X.>.X.X.X.X. . .D F F F F F F F F F F D o.F D F F F F F F F D o.F D F F F F D F F D F F D F F D F D F F D F F o.D D o.F D F o.D F o.D F F F F F F F F F D rX8XgX8X3 4 4 j 4 4 4 4 g > > w w w 8 q.GXJXb.= a w w 0 # q 4.-X-X-X-X-X-Xy # q m {.m {.{.m {.u # 0  X>X:X:X:X:X>XH # 0 8 ).S.(.G.D.`.8 ^.G.Q.t.0 w ",
"L L L L L L L L L ;.R U U U U U U R U U U U U R U U P *X,X-.R R R R =.=.-.-.K -.-.K -.-.K -.2XJ J J J J &.:.#.#.@.@.J J J %.%.J J J J J J J J ;.J $.V A.O.X.X.X.X.X.X.X.X.X.X.X.X.X.X.X.>.A.H.O.O.O.X.X.X.X.X.X.X.X.>.X.X.X.X.X.*.F F F F F F F F F F F D o.F D F F F F F F F D o.F D F F F F D F F D F F D F F D F D F F D F F o.F D o.F D F o.D F o.D F F F F F F F F F D eX<.K.8Xl 3 4 j 4 4 4 4 g > > w w w 8 q.GXJXb.= a w w 0 # q 4.-X-X-X-X-X-Xy # q m {.m {.{.{.{.u # 0  X>X:X:X:X:X>XH # 0 8 ).S.).D.z F.# G.~.~.~.8 w ",
"L L L L L L L L P *XU U U U U U U R U U U U U R U U P *X,XR R R R R &.#.-.-.K -.-.K -.-.K K 2X=.J J J J &.:.#.#.@.@.J J J @.%.J J J J J J J J =.@.I C A.X.X.X.X.X.X.X.X.X.X.X.X.X.X.X.X.X.A.H.O.O.O.X.X.X.X.X.X.X.X.>.X.X.X.X.X.*.X.D D D D D D D D D D D F F D D D D D D D D D F F D D D D D D F F D D D D F F D D D F F D D F o.D D o.F D F F D F o.D D D D D D D D D D D <.F w 8XS 3 4 j 4 4 4 4 g > > w w w 8 q.GXJXb.= a w w 0 # q 4.-X-X-X-X-X-Xy # q m {.{.{.{.{.{.u # 0  X>X:X:X:X:X>XH # 8 0 F.w D.w z G.$ Q.Q.t.G.0 w ",
"W W W W W W W W ;.*XR R R R R R R 4.-.R R R R 4.-.R W *X,X4.4.-.4.;.;.-.-.-.-.-.-.-.4.-.-.%.=X=X$.%.%.%.&.:.&.&.&.&.%.%.%.%.&.%.%.%.%.%.%.%.%.-.;.>.O.A.>.>.>.>.1.1.>.>.>.>.>.1.>.>.>.>.,.A.H.O.L.O.O.<.1.>.>.1.>.>.1.>.>.>.>.o.,.,.o.o.o.o.o.o.o.o.o.o.o.<.o.o.o.o.o.o.o.o.o.o.<.o.o.o.o.o.o.o.<.o.o.o.o.o.<.o.o.o.o.o.<.o.o.o.<.o.o.<.o.o.o.<.o.<.<.o.o.o.o.o.o.o.o.o.o.o.A <.x 8XuX6 w.q.j j j j j $ > w w w 8 q.GXJXb.= a w w 0 # q 4.-X-X-X-X-X-Xy # q m {.m {.{.{.{.u # 0  X>X:X:X:X:X>XH # 8 w 0 w 0 w 0 0 w s w 0 0 w w ",
"L L L L L L L L ;.-.U U U U U U U R R U U U U R R U P *X,X-.-.R R ;.=.K -.-.#.-.-.#.-.-.-.#.;.2XJ J J J &.:.#.&.%.%.@.J J %.%.J J J J J J J J J ;.$.A.O.X.X.X.X.X.X.X.X.X.X.X.>.X.X.X.X.>.A.H.O.O.O.X.X.o.X.X.>.X.X.>.X.X.X.X.X.X.*.F F F F F F F F F F F o.F F F F F F F F F F o.F F F F F F F o.F F F F F o.o.F F F o.o.F F F o.F F o.F F F o.D o.o.F F F F F F F F F F F D F x 8XrX3 j j 4 4 4 4 j > > w w w 8 q.GXJXb.= a w w 0 # q 4.-X-X-X-X-X-Xy # q m {.m {.{.m {.u # 0  X>X:X:X:X:X>XH # 8 w w w w w w w w 0 w w w w w ",
"L L L L L L L P ;.R U U U U U U U R U U U U U R U U P *X,XR R R R ;.#.K -.-.K -.-.K -.-.K =.K 2X=.J J J &.:.#.#.@.@.J J J %.%.J J J J J J J J J =.&.A.X.X.X.X.X.X.X.X.X.X.X.X.X.X.X.X.X.>.A.H.O.O.O.X.X.X.X.X.X.X.X.>.X.X.X.X.X.X.*.X.D D D D D D D D F D o.F D D D D D D D F D F F D F D D F D F F D F F D F F D F D F F D D F o.D D o.F D F F D F o.D F D D D D D D D D D D F S 8XuX3 4 j 4 4 4 4 g > > w w w 8 q.GXJXb.= a w w 0 # q 4.-X-X-X-X-X-Xy # q m {.m {.{.{.{.u # 0  X>X:X:X:X:X>XH # 8 a w w w w w w w w w w w w w ",
"L L L L L L L E =.R U U U U U U U R U U U U U R U U P *X,X-.R R -.;.K #.-.-.K -.-.K -.-.K =.J =X=XV J J &.:.#.#.@.@.J J J %.%.J J J J J J J J J #.5.O. .X.X.X.X.X.X.X.X.X.X.X.X.X.X.X.X.>.A.H.O.O.O.X.X.X.X.X.X.X.X.>.X.X.X.X.X.X. . .D F F F F F F F F D o.F D F F F F F F F D o.F D F F F F D F F D F F D F F D F D F F D F F o.D D o.F D F o.D F o.D F F F F F F F F F F F F D o.0X4 4 j 4 4 4 4 g > > w w w 8 q.GXJXb.= a w w 0 # q 4.-X-X-X-X-X-Xy # q m {.{.{.{.{.{.u # 0  X>X:X:X:X:X>XH # $ $ $ $ $ $ $ $ $ $ $ $ $ $ $ ",
"L L L L L L L ;.E R U U U U U U U R U U U U U R U U P *X,X-.R R ;.;.K #.-.-.K -.-.K -.-.K #.#.;.2XJ J J &.:.#.#.@.@.J J J %.%.J J J J J J J J J J 5.O.X.X.X.X.X.X.X.X.X.X.X.X.X.X.X.X.X.>.A.H.O.O.O.X.X.X.X.X.X.X.X.>.X.X.X.X.X.X.X.*.D F F F F F F F F D o.F D F F F F F F F D o.F D F F F F D F F D F F D F F D F D F F D F F o.D D o.F D F o.D F o.D F F F F F F F F F F F F F D qXl 4 j 4 4 4 4 g > > w w w 8 q.GXJXb.= a w w 0 # q 4.-X-X-X-X-X-Xy # q m {.m {.{.m {.u # 0  X>X:X:X:X:X>XH # $ 8 > > > > > > > > > > > > > ",
"L L L L L L P ;.U R U U U U U U U R U U U U U R U U P *X,X-.R R ;.-.K #.-.-.K -.-.K -.-.K #.=.K 2X-.J J &.:.#.#.@.@.J J J %.%.J J J J J J J J J $.Y.$.X.X.X.X.X.X.X.X.X.X.X.X.X.X.X.X.X.>.A.H.O.O.O.X.X.X.X.X.X.X.X.>.X.X.X.X.X.X.X.*.X.D F F F F F F F D o.F D F F F F F F F D o.F D F F F F D F F D F F D F F D F D F F D F F o.D D o.F D F o.D F o.D F F F F F F F F F F F F F A iXK.3 j 4 4 4 4 g > > w w w 8 q.GXJXb.= a w w 0 # q 4.-X-X-X-X-X-Xy # q m {.m {.{.m {.u # 0  X>X:X:X:X:X>XH # 8 s w w w w w w w w w w w w w ",
"L L L L L L E =.P R U U U U U U U R U U U U U R U U P *X,X-.R =.;.-.#.#.-.-.K -.-.K -.-.K #.=.J =X=XV J &.:.#.#.@.@.J J J %.%.J J J J J J J J J >.Y.&.X.X.X.X.X.X.X.X.X.X.X.X.X.X.X.X.X.>.A.H.O.O.O.X.X.X.X.X.X.X.X.>.X.X.X.X.X.X.X.*. .D F F F F F F F D o.F D F F F F F F F D o.F D F F F F D F F D F F D F F D F D F F D F F o.D D o.F D F o.D F o.D F F F F F F F F F F F F F A iXL.3 j 4 4 4 4 g > > w w w 8 q.GXJXb.= a w w 0 # q 4.-X-X-X-X-X-Xy # q m {.m {.{.{.{.u # 0  X>X:X:X:X:X>XH # 8 w w w w w w a w w w w w w 0 ",
"L L L L L L ;.E U R U U U U U U U R U U U U U R U U P *X,X-.R ;.;.-.#.#.-.-.K -.-.K -.-.K #.#.#.;.2XJ J &.:.#.#.@.@.J J J %.%.J J J J J J J J J A.1.&.X.X.X.X.X.X.X.X.X.X.X.X.X.X.X.X.X.>.A.H.O.O.O.X.X.X.X.X.X.X.X.>.X.X.X.X.X.X.X.X.*.D F F F F F F F D o.F D F F F F F F F D o.F D F F F F D F F D F F D F F D F D F F D F F o.D D o.F D F o.D F o.D F F F F F F F F F F F F F A iXI.3 j 4 4 4 4 g > > w w w 8 q.GXJXb.= a w w 0 # q 4.-X-X-X-X-X-Xy # q m {.{.{.{.{.{.u # 0  X>X:X:X:X:X>XH # 8 a 8 8 8 8 8 > 0 8 8 0 > 0 w ",
"L L L L L P ;.U U R U U U U U U U R U U U U U R U U P *X,XR R ;.=.-.#.#.-.-.K -.-.K -.-.K #.#.=.#.2X-.Y &.:.#.#.@.@.J J J %.%.J J J J J J J J @.A.,.&.$.X.X.X.X.X.X.X.X.X.X.X.X.X.X.X.X.>.A.H.O.O.O.X.X.X.X.X.X.X.X.>.X.X.X.X.X.X.X.X.*.F D F F F F F F D o.F D F F F F F F F D o.F D F F F F D F F D F F D F F D F D F F D F F o.D D o.F D F o.D F o.D F F F F F F F F F F F F F A 9XU.3 j 4 4 4 4 g > > w w w 8 q.GXJXb.= a w w 0 # q 4.-X-X-X-X-X-Xy # q m {.m {.{.m {.u # 0  X>X:X:X:X:X>XH # 0 0 S.S.S.G.D.^.d t.G.k Q.e.0 ",
"L L L L L E =.U U R U U U U U U U R U U U U U R U U P *X,XR ;.;.-.-.#.#.-.-.K -.-.K -.-.K #.#.=.J =X=XV &.:.#.#.@.@.J J J %.%.J J J J J J J J >.1.,.&.&.X.X.X.X.X.X.X.X.X.X.X.X.X.X.X.X.>.A.H.O.O.O.X.X.X.X.X.X.X.X.>.X.X.X.X.X.X.X.X.*.X.D F F F F F F D o.F D F F F F F F F D o.F D F F F F D F F D F F D F F D F D F F D F F o.D D o.F D F o.D F o.D F F F F F F F F F F F F F D 2.U.3 j 4 4 4 4 g > > w w w 8 q.GXJXb.= a w w 0 # q 4.-X-X-X-X-X-Xy # q m {.m {.{.m {.u # 0  X>X:X:X:X:X>XH # 0 8 `.S.).G.h./.$ ).S.~.u.s 0 ",
"L L L L L ;.E U U R U U U U U U U R U U U U U R U U P *X,XR ;.=.-.-.#.#.-.-.K -.-.K -.-.K #.#.=.#.;.2XY &.:.#.#.@.@.J J J %.%.J J J J J J J J O.,.,.$.&.X.X.X.X.X.X.X.X.X.X.X.X.X.X.X.X.>.A.H.O.O.O.X.X.X.X.X.X.X.X.>.X.X.X.X.X.X.X.X.X.*.D F F F F F F D o.F D F F F F F F F D o.F D F F F F D F F D F F D F F D F D F F D F F o.D D o.F D F o.D F o.D F F F F F F F F F F F F F D 2.U.3 j 4 4 4 4 g > > w w w 8 q.GXJXb.= a w w 0 # q 4.-X-X-X-X-X-Xy # q m {.m {.{.{.{.u # 0  X>X:X:X:X:X>XH # 0 8 ).h.(.h.e.F.$ k ).'.k 0 w ",
"L L L L P ;.U U U R U U U U U U U R U U U U U R U U P *X,X-.;.=.-.-.#.#.-.-.K -.-.K -.-.K #.#.#.#.#.2XK &.:.#.#.@.@.J J J %.%.J J J J J J J @.A.>.,.$.&.$.X.X.X.X.X.X.X.X.X.X.X.X.X.X.X.>.A.H.O.O.O.X.X.X.X.X.X.X.X.>.X.X.X.X.X.X.X.X.X.*.F D F F F F F D o.F D F F F F F F F D o.F D F F F F D F F D F F D F F D F D F F D F F o.D D o.F D F o.D F o.D F F F F F F F F F F F F F D 2.R.3 j 4 4 4 4 g > > w w w 8 q.GXJXb.= a w w 0 # q 4.-X-X-X-X-X-Xy # q m {.{.{.{.{.{.u # 0  X>X:X:X:X:X>XH # 8 0 h.0 u.0 k u.8 S.D.r.^.z 0 ",
"L L L L E ;.U U U R U U U U U U U R U U U U U R U U P *X,X;.;.=.-.-.#.#.-.-.K -.-.K -.-.K #.#.#.=.J =X*X*.:.#.#.@.@.J J J %.%.J J J J J J J >.O.$.,.$.&.&.X.X.X.X.X.X.X.X.X.X.X.X.X.X.X.>.A.H.O.O.O.X.X.X.X.X.X.X.X.>.X.X.X.X.X.X.X.X.X.*.X.D F F F F F D o.F D F F F F F F F D o.F D F F F F D F F D F F D F F D F D F F D F F o.D D o.F D F o.D F o.D F F F F F F F F F F F F F D 2.R.3 j 4 4 4 4 g > > w w w 8 q.GXJXb.= a w w 0 # q 4.-X-X-X-X-X-Xy # q m {.m m m m {.u # 0  X>X:X:X:X:X>XH # 8 w 8 w 0 w 0 0 w 0 8 8 8 0 w ",
"L L L L ;.E U U U R U U U U U U U R U U U U U R U U P *X,X;.;.=.-.-.K K -.-.K -.-.K -.-.K #.#.#.#.#.;.2X&.:.#.#.@.@.J J J %.%.J J J J J J J O.O.$.,.$.$.&.X.X.X.X.X.X.X.X.X.X.X.X.X.X.X.>.A.H.O.O.O.X.X.X.X.X.X.X.X.>.X.X.X.X.X.X.X.X.X.X. .D F F F F F D o.F D F F F F F F F D F F D F F F F D F F D F F D F F D F D F F D F F o.D D o.F D F F D F o.D F F F F F F F F F F F F F D <.8X3 j 4 4 4 4 g > > w w w 8 q.GXJXb.= a w w 0 # q 4.-X-X-X-X-X-Xy # q m {.{.{.{.{.{.u # 0  X>X:X:X:X:X>XH # 8 w w w w w w w w w a w a w w ",
"L L L P ;.U U U U R U U U U U U U R U U U U U R R U P *X,X;.;.=.-.-.#.#.-.-.#.-.-.K -.-.#.#.#.#.#.-.#.2X;.:.#.#.@.@.J J J %.%.J J J J J J @.A.>.$.,.$.>.&.>.X.X.X.X.X.X.X.X.X.X.X.X.X.X.>.A.H.O.O.O.X.X.X.X.X.X.X.X.>.X.X.X.X.X.X.X.X.X.X.*.F F F F F F D o.F F F F F F F F F D o.F F F F F F D F F F F F D F F D F D F F D F F o.F F o.F D F o.D F o.D F F F F F F F F F F F F F D <.8X5 j 4 4 4 4 j > > w w w 8 q.GXJXb.= a w w 0 # q L W W W W W W y # 0 n M M M M M M u # 8 P E E E E T E u # 8 0 0 0 0 0 0 0 0 0 0 0 0 0 0 ",
"W W W -.;.R R R R -.R R R R R R R -.R R R R R -.R R U *X,X;.;.;.-.-.-.-.-.-.-.-.-.-.-.-.-.-.-.-.-.-.%.=X,X:.&.&.&.%.%.%.%.%.%.%.%.%.%.%.%.,.T.,.,.2.,.,.&.&.o.X.>.1.X.X.X.X.X.1.X.X.X.X.>.A.H.O.A.O.O.o.1.X.X.1.>.X.1.>.X.X.X.X.X.X.X.X.o.,.>.F o.o.o.o.o.o.o.o.o.o.o.o.o.o.o.o.o.o.o.o.o.o.o.o.o.o.o.o.o.o.o.o.o.o.o.o.o.o.o.o.o.o.o.o.o.o.o.o.o.o.<.o.o.o.o.o.o.o.o.o.o.o.o.o.o.o.<.qXj w.j j j j 6 $ > w w w 8 q.GXJXb.= a w w 0 $ q Z L L L L L L y # 0 v b b b b b b u # 8 L T P T T P T u # $ $ $ $ $ $ $ $ $ $ $ $ $ $ $ ",
"L L L =.E U U U U R U U U U U U U R U U U U U R U U P *X<X;.=.=.-.-.K K -.-.K -.-.K -.-.K #.#.#.#.#.#.E 2X:.#.#.@.@.J J J %.%.J J J J J J O.O.$.$.,.$.$.$.&.X.X.X.X.X.X.X.X.X.X.X.X.X.X.>.A.H.O.O.O.X.X.X.X.X.X.X.X.>.X.X.X.X.X.X.X.X.X.X. . .D F D D F D o.F D D D D D D D F D F F D D D D F D F F D F F D F F D F D F F D D F o.D D o.F D F F D F o.D F D D D D D D D D D D D F D Q 0X4 j 4 4 4 4 Z.> > w w w 8 q.GXJXb.= a w w 0 $ q Z L L L L L L y # 0 v b b b b b b u # 8 L T T T T T T u # 8 0 0 0 0 0 0 0 0 0 0 0 0 0 0 ",
"L L P ;.U U U U U R U U U U U U U R U U U U U R U U P *X<X;.;.=.-.-.#.#.-.-.K -.-.K -.-.K #.#.#.#.#.=.K 2X<X@.#.@.@.J J J %.%.J J J J J J A.>.$.$.,.$.$.$.&.$.X.X.X.X.X.X.X.X.X.X.X.X.X.>.A.H.O.O.O.X.X.X.X.X.X.X.X.>.X.X.X.X.X.X.X.X.X.X.X.*.F F F F F D o.F D F F F F F F F D o.F D F F F F D F F D F F D F F D F D F F D F F o.F D o.F D F o.D F o.D F F F F F F F F F F F F F F D iXP.5 4 4 3 x qX# 8 w w w 8 q.GXJXb.= a w w 0 $ q Z L L L L L L y # 0 v b b b b b b u # 8 L T T T T T T u # 8 a w w w w w w w w w w w w w ",
"L L R ;.U U U U U R U U U U U U U R U U U U U R U U P *X<X;.;.=.-.-.#.#.-.-.K -.-.K -.-.K #.#.#.#.#.=.J =X,X@.#.@.@.J J J %.%.J J J J J >.O.$.$.$.,.$.$.$.&.&.X.X.X.X.X.X.X.X.X.X.X.X.X.>.A.H.O.O.O.X.X.X.X.X.X.X.X.>.X.X.X.X.X.X.X.X.X.X.X.*.X.D F F F D o.F D F F F F F F F D o.F D F F F F D F F D F F D F F D F D F F D F F o.D D o.F D F o.D F o.D F F F F F F F F F F F F F F D dXeX5 4 4 7 Z.P.# 8 w w w 8 q.GXJXb.= a w w 0 $ q Z L L L L L L y # 0 v b b b b b b u # 8 L T T T T T T u # 8 w w 0 w 0 0 w 0 w w w w w w ",
"L L =.E U U U U U R U U U U U U U R U U U U U R U U P ;.<X;.;.=.-.-.#.#.-.-.K -.-.K -.-.K #.#.#.#.#.=.K *X2X@.#.@.@.J J J %.%.J J J J J O.O.$.$.$.,.$.$.$.$.&.X.X.X.X.X.X.X.X.X.X.X.X.X.>.A.H.O.O.O.X.X.X.X.X.X.X.X.>.X.X.X.X.X.X.X.X.X.X.X. . .D F F F D o.F D F F F F F F F D o.F D F F F F D F F D F F D F F D F D F F D F F o.D D o.F D F o.D F o.D F F F F F F F F F F F F F F D iXuX5 4 4 3 K.I.# 8 w w w 8 q.GXJXb.= a w w 0 $ q Z L L L L L L y # 0 v b b b b b b u # 8 L T T T T T T u # 8 w 0 s 0 s w 0 a 0 w 0 0 0 0 ",
"L P ;.U U U U U U R U U U U U U U R U U U U U R U U P <X<X;.;.=.-.-.#.#.-.-.K -.-.K -.-.K #.#.#.#.#.#.K ;.2X=.@.@.@.J J J %.%.J J J J J A.>.$.$.$.,.$.$.$.$.&.$.X.X.X.X.X.X.X.X.X.X.X.X.>.A.H.O.O.O.X.X.X.X.X.X.X.X.>.X.X.X.X.X.X.X.X.X.X.X.X.*.F F F F D o.F D F F F F F F F D o.F D F F F F D F F D F F D F F D F D F F D F F o.D D o.F D F o.D F o.D F F F F F F F F F F F F F F D rXuXZ.4 g 7 I.K.# 8 w w w 8 q.GXJXb.= a w w 0 $ q Z L L L L L L y # 0 v b b b b b b u # 8 L T T T T T T u # 0 8 Q.D.Q.F.Q.'.s t.).G.a a t.",
"L R ;.U U U U U U R U U U U U U U R U U U U U R U U U <X<X;.;.=.-.-.#.#.-.-.K -.-.K -.-.K #.#.#.#.#.#.K &.2X*X@.#.@.J J J %.%.J J J J >.A.$.$.$.$.,.$.$.$.$.&.&.X.X.X.X.X.X.X.X.X.X.X.X.>.A.H.O.O.O.X.X.X.X.X.X.X.X.>.X.X.X.X.X.X.X.X.X.X.X.X.*.X.D F F D o.F D F F F F F F F D o.F D F F F F D F F D F F D F F D F D F F D F F o.D D o.F D F o.D F o.D F F F F F F F F F F F F F F F I.uXrXl 8X4 U.Z.# 8 w w w 8 q.GXJXb.= a w w 0 $ q Z L L L L L L y # 0 v b b b b b b u # 8 L T T T T T T u # 0 8 `.S.).D.r.F.$ ).0 ^.^.t.'.",
"L =.E U U U U U U R U U U U U U U R U U U U U R U U #.<X<X;.;.=.-.-.#.#.-.-.K -.-.K -.-.K #.#.#.#.#.#.K &.<X2X@.#.@.J J J %.%.J J J J O.O.$.$.$.$.,.$.$.$.$.$.&.X.X.X.X.X.X.X.X.X.X.X.X.>.A.H.O.O.O.X.X.X.X.X.X.X.X.>.X.X.X.X.X.X.X.X.X.X.X.X. . .D F F D o.F D F F F F F F F D o.F D F F F F D F F D F F D F F D F D F F D F F o.D D o.F D F o.D F o.D F F F F F F F F F F F F F D F w 0XuXz fXuX8Xs.# 8 w w w 8 q.GXJXb.= a w w 0 $ q Z L L L L L L y # 0 v b b b b b b u # 8 L T T T T T T u # 0 8 (.e./.e.r.Q.$ ~.G.~.~.(.).",
"P ;.U U U U U U U R U U U U U U U R U U U U U R U U &.*X<X;.;.=.-.-.#.#.-.-.K -.-.K -.-.K #.#.#.#.#.#.K ;.<X2X=.@.@.J J J %.%.J J J J A.>.$.$.$.$.,.$.$.$.$.$.&.>.X.X.X.X.X.X.X.X.X.X.X.>.A.H.O.O.O.X.X.X.X.X.X.X.X.>.X.X.X.X.X.X.X.X.X.X.X.X.X.*.F F F D o.F D F F F F F F F D o.F D F F F F D F F D F F D F F D F D F F D F F o.D D o.F D F o.D F o.D F F F F F F F F F F F F F D F e 8XiXqXhXuXuXS $ 8 w w w 8 q.GXJXb.= a w w 0 $ q Z L L L L L L y # 0 v b b b b b b u # 8 L T T T T T T u # 8 w z 0 z 0 d z 0 d D.k k G.k ",
"U ;.U U U U U U U R U U U U U U U R U U U U U R U K &.*X<X;.;.=.-.-.#.#.-.-.K -.-.K -.-.K #.#.#.#.#.-.K ;.:.>X*X@.@.J J J %.%.J J J $.A.$.>.$.$.$.,.$.$.$.$.>.&.&.X.X.X.X.X.X.X.X.X.X.X.>.A.H.O.O.O.X.X.X.X.X.X.X.X.o.X.X.X.X.X.X.X.X.X.X.X.X.X.*.X.D F D F F D D F F F F F F D o.F D F F F F D F F D D F D F F D F D F F D F F o.D D o.F D F F D F o.D F F F F F F F F F F F F F D F y R.dXfXfXeXfXz $ 8 w w w 8 q.GXJXb.= a w w 0 $ q Z L L L L L L y # 0 v b b b b b b u # 8 L T T T T T T u # 8 w 0 w 0 w 0 0 w 0 > 0 0 > 0 ",
"=.E U U U U U U U R 4.4.4.4.U U U R U U U U U R U =.#.*X<X;.3.;.4.-.K #.-.-.K -.-.K -.-.K #.#.K -.4.-.4.;.:.*X>X@.@.J J J %.%.J J J O.1.2.,.2.,.$.,.$.$.$.$.$.$.&.X.X.X.X.X.X.Y.1.L.X.X.>.A.H.O.O.O.X.X.X.X.X.X.X.X.Y.1.1.X.X.X.X.X.X.X.X.X.X.X. . .D F D K.K.<.L.D F F F F F D o.F D F F F F D <.L.K.K.D D F F D F D F F D F F o.F D <.L.<.L.F D F o.D F F F F F F F F F F F F F D F h U.gXuXuXqX8X4 8 > w w w 8 q.GXJXb.= a w w 0 $ q Z L L L L L L y # 0 v b b b b b b u # 8 L T T T T T T u # 8 a w w a w w a w w s w w s a ",
";.R U U U U U U U R 3.U R 4.U U U R U U U U U R U =.#.*X<X3.;.=.4.-.K #.-.-.K -.-.K -.-.K #.#.K 4.-.K 4.;.<X;.2X#.@.J J J %.%.J J J O.2.,.>.R.,.$.,.$.$.$.$.$.$.&.,.X.X.X.X.>.L.X.Y.o.X.>.A.H.O.O.O.X.X.X.X.X.X.X.X.Y.X.Y.1.X.X.X.X.X.X.X.X.X.X.X.*.F D F P.D o.K.D F F F F F D o.F D F F F F D P.F L.P.D D F F D F D F F D F F o.F D I.F <.P.o.D F o.D F F F F F F F F F F F F F D F h I.jXU.8XqXI.3 8 > w w w 8 q.GXJXb.= a w w 0 $ q Z L L L L L L y # 0 v b b b b b b u # 8 L T T T T T T u # > 0 8 8 8 8 8 8 8 8 8 8 8 8 8 ",
";.U U U U U U U U R 4.4.R 4.U U U R U U U U U R R ;.K *X<X4.4.4.3.-.#.#.-.-.K -.-.K -.-.K #.#.K -.4.-.4.;.<X#.2X*X@.J J J %.%.J J $.A.,.5.,.5.,.$.,.$.$.$.$.$.$.&.,.X.X.X.X.X.Y.o.1.1.X.>.A.H.O.O.O.X.X.X.X.X.X.X.X.Y.1.Y.1.X.X.X.X.X.X.X.X.X.X.X.*.X.D D I.<.<.F D F F F F F D F F D F F F F D L.K.L.L.F D F F D F D F F D F F o.F D K.K.o.P.F D F o.D F F F F F F F F F F F F F F F p K.gXL.8XZ.l g 8 > w w w 8 q.GXJXb.= a w w 0 $ q Z L L L L L L y # 0 v b b b b b b u # 8 L T T T T T T u # $ $ $ $ $ $ $ $ $ $ $ $ $ $ $ ",
"E P U U U U U U U R U R U U U U U R U U U U U R =.=.K *X<X=.;.-.-.-.K K -.-.K #.-.K -.-.#.K #.#.K -.-.#.;.<X#.*X=X@.J J J J %.J J O.O.$.,.$.$.$.$.,.$.$.$.$.$.$.$.&.X.X.X.X.X.>.X.X.X.X.X.A.H.O.O.O.X.X.X.X.X.X.X. .>.X.X.X.X.X.X.X.X.X.X.X.X.X.X. . .D D o.o.D F D D F D D D D o.F D F D D F D F o.F F D D F F D D D F F D F F o.D D o.o.F F F D F o.D D D F D D D D D D D D D D D F B A iXZ.Z.k 7 g > > w w w 8 q.GXJXb.= a w w 0 $ q Z L L L L L L y # 0 v b b b b b b u # 8 L T T T T T T u # 8 w 0 0 w w 8 = = = 8 w w 0 0 ",
"R R U U -.U U -.U R R U -.U U -.U R R R R U U 4.;.=.-.*X<X;.;.;.-.-.-.-.-.-.-.-.-.K 4.-.K -.-.K -.-.-.K ;.<X-.;.2X%.%.J J &.%.J %.A.>.,.>.,.,.$.,.,.$.,.,.,.,.$.,.5. .o.X.X.X.o.X.X.X.O.>.A.H.O.L.O.X.>.1.X.X.1.X.X.>.o.X.X.X.>.X.X.X.>.X.X.X.>.X.X.,.D F o.o.o.D F o.D F o.o.o.F o.o.D F o.F F o.o.o.D F o.F F o.o.o.F o.o.D F <.F F o.F o.F o.o.F o.o.o.o.D F o.F o.o.o.o.o.o.o.o.o.A j t.z 5 j j j $ > w w w 8 q.GXJXb.= a w w 0 $ q Z L L L L L L y # 0 v b b b b b b u # 8 L T T T T T T u # 8 w w a 0 0 k.V.MXV.g.0 0 w w ",
"4.3.P R 7XU U 7XR U 4.-.3.U U 7XR U 3.4.3.U R ;X;.#.3.,X<X4.4.;X-.#.3.-.K 3.4.3.#.-.3.-.K 3.4.K 4.-.3.-.=.3X4.#.2X;X5.%.J 5.&.Y 5.T.$.2.,.Y.2.$.Y.2. .2.2.Y.2.$.Y.5.$.L.Y.D 1.1.Y.1.D Y.2.O.[.T.T.1.X.Y.L.D 1.Y.C 1.1.Y.L.D L.Y.D 1.L.Y.1.D L.Y.C 1.5.C o.K.K.I.D K.P.D o.L.I.L.D K.P.D o.P.F F K.K.P.D o.P.D o.L.L.I.D <.P.D o.P.F F K.<.P.D o.P.F F L.L.P.D o.P.K.F F F F F F F F F A j 6 4 j 4 4 j > > w w w 8 q.GXJXb.= a w w 0 $ q Z L L L L L L y # 0 v b b b b b b u # 8 L T T T T T T u # 8 w w 0 j SXJXSXMXSXJXMXg 0 w ",
"4.3.P R 3.U U 3.R U 4.-.3.U U 3.R U 4.4.3.U R 3.=.K 3.,X<X4.;.;X-.-.3.-.K 4.4.3.#.-.3.-.K 3.4.K 4.-.3.-.=.3X4.#.,X>X5.%.J 5.&.Y T.T.$.2.,.Y.2.$.5.2. .2.2.Y.,.$.Y.5.&.L.L.D 1.<.Y.1.C Y.1.O.[.L.T.1.X.Y.1.D 1.Y.C 1.1.L.1.D 1.Y.C 1.L.Y.1.D 1.Y.C 1.Y. .o.<.K.L.D <.P.D o.L.L.L.D K.P.D o.P.F F K.<.I.D o.P.D o.L.L.L.D o.P.D o.P.F F K.<.P.D o.P.F F L.L.P.D o.P.<.D D D D D D D D F A s j 4 4 4 4 g > > w w w 8 q.GXJXb.= a w w 0 $ q Z L L L L L L y # 0 v b b b b b b u # 8 L T T T T T T u # 8 a 0 l KXSXj X o X j KXSXs 0 ",
"4.3.P R 3.U U 3.R U 4.-.3.U U 3.R U 4.4.3.U R :.=.K 3.,X<X4.;.;X-.-.3.-.K 4.4.3.#.-.3.-.K 3.4.K 4.-.3.-.=.3X4.=.3.2X3.%.J 5.&.J E.2.$.2.,.Y.2.$.Y.2. .2.2.Y.,.$.Y.2.&.2.L.D 1.<.Y.1.C Y.2.O.[.L.T.1.X.Y.1.D 1.Y.C 1.1.L.1.D 1.Y.C 1.L.Y.1.D L.Y.C 1.Y. .o.<.K.L.D <.P.D o.L.L.L.D K.P.D o.P.F F K.<.P.D o.P.D o.L.L.L.D o.P.D o.P.F F K.<.P.D o.P.F F L.L.P.D o.P.<.F F F F F F F F F A g j 4 4 4 4 g > > w w w 8 q.GXJXb.= a w w 0 $ q Z L L L L L L y # 0 v b b b b b b u # 8 L T T T T T T u # 8 s 8 V.KX> o $ $ $ X , HXV.= ",
"4.3.P R 3.U U 3.R U 4.-.3.U U 3.R U 4.4.3.U R :.-.#.3.,X<X4.;.;X-.#.3.-.K 4.4.3.#.#.3.-.K 3.4.K 4.-.3.-.=.3X4.=.4.2X,X$.J 5.%. .E.2. .2.,.Y.2.$.Y.2. .2.2.Y.,.$.Y.2.&.5.L.D 1.<.Y.1.D Y.1.O.[.L.T.1.X.Y.1.D 1.Y.C 1.1.L.1.D 1.Y.D 1.L.Y.1.D 1.Y.D 1.Y. .o.K.K.L.D <.P.D o.L.L.L.D K.P.D o.P.F F K.<.P.D o.P.D o.L.L.L.D o.P.D o.P.F F K.<.P.D o.P.F F L.L.P.D o.P.<.F F F F F F F D F A g j 4 4 4 4 g > > w w w 8 q.GXJXb.= a w w 0 $ q Z L L L L L L y # 0 v b b b b b b u # 8 L T T T T T T u # 8 0 s HXx.o $ $ $ o   O n.HXs ",
"4.3.U -.3.U R 3.R U 4.-.3.U R 3.R U 4.4.3.U -.:.-.-.3.,X<X4.;.;X-.-.3.-.K 4.4.3.-.-.3.-.K 3.4.K 4.-.3.-.;.3X4.=.4.:X2X$.J 5.%.O.E.2.$.2.,.Y.2.$.Y.2.$.2.2.Y.2.$.Y.2.$.5.L.C 1.<.Y.1.F Y.2.O.[.L.T.1.X.Y.L.C 1.Y.F 1.1.L.1.F 1.Y.F 1.L.Y.1.C L.Y.F 1.Y. .1.K.K.L.D K.P.D o.L.L.L.D K.P.D o.P.F o.K.<.P.D <.P.F o.L.L.L.D <.P.F o.P.F F K.<.P.F o.P.F F L.L.P.D o.P.<.F F F F F F F D F D g j 4 4 4 4 g > > w w w 8 q.GXJXb.= a w w 0 $ q Z L L L L L L y # 0 v b b b b b b u # 8 L T T T T T T u # 8 0 q.GXj X $ $ X h.D.d w.JXw.",
"4.3.4.3.3.4.4.3.4.4.4.R 3.4.3.3.4.4.3.4.3.4.:.3.4.4.3.,X,X3.;.;X4.3.3.4.4.3.4.3.4.4.3.4.4.3.4.4.3.-.3.4.3.3X3.3.3.4.2X4.2.5.4.T.Y.5.2.Y.,.Y.2.2.Y.2.2.Y.2.Y.2.2.Y.2.2.5.Y.1.Y.>.Y.L.1.Y.2.A.[.L.T.T.L.Y.L.1.Y.Y.1.Y.<.L.Y.1.Y.Y.1.Y.1.Y.I.1.Y.Y.1.Y.Y.1.5.<.K.P.K.P.P.K.P.K.L.L.K.P.P.K.I.P.K.I.K.<.P.K.P.P.K.I.L.L.I.K.P.P.K.I.P.K.L.K.<.P.K.I.P.K.L.L.L.P.K.I.P.K.F F F F F F F F F D l j 4 4 4 4 g > > w w w 8 q.GXJXb.= a w w 0 $ q Z L L L L L L y # 0 v b b b b b b u # 8 L T T T T T T u # 0 8 q.JXj X $ $ . `.IXBX4 SXw.",
"4.3.4.3.3.4.3.3.4.3.4.-.;X4.3.3.4.3.3.4.3.4.:.3.4.3.3.,X,X;X;.;X4.3.3.4.3.3.4.3.4.3.3.4.3.3.4.4.3.-.3.4.;X3X3.3.;X4.2X;X2.5.2.E.Y.5.2.Y.,.Y.5.5.Y.5.2.Y.2.Y.5.5.Y.5.2.5.5.L.Y.>.Y.Y.L.Y.I.A.[.T.T.T.T.Y.Y.L.Y.Y.L.Y.<.I.Y.L.Y.Y.L.Y.1.Y.Y.L.Y.Y.1.Y.Y.L.5.<.K.P.K.P.P.K.P.L.L.P.K.P.P.K.P.P.K.P.K.<.P.K.P.P.K.P.L.L.P.K.P.P.K.P.P.K.P.K.<.P.K.P.P.K.P.L.L.P.K.P.P.K.F F F F F F F F F D l j 4 4 4 4 g > > w w w 8 q.GXJXb.= a w w 0 $ q Z L L L L L L y # 0 v b b b b b b u # 8 L T T T T T T u # 8 0 g GXx.o $ $ $ o . $ 8.c.w ",
"4.4.4.4.4.4.4.4.4.4.4.R 4.4.4.4.4.4.4.4.4.-.:.4.4.4.4.,X,X4.;.4.-.4.4.4.4.4.-.4.4.4.4.4.4.4.4.4.4.-.4.-.3.<X4.4.4.-.>X>X,.4.Y.T.2.2.2.2.,.2.2.2.2.2.2.2.2.2.2.2.2.2.2.5.5.1.1.>.1.1.1.1.1.A.H.A.T.L.1.L.1.1.1.1.1.1.<.1.1.1.1.1.1.1.1.1.1.1.1.1.1.1.1.<.2.,.o.K.o.K.K.o.K.<.K.K.<.L.K.o.K.K.o.K.<.o.K.o.K.K.<.L.<.<.K.<.L.K.o.K.L.o.K.<.o.K.o.L.K.<.L.<.<.K.o.K.K.o.F F F F F F F F F D l j 4 4 4 4 g > > w w w 8 q.GXJXb.= a w w 0 $ q Z L L L L L L y # 0 v b b b b b b u # 8 L T T T T T T u # 8 s = MXKX$ X $ $ $ X $ c.k.0 ",
"U U U U U U U U U R U U U U U U U R U U U =.#.-.-.K K *X<X;.=.=.-.-.K K -.-.K #.-.K -.-.K K K K K #.K K ;.<X=.=.=.=.=.2XJ J T.X.$.$.$.$.$.$.$.$.$.,.$.$.$.$.$.$.>.,.$.$.&.X.X.X.X.X.X.X.X.A.H.O.O.O.X.X.X.X.X.X.X. .>.X.X.X.X.X.X.X.X.X.X.X.X.X.X.X.X.X. .,.F D D D D D D D D D F F D D D D D D F F D D D D F F D D D F F D D D o.D D o.F D F F D F o.D D D D D D D F F F F F F F F F D l 6 4 4 4 4 g > > w w w 8 q.GXJXb.= a w w 0 $ q Z L L L L L L y # 0 v b b b b b b u # 8 L T T T T T T u # 8 a 0 g KXSX, # $ $ , c.n.s 0 ",
"U U U U U U U U U R U U U U U U U R U U U &.#.-.-.%.K *X<X;.;.=.-.-.#.#.-.-.K -.-.K -.-.#.#.#.#.#.#.#.K ;.<X-.;.=.=.#.2XE $.A.>.>.>.>.>.$.$.$.$.$.,.>.>.>.>.>.$.>.,.$.>.&.$.X.X.X.X.X.X.>.A.H.O.O.O.X.X.X.X.X.X.X.X.>.X.X.X.X.X.X.X.X.X.X.X.X.X.X.X.X.X.X.,.o.F F D F F F F F D F o.F F D F F D F F D F F D F F F F D F F D F F o.F D o.F D F o.D F o.D F F F D F F F F F F F F F F F F l j g 4 g 4 g > > w w w 8 q.GXJXb.= a w w 0 $ q Z L L L L L L y # 0 v b b b b b b u # 8 L T T T T T T u # 8 w w 8 w.MXl 8 0 0 s k.g 0 w ",
"I.I.2.U U U U U U R U I.I.I.U U U R U U #.=.K -.2.P.2.R.<X;.;.=.-.-.#.#.-.-.K -.-.K -.-.I.2.I.I.2.#.#.K ;.<X=.=.=.=.#.=X=XO.1.1.T.T.T.T.>.$.$.$.$.,.L.T.T.T.T.>.>.,.$.$.*.&.X.X.A.Z.A.A.T.A.H.O.O.O.X.X.X.X.X.X.X.X.>.Z.A.Z.X.X.X.X.X.X.X.X.X.X.X.X.X.X.X.,.O.Z.Z.F F F F F F D F o.Z.Z.F F F D F F D F F D F Z.Z.Z.o.F F D F F o.D D o.F D F o.D F o.Z.Z.Z.Z.F F F F F F F F F F F F F l j q.j.j.y.k > > w w w 8 q.GXJXb.= a w w 0 $ q Z L L L L L L y # 0 v b b b b b b u # 8 L T T T T T T u # 8 w 0 w 0 8 0 w w w 0 0 0 w w ",
"I.2.2.U U U U U U R U I.P.2.W U U R U U =.=.K -.-.I.P.5.,X;.;.=.-.-.#.#.-.-.K -.-.K -.-.2.I.I.P.2.%.#.K ;.<X=.=.=.=.#.-.2XA.,.1.T.L.E.L.,.$.$.$.$.,.1.E.L.E.L.,.$.,.$.$.$.&.X.X.O.H.Z.H.L.H.H.O.O.O.X.X.X.X.X.X.X.X.>.O.Z.H.O. .X.X.X.X.X.X.X.X.X.X.X.X.X.>.,.Z.H.Z.D F F F F D F F Z.H.Z.D F D F F D F F D F o.Z.H.Z.F F D F F o.D D o.F D F o.D F o.Z.Z.Z./.o.D F F F F F F F F F F F k 6 q.j.q.Q.y.$ 8 w w w 8 q.GXJXb.= a w w 0 $ q Z L L L L L L y # 0 v b b b b b b u # 8 L T T T T T T u # 8 w w w w w w w w w w w w w w ",
"2.I.2.U U U U U U R W I.I.I.U U U R U U &.#.K -.%.2.1.R.<X;.=.=.-.-.K K -.-.K #.-.K -.-.2.2.I.2.2.K #.K ;.<X-.=.=.=.-.K >XY.>.T.L.L.L.L.$.$.$.$.$.,.L.L.L.L.L.>.>.,.$.$.X.&.$.X.O.Z.A.Z.L.A.H.O.O.O.X.X.X.X.X.X.X.X.X.O.O.Z.O.X.X.X.X.X.X.X.X.X.X.X.X.X.X.X.T.Z.Z.Z.D F D D F D F o.Z.Z.Z.D F D F F D F F D F o.Z.Z.Z.F F D D F o.D D o.F D F F D F o.o.Z.Z.Z.Z.D F D D D D D D D D D F k w.h.q.y.i.i.$ > w w w 8 q.GXJXb.= a w w 0 $ q Z L L L L L L y # 0 v b b b b b b u # 8 L T T T T T T u # 8 w w w w a 0 8 8 8 w a w w w ",
"U U E E E E E E U R R E E U U E U R R =.;.K =.-.=.=.K *X<X;.;.=.;.-.=.=.-.=.=.=.-.K -.-.=.=.=.=.=.=.=.K ;.<X;.;.=.=.=.K 3.7X$.$.$.$.$.$.$.$.$.$.$.,.$.$.$.$.$.$.,.,.$.$.$.&.&.>.X. . . .>.A.H.O.O.O.X.X.>.X.X.>.X. .,.X. . .X.X.X.X.X.X.X.X.X.X.X.X.X.X. .>.*. .D F F F F F F F o.F F D F F F F o.F F F F F F o.F D D F o.F F F o.F F o.F F F o.D F o.D F F D F F F F F F F F F F F F F x 6 4 4 4 3 g 8 > w w w 8 q.GXJXb.= s w w 0 $ q Z L L L L L L y # 0 v b b b b b b u # 8 L T T T T T T u # 8 w w w w 8 w q.g.q.0 8 w w w ",
"F F F F F F F F C I F F F F F F C I F $.$.C C I I I C $.%.$.I I I I C C I I C I I C I I C C C C C C I C $.,.I $.I I I C Z.3.X.X.X.X.X.X.X.X.X.X.X.X.X.X.X.X.X.X.X.X.X.X.X.X.>.O.D G G G X.O.J.O.O.O.X.G O.D D O.G D O.X.D G D D D D D D D D D D D D D D D O.O.X.A A A A A A A A A A A A A A A A A A A A A A A A A A A A A A A A A A A A A A A A A A A A A A A A A A A A A A A A A A A G z j g g g g l $ > w w w 0 q.HXJXb.8 s w w 0 $ q Z L L L L L L y # 0 v b b b b b b u # 8 L T T T T T T u # 8 w w 0 0 x.KXJXGXGXSXx.8 w w ",
"$ $ $ $ $ $ $ $ $ $ $ $ $ $ $ $ $ $ $ $ $ $ $ $ $ $ $ $ $ $ $ $ $ $ $ $ $ $ $ $ $ $ $ $ $ $ $ $ $ $ $ $ $ $ $ $ $ $ $ $ $ $ $ $ $ $ $ $ $ $ $ $ $ $ $ $ $ $ $ $ $ $ $ $ $ $ $ $ $ $ $ $ $ $ $ $ $ $ $ $ $ $ $ $ $ $ $ $ $ $ $ $ $ $ $ $ $ $ $ $ $ $ $ $ $ $ $ $ $ $ $ $ $ $ $ $ $ $ $ $ $ $ $ $ $ $ $ $ $ $ $ $ $ $ $ $ $ $ $ $ $ $ $ $ $ $ $ $ $ $ $ $ $ $ $ $ $ $ $ $ $ $ $ $ $ $ $ $ $ $ $ $ $ $ $ $ 8 w w 0 > a j g s > 0 w w 0 $ q Z L L L L L L y # 0 v b b b b b b u # 8 L T T T T T T u # 8 w w 0 V.JXV.w.4 w.V.PXb.8 w ",
"8 8 8 8 8 8 8 8 8 8 8 8 8 8 8 8 8 8 8 8 8 8 8 8 8 8 8 8 8 8 8 8 8 8 8 8 8 8 8 8 8 8 8 8 8 8 8 8 8 8 8 8 8 8 8 8 8 8 8 8 8 8 8 8 8 8 8 8 8 8 8 8 8 8 8 8 8 8 8 8 8 8 8 8 8 8 8 8 8 8 8 8 8 8 8 8 8 8 8 8 8 > > > > > > > > > > > > > > > > 8 8 > > > > > > > > > 8 8 8 8 8 8 8 8 8 $ $ 8 8 > > > > > > > > > > > > > > > > > > > > > > > > > > > > > > > > > > > > > > > > > > > > > > > > > > > > 8 8 $ 8 w 0 s S.s 0 u.d h.d 0 w 0 $ q Z L L L L L L y # 0 v b b b b b b u # 8 L T T T T T T u # 8 s 8 x.JXg.o . X o o k.V.j 0 ",
"0 0 0 0 0 0 0 0 0 0 0 0 0 0 0 0 0 0 0 0 0 0 w w w w a s s w w w w w w w w 0 0 0 0 0 0 0 0 0 0 0 0 0 0 0 0 0 0 0 0 0 0 0 0 w w w w s s w w w w w w w w 0 0 0 0 0 0 0 0 0 0 0 0 0 0 0 0 0 0 0 0 0 0 w w w s d f f f f f f f f f f f f f d f d w d f f d f f f d f d w w w w w w w w $ 8 w f z z z z z z z z z z z z z z z z z z z z z z z z z z z z z z z z z z z z z z z z z z z z z z z z z z z z s w $ 8 s 8 S.).h.u./.`./.D.8 a 0 $ q Z L L L L L L y # 0 v b b b b b b u # 8 L T T T T T T u # 8 w 0 KXV.o $ $ . e.IXh 8.n.0 ",
"$ $ X $ $ $ $ $ $ $ $ $ $ $ $ $ $ $ # . $ $ 0 w 0 w 8 8 8 w w w w w w w 0 $ $ $ $ # $ $ # X X $ $ $ $ $ $ $ $ $ $ $ . $ $ 0 w 0 w 8 > 0 w w w w w w 0 $ X # $ $ $ $ $ $ $ $ $ $ $ . $ $ $ X X $ $ w w 0 d z f f f f f f f f f f f f k f z k w e.f f f f f f f f z s 0 w w w w w 0 $ 8 0 z d s s s s s s s s s s s s s s s s s d s s s w w s a s a s d s s s s s s s s s s s s s s s s s s s d s z d 0 $ 8 s > D.G.D.S.h.NXh.Q.8 a 0 $ q Z L L L L L L y # 0 v b n n n n b u # 8 L T P P P P T u # 8 0 w.GXw.. $ # 8 IX).  6 n.s ",
". X 0   . $ $ $ $ $ $ $ $ $ $ $ > # > f . $ 0 w w 0 e.u.h.8 8 0 8 0 8 8 w $ $ $ $ > $ . > 0 0 $ $ $   $     . > $ $ f $ $ 0 w w 0 t.G.d 8 8 8 0 8 0 0 $ 0 8 . .   X . . .   . # . s $ > X 0 d . $ w w 0 d f 8 s 0 s 0 a a 0 0 0 w s 0 0 s k s k 0 0 0 0 s 0 0 0 k s 0 w w w w w w $ 8 0 k s 0 0 0 0 0 0 0 0 0 0 0 0 0 0 0 0 0 0 d d d e.k w f d f d 0 0 0 0 0 0 0 0 0 0 0 0 0 0 0 0 0 0 0 0 0 0 k d 0 $ 8 a 0 z ).G.h.(.S.(.u.8 w 0 $ q L P P P P P P y # 0 n M M M M M M u # 8 P E T T T T E u # 0 8 g.GX4 X $ $ $ d o X 4 c.j ",
"f z s k f X $ $ $ $ $ $ $ $ $ $ >   D.BX8 $ w w w w '.h.~.S.F.u./.e.F.h.0 $ 0 /.D./.> 8 ~.W./.h.e.r.z $ e.W.f $ X k BXe.  0 w w 0 h.'.S.r.F.~.e.F.u.$ d (.e.8 r.G.a f d f e.d w f F.> $   _.NX# $ w w 0 d f s W.S.D.l.Q.f e.S.l.D.D.S.k a k s z 0 W.r.W.G.G.u.0 z s 0 w w w w w w $ 8 0 k d 0 w w w w w w w w w w w w w w w w 8 r.u.k D._.S.u.Q.D.s 0 w w w w w w w w w w w w w w w w w w w w 0 k d 0 $ 8 w w 0 0 0 0 0 8 0 0 w w 0 $ 0 h N u h u u h q $ 0 u N u u u u u q $ 8 N N N N N N N e $ 8 0 w.JXg.o $ $ $ . $ X 6 c.s ",
"Q.F.~.F.8 $ $ $ $ $ $ $ $ $ $ $ > X y.D.s # w w w 0 u./.).^.F.'.D.'.NX~.0 $ F.).Q.`.8 F.Q.~./.F.G.Q.D.(.t./.f $ X f D.e.. 0 w w 0 k F.G.`./.D.NXNXQ.$ f ).s '.F.Q./.`.`.u.(.F.t.'.~.$ $ $ u.G.0 $ w w 0 d f s !.u.^.D.F.k u.^.!.S.u._.d s k s z 0 !.!.F.y.W.S.> z s 0 w w w w w w $ 8 0 k d 0 w w w w w w w w w w w w w w w w 8 r.u.d G.l._.G._.W.0 s s w w w w w w w w w w w w w w w w w w w 0 k d 0 $ 8 w w w w 8 f d f 0 w w w 0 $ 0 0 , w 0 w a 0 0 $ 0 a 4 w a w a a 0 $ 8 0 w w , e 0 w 0 $ 8 w 0 SXMXo $ $ $ $ $ X k.d.0 ",
"G.).~.Q.s # $ $ $ $ $ $ $ $ $ $ > o G.BX> $ w w w w S.~.D.F.Q.~.'.h.~.u.0 > G.'.^.^.a G.~.Q.~.`.h.S.F.Q.h.F.z $ X f BXe.  0 w w 0 k S.r.(.F.'.h.^.t.> d ).z `.S.D./.F.D.d h.S.).'.^.$ > o _.NXX $ w w 0 d f d u.0 l.u.D.e.e.G.l.u.D.u.e.w k s z 0 l.G.y.D.l.u.w z s 0 w w w w w w $ 8 0 k d 0 w w w w w w w w w w w w w w w w 0 z !.l.D.r.u.D.r.u.l.y.u.d 0 w w w w w w w w w w w w w w w w w 0 k d 0 $ 8 w w w 0 e.).~.`.u.8 w w 0 $ 0 0 S h h G h G 0 $ 0 0 N N w Z V Z 0 $ 0 a p 6.p 6.+.6.w $ 8 s 8 k.JXn.# $ $ $ $ 8.c.j 0 ",
"d s $ d d X $ $ $ $ $ $ $ $ $ $ > $ $ 0 . $ 0 w w 0 d 0 8 w 8 h.e.> w s 0 $   $ w d . 0 k 8 z a $ 8 f . k s w $ $ X w # $ 0 w w w w 8 F.e.S.z > w s 0 $ k f $ 0 s 0 d 8 $ 8 8 s s 8 $ > X > 0 . $ w w 0 d k 0 0 0 8 0 w 0 8 8 8 0 0 8 0 s k s k 0 0 8 0 0 0 0 0 k s 0 w w w w w w $ 8 0 k s 0 0 0 0 0 0 0 0 0 0 0 0 0 0 0 0 0 0 0 w w 0 0 8 8 0 0 0 0 0 0 0 0 0 0 0 0 0 0 0 0 0 0 0 0 0 0 0 0 0 k d 0 $ 8 w w 0 z /.^./.`.S.8 w w 0 $ 0 h <.G h G S S 0 $ 0 y Y V w N Z J 0 $ , ( +.6.i 6.6.6.i % 8 w w 8 b.GXj $ > $ s c.w.0 w ",
". . $ . . $ $ $ $ $ $ $ $ $ $ $ $ $ $ X $ $ 0 w w w 0 w w w w 0 0 w 0 0 0 $ $ $ X . $ # . #   X $ # . $ . X X > $ $ X $ $ 0 w 0 w w w w 0 0 0 w 0 0 0 $   . $ # . X . # $ # # . . X $ $ $ $ # $ $ w w 0 d z k k k k k k k k k k k k k k z k w e.k k k k k k k k z a 0 w w w w w 0 $ 8 0 z f d d d d d d d d d d d d d d d d d d d d d d d d d d d d d d d d d d d d d d d d d d d d d d d d d d z s 0 $ 8 w w 0 k /././.`.G.> w w 0 $ 0 w h S h S S S 0 $ 0 w y N y y y N 0 $ 8 0 +.+.p +...+.0 $ 8 w 0 w 0 j w w w w w g 0 w w ",
"w w 0 w w 0 0 0 0 0 0 0 0 0 0 0 w 0 0 w 0 0 w w w w w w w w w w w w w w w 0 0 0 w w 0 w w 0 w w 0 0 w 0 w w w w 0 0 w 0 0 w w w w w w w a w w w w w w 0 w w 0 w w w w 0 0 0 0 w w w 0 w 0 0 w 0 w w w w a d d d d d d d d d d d d d d d d s w d d d d d d d d d d w w w w w w w w $ 8 w d k k k k k k k k k k k k k k k k k k k k k k k k k k k k k k k k k k k k k k k k k k k k k k k k k k k k s w $ 8 s w a 0 e.e.k u.s w w w 0 $ 0 a 0 0 w 0 , 0 w $ 0 a 0 a w w w a w $ 0 s 2 2 w a a 2 w $ 8 s w w a 0 w w w w w w w w w ",
"8 > 8 8 8 8 8 8 8 8 8 8 8 8 8 8 8 8 8 8 8 8 > > > > > > > > > > > > > > > 8 8 8 8 8 8 8 8 8 8 8 8 8 8 8 8 8 8 8 8 8 8 8 8 > > > > > > > > > 8 > > > > 8 8 8 8 8 8 8 8 8 8 8 8 8 8 8 8 > 8 8 8 8 8 > > > > > > > > > > > > > > > > > > > > > 8 > > > > > > > > > > 8 8 8 8 8 8 8 > $ $ 8 > $ $ $ $ $ $ $ $ $ $ $ $ $ $ $ $ $ $ $ $ $ $ $ $ $ $ $ $ $ $ $ $ $ $ $ > $ $ $ $ $ $ $ $ $ $ $ $ $ $ $ > > 8 $ $ 8 > > 8 $ $ $ $ > 8 > 8 > $ > 8 8 8 8 8 8 8 > $ $ 8 8 8 8 8 8 8 > $ $ 8 8 8 8 8 8 8 > $ $ 8 > 8 8 8 8 8 8 8 8 , 8 8 8 ",
"$ $ $ $ $ $ $ $ $ $ $ $ $ $ $ $ $ $ $ $ $ $ $ $ $ $ $ $ $ $ $ $ $ $ $ $ $ $ $ $ $ $ $ $ $ $ $ $ $ $ $ $ $ $ $ $ $ $ $ $ $ $ $ $ $ $ $ $ $ $ $ $ $ $ $ $ $ $ $ $ $ $ $ $ $ $ $ $ $ $ $ $ $ $ $ $ $ $ $ $ $ $ $ $ $ $ $ $ $ $ $ $ $ $ $ $ $ $ $ $ $ $ $ $ $ $ $ $ $ $ $ $ $ $ $ $ $ $ $ $ $ $ $ $ $ $ $ $ $ $ $ $ $ $ $ $ $ $ $ $ $ $ $ $ $ $ $ $ $ $ $ $ $ $ $ $ $ $ $ $ $ $ $ $ $ $ $ $ $ $ $ $ $ $ $ $ $ $ $ $ $ $ $ $ $ $ $ $ $ $ $ $ $ $ $ $ $ $ $ $ $ $ $ $ $ $ $ $ $ $ $ $ $ $ $ $ $ $ $ $ $ $ $ $ $ $ $ $ $ $ $ $ $ $ $ $ ",
"8 a w w w w w w w w w w w w w w w w w w w w w w w w w w w w w w w a > $ w w w w w w w w w w w w w w w w w w w w w w w w w w w w w w w w a 8 $ w w w w w w w w w w w w w w w w w w w w w w w w w w w w w w w w w 0 $ $ $ $ > > > > > > > > > > > > > > > > > > > > > > > > > > > > $ $ $ $ 8 a w a s s s s s s s s s s s s s s s s s s s s s s s s s s s w w a > $ > $ > > > > > > > > > > > > > > > > > > > > > > > > > > > > $ > $ $ $ $ $ > > > > > > > > > > > > > > > > > > > > > > > > > > > $ $ $ $ $ $ $ > > > > > > > > ",
"8 <  XsXsXsXsXsXsXsXsXsXsXsXsXsXsXsXsXsXsXsXsXsXsXsXsXsXsXsXsXsXQ < 8 $ 2 B &X$X$X$X$X$X$X$X$X$X$X$X$X$X$X$X$X$X$X$X$X$X$X$X$X$X$X$X&X{ 2 8 $ 0 i lX} } } } } } } } } } } } } } } } } } } } } } } } } } } lX} 0 0 $ $ $ a a a a a a a a a a a a a a w a w a a a a a a a a a a a a s > $ $ 0 - B.FXDXDXDXDXDXDXDXDXDXDXDXDXDXDXDXDXDXDXDXDXDXDXDXDXDXDXDXFXf.8 > $ $ 8 s a a a a a a a a a a a a w w w a a a a a a a a a a a s 0 $ $ $ $ , s a a a a a a a a a a a a w 0 0 a a a a a a a a a a a a a $ $ $ $ $ a a a a a a a a a ",
"8 < wX5X.X.X.X.X.X.X.X.X.X.X.X.X.X.X.X.X.X.X.X.X.X.X.X.X.X.X.XsX! < 8 > 2  .&X] [ [ [ [ [ [ [ [ [ [ [ [ [ @X[ [ [ [ [ [ [ [ [ [ [ ] @X@X2 8 $ 0 i lX_ _ _ _ _ _ _ _ _ _ _ _ _ _ | _ _ _ _ _ _ _ _ _ _ _ _ | lXw 0 $ $ $ a > $ $ $ $ $ $ $ $ $ $ $ $ 8 > 0 $ $ $ $ $ $ $ $ $ $ $ $ a , $ $ 0 - mXnXM.N.N.N.N.N.N.N.N.N.N.N.N.nXnXN.N.N.N.N.N.N.N.N.N.N.M.DXc.- , $ $ 0 0 $ $ $ $ $ $ $ $ $ $ $ $ , 0 0 $ $ $ $ $ $ $ $ $ $ $ 8 w $ $ $ $ 8 w $ $ $ $ $ $ $ $ $ $ $ $ , a a $ $ $ $ $ $ $ $ $ $ $ > a $ $ $ $ > a $ $ $ $ $ $ $ $ ",
"8 < 6X5X X.X.X.X.X.X.X.X.X.X.X.XsX5X5X.X.X.X.X.X.X.X.X.X.X.X XsX! < 8 > 2  .$X' ] ] ] ] ] ] ] ] ] ] ] @X@X@X[ ] ] ] ] ] ] ] ] ] ] ' @X@X2 8 $ 0 i lX^ _ _ _ _ _ _ _ _ _ _ _ | } | | _ _ _ _ _ _ _ _ _ _ _ _ } w 0 $ $ $ a $ $ $ $ $ $ $ $ $ $ $ $ 0 u.0.0.$ $ $ $ $ $ $ $ $ $ $ $ w , $ $ 0 - mXnXM.N.M.M.M.M.M.M.M.N.M.N.ZXZXnXM.N.M.M.M.M.M.M.M.M.N.v.DXc.- , $ $ 0 0 $ $ $ $ $ $ $ $ $ $ $ g u.i.a $ $ $ $ $ $ $ $ $ $ $ 8 0 $ $ $ $ 8 w $ $ $ $ $ $ $ $ $ $ $ 0 u.f 0.$ $ $ $ $ $ $ $ $ $ $ > a $ $ $ $ > a $ $ $ $ $ $ $ $ ",
"8 < 6X5X.X.X.X.X.X.X.X.X.X.X.X.XsXoX5X.X.X.X.X.X.X.X.X.X.X.X XsX! < 8 > 2  .$X' [ ] ] ] ] ] ] ] ] ] ] $X@X@X[ ] ] ] ] ] ] ] ] ] ] ] @X@X2 8 $ 0 i lX_ _ _ _ _ _ _ _ _ _ _ _ | } | | _ _ _ _ _ _ _ _ _ _ _ _ } w 0 $ $ $ a > $ $ $ $ $ $ $ $ $ > $ d z.i.i.$ > $ $ $ $ $ $ $ $ $ $ w , $ $ 0 - mXnXM.N.N.N.N.N.N.N.N.N.N.N.DXnXnXN.N.N.N.N.N.N.N.N.N.N.M.DXc.- , $ $ 0 0 $ $ $ $ $ $ $ $ $ > $ 0.u.y.f $ > $ $ $ $ $ $ $ $ $ 8 0 $ $ $ $ 8 w $ $ $ $ $ $ $ $ $ > $ s z.g s $ > $ $ $ $ $ $ $ $ $ > a $ $ $ $ > a $ $ $ $ $ $ $ $ ",
"8 < 6X5X X.X.X.X.X.X.X.X.X.X.X.X.X.X.X.X.X.X.X.X.X.X.X.X.X.X X5X! < 8 > 2  .$X' ] ' ' ' ' ' ' ' ' ' ' ] ] [ ] ' ' ' ' ' ' ' ' ' ' ' @X@X2 8 $ 0 i } ^ ^ ^ ^ ^ ^ ^ ^ ^ ^ ^ ^ _ _ _ _ ^ ^ ^ ^ ^ ^ ^ ^ ^ ^ ^ _ } w 0 $ $ $ a $ $ $ $ $ $ $ $ $ $ $ $ $ > $ 8 $ $ $ $ $ $ $ $ $ $ $ $ 0 , $ $ 0 - mXnXv.M.M.M.M.M.M.M.M.M.M.M.M.M.N.M.M.M.M.M.M.M.M.M.M.M.v.ZXc.- , $ $ 0 0 $ $ $ $ $ $ $ $ $ $ $ > $ 0 , $ $ $ $ $ $ $ $ $ $ $ , 0 $ $ $ $ 8 0 $ $ $ $ $ $ $ $ $ $ $ $ > , $ $ $ $ $ $ $ $ $ $ $ $ $ a $ $ $ $ > a $ $ $ $ $ $ $ $ ",
"8 < wXsX5X5X5X5X5X5X5X5X5X5X5X5X5X5X5X5X5X5X5X5X5X5X5X5X5X5X5XsX! < 8 > 2  .&X@X@X@X@X@X@X@X@X@X@X@X@X@X@X@X@X@X@X@X@X@X@X@X@X@X@X@X&X@X2 8 $ 0 i lX| } } } } } } } } } } } } } | } } } } } } } } } } } | } lXw 0 $ $ $ s 0 8 8 8 8 8 8 8 8 8 8 8 8 8 8 8 8 8 8 8 8 8 8 8 8 8 8 8 s , $ $ 0 - mXDXnXnXnXnXnXnXnXnXnXnXnXnXnXnXnXnXnXnXnXnXnXnXnXnXnXnXnXFXc.- , $ $ 0 a , 8 8 8 8 8 8 8 8 8 8 8 8 , 8 8 8 8 8 8 8 8 8 8 8 8 0 w $ $ $ $ 8 s 8 8 8 8 8 8 8 8 8 8 8 8 8 8 8 8 8 8 8 8 8 8 8 8 8 8 0 s $ $ $ $ > s 8 8 8 8 8 8 8 8 ",
"8 , G wX6XwXwXwXwXwXwXwXwXwXwXwXwXwXwXwXwXwXwXwXwXwXwXwXwXwX6XwXH , 8 $ a p { { { { { { { { { { { { { { { { { { { { { { { { { { { { {  .a 8 $ 0 e ` | | | | | | | | | | | | | | | | | | | | | | | | | | | | ` w 0 $ $ $ 0 0 0 0 0 0 0 0 0 0 0 0 0 0 0 0 0 0 0 0 0 0 0 0 0 0 0 0 0 0 > $ $ 8 q d.mXmXmXmXmXmXmXmXmXmXmXmXmXmXmXmXmXmXmXmXmXmXmXmXmXmXmXmXmX8.q > $ $ , w 0 0 0 0 0 0 0 0 0 0 0 0 0 0 0 0 0 0 0 0 0 0 0 0 0 0 w 8 $ $ $ $ > 0 0 0 0 0 0 0 0 0 0 0 0 0 0 0 0 0 0 0 0 0 0 0 0 0 0 0 w 0 $ $ $ $ $ 0 0 0 0 0 0 0 0 0 ",
"8 w , < < < < < < < < < < < < < < < < < < < < < < < < < < < < < , w $ $ w 0 2 2 2 2 2 2 2 2 2 2 2 2 2 2 2 2 2 2 2 2 2 2 2 2 2 2 2 2 & 2 w 8 $ w w : & & : : & & & & & & & & & & & & & & : & : & : : & & & & : w 0 $ $ $ $ $ $ $ $ $ $ $ $ $ $ $ $ $ $ $ $ $ $ $ $ $ $ $ $ $ $ $ $ $ $ $ $ 8 a 8 - - - - - - - - - - - - - - - - - - - - - - - - - - - - - 0 a $ $ $ $ $ $ $ $ $ $ $ $ $ $ $ $ $ $ $ $ $ $ $ $ $ $ $ $ $ $ $ $ $ $ $ $ $ $ $ $ $ $ $ $ $ $ $ $ $ $ $ $ $ $ $ $ $ $ $ $ $ $ $ $ $ $ $ $ $ $ $ $ $ $ $ $ $ $ $ $ $ ",
"8 w w e e e e e e e e e e e e e q 0 e e e e e e e e e e e e e e w w $ $ w w e e e 0 0 w e e e e e e e e e e e w 8 0 8 0 q 8 0 e e e e w w 8 $ w w w w w w 0 w w w w w w w w w w w w w w 0 w 0 w 0 0 w w w w w w 0 $ $ $ $ > > $ $ $ $ $ $ $ $ $ $ $ $ $ $ $ $ $ $ $ $ $ $ $ $ $ $ $ $ $ $ 8 w w s s a 0 0 s s s s s s s s s s s s s w 0 0 0 0 0 s s s s s w w $ $ $ $ $ > $ $ $ $ > $ $ $ $ $ $ $ $ $ $ $ $ $ $ $ $ # $ $ $ $ $ $ $ $ $ $ $ > > $ $ $ > $ $ $ $ $ $ $ $ $ $ $ $ $ $ $ $ $ $ $ $ $ $ $ $ $ $ $ $ > > $ $ $ > > $ ",
"8 w w w w w w w w w w w w w w 0 d t.0 w w w w w w w w w w w w w w w $ $ w w w 0 0 d h w 0 w w w w w w w w w 0 s r.z h.k d h.z 0 w w w w w 8 $ w w w 0 0 e d e 0 0 w w w w w w w w w 0 w z 0 f d d d 0 w w w w w 0 $ $ $ > $ # , 0 , $ $ $ $ $ $ $ $ $ $ $ $ > f 0 d a f 0 $ $ $ $ $ $ $ $ 8 w w w = s q.j 0 0 w w w w w w w w w w 0 d z r.k e.z 0 w w w w w w $ $ $ $ $ $ $ a s $ $ $ $ $ $ $ $ $ $ $ > a 8 f 0 s a k a $ $ $ $ $ $ $ $ $ > $ $ 0 s 8 # $ $ $ $ $ $ $ $ $ > f 8 d 0 s 0 > 0 $ $ $ $ $ $ $ $ $ > $ $ 0 s 0 $ $ > ",
"8 w w w w w w w w w w w w w w 8 F.`.r.8 w w w w w w w w w w w w w w $ $ w w 0 x O.O.O.O.S 0 w w w w w w w w > h.NXk ~.Q.0 ~.~.> a w w w w 8 $ w w 0 e ......+.( w 0 w w w w w w w w 0 k '.8 '.r.).h.> w w w w w 0 $ $ > $ 0 h.z f k f 8 $ $ $ $ $ $ $ $ $ $ , r.D.W.d r.l.$ > $ $ $ $ $ $ 8 w 0 0 b.SXSXV.d.j 0 w w w w w w w w w 0 `.S.S.).h.).a 0 w w w w w $ $ $ $ $ e.F.F.F.Q.r.$ $ $ $ $ $ $ $ $ 0 D.i.F.k Q.e.u.u.# > $ $ $ $ $ $ > $ d D.F.F.W.u.$ $ $ $ $ $ $ $ $ , u.D.l.l.W.i.i.l.. > $ $ $ $ $ $ > $ 0 S.F.F.F.G.0 $ ",
"8 w w w w w w w w w w w w w w 0 F.S.G.> a w w w w w w w w w w w w w $ $ w 0 S O.y $ $ r X...0 w w w w w w w 0 s D.S.G.r.$ F.e.8 w w w w w 8 $ w 0 ( [.@ X $ 8 ( ..w 0 w w w w w w w w 0 F.D.NX).NXS.> a w w w w 0 $ $ $ 0 W.u.$ . # 0 z 8 $ $ $ $ $ $ $ $ > $ k k k u.f k $ > $ $ $ $ $ $ 8 w 0 MXMX4 , g 6 d.w.0 w w w w w w w 0 z `.Q.u.(.z D.0 w w w w w w $ $ > $ t.W.a . # 8 D.r.$ > $ $ $ $ $ > $ u.a e.G.W.f i.s $ $ $ $ $ $ $ > $ f Q.f # . 8 S.D.$ $ $ $ $ $ $ > $ e.D.u.Q.D.G.W.l.# > $ $ $ $ $ $ $ 0 Q.t.$ . $ t.Q.0 ",
"8 w w w w w w w w w w w w w w 8 S.`.z 0 w w w w w w w w w w w w w w $ $ 0 e O.c O X $ # $ O.x 0 w w w w w w 0 k Q.G.D.z h.F.0 w w w w w w 8 $ 0 w xX( !.e.o $ % ..( 0 w w w w w w w w 0 F.r./.Q.~.S.> w w w w w 0 $ $ $ S.u.O _.y.O   0 f $ $ $ $ $ $ $ $ $ s !.k i.l.W.k $ $ $ $ $ $ $ $ 0 8 n.SXX O D.IXo 4 d.s 0 w w w w w w 0 w Q.^.F.~.'.F.0 w w w w w w $ $ $ d Q.$ o . o k 0 k 0 $ $ $ $ $ $ > $ y.d u.l.l.y.y.$ $ $ $ $ $ $ $ $ , W.s O     O O G.r.# > $ $ $ $ $ 0 u.y.y.u.l.l.y.l.$ > $ $ $ $ $ $ $ G.r.O   .   O t.S.",
"8 w w w w w w w w w w w w w w w w d 0 a w w w w w w w w w w w w w w $ $ , O.B i.D.0 $ $ # p O.0 w w w w w w 0 s f 0 0 a s 0 w w w w w w w 8 $ , ..[.o '.UX8 $ % 9 ..w w w w w w w w w w w 0 8 8 8 0 w w w w w w 0 $ $ 0 F.$ O D.!.O . . f 8 $ $ $ $ $ $ $ $ > 0 0 0 > 0 0 $ $ $ $ $ $ $ $ 8 0 SXg.X o _.BXo X f.w.0 w w w w w w w 0 s s f s s f w w w w w w w $ $ # u.t.O # O G.BX0 8 f $ $ $ $ $ $ $ $ $ , 0 $ 0 $ $ $ $ $ $ $ $ $ $ # z G.o . . . 0 8 s F.$ $ $ $ $ $ $ > 0 $ 0 $ 0 $ # $ $ $ $ $ $ $ $ $ a F.#   .   O   $ F.",
"8 w w w w w w w w w w w w 0 8 0 8 8 0 8 0 w w w w w w w w w w w w w $ > , R.O.W.UXW.o $ # y O.0 w w w w w w w 0 0 0 w 0 0 0 0 w w w w w w 8 $ $ A.[.  . t.> $ $ > ..e 0 w w w w w w w w 0 0 0 0 0 w w w w w w w 0 $ $ s F..   . #   .   f 0 $ $ $ $ $ $ $ $ $ $ # $ $ # $ $ $ $ $ $ $ $ $ 8 a SX6 X $ $ $ $ X g.g.0 w w w w w w 8 0 w 0 8 0 0 8 0 0 w w w w w $ $ # S.k o . o f 0 O 8 f $ $ $ $ $ $ $ $ > $ $ > # $ $ $ $ $ $ $ $ $ $ # t.u.o . o , NXNX$ r., $ $ $ $ $ $ $ $ $ # > $ $ $ > $ $ $ $ $ $ $ $ f D.  .   $ i..   D.",
"8 w w w w w w w w w w w 0 a e.z u.z d u.z 0 w w w w w w w w w w w w $ > , Y.Y.O X $ $ $ # p O.0 w w w w w w w 0 d k 0 k w f s 0 w w w w w 8 $ , ..[.. $   $ $ % 9 ..w 0 w w w w w w w 0 z z r.d t.w w w w w w w 0 $ $ 0 F.$   .   . . . f 0 $ $ $ $ $ $ $ $ $ a d $ k k s $ $ $ $ $ $ $ $ 8 0 SXg.o $ $ $ $ X f.w.0 w w w w w 0 r.k 0 d z f k k k z 0 w w w w $ $ # h.r.O . . o     0 f $ $ $ $ $ $ $ $ $ d a > z k 0 $ $ $ $ $ $ $ $ # z S.o .   . $ . $ f $ $ $ $ $ $ $ $ $ a f $ k k s $ $ $ $ $ $ $ $ $ a F.#     % NX_.X F.",
"8 w w w w w w w w w w w 8 u.NXz Q.^.0 ~./.> a w w w w w w w w w w w $ $ 0 S yXq # $ $ $ # X.x 0 w w w w w w w 8 h.).8 NXf '.f 0 w w w w w 8 $ 0 s xX(   $ $ $ % ( ( 0 w w w w w w w 8 u.`.e.(.G.~.G.> w w w w w 0 $ $ $ G.t.O . . . o 8 k $ $ $ $ $ $ $ $ $ a l.u.u.W.!.f $ > $ $ $ $ $ $ 0 = b.MXo $ $ $ X < d.s 0 w w w w w w S.^.u.'.~.(.(./.(.^.s 0 w w w $ $ $ f Q.#   . .     k 0 $ $ $ $ $ $ > $ f l.u.l.W.Q.0 $ $ $ $ $ $ $ $ $ 0 Q.w o .     o d d $ $ $ $ $ $ $ $ 0 l.u.u.W.!.k $ > $ $ $ $ $ $ $ $ D.e.O . o % s d S.",
"8 w w w w w w w w w w w 0 s D.S.S.t.X D.t.8 w w w w w w w w w w w w $ $ w , Y.yX8 $ $ $ X.O.0 w w w w w w w w 0 d Q.Q.NX).NXz 0 w w w w w 8 $ w , ..xXi % $ % p +.w 0 w w w w w w a > Q.).h.Q.S.S.r.0 w w w w w 0 $ $ $ 0 ~.k o .   $ z 0 $ $ $ $ $ $ $ > # e.e., W.y.l.0 $ $ $ $ $ $ $ $ 8 w 0 SXV.X $ $ , d.w.0 w w w w w w 8 z F.).NXS.(.~.^./.D.e.0 w w w $ $ > $ h.F.#   . . d d $ $ $ $ $ $ $ > X u.s f D.y.l.$ $ $ $ $ $ $ $ $ > $ e.~.8   .   a k $ $ $ $ $ $ $ > # k i.> W.y.l.w $ $ $ $ $ $ $ $ $ $ s ~.d o .   $ z 8 ",
"8 w w w w w w w w w w w 0 d Q.D.F.z u.F.a w w w w w w w w w w w w w $ $ w 0 0 O.d 0 0 w x w 0 w w w w w w w w 0 d F.t.'.D.`.e.8 w w w w w 8 $ w w 8 ..x 8 0 0 x e 0 w w w w w w w w 8 t.(.F.F.).'.z 0 w w w w w 0 $ $ > $ s f $ $ $ 0 0 $ $ $ $ $ $ $ $ $ $ 8 l.l.e.e.i.0 $ $ $ $ $ $ $ $ 8 a 0 l x.0 0 0 s w.0 w w w w w w 0 a '.F.G.).^.^.^.^.~.^.w w w w w $ $ $ $ $ z , $ $ $ a $ $ $ $ $ $ $ $ $ $ s S.u.z e.e.$ $ $ $ $ $ $ $ $ $ $ $ k a $ $ $ w , $ $ $ $ $ $ $ $ $ 8 l.l.e.e.i.0 $ $ $ $ $ $ $ $ $ > $ d d $ $ $ 0 0 $ ",
"8 w w w w w w w w w w w 0 s k 0 w w d w 0 w w w w w w w w w w w w w $ $ w w w , 0 w w w 0 w w w w w w w w w w w w w 8 8 > 8 0 w w w w w w 8 $ w w w 8 0 w w w 0 0 w w w w w w w w w w 0 d s k w k d 0 w w w w w 0 $ $ $ > $ $ > $ $ $ $ $ $ $ $ $ $ $ $ $ $ $ , 0 $ > $ $ $ $ $ $ $ $ $ $ 8 w w 0 8 w w w 0 0 w w w w w w w w w d f > 8 s w a a w s 0 w w w w $ $ $ $ $ $ $ $ $ $ $ $ $ $ $ $ $ $ $ $ $ $ 0 , $ > $ $ $ $ $ $ $ $ $ $ $ $ $ $ $ > $ $ $ $ $ $ $ $ $ $ $ $ $ $ , 0 $ > $ $ $ $ $ $ $ $ $ $ $ $ > $ $ > $ $ $ $ $ ",
"8 w w e w w w w w w w w e w 0 e w w w w e w w w w w w w w w w w w w $ $ w w e e e w w w e e w w w w w w w w w w w w e e e e e w w w e w w 8 $ w w w e w w w w w w w w w w w w w w w w w 0 w 0 w 0 0 w w w w w w 0 $ $ $ > > > > > > > > > > > > > > > > > > > $ $ > > > > > > > > > $ $ $ 8 w w s s s s s s s s s s s s s s s a 0 0 s s a a a a a a s s s w w $ $ $ $ > > > > > > > > > > > > > > > > > > $ $ > > > > > > > > $ $ $ $ $ $ > > > > > > > > > > > > > > > > > > $ $ > > > > > > > > > $ $ $ $ $ > > > > > > > > > ",
"8 w , < < < < < < < < < < < < < < < < < < < < < < < < < < < < < , w $ $ w 0 2 2 2 2 2 2 2 2 2 2 2 2 2 2 2 2 2 2 2 2 2 2 2 2 2 2 2 2 & 2 w 8 $ w w : & & & & & & & & & & & & & & & & & & & & : & : & & & & & a w 0 $ $ $ $ # # # # # # # # # # # # # # # # # # # # # # # # # # # # # $ $ $ 8 a 8 - - - - - - - - - - - - - - - - - - - - - - - - - - - - - 0 a $ $ > $ # # # # # # # # # # # # # # # # # # # # # # # # # # # # $ > $ $ $ $ # # # # # # # # # # # # # # # # # # # # # # # # # # # # $ $ $ $ $ $ $ # # # # # # # # ",
"8 , H -X X X X X X X X X X X X X X X X X X X X X X X X X X X X-XN 0 > $ a p { { { { { { { { { { { { { { { { { { { { { { { { { { { { { B a 8 $ 0 e ` ` ` ` ` ` ` ` ` ` ` ` ` ` ` ` ` ` ` ` ` ` ` ` ` ` ` ` ` / w 0 $ $ $ k r.e.e.e.e.e.e.e.e.e.e.e.e.e.r.e.e.e.e.e.e.e.e.e.e.e.e.r.e., $ $ 8 q f.B.B.B.B.B.B.B.B.B.B.B.B.B.B.B.B.B.B.B.B.B.B.B.B.B.B.B.B.B.w.q > $ $ 0 r.e.e.e.e.e.e.e.e.e.e.e.e.e.r.e.e.e.e.e.e.e.e.e.e.e.e.r.d $ $ $ $ 8 e.e.e.e.e.e.e.e.e.e.e.e.e.e.r.r.e.e.e.e.e.e.e.e.e.e.e.r.f $ $ $ $ $ z r.e.e.e.e.e.e.e.",
"8 < wXsX1X1X1X1X1X1X1X1X1X1X1X1X1X1X1X1X1X1X1X1X1X1X1X1X1X1XoXsX! < 8 > 2  .&X@X$X$X$X$X$X$X$X$X$X$X$X$X$X$X$X$X$X$X$X$X$X$X$X$X$X@X&X@X2 8 $ 0 i lX} } } } } } } } } } } } } } } } } } } } } } } } } } } } lXw 0 $ $ $ G.u.t.t.t.t.t.t.t.t.t.t.t.t.t.r.t.t.t.t.t.t.t.t.t.t.t.t.r.F.a $ $ 0 - mXFXnXZXZXZXZXZXZXZXZXZXZXZXZXZXZXZXZXZXZXZXZXZXZXZXZXZXnXFXc.- , $ # z D.r.t.t.t.t.t.t.t.t.t.t.t.t.r.t.t.t.t.t.t.t.t.t.t.t.r.S.u.# $ $ $ s F.r.t.t.t.t.t.t.t.t.t.t.t.t.r.t.t.t.t.t.t.t.t.t.t.t.t.u.G.$ $ $ $ > D.u.t.t.t.t.t.t.t.",
"8 < 6XoX|.}.}.}.}.}.}.}.}.}.}..XoXoX.X}.}.}.}.}.}.}.}.}.}.}.T 1X! < 8 > 2  .$X' ' ' ' ' ' ' ' ' ' ' [ @X@X@X] ' ' ' ' ' ' ' ' ' ' ' @X@X2 8 $ 0 i } ^ ^ ^ ^ ^ ^ ^ ^ ^ ^ ^ _ | | | _ ^ ^ ^ ^ ^ ^ ^ ^ ^ ^ ^ _ } w 0 $ $ $ S.d a s s s s s s s s s s i.i.y.0.s s s s s s s s s s s 0 l.a $ $ 0 - mXnXv.M.M.M.M.M.M.M.M.M.v.nXnXnXnXM.M.M.M.M.M.M.M.M.M.M.v.ZXc.- , $ $ z t.0 s s s s s s s s s a i.i.y.e.s s s s s s s s s s 0 z u.# $ $ $ s h.0 s s s s s s s s s a 0.y.i.i.d a s s s s s s s s a d l.$ $ $ $ , S.s s s s s s s s ",
"8 < 6XoX}..X.X.X.X.X.X.X.X.X.XoXoXsXsX.X.X.X.X.X.X.X.X.X.X.X}.sX! < 8 > 2  .$X' [ ] ] ] ] ] ] ] [ ] @X@X$X&X@X] [ ] ] ] ] ] ] ] [ ] @X@X2 8 $ 0 i lX_ _ _ _ _ _ _ _ _ _ _ | | } lX} _ _ _ _ _ _ _ _ _ _ _ _ } w 0 $ $ $ S.f d d d d d d d d d d k y.y.W.W.d d d d d d d d d d d s S.a $ $ 0 - mXnXM.N.N.N.N.N.N.N.N.N.N.nXnXZXDXN.N.N.N.N.N.N.N.N.N.N.M.DXc.- , $ $ z u.s d d d d d d d d d f y.y.G.W.d d d d d d d d d d s e.u.# $ $ $ s S.s d d d d d d d d d d y.y.z.!.k d d d d d d d d d d f S.$ $ $ $ , S.d d d d d d d d ",
"8 < 6XoX}..X.X.X.X.X.X.X.X.X.X.XoX.XoX.X.X.X.X.X.X.X.X.X.X.X}.sX! < 8 > 2  .$X' ] ] ] ] ] ] ] ] ] ] [ @X[ @X@X] ] ] ] ] ] ] ] ] ] ] @X@X2 8 $ 0 i lX_ _ _ _ _ _ _ _ _ _ _ _ | | | | _ _ _ _ _ _ _ _ _ _ _ _ } w 0 $ $ $ S.f d d d d d d d d d d d y.y.e.y.d d d d d d d d d d d s S.a $ $ 0 - mXnXM.N.N.N.N.N.N.N.N.N.M.nXnXnXnXN.N.N.N.N.N.N.N.N.N.N.M.DXc.- , $ $ z u.s d d d d d d d d d d i.y.k u.f d d d d d d d d d s e.u.# $ $ $ s S.s d d d d d d d d d d e.u.k y.k d d d d d d d d d d f S.$ $ $ $ , S.d d d d d d d d ",
"8 < 6XoX}..X.X.X.X.X.X.X.X.X.XXXXXXXXXXX.X.X.X.X.X.X.X.X.X.X|.sX! < 8 > 2  .$X' ] ] ] ] ] ] ] ] ] ] ] ] ] ] ] ] ] ] ] ] ] ] ] ] ] ' @X@X2 8 $ 0 i lX^ _ _ _ _ _ _ _ _ _ _ _ _ _ _ _ _ _ _ _ _ _ _ _ _ _ _ _ } w 0 $ $ $ S.f d d d d d d d d d d d s s s s d d d d d d d d d d d a S.a $ $ 0 - mXnXM.N.M.M.M.M.M.M.M.M.M.M.M.M.M.M.M.M.M.M.M.M.M.M.M.N.v.DXc.- , $ # z u.a d d d d d d d d d d s s s s d d d d d d d d d d a e.u.# $ $ $ s S.a d d d d d d d d d d s s s s d d d d d d d d d d s f S.$ $ $ $ , S.d d d d d d d d ",
"8 < 6XsXsXsXsXsXsXsXsXsXsXsXsXsXsXsXsXsXsXsXsXsXsXsXsXsXsXsXsXsXQ < 8 $ 2 B &X$X&X&X&X&X&X&X&X&X&X&X&X&X&X&X&X&X&X&X&X&X&X&X&X&X&X$X&X{ 2 8 $ 0 i lXlXlXlXlXlXlXlXlXlXlXlXlXlXlXlXlXlXlXlXlXlXlXlXlXlXlXlXlX} w 0 $ $ $ S.G.S.S.S.S.S.S.S.S.S.S.S.S.S.S.S.S.S.S.S.S.S.S.S.S.S.S.S.D.0 $ $ 0 - mXFXDXDXDXDXDXDXDXDXDXDXDXDXDXDXDXDXDXDXDXDXDXDXDXDXDXDXDXFXd.8 > $ $ k F.S.S.S.S.S.S.S.S.S.S.S.S.S.S.S.S.S.S.S.S.S.S.S.S.S.S.D.r.$ $ $ $ w D.S.S.S.S.S.S.S.S.S.S.S.S.S.S.S.S.S.S.S.S.S.S.S.S.S.S.G.S.$ $ $ $ $ S.S.S.S.S.S.S.S.S.",
"8 w w y h h h h h h h h h h h h h h h h h h h h h h h h h h h y w w $ $ w w e y e e y y y e y y e e e e y e e e e y y y e y y y e e e e w 8 $ w w e e e e e e e e e e e e e e e e e e e e e e e e e e e e e e w 0 $ $ $ > 0 0 0 0 0 0 0 0 0 0 0 0 8 0 0 8 0 0 0 0 0 0 0 0 0 0 0 0 , $ $ $ 8 w a j j j j j j j j j j j j j j j j j j j j j j j j j j j j g w w $ $ $ $ 8 0 0 0 0 0 0 0 0 0 0 0 8 0 0 8 0 0 0 0 0 0 0 0 0 0 0 8 > $ $ $ $ $ , 0 0 0 0 0 0 0 0 0 0 0 8 0 0 8 0 0 0 0 0 0 0 0 0 0 0 0 > $ $ $ $ $ , 0 0 0 0 0 0 0 0 ",
"8 w d k k k k k f k k k k k k k d 0 k k k k k k k k f f k k k k d w > $ w s k k k k f f k k k f k k k f 0 f k k k k k k k f f f k k k f w 8 $ 0 a z k k k f f f k k f k k k z 0 f z k k f k f k f f f k k k k w 0 $ $ $ 0 w 0 0 0 0 0 0 0 0 0 0 0 a > , a 0 0 0 0 0 0 0 0 0 0 0 0 w > $ $ 8 w d z k z k k f k z f k z k z d 0 z z z k k k k k d f f z k z d w $ $ $ 8 a 0 0 0 0 0 0 0 0 0 0 0 w $ 8 a 0 0 0 0 0 0 0 0 0 0 0 a 0 $ $ $ $ > a 0 0 0 0 0 0 0 0 0 0 0 a > > a 0 0 0 0 0 0 0 0 0 0 0 w 0 $ $ $ $ $ 0 w 0 0 0 0 0 0 0 ",
"8 0 k d w a d d k d a f d w a d z s z w s d s d d d z k f s w k f 0 > $ 0 d k w s d d k d s d f w s s z w z s s s d d d d k k f s w d z 0 8 $ 0 s z w s s f f f s d k w s w z s z d w s d s d s k k k s a s z w 0 $ $ $ s , > > 0 0 0 , , a , > > w 0 0 0 > > 8 , 0 , 0 a 0 8 > > a , $ $ 8 0 z d a s d d k d s k d a a d k s z w s d s d d d k k d s w k f 0 > $ $ 0 0 > > 0 0 a , > a 8 > > a , w 0 > , 8 8 8 8 a a 0 > > 0 w $ $ $ $ 8 a > > 0 0 a 8 > 0 0 > > 0 0 0 0 $ , 8 , 0 , 0 a 0 , > , a $ $ $ $ > s , > 8 0 0 0 > 0 ",
"8 0 k d 0 0 l.l.l.l.k l.u.0 0 s k s k 0 8 e.G.W.y.y.G.W.r.0 0 d f 0 > $ 0 d f 0 0 y.l.l.S.e.u.S.s 0 w z w z w 0 f G.D.l.e.S.W.l.0 0 s k 0 8 $ 0 s k 0 0 z S.u.S.r.e.G.f 0 0 k s k s 0 w G.G.G.e.l.D.G.a 0 w z w 0 $ $ $ a $ $ 0 i.f 0.f a i.d $ $ 0 8 0 0 $ $ 0.i.y.s k i.y.0 $ $ w , $ $ 8 0 k s 0 0 l.u.l.l.k l.u.0 0 d k s k 0 8 y.G.W.r.y.G.W.e.0 0 f d 0 $ $ $ 0 0 $ > 0.k 0.0.a e.f $ $ w , 0 8 $ a i.i.f g e.y.f $ $ 8 0 $ $ $ $ 8 0 $ $ 0.0.0.0.a 0.0.$ $ 0 0 0 0 $ , i.i.e.s 0.i.i.$ $ > a $ $ $ $ > a $ $ g 0.0.i.s f ",
"8 0 k d 0 0 r.Q.u.D.u.u.l.a 0 d k s z 0 0 z ^.W.l.u.e.D.y.0 0 f f 0 > $ 0 d f 0 0 k Q.u.G.l.u.l.f 0 w z w z w 0 d !.!.l.l.e.S.l.0 w d k 0 8 $ 0 s z 0 0 d W.S.l.G.u.l.e.0 0 z s k d 0 0 D.^.S.l.e.u.D.a w w z w 0 $ $ $ a > $ $ e.y.f i.f 0.f $ $ 0 8 0 0 $ $ k z.i.0.f f y.0 $ $ w , $ $ 8 0 k d 0 0 y.Q.u.D.u.l.u.w 0 d k s k 0 0 e._.W.l.u.e.D.r.0 0 f d 0 $ $ $ 0 0 $ $ k y.f i.f 0.f $ $ w , 0 8 $ 0 u.u.0.0.s i.0.$ $ 8 0 $ $ $ $ 8 w $ $ s u.f i.0.k 0., $ 0 0 0 0 $ $ y.u.0.0.s 0.i.$ $ > a $ $ $ $ > a $ $ 0 u.0.i.0.k ",
"8 0 k d 0 0 z k r.k e.e.k 0 0 s k s k 0 0 s z f e.k s e.k 0 0 d f 0 > $ 0 d f 0 0 k z r.k e.e.e.0 0 w z w z w 0 w k k k e.s k e.0 0 s k 0 8 $ 0 s k 0 0 d e.e.z e.z r.w 0 0 k s k s 0 0 f k f e.s f e.a 0 w z w 0 $ $ $ a $ $ > s a s a s g , $ $ 0 8 0 0 $ $ 0 s 0 g 8 0 d 0 $ $ w , $ $ 8 0 k s 0 0 z k r.k e.e.k 0 0 d k s k 0 0 s z d e.f d e.k 0 0 f d 0 $ $ $ 0 0 $ $ s a g a s g 0 $ $ w , 0 , $ > a 0 a a , a s $ $ 8 0 $ $ $ $ 8 0 $ $ a a g a s s a $ $ 0 0 0 0 $ $ 0 a 0 d , 0 d $ $ > a $ $ $ $ > a $ $ 0 s d a s s ",
"8 0 k d a s w w 0 w 0 0 w s a d k s z w s s 0 w 0 w a w w s w k f 0 > $ 0 d k w s w w 0 w 0 0 0 s s s z w z s s s w w w 0 s w 0 s a d z 0 8 $ 0 s z a s a w 0 w 0 w 0 s s a z s k d a s w w w 0 s w 0 s s s z w 0 $ $ $ a , , > $ $ $ $ $ $ > , > w 0 0 0 > , > $ > $ > > $ > , > a , $ $ 8 0 z d a s w w 0 w 0 0 w s a d k s z w s a 0 w 0 w a 0 w s w k d 0 > $ $ 0 0 > , $ $ $ $ $ $ > , > a , w 0 > , $ $ $ $ > $ $ , > 0 w $ $ $ $ 8 a > , $ $ $ $ $ $ $ , > 0 0 0 0 > , $ $ $ $ > $ $ , > 8 a $ $ $ $ > s , , > $ $ $ $ $ ",
"8 w d z z z z z z z z z z z z z d w z z z z z z z z z z z z z z d w > $ w s z z z z z z z z z z z z z k 0 k z z z z z z z z z z z z z f w 8 $ 0 w z z z z z z z z z z z z z z w d z z z z z z z z z z z z z k w 0 $ $ $ 0 a a a a a a a a a a a a a , 8 a w a a a a a a a a a a a a > $ $ 8 w d z z z z z z z z z z z z z d w z z z z z z z z z z z z z z d w $ $ $ 8 a w a a a a a a a a a a a $ 0 a w a a a a a a a a a w a 0 $ $ $ $ > a a a a a a a a a a a a a , , a w a a a a a a a a a a a 0 $ $ $ $ $ w a a a a a a a a ",
"8 w 0 0 0 0 0 0 0 0 0 0 0 0 0 0 0 w 0 0 0 0 0 0 0 0 0 0 0 0 0 0 0 w $ $ w 0 0 0 0 0 0 0 0 0 0 0 0 0 0 0 w 0 0 0 0 0 0 0 0 0 0 0 0 0 0 0 w 8 $ w w 0 0 0 0 0 0 0 0 0 0 0 0 0 0 w 0 0 0 0 0 0 0 0 0 0 0 0 0 0 0 w 0 $ $ $ $ $ $ $ $ $ $ $ $ $ $ $ $ $ $ $ $ $ $ $ $ $ $ $ $ $ $ $ $ $ $ $ $ 8 w 0 0 0 0 0 0 0 0 0 0 0 0 0 0 0 w 0 0 0 0 0 0 0 0 0 0 0 0 0 0 0 w $ $ $ $ $ $ $ $ $ $ $ $ $ $ $ $ $ $ $ $ $ $ $ $ $ $ $ $ $ $ $ $ $ $ $ $ $ $ $ $ $ $ $ $ $ $ $ $ $ $ $ $ $ $ $ $ $ $ $ $ $ $ $ $ $ $ $ $ $ $ $ $ $ $ $ $ $ $ $ $ $ ",
"8 w w w w 0 , , 0 w w w w w w w w 0 0 , 0 w w w w w w w w w 0 w w w $ $ w w w w 0 0 0 0 w w w w w w w w w 0 0 0 w w w w w w w w w w 0 w w 8 $ w w w w w 0 0 0 w w w w w w w w w 0 0 0 w w w w w w w w w w 0 w w 0 $ $ $ $ $ $ $ $ $ $ $ $ $ $ $ $ $ $ $ $ $ $ $ $ $ $ $ > $ $ $ $ $ $ $ $ 8 w w w w 0 0 0 0 w w w w w w w w 0 0 0 0 w w w w w w w w w 0 w w w $ $ $ $ $ $ $ $ $ $ $ $ $ $ $ $ $ $ $ $ $ $ $ $ $ $ > $ $ > $ $ $ $ $ $ $ $ $ $ $ $ $ $ $ $ $ $ $ $ $ $ $ $ $ $ $ $ $ $ > > $ $ $ $ $ $ $ $ $ $ $ $ $ $ $ $ $ $ $ ",
"8 w w 0 0 h S N e , w w w w w w 0 w h S h 0 0 w w 0 8 w 0 0 s w 0 w $ $ w w w 0 e x x e 0 0 w w w w w 0 0 h x h w 0 w w w 8 0 w 0 s s 0 w 8 $ w w w 0 w x x l 0 0 w w w w w 0 0 d x x w 0 w w w 0 0 w 0 w d 0 0 0 $ $ $ $ $ $ 0 a 0 $ $ $ $ $ $ $ $ $ 8 w w , $ $ $ $ $ $ > $ $ 8 $ $ $ $ 8 w w 0 0 g w.j s 0 w w w w w w 0 s j w.j 0 0 w w 0 8 w 0 0 d w 0 w $ $ $ $ $ $ , w w 8 $ $ $ $ $ $ $ $ 8 a 0 > $ $ $ $ $ $ $ $ , , $ $ $ $ $ $ $ $ > 0 a 0 $ $ $ $ $ $ $ $ , w w 8 $ $ $ $ $ $ $ $ $ 8 $ $ $ $ $ $ $ $ $ 0 a 0 $ $ $ ",
"8 w 0 w Q ! Q Q ! A 0 w w w w 0 S ! Q Q ! Q e 0 w 0 F.F.d d k d k a $ $ w w 0 S O.X.X.O...w 0 w w w 0 h O.X.X.X.O.h 0 w 8 S.~.k d f f f d 8 $ w w 0 x +.........e 0 w w w 0 e ........+.x 0 w 0 r.^.e.d d k d f 0 $ $ $ $ 0 k f d f z 0 $ $ $ $ $ $ d k d f z d $ $ $ 0 l.k 8 0 w 0 0 $ $ 8 w 0 s k.d.f.k.d.w.0 w w w w 0 w.d.k.f.d.k.s 0 w w Q.D.d d k d k w $ $ $ $ $ d k d d z d $ $ $ $ $ > f f d f z a $ > $ e.u.0 0 0 0 0 , $ $ $ $ $ a z f d k f , $ $ $ $ $ d k d d z d $ $ $ f l.s 0 0 0 0 0 $ $ $ $ $ 0 k f d f z 0 $ ",
"8 w w Q Z $ # # r W G , w w 0 S ! r # # $ H ! d > u.Q.r.r.).~.~.`.S.# > w 0 ..X.8 # # $ ..O.0 w w 0 h ,.y # # $ y ,.h 0 k /.r.r.~.(.Q.`.Q.$ $ w 0 x +.9 % % $ p +.e 0 w 0 e +.p $ % % 9 +.x 0 0 /.u.t.G.`.F.)./.a $ $ $ 8 z 0       > z 0 $ $ $ $ f d X     # f f $ # u.e.f k D.u.l.G.s X 8 w w d.g.$ X $ < d.g.0 w w 0 g.d.< $ X $ g.d.s > S.F.t.r.).~.~.`.h.X $ $ $ d f #     # d f $ $ $ > k a .     $ k s $ s l.d d l.l.u.D.y.# $ $ $ s k $     . a z > $ $ $ f d #     # d f $ $ S.f d y.G.u.G.l.$ $ $ $ 0 z 8       8 z 0 ",
"8 , A Q # $ $ $ # = ! h 0 0 e ! r # $ $ $   Z G , t.~.^.'.'.'./.S.Q.X > 0 h O.$ % $ $ # # X.x 0 w 0 O.p * $ $ $ * p O.0 d ^.F.NX'.NX).S.~.8 $ 0 w +.9 % $ $ $ % ( ( 0 w 0 ( ( % $ $ $ % 9 +.s 8 ~.D.'.`.NX`.D.Q.z X $ $ f 0 o . . . o 8 k $ $ $ w f     . .   . k 0 X y.y.D.D.!.D.u.i.k   0 0 g.f.X $ $ $ X , d.s 0 0 g d., X $ $ $ X f.g.= u.Q./.'.NX'./.S.F.. $ $ 0 f     . .     f 0 $ $ d d o . . .   $ z > 0 l.u.W.W.Q.G.e.u.$ $ $ , z $   . .   o d d $ $ 0 f     . .     f 0 $ l.i.W.D.!.D.e.u.0 # $ $ f 8 o . . . o 0 f ",
"8 0 Q u   o . $ $ # Z A , 0 S Q # o o $ $ # r Q w 0 h.G.u.S.t.r.z z $ > 0 A B # o o $ $ # y O.0 0 h O.$ $ X X $ $ $ O.h 8 e.F.u.S.t.r.z e.8 $ 0 x ..% $ X # $ % 8 ..w 0 w ..9 % $ . $ $ % ( x 8 f F.u.S.u.r.z e.s $ $ 8 k X .     . .   f 0 $ $ f 0   . o   . o 0 d $ > i.k k k d s s 0 # 8 w d.4 . O . $ $ X f.w.0 0 g.f.o o $ $ $ X 4 d.0 0 h.S.u.S.r.r.z z $ $ $ d 0   . o   .   0 f $ $ k $     o . .   d s # d y.f e.f d a s $ $ $ a d   . O   .   $ f $ $ f 0   . o   .   0 f $ w y.f e.f d a s > $ $ 0 f . .     .   . f ",
"8 w Q u , ).u.  $ # H G , , A Z # ~.`.  $ # 8 ! e w 8 > 8 8 8 0 0 0 > $ 0 ..p # Q.W.  $ # y O.0 0 h X.$ . 0 w # $ $ X.h 0 0 > 8 8 8 8 0 0 8 $ 0 x ( % . s 0 $ $ > ..e 0 w ..8 . > d # $ % ( x 0 0 > 8 8 8 8 0 0 0 $ $ 0 f . o $ $   .   f 0 $ $ f 8     0 . .   8 f $ $ # $ $ $ $ $ $ $ $ 8 w d.< 8 `.e.  $ X g.g.0 0 g.6 t.IX).o $ $ < d.w w 8 > 8 8 8 0 0 0 > $ $ f 0     0 . .   8 f $ > k $   # 0   .   s d $ $ # $ $ $ $ $ $ $ $ $ s s o   0.#     $ k > $ f 8     0 . .   8 f $ $ # $ $ $ $ $ $ $ $ $ 0 f . o $ $   .   f ",
"8 0 Q t _.IXf . $ # F A , 0 S L k IXW.X $ # u Q 0 w w a w a w w w a $ $ 0 S B u.UXS.  $ # p O.0 0 e O.8 # IX^.o $ 8 O.e 0 w a w a w w w a 8 $ 0 x ... a UXu.  % 9 ..w w 0 ..e O BXBXo $ % ..x 0 w a w a w w w w 0 $ $ , k $ o NXG.O . . k 8 $ $ d a O u.NX  . o a d $ $ > > > > > $ $ $ $ 8 0 d.< '.IXd X $ X f.w.0 8 k.V.z _.f # $ X 6 d.0 w w a w a w w w w $ $ $ d s O i.NX#     0 d $ $ f 8 O !._.O .   d a $ > > > > > > $ > $ $ $ w f O !.NX.     $ k $ $ d s O y.NX. .   a d $ > > > > > > $ > $ $ $ 8 k X   NXu.O . # k ",
"8 , S qXd     $ # u ! e 0 w 0 qXZ.O o $ $ # Q A , w w 0 0 0 0 0 0 w $ $ w e yXS # o $ # $ O.h 0 w 0 O.B s BX8 # # B O.0 w w 0 0 0 0 0 0 w 8 $ w 0 +.9 y.NX. $ % ..( 0 w 0 x ..# BXe.  % i +.w w w 0 0 0 0 0 0 w 0 $ $ $ f a $ _.$     w f $ $ $ 0 z o D.u.O   $ z 8 $ $ $ $ $ $ $ $ $ $ $ 8 0 g.V.a     $ X 4 d.a w 0 g KXg.O . $ $ $ d.w.0 w w 0 0 0 0 0 0 w $ $ $ 8 z o z.u.O   # z 0 $ $ s f o !.f o   > z > $ $ $ $ $ $ $ $ $ $ $ $ $ z $ u.a o .   f s $ $ 0 z o G.u.O   # z 0 $ $ $ $ $ $ $ $ $ $ $ $ $ f 0 , _.%     s f ",
"8 w , yXyX# $ $ q ! N 0 w w , s.aXx # $ $ D Q 0 w w f 0.0.0.0.0.0.s $ $ w , T.yXq $ $ $ X.A 0 w w 0 w 5.O.o $ % p O.e 0 0 g 0.0.0.0.0.0.g 8 $ w 0 e [.x o $ $ p ..0 w w w 0 +.A.  $ $ q +.i 0 0 d 0.0.0.0.0.0.f 0 $ $ $ $ r.z O . . 8 z , $ $ $ $ d u.. o . # f s $ $ > 0 0 0 0 0 0 0 $ $ 8 w 0 MXV.$ $ $ 4 d.j 0 w a 8 k.KXj $ $ $ f.k.0 w w f 0.0.0.0.0.0.s $ $ > $ s u.# o . # f s $ $ $ $ k t.o   . $ z 0 $ $ 8 0 0 0 0 0 0 , $ $ $ $ 0 G.> o . . d f $ $ $ $ s u.# o . # f s $ $ , 0 0 0 0 0 0 8 $ $ $ $ $ t.f O .   0 z > ",
"8 w 0 w S w 0 w d h 0 w w w w , x h 0 w w h s 0 w w f 0.0.0.0.0.0.s $ $ w w , S d 0 w w h 0 w w w w 0 x x w w 0 h d 0 w 0 g 0.0.0.0.0.0.g 8 $ w w 0 x k w w w l s 0 w w w 0 d x a w 0 d d 0 w 0 d 0.0.0.0.0.0.f 0 $ $ $ $ 0 s $ $ $ 0 8 $ $ $ $ $ > d , > $ , 0 $ $ $ > 0 0 0 0 0 0 0 $ $ 8 w 0 a g.0 w w s j 0 w w w w 0 q.l 0 0 w j w 0 w w 0.0.0.0.0.0.0.s $ $ $ $ $ d 8 > $ > 0 $ $ $ $ $ 8 d > > $ 8 0 $ $ $ 8 0 0 0 0 0 0 , $ $ $ $ $ d 0 $ $ > 0 > $ $ $ $ $ d , > $ , 0 $ $ $ 8 0 0 0 0 0 0 8 $ $ $ $ $ 0 a $ $ $ 0 8 $ ",
"8 w w 0 > w 0 8 0 > w w w w w 8 , 0 8 0 8 0 , 0 w w f 0.0.0.0.0.0.s $ $ w w w $ 0 0 8 0 $ 0 w w w w 8 , 0 8 0 8 8 8 0 w 0 g 0.0.0.0.0.0.g 8 $ w w 8 8 0 8 0 8 0 8 0 w w w 0 > 0 0 8 0 8 0 8 w 0 d 0.0.0.0.0.0.f 0 $ $ > $ $ $ $ $ $ $ $ $ $ $ $ $ # $ $ $ $ # $ # $ $ > 0 0 0 0 0 0 0 $ $ 8 w w 0 = w 0 8 0 8 w w w w 0 , 8 0 8 0 8 0 8 0 w w 0.0.0.0.0.0.0.s $ $ > $ # $ $ $ $ # $ # $ $ $ $ # $ $ $ $ $ $ $ $ $ 8 0 0 0 0 0 0 , $ $ $ $ # $ $ $ $ $ $ # $ $ $ $ # $ $ $ $ # $ # $ $ 8 0 0 0 0 0 0 8 $ $ $ $ $ $ $ $ $ $ $ $ $ ",
"8 w 0 k r.8 z u.f h.0 w w w w S.f 0 S.d h.f h.k 0 w f 0.0.0.0.0.0.s $ $ w 0 s t.0 s S.d S.s 0 w w 0 u.e.8 u.z t.z r.r.0 w g 0.0.0.0.0.0.g 8 $ w 0 h.k 0 h.f u.k u.k 0 w 0 e.u.8 e.t.z u.z u.0 w d 0.0.0.0.0.0.f 0 $ $ $ f d # f s d s d d $ > $ 0 e.$ 0 k 0 k 0 z $ $ > 0 0 0 0 0 0 0 $ $ 8 w 0 k r.8 z u.k h.0 w w 0 w S.d 0 S.d h.d r.s 0 w 0.0.0.0.0.0.0.s $ $ $ 0 e.$ 8 k 0 k 0 e.> $ $ s k $ s f a f 0 k $ $ 8 0 0 0 0 0 0 , $ $ $ $ z 0 $ 0 s k 0 k 0 $ $ 0 e.$ 0 k 0 k 0 e.> $ 8 0 0 0 0 0 0 8 $ $ $ $ f s $ k a f s f d ",
"8 a 8 h.).$ Q./.`./.r.8 s 8 u.).S.r./.`.~.`./.F.0 w k 0.0.0.0.0.0.s $ $ w 0 k '.8 S./.`./.S.8 a 0 k (.Q.k /.)./.(.(.~.s 0 f 0.0.0.0.0.0.g 8 $ 8 t.).G.e./.`.^.`./.Q.0 w w ~./.k Q.(.).^.`.^.z 8 d 0.0.0.0.0.0.f 0 $ $ 0 S.u.0 l.G.S.S.G.l.8 $ $ y.G.d e.l.D.u.D.l.k $ , 0 0 0 0 0 0 0 $ $ 8 a 8 S.(.$ ~./.`.^.e.8 a 8 h.).S.t./.`./.F.`.z 0 w k 0.0.0.0.0.0.s $ $ $ i.G.f e.l.D.u.D.l.e.$ > u.S.a u.S.G.l.G.l.s $ 8 0 0 0 0 0 0 , $ $ $ f G.y.  l.G.D.e.S.y.$ $ i.G.d e.l.D.u.D.l.k # 8 0 0 0 0 0 0 8 $ $ $ a S.u.a l.G.l.G.S.u.",
"8 w 0 d ~.0 Q.D.NXS.S.> s > S.G.F.S.h.NXu.NXS.Q.0 w 0.0.0.0.0.0.0.s $ $ w w 8 ~.w F.h.NXh.F.> s 8 r.D.F.h.S.`.F.).~.F.k 0 g 0.0.0.0.0.0.g 8 $ > S.G.F.S.S.NXh.NXG.Q.w 0 d F.F.S.G.Q.`.D.'.S.u.8 g 0.0.0.0.0.0.g 0 $ $ d y.y.k e.G.u.S.l.y.a $ $ y.i.e.i.e.!.f !.k y.# , 0 0 0 0 0 0 0 $ $ 8 w 0 f Q.w Q.F.'.S.h.> s > G.G.D.S.h.NXS.D.F.e.0 w 0.0.0.0.0.0.0.s $ $ $ y.e.e.e.e.!.f !.k y.X 0 y.y.e.i.u.F.e.W.e.k # 0 0 0 0 0 0 0 , $ $ # e.e.y.f ^.u.s ^.z u.$ $ y.e.e.e.e.!.f !.k y.# 8 0 0 0 0 0 0 8 $ $ $ f i.y.k e.D.y.G.u.u.",
"8 w 0 d S.t.D.^.G.(.d 0 w 0 f (.F.h./.G./.G./.S.8 w x x x x x x x d $ $ w w 0 S.t.S./.S.).r.0 w w w ^.Q.u.~.F.~.F.Q.Q.0 0 x x x x x x x h , $ 0 d (.F.u./.G.^.G./.S.8 a 8 F./.h.F.~.F.~.D./.s 0 h x x x x x x x 0 $ $ $ u.u.k u.u.u.u.u.u.$ > $ k G.e.e.S.e.S.e.G.a $ > 0 0 0 0 0 0 0 $ $ 8 w 0 f S.t.F.^.D.(.d 0 w 0 k ).D.h.(.S.).t.h.k 0 w x x x x x x x d $ $ $ f G.e.e.S.e.S.e.G.s $ $ i.l.k y.l.i.l.i.S., $ 8 0 0 0 0 0 0 8 $ $ $ 0 G.y.f e.u.y.e.S.k $ $ f G.e.e.S.e.S.e.G.s $ 8 0 0 0 0 0 0 8 $ $ $ $ l.u.k l.y.u.y.u.u.",
"8 w w 0 0 w 0 0 0 0 0 w w w 0 0 0 0 0 0 0 0 0 0 w w [ %X%X%X%X%X%Xp $ $ w w w 0 w 0 0 8 0 0 w w w 0 0 0 0 0 0 0 0 0 0 w a { %X%X%X%X%X%X` & $ w 0 0 0 0 0 0 0 0 0 0 w w w 0 0 0 0 0 0 0 0 0 0 2 ` %X%X%X%X%X%X{ , $ $ $ $ $ $ $ $ $ $ $ $ $ $ $ $ $ $ $ $ $ $ $ $ $ $ 8 i i i i i i r $ $ 8 w w 0 0 w 0 0 0 0 0 w w w 0 0 0 0 0 0 0 0 0 0 0 e [ %X%X%X%X%X%Xp $ $ > $ $ $ $ $ $ $ $ $ $ $ $ $ $ $ $ $ $ $ $ $ $ $ 9 i i i i i i 8 $ $ $ $ $ $ $ # $ , $ $ $ $ $ $ $ $ $ $ $ $ $ $ $ $ 9 i i i i i i 9 $ $ $ $ $ $ $ $ $ $ $ $ $ ",
"8 w w w w w w w w w w w w w w w w w w w w w w w 0 s VXCXCXCXCXCXCXa.X $ w w w w w w w w w w w w w w w w w w w w w w w a 8 bXCXCXCXCXCXCXm.X $ w w w w w w w w w w w w w w w w w w w w w w w s 8 m.CXCXCXCXCXCXVX8 $ $ $ $ $ $ $ $ $ $ $ $ $ $ $ $ $ $ $ $ > $ > $ $ $ > 0 0 0 0 0 0 0 $ $ 8 w w w w w w w w w w w w w w w w w w w w w w w 0 d CXCXCXCXCXCXCXp.X $ $ $ $ $ $ $ > $ > $ $ $ $ $ $ $ $ $ $ $ $ $ $ $ 8 0 0 0 0 0 0 8 $ $ $ $ $ $ $ > $ $ > $ $ $ $ $ $ $ $ $ > $ > $ $ $ 8 0 0 0 0 0 0 8 $ $ $ $ $ $ $ $ $ $ $ $ $ ",
"8 w w w w w w w w w w w w w w w w w w w w w w w 0 a m.bXbXbXbXbXbX0.$ $ w w w w w w w w w w w w w w w w w w w w w w w w 0 m.bXm.bXbXm.bXp.8 $ w w w w w w w w w w w w w w w w w w w w w w w w 0 p.bXm.bXbXm.bXm.8 $ $ $ $ $ $ $ $ $ $ $ $ $ $ $ $ $ $ $ $ $ $ $ $ $ $ > 0 0 0 0 0 0 0 $ $ 8 w w w w w w w w w w w w w w w w w w w w w w w 0 s m.bXbXbXbXbXbX0.$ $ $ $ $ $ $ $ $ $ $ $ $ $ $ $ $ $ $ $ $ $ $ $ $ $ 8 0 0 0 0 0 0 , $ $ $ $ $ $ $ $ $ $ $ $ $ $ $ $ $ $ $ $ $ $ $ $ $ $ , 0 0 0 0 0 0 8 $ $ $ $ $ $ $ $ $ $ $ $ $ ",
"8 w w w 0 , , , 0 w w w w w w w w 0 , , , 0 w w w w s g d g g g g s $ $ w w w w 0 , , 0 0 w w w w w w w 0 0 , 0 0 w w w 0 s g d g g d g s 8 $ w w w w 0 0 0 0 0 w w w w w w w 0 0 0 0 0 w w w 0 s g d g g d g s 0 $ $ $ $ $ $ $ $ $ $ $ $ $ $ $ $ $ $ $ $ $ $ $ $ $ $ > 0 0 0 0 0 0 0 $ $ 8 w w w 0 0 0 0 0 w w w w w w w w 0 0 0 0 0 w w w w d g d g g g d a $ $ $ $ $ $ $ $ $ $ $ $ $ $ $ $ $ $ $ $ $ $ $ $ $ $ 8 0 0 0 0 0 0 , $ $ $ $ $ $ $ $ $ $ $ $ $ $ $ $ $ $ $ $ $ $ $ $ $ $ 8 0 0 0 0 0 0 8 $ $ $ $ $ $ $ $ $ $ $ $ $ ",
"8 w w 0 w S G G h 0 0 w w w w w 0 h G G S e 0 w w w 0.0.0.0.0.0.0.s $ $ w w 0 0 x A ..x w 0 w w w w w 0 e S ..S e 0 w w 0 f 0.0.0.0.0.0.g 8 $ w w w 0 d ( ( x e 0 w w w w w 0 w x ( ( l 0 w w 0 g 0.0.0.0.0.0.f 0 $ $ $ $ $ , s d d 8 $ $ $ $ $ $ $ $ 0 d d 0 $ $ $ $ > 0 0 0 0 0 0 0 $ $ 8 w w 0 a w.g.g.j 0 0 w w w w 0 0 j g.g.w.s 0 w w w 0.0.0.0.0.0.0.s $ $ $ $ $ $ 0 d d w $ $ $ $ $ $ $ > a d d 0 $ $ $ $ 8 0 0 0 0 0 0 , $ $ $ $ $ $ 0 d d a > $ $ $ $ $ $ $ 0 d d w $ $ $ $ 8 0 0 0 0 0 0 8 $ $ $ $ $ $ 8 s d s 8 $ $ ",
"8 w 0 h ! Q H H ! Q w 0 w w w 0 G ! H H Q ! h 0 w w f 0.0.0.0.0.0.s $ $ w 0 w O.X.B B X.O.e 0 w w w 0 S O.A B A ,.S 0 w 0 g 0.0.0.0.0.0.g 8 $ w w 0 ( +.p p ..+.x 0 w w w 0 h +.( p ( +.( 0 w 0 d 0.0.0.0.0.0.f 0 $ $ $ $ a z d 0 s z s $ $ $ $ $ , k f a a f f , $ $ > 0 0 0 0 0 0 0 $ $ 8 a 0 j d.f.8.g.d.k.w 0 w w w w k.d.g.8.f.d.j 0 w w 0.0.0.0.0.0.0.s $ $ > $ > f f a a f k , $ $ $ $ 0 z d w a k d $ $ $ 8 0 0 0 0 0 0 , $ $ $ $ $ d k a w d z 0 $ $ $ $ , f f a a f k , $ $ 8 0 0 0 0 0 0 8 $ $ $ $ $ s z s 0 d z a $ ",
"8 w d ! N # # # # F Q 0 w w 0 G Q $ # # # u 4.h 0 w f 0.0.0.0.0.0.s $ $ w 0 O.B # # # # p O.w 0 w 0 x O.8 # # # 8 ,.x 0 w g 0.0.0.0.0.0.g 8 $ w 0 ( ..$ % % % e +.i 0 w 0 d +.e % % % $ ..( 0 0 d 0.0.0.0.0.0.f 0 $ $ $ 0 z $       # k a $ $ $ $ k 0         a k $ $ > 0 0 0 0 0 0 0 $ $ 8 w s d.6 X X X $ f.k.0 w w 0 k.f.$ X X X 6 d.s 0 w 0.0.0.0.0.0.0.s $ $ $ $ k a         w z $ $ $ 8 z 8         d d $ $ 8 0 0 0 0 0 0 , $ $ $ $ d d .       > z 8 $ $ $ k a         a k $ $ 8 0 0 0 0 0 0 8 $ $ $ $ a k $ o     $ z w ",
"8 , G Z   o X $ # $ ! h 0 0 h ! = # $ $ $   H Q , w f 0.0.0.0.0.0.s $ $ 0 x X.% $ $ $ $ # ..S 0 w w O.r # $ $ $ # r O.w 0 g 0.0.0.0.0.0.g 8 $ 0 e +.8 . X $ $ % p ..0 w 0 ..p . $ $ $ % $ +.d 0 d 0.0.0.0.0.0.f 0 $ $ $ k >   . . .   $ z $ $ $ s d o . . .     f a $ > 0 0 0 0 0 0 0 $ $ 8 0 k.g.o $ $ $ $ $ d.j 0 0 j d.$ $ $ $ $ o g.g.0 a 0.0.0.0.0.0.0.s $ $ $ a f   . . . . o d s $ $ d a o . . .   . k 0 $ 8 0 0 0 0 0 0 , $ $ $ 8 k #     . . o w f $ $ a d   . . . .   f a $ 8 0 0 0 0 0 0 8 $ $ $ $ k $ o . . . o $ k ",
"8 0 qXh NXIXf . $ # H G , , S F # $ o X $ # r Q w w f 0.0.0.0.0.0.s $ $ 0 ..B o   $ $ $ # y O.0 0 h O.$ $     $ $ $ X.h 0 f 0.0.0.0.0.0.g 8 $ 0 x ... 0 d # $ $ 8 ..w 0 w ..9 $ X o $ $ % ( x 0 d 0.0.0.0.0.0.f 0 $ $ 8 k . O o   . .   f 0 $ $ f 0   . O   .   0 f $ > 0 0 0 0 0 0 0 $ $ 8 w d.4 $ # o $ $ X f.g.0 0 g.f.X $ o X $ X 4 d.0 w 0.0.0.0.0.0.0.s $ $ $ f 0   . O   .   8 f $ $ k $     o . .   s s $ 8 0 0 0 0 0 0 , $ $ $ s d o . $   .   $ k > $ f 0   . O   .   0 f $ 8 0 0 0 0 0 0 8 $ $ $ 0 f . . o o .   . f ",
"8 0 aXS i.`.d . $ # H G , , A Z #   l.d X # r ! e 0 f 0.0.0.0.0.0.s $ $ 0 ..u f IX).o $ # y O.0 0 h X.$ o r.e.. $ $ X.h 0 f 0.0.0.0.0.0.g 8 $ 0 x p y.UXNX  $ $ 8 ..e 0 w ..8   d l.. $ % ( x 0 d 0.0.0.0.0.0.f 0 $ $ 0 f   i.).$   .   f 0 $ $ f 8 o # e.. .   0 f $ > 0 0 0 0 0 0 0 $ $ 8 w d.4   a l.X $ X g.g.0 0 g.g.X . S.a # $ < d.w w 0.0.0.0.0.0.0.s $ $ $ f 0 o . i.#     8 f $ $ k $ o , 0.  .   s d $ 8 0 0 0 0 0 0 , $ $ $ s 0 d BXW.o .   $ k > $ f 8 o . i.#     8 f $ 8 0 0 0 0 0 0 8 $ $ $ 0 f . o g s o .   f ",
"8 , yXP.O O X $ $ # Q S 0 0 h !   i.UXk . # t Q 0 w f 0.0.0.0.0.0.s $ $ 0 S  .u.NXs $ $ * B ..0 w e O.8 $ UXQ.o % 8 O.e 0 g 0.0.0.0.0.0.g 8 $ 0 x [.w k > $ $ % e ..0 w 0 ..i O IXBXo $ $ ..h 0 d 0.0.0.0.0.0.f 0 $ $ > z $ _.G.  .   # k , $ $ d d O W.NX  . o d d $ > 0 0 0 0 0 0 0 $ $ 8 0 k.8.O BXBXo $ X d.j 0 0 j d.o u.UXd X X 6 k.0 w 0.0.0.0.0.0.0.s $ $ $ s d O z.BX. . o s d $ $ f 0 O _._.O .   f 0 $ 8 0 0 0 0 0 0 , $ $ $ s u.0 e.$   . o 8 f $ $ d d O G.NX  . o s d $ 8 0 0 0 0 0 0 8 $ $ $ , z # # BXy.O   $ z ",
"8 , S aXx # $ $ # N ! w w w 0 Q H i.F.o $ 8 ! N 0 w f 0.0.0.0.0.0.s $ $ w e yXO.O . $ # r ,.e 0 w 0 A  .d ^.# $ $ X.A 0 w g 0.0.0.0.0.0.g 8 $ w 0 [.[.o $ $ $ > +.x 0 w 0 x +.8 ^.w . % p ..0 0 d 0.0.0.0.0.0.f 0 $ $ $ z D.  O       d d $ $ $ 8 z $ y.d o   > z > $ > 0 0 0 0 0 0 0 $ $ 8 0 j d.< ^.d . X 8.d.0 w w 0 d.6 u.D.o $ , d.j 0 w 0.0.0.0.0.0.0.s $ $ $ , z $ i.f O   $ z , $ $ 0 z $ u., o   0 k $ $ 8 0 0 0 0 0 0 , $ $ $ $ F.t.O   .   # k 0 $ $ , z $ i.f O   $ z , $ 8 0 0 0 0 0 0 8 $ $ $ $ d d 8 l.      f d ",
"8 s , P.yX$ $ $ q ! h 0 w w 0 q 8XS o 8 $ F G 0 w w f 0.0.0.0.0.0.s $ $ w , S yXd $ $ 8 O.x 0 w w w 0 5.O.O 8 $ p O.0 w 0 g 0.0.0.0.0.0.g 8 $ w 0 d xX( % > $ ( ( 0 w w w 0 ..H.  $ $ e ..e 0 0 d 0.0.0.0.0.0.f 0 $ $ $ $ G.t.. # . 0 f $ $ $ $ $ w S.X   # $ f 0 $ $ > 0 0 0 0 0 0 0 $ $ 8 a 8 g.V.  $ $ s d.s 0 w w 0 s V.6 o > $ k.g.0 w w 0.0.0.0.0.0.0.s $ $ > $ 0 S.$ o # $ f 0 $ $ $ $ f u.o . . > k , $ $ 8 0 0 0 0 0 0 , $ $ > $ 0 W.s   # X d d $ $ $ $ 0 S.#   # $ f 0 $ $ 8 0 0 0 0 0 0 8 $ $ $ $ $ r.z O # . a f $ ",
"8 w w 0 d w w a s s 0 w w w w w d d s w s d w w w w f 0.0.0.0.0.0.s $ $ w w 0 d w w a w d 0 w w w w w s d s a a d w w w 0 g 0.0.0.0.0.0.g 8 $ w w 0 s s w s w d 0 w w w w w a d s s w s w w w 0 d 0.0.0.0.0.0.f 0 $ $ $ $ $ 8 $ > > , > $ $ $ $ $ $ 0 , , > , , $ $ $ > 0 0 0 0 0 0 0 $ $ 8 w w w g s s w s s w w w w w w d s s w s s w w w w 0.0.0.0.0.0.0.s $ $ $ $ $ 0 , , > , , $ $ $ $ $ > 0 , , > , > $ > $ 8 0 0 0 0 0 0 , $ $ $ $ $ , , $ > > , $ $ $ $ $ $ 0 , , > , , $ > $ 8 0 0 0 0 0 0 8 $ $ $ $ $ , 8 , > > , > $ ",
"8 w w 0 > 0 0 8 8 8 w w w w 0 8 0 0 > 0 8 8 8 0 w w f 0.0.0.0.0.0.s $ $ w w 0 > w 0 8 0 , w w w w w 8 8 0 8 8 8 8 8 8 w 0 g 0.0.0.0.0.0.g 8 $ w w w > 0 0 8 0 > 0 w w w w 8 8 0 8 8 8 8 8 8 w 0 d 0.0.0.0.0.0.f 0 $ $ $ > $ $ > $ $ $ $ $ $ $ $ $ # $ $ # $ # $ # $ $ > 0 0 0 0 0 0 0 $ $ 8 a 8 > 0 8 8 8 8 8 , w w w 0 > 0 0 > 0 > 8 > 0 w w 0.0.0.0.0.0.0.s $ $ > $ # $ $ # $ # $ # $ $ $ $ # $ $ # $ # $ # $ $ 8 0 0 0 0 0 0 , $ $ $ $ $ # $ > $ $ # $ $ $ $ $ # $ $ # $ # $ $ $ $ 8 0 0 0 0 0 0 8 $ $ $ $ $ $ $ # $ $ $ $ $ ",
"8 a 0 u.F.0 t.G.S.D.w w w 0 s ~.z w Q.r.F.r.F.r.0 w f 0.0.0.0.0.0.s $ $ w 0 d F.0 d G.e.Q.d 0 w w 0 F.h.8 F.u.G.h.S.S.0 w g 0.0.0.0.0.0.g 8 $ w w 0 F.d d Q.r.Q.z 0 w w 8 h.F.8 h.G.u.D.u.F.0 0 d 0.0.0.0.0.0.f 0 $ $ > $ e.d # i.k e.e.$ $ $ $ s u.$ s u.d u.d u.8 $ > 0 0 0 0 0 0 0 $ $ 8 0 u.F.8 u.D.u.D.t.F.0 w 0 d ~.k s Q.e.F.r.Q.z 0 w 0.0.0.0.0.0.0.s $ $ $ a u., a u.d u.d u.0 $ $ 0 u.0 0 u.d u.d u.0 $ 8 0 0 0 0 0 0 , $ $ $ $ > y.0 # f k y.d $ > $ > u.d $ u.d y.f y.f $ 8 0 0 0 0 0 0 8 $ $ $ $ y.k $ y.k e.k e.z ",
"8 w w w /.z f ).`.^.s 0 a 8 S.~.G.u.F.'.D.'.Q.Q.0 w f 0.0.0.0.0.0.s $ $ w 0 d `.0 d ).S.'.f 0 w 8 e.~.F.e.Q.`.~.)./.Q.d 0 g 0.0.0.0.0.0.g 8 $ w w 0 `.z d '.S.'.t.0 w 0 d ~.Q.e.F.^.`.Q.'.F.r.8 g 0.0.0.0.0.0.f 0 $ $ > # u.e.> u.G.S.u.0 $ > $ y.u.f e.u.W.e.Q.y.e.# , 0 0 0 0 0 0 0 $ $ 8 s Q.~.r.F.~.'.F.'.F.u.8 8 S.~.S.u.F.NXG.NXF.F.8 a 0.0.0.0.0.0.0.s $ $ $ y.u.k e.u.Q.e.Q.y.i.$ $ i.u.k e.y.Q.e.Q.y.y.# 0 0 0 0 0 0 0 , $ $ $ $ $ D.a # G.F.y.u.$ > $ k u.i.f u.W.y.W.u.u.$ 8 0 0 0 0 0 0 8 $ $ $ d u.y.d u.D.u.G.l.u.",
"8 a 8 u.~.d k `.r.~.h.8 s 8 h.Q.Q.S.F.NXG.NXF.Q.0 w f 0.0.0.0.0.0.s $ $ w w 8 ~.z 0 ~.d G.F.> s 0 e.Q.Q.S.F.`.~.).^.~.d 0 g 0.0.0.0.0.0.g 8 $ w s $ D.u.d t.(.e.(.8 w 0 d Q.~.S.F.^.`.Q.`.F.t.8 g 0.0.0.0.0.0.f 0 $ $ > # f e.s u.G.l.u.0 $ > $ y.u.i.i.y.W.e.Q.y.e.# , 0 0 0 0 0 0 0 $ $ 8 s Q.Q.S.F.~.'.F.'.F.u.8 8 S.Q.F.G.F.NXG.NXF.Q.8 a 0.0.0.0.0.0.0.s $ $ $ y.u.i.i.y.Q.e.Q.y.i.$ $ e.u.y.i.y.Q.e.Q.y.y.# 0 0 0 0 0 0 0 , $ $ $ > X u.s e.!.!.i.u.$ > $ f u.u.e.y.W.y.W.u.u.$ 8 0 0 0 0 0 0 8 $ $ $ d u.u.e.y.D.u.G.l.u.",
"8 a 8 F.Q.h.S.D.S.F.s 0 w 0 s Q.h.r.Q.t.F.t.Q.r.0 w f 0.0.0.0.0.0.s $ $ w w 0 t.t.z r.e.Q.f 0 w w 0 F.G.r.D.h.G.h.G.S.0 w g 0.0.0.0.0.0.g 8 $ w w 0 r.r.u.F.u.F.r.0 w w 8 h.F.t.S.D.u.D.u.F.0 0 d 0.0.0.0.0.0.f 0 $ $ $ $ a f d i.e.e.e.$ $ $ $ s u.f f u.d u.d u.0 $ > 0 0 0 0 0 0 0 $ $ 8 0 u.F.t.h.F.u.F.u.Q.w w 0 d Q.h.r.Q.r.Q.r.Q.e.0 w 0.0.0.0.0.0.0.s $ $ $ s u.f f u.d u.d u.0 $ $ 0 u.k f u.d u.d u.a $ 8 0 0 0 0 0 0 , $ $ $ $ $ d f d s k u.d $ > $ > u.e.d u.f y.f y.f $ 8 0 0 0 0 0 0 8 $ $ $ $ y.e.d y.k i.k e.e.",
"8 w w 8 8 8 0 8 8 8 0 w w w 0 8 8 0 8 0 8 0 8 0 w w f 0.0.0.0.0.0.s $ $ w w w 0 0 0 0 0 8 0 w w w w 8 8 0 8 8 8 8 8 8 w 0 g 0.0.0.0.0.0.g 8 $ w w w 0 0 0 8 8 8 0 w w w w 8 8 0 8 8 8 8 8 8 w 0 d 0.0.0.0.0.0.f 0 $ $ $ $ $ $ $ $ $ $ $ $ $ $ $ $ # $ $ # $ # $ # $ $ > 0 0 0 0 0 0 0 $ $ 8 w 8 8 0 8 8 8 8 0 8 0 w w 0 > 8 0 8 0 8 0 8 0 w w 0.0.0.0.0.0.0.s $ $ > $ # $ $ # $ # $ # $ $ $ $ # $ $ # $ # $ # $ $ 8 0 0 0 0 0 0 , $ $ $ $ $ $ $ $ $ $ # $ $ $ $ $ # $ $ $ $ $ $ $ $ $ 8 0 0 0 0 0 0 8 $ $ $ $ $ $ $ $ $ $ $ $ $ ",
"8 w 0 w w w w w w w w w w w w a w w a w w w w w w w f 0.0.0.0.0.0.s $ $ w w w w w w w w w w w w w w w w w w w w w w w w 0 g 0.0.0.0.0.0.g 8 $ w w w w w w w w w w w w w w w w w w w w w w w w 0 d 0.0.0.0.0.0.f 0 $ $ $ $ > > > > > > > $ $ $ $ $ > > > > > > > > $ $ > 0 0 0 0 0 0 0 $ $ 8 w w w w w w w w w w w w w w a w w a w a w a w w w 0.0.0.0.0.0.0.s $ $ > > > > > > > > > > $ $ $ $ > > > > > > > > $ $ 8 0 0 0 0 0 0 , $ $ $ $ $ > > > > > > > $ $ $ $ > > $ > > > > > > $ 8 0 0 0 0 0 0 8 $ $ $ $ > > > > > > > > > ",
"8 w w w w w w w w w w w w w w w w w 0 0 0 w w w w w f 0.0.0.0.0.0.s $ $ w w w w w w w w w w w w w w w w w 0 0 0 w w w w 0 g 0.0.0.0.0.0.g 8 $ w w w w w w w w w w w w w w w w w 0 0 0 w w w w 0 d 0.0.0.0.0.0.f 0 $ $ $ $ $ $ $ $ $ $ $ $ $ $ $ $ $ $ $ $ $ $ $ $ $ $ > 0 0 0 0 0 0 0 $ $ 8 w w w w w w w w w w w w w w w w w 0 0 0 w w w w w 0.0.0.0.0.0.0.s $ $ $ $ $ $ $ $ $ $ $ $ $ $ $ $ $ $ $ $ $ $ $ $ $ $ 8 0 0 0 0 0 0 , $ $ $ $ $ $ $ $ $ $ $ $ $ $ $ $ $ $ $ $ $ $ $ $ $ $ 8 0 0 0 0 0 0 8 $ $ $ $ $ $ $ $ $ $ $ $ $ ",
"8 w w w w w w w w w w w w w w w , , h h e , w w w w f 0.0.0.0.0.0.s $ $ w w w w w w w w w w w w w w w 0 0 e h e 0 0 w w 0 g 0.0.0.0.0.0.g 8 $ w w w w w w w w w w w w w w w w 0 w d e 0 0 w w 0 d 0.0.0.0.0.0.f 0 $ $ $ $ $ $ $ $ $ $ $ $ $ $ $ $ $ $ $ 8 8 $ $ $ $ $ > 0 0 0 0 0 0 0 $ $ 8 w w w w w w w w w w w w w w w 0 0 g j a 0 w w w w 0.0.0.0.0.0.0.s $ $ $ $ $ $ $ $ $ $ $ $ $ $ $ $ $ $ > 8 8 $ $ $ $ $ 8 0 0 0 0 0 0 , $ $ $ $ $ $ $ $ $ $ $ $ $ $ $ $ $ $ $ 8 8 $ $ $ $ $ 8 0 0 0 0 0 0 8 $ $ $ $ $ $ $ $ $ $ $ $ $ ",
"8 w w w w w w w w w w w w w w , S aX8XW ! G 0 0 w w f 0.0.0.0.0.0.s $ $ w w w w w w w w w w w w w w 0 e O.O.X.O.O.e 0 w 0 g 0.0.0.0.0.0.g 8 $ w w w w w w w w w w w w w w 0 0 ( +.......i 0 w 0 d 0.0.0.0.0.0.f 0 $ $ $ $ $ $ $ $ $ $ $ $ $ $ $ $ $ a z f f k a $ $ $ > 0 0 0 0 0 0 0 $ $ 8 w w w w w w w w w w w w w w 8 j d.d.d.d.g.0 w w w 0.0.0.0.0.0.0.s $ $ $ $ $ $ $ $ $ $ $ $ $ $ $ $ $ d z f k k 0 $ $ $ 8 0 0 0 0 0 0 , $ $ $ $ $ $ $ $ $ $ $ $ $ $ $ $ $ a z f f z a $ $ $ 8 0 0 0 0 0 0 8 $ $ $ $ $ $ $ $ $ $ $ $ $ ",
"$ 0 w w w w w w w w w w w w , s.aXZ.d 0 r Q Q 0 w w f 0.0.0.0.0.0.s > $ 0 w w w w w w w w w w w w 0 h 2.p $ $ 8 B O.e 0 0 g 0.0.0.0.0.0.g 8 $ 8 w w w w w w w w w w w w 0 s +.( $ $ > i +.x 0 0 d 0.0.0.0.0.0.f 0 $ X $ $ $ $ $ $ $ $ $ $ $ $ $ $ z f . . . $ k s $ $ > 0 0 0 0 0 0 0 $ $ $ 0 w w w w w w w w w w w w 0 g.c.3 $ $ < f.k.0 w w 0.0.0.0.0.0.0.s $ # # $ $ $ $ $ $ $ $ $ $ $ $ > e.s . . . 8 z 0 $ $ 8 0 0 0 0 0 0 , $ $ # $ $ $ $ $ $ $ $ $ $ $ $ $ k f . . . $ k d $ $ 8 0 0 0 0 0 0 8 $ $ X $ $ $ $ $ $ $ $ $ $ ",
"$ $ w w w w w w w w w w w 0 s aXG O BX'.O # Q A , w f 0.0.0.0.0.0.s > $ $ 0 w w w w w w w w w w w , yX1.p.d   $ * B O.0 0 g 0.0.0.0.0.0.g 8 $ $ 8 w w w w w w w w w w w $ H.[.e.i.o $   e +.w 0 d 0.0.0.0.0.0.f 0 $ . X $ $ $ $ $ $ $ $ $ $ $ $ f F.0 0.o . o # z 0 $ > 0 0 0 0 0 0 0 $ $ $ $ w w w w w w w w w w w 0 g SXw.S.$ # X X d.w.0 w 0.0.0.0.0.0.0.s $ # . $ $ $ $ $ $ $ $ $ $ $ X r.S.a f O . o $ z > $ 8 0 0 0 0 0 0 , $ $   # $ $ $ $ $ $ $ $ $ $ # d F.0 0.o .   # z 0 $ 8 0 0 0 0 0 0 8 $ $ . X $ $ $ $ $ $ $ $ $ ",
"$ $ > w w w w w w w w w w , Z.yX# o /.NXo # u Q 0 w f 0.0.0.0.0.0.s > $ $ $ 0 w w w w w w w w w 0 x yXX `.UXw X $ = O.e 0 g 0.0.0.0.0.0.g 8 $ $ $ 0 w w w w w w w w w w 0 xXp u.UXu.  $ % ..x 0 d 0.0.0.0.0.0.f 0 $ .   # $ $ $ $ $ $ $ $ $ $ # S.e.$ BXG.O # o a d $ > 0 0 0 0 0 0 0 $ $ $ $ > w w w w w w w w w a = x.MXo IXBX  $ X 6 k.0 w 0.0.0.0.0.0.0.s $ #   . $ $ $ $ $ $ $ $ $ $ $ F.w f BX0.o .   d a $ 8 0 0 0 0 0 0 , $ $ . . $ $ $ $ $ $ $ $ $ $ . l.r.$ BXD.O # o w d $ 8 0 0 0 0 0 0 8 $ $ .   # $ $ $ $ $ $ $ $ ",
"$ $ $ 8 w w w w w w w w w < P.8X  $ $ $ $ # 8 ! e 0 f 0.0.0.0.0.0.s > $ $ $ > w w w w w w w w w , S yX$ . G.0 X $ $ X.h 0 f 0.0.0.0.0.0.g 8 $ $ $ $ 0 w w w w w w w w 0 s xXe O u.k . $ % ( x 0 d 0.0.0.0.0.0.f 0 $ .   . $ $ $ $ $ $ $ $ $ $ # G.f O a f o .   8 f $ > 0 0 0 0 0 0 0 $ $ $ $ $ 8 w w w w w w w w a = b.V.O 0 G.# $ $ < d.w w 0.0.0.0.0.0.0.s $ #     X $ $ $ $ $ $ $ $ $ $ F.0 O f s o .   s d $ 8 0 0 0 0 0 0 , $ $ .   . $ $ $ $ $ $ $ $ $ . G.k O a k o .   8 f $ 8 0 0 0 0 0 0 8 $ $ .   . $ $ $ $ $ $ $ $ ",
"$ $ $ $ 0 w w w w w w w w , Z.yX  $ $ $ $ # r Q w w f 0.0.0.0.0.0.s > $ $ $ $ 8 w w w w w w w w 0 x yX8 $ o # $ $ $ O.h 0 f 0.0.0.0.0.0.g 8 $ $ $ $ $ w w w w w w w w w 0 [.x %   . $ $ % ..x 0 d 0.0.0.0.0.0.f 0 $ .     . $ $ $ $ $ $ $ $ $ # S.e.o   o . .   0 d $ > 0 0 0 0 0 0 0 $ $ $ $ $ $ 0 w w w w w w w a = n.V.o $ o $ $ X 4 d.0 w 0.0.0.0.0.0.0.s $ #   .   # $ $ $ $ $ $ $ $ $ F.a o o o . .   d s $ 8 0 0 0 0 0 0 , $ $ . .   X $ $ $ $ $ $ $ $ . S.e.o   o . .   0 f $ 8 0 0 0 0 0 0 8 $ $ .     . $ $ $ $ $ $ $ ",
"$ $ $ $ $ 0 w w w w w w w 0 h aXS   $ $ $ # F G , w f 0.0.0.0.0.0.s > $ $ $ $ $ 0 w w w w w w w w 0 yX1.O $ $ $ # p O.0 0 g 0.0.0.0.0.0.g 8 $ $ $ $ $ 8 w w w w w w w w $ [.[.  $ $ $ % 9 +.e 0 d 0.0.0.0.0.0.f 0 $ .   .   . $ $ $ $ $ $ $ $ # k W..   . .   . k 0 $ > 0 0 0 0 0 0 0 $ $ $ $ $ $ $ 0 w w w w w w w 0 j KX6 o $ $ $ X f.g.0 w 0.0.0.0.0.0.0.s $ #   . .   $ $ $ $ $ $ $ $ X u.G.o . . .   $ z , $ 8 0 0 0 0 0 0 , $ $ . . .   # $ $ $ $ $ $ $ # f Q..   . .   . k 0 $ 8 0 0 0 0 0 0 8 $ $ .   .   . $ $ $ $ $ $ ",
"$ $ $ $ $ $ w w w w w w w w , K.aXy # $ # H ! w 0 w f 0.0.0.0.0.0.s > $ $ $ $ $ $ 0 w w w w w w w 0 x aX..# $ # y ,.h 0 0 g 0.0.0.0.0.0.g 8 $ $ $ $ $ $ 0 w w w w w w w 0 w xXH.% $ $ 8 +.x 0 0 d 0.0.0.0.0.0.f 0 $ .   . .   X $ $ $ $ $ $ $ $ $ S.G..     . f d $ $ > 0 0 0 0 0 0 0 $ $ $ $ $ $ $ $ w w w w w w w a = n.KX4 X $ $ g.d.w 0 w 0.0.0.0.0.0.0.s $ #   . .   . $ $ $ $ $ $ $ $ > F.u.  .   $ k a $ $ 8 0 0 0 0 0 0 , $ $ . . . .   $ $ $ $ $ $ $ $ $ S.D..     . d d $ $ 8 0 0 0 0 0 0 8 $ $ .   . .   # $ $ $ $ $ ",
"$ $ $ $ $ $ > w w w w w w w w , Z.x , 0 0 S d 0 w w f 0.0.0.0.0.0.s > $ $ $ $ $ $ $ w w w w w w w w , S .., 0 0 x h 0 w 0 g 0.0.0.0.0.0.g 8 $ $ $ $ $ $ $ 0 w w w w w w w 0 k J.0 0 0 d x 0 w 0 d 0.0.0.0.0.0.f 0 $ .   . . .   # $ $ $ $ $ $ $ $ > e., $ $ > a $ $ $ > 0 0 0 0 0 0 0 $ $ $ $ $ $ $ $ 8 w w w w w w w w 0 x.j 8 0 0 w.s 0 w w f 0.0.0.0.0.0.s $ #   . . .   . $ $ $ $ $ $ $ $ 0 z $ $ $ 8 a $ $ $ 8 0 0 0 0 0 0 , $ $ . . . .   . $ $ $ $ $ $ $ $ > e., $ $ > a $ $ $ 8 0 0 0 0 0 0 8 $ $ .   . . .   $ $ $ $ $ ",
"$ $ $ $ $ $ $ 8 w w w w w w w a $ , 0 w 0 , 0 w w w 0.0.0.0.0.0.0.s > $ $ $ $ $ $ $ > w w w w w w 0 0 , , 0 0 0 8 8 0 0 0 f 0.0.0.0.0.0.g 8 $ $ $ $ $ $ $ $ w w w w w w 0 0 0 , 0 0 0 0 8 0 0 0 g 0.0.0.0.0.0.f 0 $ .   . . .   . $ $ $ $ $ $ $ $ $ # $ $ $ $ # $ $ $ > 0 0 0 0 0 0 0 $ $ $ $ $ $ $ $ $ 0 w w w w w w 0 0 = 0 0 0 0 8 0 0 w w 0.0.0.0.0.0.0.s $ #   . . . .   X $ $ $ $ $ $ $ $ # $ $ $ $ $ $ $ $ 8 0 0 0 0 0 0 , $ $ . . . . .   . $ $ $ $ $ $ $ $ # $ $ $ $ # $ $ $ 8 0 0 0 0 0 0 8 $ $ .   . . .   . $ $ $ $ ",
"$ $ $ $ $ $ $ $ 0 w w w w w a $ D.S.d /.S.(.h.8 w w s a a s 0 a a a > $ $ $ $ $ $ $ $ 8 w w w w 0 w /.F.0 ^.D.~.F.~.F.0 w s s w s s a w s 8 $ $ $ $ $ $ $ $ > w w w w w 8 F./.0 F.~.F.~.D./.a 0 a s w s a s a s 0 $ .   . . . .   . $ $ $ $ $ $ k G.0 f S.e.l.e.G.w $ > > > > > > > > $ $ $ $ $ $ $ $ $ $ 0 w w w w 0 z `.r.f ).S./.S.(.u.8 w s a a s w s w a > #   . . . . .   # $ $ $ $ $ i.l.$ i.l.i.l.i.l., $ > > > > > > > > $ $ . . . . . .   X $ $ $ $ # f G.0 f S.e.l.e.G.a $ > > > > > > > > $ $ .   . . . .   . $ $ $ ",
"$ $ $ $ $ $ $ $ $ 0 w w w w 0 d '.h.e.^.BXS.Q.0 w w 0 g g s 0.g s w > $ $ $ $ $ $ $ $ $ 0 w w w 8 t.F.F.t.G.`.Q.).~.F.k 0 0 s f 0 a s g 0 8 $ $ $ $ $ $ $ $ $ 8 w w w 0 d F.F.t.D.Q.`.D.'.S.u.8 w w 0.w s s g s 0 $ .   . . . . .   . $ $ $ $ $ u.i.k e.e.!.f !.k i.# > $ $ $ $ $ $ $ $ $ $ $ $ $ $ $ $ $ $ w w w a > G.D.S.h.S.NXu.NXS.Q.0 a 0 f g w f a g 0 > #   . . . . .   . $ $ $ $ , u.y.f i.u.F.e.W.e.k # > $ $ $ $ $ $ $ $ $ . . . . . . .   # $ $ $ # y.i.k e.e.!.f !.k y.# > $ $ $ $ $ $ $ $ $ .   . . . . .   X $ $ ",
"$ $ $ $ $ $ $ $ $ $ w w w w 8 u.NX`.k /.'.^.Q.8 w w 0 0.m.w m.m.a.8 , $ $ $ $ $ $ $ $ $ $ 0 w w 0 k /.^.S.~.)./.).(.^.s 0 w s m.a z.m.m.0.8 $ $ $ $ $ $ $ $ $ $ 0 w w w w ~./.S.Q.(.).^.)./.z 0 a 0 m.0.a.a.bXp.8 $ .   . . . . . .   # $ $ $ $ i.S.i.y.l.D.u.D.l.k $ > $ $ $ $ $ $ $ $ $ $ $ $ $ $ $ $ $ $ > w w w 8 u.(.Q.G.^.`.~.`.^.F.8 a 0 0.m.0.m.m.a.0 > #   . . . . . .   . $ $ $ $ u.S.e.u.S.G.l.G.l.d $ $ $ $ $ $ $ $ $ $ $ . . . . . . .   . $ $ $ X i.S.y.y.l.D.u.D.l.e.# > $ $ $ $ $ $ $ $ $ .   . . . . . .   # $ ",
"$ $ $ $ $ $ $ $ $ $ 8 w w w w 0 s r.z u.s h.k 0 w 0 0.a.m.a a.0.a.8 , $ $ $ $ $ $ $ $ $ $ $ w w w 0 u.t.k u.z t.e.t.r.0 0 f p.m.f bXm.bX0.8 $ $ $ $ $ $ $ $ $ $ $ 0 w w 0 e.u.k r.t.z u.z h.0 0 g p.m.f p.a.bXp.8 $ .   . . . . . . .   $ $ $ $ 0 k a s k 0 z 0 e.> $ $ $ $ $ $ $ $ $ $ $ $ $ $ $ $ $ $ $ $ $ 8 w w 0 w h.e.k h.f h.f h.f 0 0 0.z.z.f m.bXm.w > #   . . . . . . .   . $ $ $ s k a d f a k w k $ $ $ $ $ $ $ $ $ $ $ $ . . . . . . . .   . $ $ $ 0 k s a k 0 z 0 e.> $ $ $ $ $ $ $ $ $ $ $ .   . . . . . . . . $ ",
"$ $ $ $ $ $ $ $ $ $ $ 0 w w w w w 0 0 8 0 8 0 w w w 0 p.p.f f s f w > $ $ $ $ $ $ $ $ $ $ $ 8 w w w 8 8 0 8 0 8 0 8 8 w w 0 0.a.g 0.0.0.w 8 $ $ $ $ $ $ $ $ $ $ $ $ w w w 0 8 0 0 8 0 8 0 8 w w 0 d a.f g g p.g 0 $ .                   . $ $ $ $ # $ $ $ $ # $ # $ $ $ $ $ $ $ $ $ $ $ $ $ $ $ $ $ $ $ $ $ $ $ 0 w w w 8 0 0 8 0 8 0 8 0 w w 0 p.p.f p.0.p.w > X                     # $ $ $ $ $ $ $ $ $ $ $ $ $ $ $ $ $ $ $ $ $ $ $                 .   . $ $ $ # $ $ $ $ # $ # $ $ $ $ $ $ $ $ $ $ $ $ .                   . ",
"$ $ $ $ $ $ $ $ $ $ $ $ 0 0 0 0 0 w 0 w 0 w 0 0 0 0 w 8 8 0 0 0 0 w > $ $ $ $ $ $ $ $ $ $ $ $ 0 0 0 w w 0 w w w w w w 0 0 w 0 8 0 8 8 8 w 8 $ $ $ $ $ $ $ $ $ $ $ $ 8 0 0 w w 0 w w w w w w 0 0 0 0 8 0 0 0 8 0 0 $ . . . . . . . . . . . X $ $ $ > $ $ > $ > $ > $ $ $ $ $ $ $ $ $ $ $ $ $ $ $ $ $ $ $ $ $ $ $ $ 0 0 0 w w 0 w 0 w 0 w 0 0 0 w 8 8 0 8 0 8 w > # . . . . . . . . . . . $ $ $ > $ $ > $ > $ > $ $ $ $ $ $ $ $ $ $ $ $ . . . . . . . . . . . # $ $ > $ $ > $ > $ > $ $ $ $ $ $ $ $ $ $ $ $ . . . . . . . . . . . ",
"$ $ $ $ $ $ $ $ $ $ $ $ $ $ $ $ $ $ $ $ $ $ $ $ $ $ $ $ $ $ $ $ $ $ $ $ $ $ $ $ $ $ $ $ $ $ $ $ $ $ $ $ $ $ $ $ $ $ $ $ $ $ $ $ $ $ $ $ $ $ $ $ $ $ $ $ $ $ $ $ $ $ $ $ $ $ $ $ $ $ $ $ $ $ $ $ $ $ $ $ $ $ $ $ $ $ $ $ $ $ $ $ $ $ $ $ $ $ $ $ $ $ $ $ $ $ $ $ $ $ $ $ $ $ $ $ $ $ $ $ $ $ $ $ $ $ $ $ $ $ $ $ $ $ $ $ $ $ $ $ $ $ $ $ $ $ $ $ $ $ $ $ $ $ $ $ $ $ $ $ $ $ $ $ $ $ $ $ $ $ $ $ $ $ $ $ $ $ $ $ $ $ $ $ $ $ $ $ $ $ $ $ $ $ $ $ $ $ $ $ $ $ $ $ $ $ $ $ $ $ $ $ $ $ $ $ $ $ $ $ $ $ $ $ $ $ $ $ $ $ $ $ $ $ $ $ ",
"0 8 8 8 8 8 0 0 0 0 0 0 0 0 0 0 0 0 0 0 0 8 8 8 8 8 0 0 0 0 0 0 0 0 0 0 0 0 0 0 0 0 0 0 0 0 0 0 0 0 0 0 0 0 0 0 0 0 0 0 0 0 0 0 0 0 0 0 0 0 0 0 0 0 0 0 0 0 0 0 0 0 0 0 0 0 0 0 0 0 0 0 0 0 0 0 0 0 0 0 0 0 0 0 0 0 0 0 0 0 0 0 0 0 0 0 0 0 0 0 0 0 0 0 0 0 0 0 0 0 0 0 0 0 0 0 0 0 0 0 0 0 0 0 0 0 0 0 0 0 0 0 0 0 0 0 0 0 0 0 0 0 0 0 0 0 0 0 0 0 0 0 0 0 0 0 0 0 0 0 0 0 0 0 0 0 0 0 0 0 0 0 0 0 0 0 0 0 0 0 0 0 0 0 0 0 0 0 0 0 0 0 0 0 0 0 0 0 0 0 0 0 0 0 0 0 0 0 0 0 0 0 0 0 0 0 0 0 0 0 0 0 0 0 0 0 0 0 0 8 8 0 0 0 0 0 ",
"0 d u.t.t.r.w w w w w w w w w w w w w w 0 d z z z k w w w w w w w w w w w w w w w w w w w w w w w w w w w w w w w w w w w w w w w w w w w w w w w w w w w w w w w w w w w w w w w w w w w w w w w w w w w w w w w w w w w w w w w w w w w w w w w w w w w w w w w w w w w w w w w w w w w w w w w w w w w w w w w w w w w w w w w w w w w w w w w w w w w w w w w w w w w w w w w w w w w w w w w w w w w w w w w w w w w w w w w w w w w w w w w w w w w w w w w w w w w w w w w w w w w w w w w w w w w a a a w d s w s 0 w w ",
"0 k l.e.u.u.w 0 w 0 j w 0 w 0 0 0 w w w 0 d u.S.S.t.0 w 0 w j 0 w 0 0 0 0 w w w w w w w w w w w w w w w w w w w w w w w w w w w w w w w w w w w w w w w w w w w w w w w w w w w w w w w w w w w w w w w w w w w w w w w w w w w w w w w w w w w w w w w w w w w w w w w w w w w w w w w w w w w w w w w w w w w w w w w w w w w w w w w w w w w w w w w w w w w w w w w w w w w w w w w w w w w w w w w w w w w w w w w w w w w w w w w w w w w w w w w w w w w w w w w w w w w w w w w w w w w w w w 0 s k k z f z k e.k d 0 w ",
"0 k t.h.t.t.w w 0 j g.j 0 a w.w.j 0 w w 0 f d r.h.d w w w w.g.j 0 s w.w.s 0 w w w w w w w w w w w w w w w w w w w w w w w w w w w w w w w w w w w w w w w w w w w w w w w w w w w w w w w w w w w w w w w w w w w w w w w w w w w w w w w w w w w w w w w w w w w w w w w w w w w w w w w w w w w w w w w w w w w w w w w w w w w w w w w w w w w w w w w w w w w w w w w w w w w w w w w w w w w w w w w w w w w w w w w w w w w w w w w w w w w w w w w w w w w w w w w w w w w w w w w w w w w w w 0 s z r.t.r.0 d S.s s 0 i ",
"0 z h.h.0 f s 0 w s w.s w w s s a w w w 0 k w r.l.d w w 0 s w.w w w s s w w w w w w w w w w w w w w w w w w w w w w w w w w w w w w w w w w w w w w w w w w w w w w w w w w w w w w w w w w w w w w w w w w w w w w w w w w w w w w w w w w w w w w w w w w w w w w w w w w w w w w w w w w w w w w w w w w w w w w w w w w w w w w w w w w w w w w w w w w w w w w w w w w w w w w w w w w w w w w w w w w w w w w w w w w w w w w w w w w w w w w w w w w w w w w w w w w w w w w w w w w w w w w w 0 w t.k k r.z k z z d 0 w ",
"0 d e.e.k k w w w 0 w 0 w w 0 0 0 w w w 0 d k z e.f 0 w w 0 w 0 w w 0 0 w w w w w w w w w w w w w w w w w w w w w w w w w w w w w w w w w w w w w w w w w w w w w w w w w w w w w w w w w w w w w w w w w w w w w w w w w w w w w w w w w w w w w w w w w w w w w w w w w w w w w w w w w w w w w w w w w w w w w w w w w w w w w w w w w w w w w w w w w w w w w w w w w w w w w w w w w w w w w w w w w w w w w w w w w w w w w w w w w w w w w w w w w w w w w w w w w w w w w w w w w w w w w w w 0 f z 0 w w d s 0 a s w w ",
"w 0 0 0 0 0 w w w w w w w w w w w w w w w 0 0 0 0 0 w w w w w w w w w w w w w w w w w w w w w w w w w w w w w w w w w w w w w w w w w w w w w w w w w w w w w w w w w w w w w w w w w w w w w w w w w w w w w w w w w w w w w w w w w w w w w w w w w w w w w w w w w w w w w w w w w w w w w w w w w w w w w w w w w w w w w w w w w w w w w w w w w w w w w w w w w w w w w w w w w w w w w w w w w w w w w w w w w w w w w w w w w w w w w w w w w w w w w w w w w w w w w w w w w w w w w w w w w 0 s w w w w 0 0 w 0 0 w w "
};
