/* XPM */
static char *mb_ringmod_sc_mono[] = {
/* columns rows colors chars-per-pixel */
"299 256 256 2 ",
"   c #15161C",
".  c #17181E",
"X  c #19191F",
"o  c #161418",
"O  c #0E0F13",
"+  c #1A271D",
"@  c #2B2C1E",
"#  c #151B22",
"$  c #1C1D24",
"%  c #171824",
"&  c #1F1E32",
"*  c #101924",
"=  c #241E24",
"-  c #291D23",
";  c #211C29",
":  c #201E32",
">  c #1F2026",
",  c #1E222A",
"<  c #16252A",
"1  c #192132",
"2  c #152A32",
"3  c #1C2C33",
"4  c #182E37",
"5  c #1D3239",
"6  c #0F2B2D",
"7  c #212126",
"8  c #2B2324",
"9  c #252A22",
"0  c #24262D",
"q  c #29262B",
"w  c #26282F",
"e  c #2A2A2D",
"r  c #2C2C23",
"t  c #322227",
"y  c #34242A",
"u  c #3A232A",
"i  c #332B2B",
"p  c #3B2B2C",
"a  c #362C24",
"s  c #2A3327",
"d  c #39392A",
"f  c #252730",
"g  c #262A32",
"h  c #2A2B34",
"j  c #2B2E3A",
"k  c #272C38",
"l  c #362C32",
"z  c #22323A",
"x  c #2E313B",
"c  c #283335",
"v  c #32333D",
"b  c #383735",
"n  c #24191E",
"m  c #56311B",
"M  c #632F16",
"N  c #602F18",
"B  c #7B3B1C",
"V  c #683116",
"C  c #452B2A",
"Z  c #493629",
"A  c #5E3B27",
"S  c #5D3C2C",
"D  c #59362B",
"F  c #462E32",
"G  c #4D3A35",
"H  c #483737",
"J  c #563B32",
"K  c #593D34",
"L  c #553736",
"P  c #552D2A",
"I  c #622A2A",
"U  c #653D26",
"Y  c #6D3E26",
"T  c #66362B",
"R  c #69372B",
"E  c #633D2B",
"W  c #6D3A2A",
"Q  c #633525",
"!  c #72342B",
"~  c #723D2C",
"^  c #763B27",
"/  c #6B3B31",
"(  c #683B36",
")  c #733C34",
"_  c #732B2F",
"`  c #3F580D",
"'  c #34471A",
"]  c #374533",
"[  c #16521D",
"{  c #425D0C",
"}  c #48551B",
"|  c #754D04",
" . c #714E0F",
".. c #567B08",
"X. c #4A680D",
"o. c #5B442C",
"O. c #464936",
"+. c #5C4333",
"@. c #5D4139",
"#. c #594839",
"$. c #4B5131",
"%. c #6C4227",
"&. c #62442E",
"*. c #6A422A",
"=. c #684728",
"-. c #734325",
";. c #73432A",
":. c #774727",
">. c #7A5A2B",
",. c #614534",
"<. c #61453C",
"1. c #634A3C",
"2. c #684A38",
"3. c #7D4C3B",
"4. c #784636",
"5. c #72523A",
"6. c #6D711F",
"7. c #1B3B45",
"8. c #143546",
"9. c #2A3143",
"0. c #283C46",
"q. c #253A44",
"w. c #333642",
"e. c #373944",
"r. c #383A45",
"t. c #36394A",
"y. c #3A3D4B",
"u. c #343748",
"i. c #30384F",
"p. c #493D43",
"a. c #1E545B",
"s. c #1B464F",
"d. c #23434B",
"f. c #3E414E",
"g. c #384348",
"h. c #244A55",
"j. c #3E4152",
"k. c #3C4258",
"l. c #24525C",
"z. c #045C66",
"x. c #125B69",
"c. c #2D5F6D",
"v. c #245865",
"b. c #344870",
"n. c #01636C",
"m. c #006374",
"M. c #006879",
"N. c #136876",
"B. c #00737D",
"V. c #196370",
"C. c #286977",
"Z. c #3F795E",
"A. c #594744",
"S. c #595143",
"D. c #424453",
"F. c #46495B",
"G. c #4A4D5D",
"H. c #444758",
"J. c #545D52",
"K. c #4A4749",
"L. c #654B43",
"P. c #694D49",
"I. c #664943",
"U. c #774B45",
"Y. c #695245",
"T. c #6C5258",
"R. c #75524D",
"E. c #4A4D62",
"W. c #4E5163",
"Q. c #4E5269",
"!. c #515465",
"~. c #535669",
"^. c #56596C",
"/. c #585C6E",
"(. c #5A5E72",
"). c #555A73",
"_. c #5D6175",
"`. c #5D627A",
"'. c #62667C",
"]. c #7C6A66",
"[. c #626A54",
"{. c #813C1A",
"}. c #893C1B",
"|. c #873837",
" X c #963538",
".X c #8D332D",
"XX c #B23F2E",
"oX c #A93B36",
"OX c #9D471E",
"+X c #8C5B04",
"@X c #A1481E",
"#X c #9A6504",
"$X c #846A02",
"%X c #A56C04",
"&X c #85472A",
"*X c #954527",
"=X c #824239",
"-X c #844735",
";X c #944235",
":X c #984435",
">X c #8C5132",
",X c #8B552C",
"<X c #B94237",
"1X c #AC472D",
"2X c #8D6437",
"3X c #CA4330",
"4X c #B53C41",
"5X c #AD3B40",
"6X c #903E41",
"7X c #864D44",
"8X c #954242",
"9X c #89544B",
"0X c #99554B",
"qX c #95554A",
"wX c #985A52",
"eX c #8A5953",
"rX c #A55D53",
"tX c #AA4F49",
"yX c #946D54",
"uX c #AA6256",
"iX c #B86659",
"pX c #AF674D",
"aX c #A07069",
"sX c #C84647",
"dX c #D24D4A",
"fX c #C76B5D",
"gX c #C96750",
"hX c #D67161",
"jX c #E3655A",
"kX c #C33E29",
"lX c #5B8207",
"zX c #659119",
"xX c #6C9056",
"cX c #CCCC0B",
"vX c #A2AF24",
"bX c #027986",
"nX c #09748B",
"mX c #297687",
"MX c #385185",
"NX c #676C85",
"BX c #6E7391",
"VX c #506CA8",
"CX c #4E79CC",
"ZX c #018597",
"AX c #05838F",
"SX c #2D8798",
"DX c #048CA7",
"FX c #3497AC",
"GX c #3496AA",
"HX c #359EB4",
"JX c #2694AB",
"KX c #28A2BA",
"LX c #23ABC5",
"PX c #7B81A2",
"IX c #888FB3",
"UX c #979EC6",
/* pixels */
"w w 0 f w 0 w w 0 w f f f f f f f 0 f f f f g f f w w w s 3 0 7 q q 9 w w w w 3 0 w 0 0 w w w w 0 w w 0 w 0 w w 0 w w w 0 w w 0 0 w 0 0 w w w 0 w w 0 w w w 0 0 w 0 0 w 0 0 w w w 0 w w w 0 0 w w w 0 w w 0 w w 0 w w w 0 w w 0 0 w w 0 f w w w 0 w w 0 w w 0 f w w w 0 w w w 7 w w 0 0 0 0 w 0 w w > , 0 , w 9 7 f 0 0 0 0 w 0 w , 0 w 0 0 , 0 0 0 0 0 w 0 w 0 > 0 w 0 0 w 0 0 f , w w 7 0 w 0 0 0 0 0 w w 0 w 0 > 0 0 > 0 , 9 f w w 0 7 0 0 0 > 0 w 0 > 0 w > 0 0 0 0 w w 0 w 7 f 0 w 0 0 0 0 0 0 0 w 7 0 f 0 w 0 f 0 , w w 0 w w w w w w w w 7 q w 7 7 f 0 f w 0 w 7 0 f 0 0 f w w 0 0 w 0 w w w w 0 q 0 q 0 f 0 w ",
"w w 7 7 w 0 w 0 0 w 7 = 7 8 8 7 0 f 7 = 8 7 - = w w 0 w 3 9 f 7.7.8.d.5 0 w 0 0 w w w w w 0 0 w w 0 w w w 0 0 w w 0 0 w w 0 0 w w w w w w 0 w 0 0 w 0 w 0 w w w w w w w w w w 0 0 w w 0 w w w 0 0 w w 0 w 0 0 w 0 w 0 w w 0 w w w 0 0 w 0 w 0 w w 0 w w 0 w w 0 w 0 w 0 w 0 f j g w x h h g h h w h y.r.e.v f y.x 0 f j 0 x 0 j g t.v 0 w w t.x h e.g h 0 x 0 x r.f w h h 0 x w g y.w f y.x 0 x w h w x w w h f v y.e.x y.x v t.0 w 0 h e.x e.f r.w.0 h f.v 0 e.x h w j w f h g e.h j w j w w x 0 h h 0 e.x 0 x 0 x 0 x e.w 0 w g w 0 g f 0 z k 0.z 0 9.q.f k f w z w 9.c 7 q.z f z w z w w j g w 0 w 0 s [ [ s s f w ",
"0 f h.h.w w w w w 7 0.h.h.h.h.h.f 0 s.s.h.h.h.l.z q w 0 s s.V.xXxXxXZ.B.z 0 0 0 w 0 0 w 0 0 w w w 0 0 w w w 0 w w w 0 w w 0 w w w 0 0 w 0 0 w w w w w 0 w 0 w 0 0 w w 0 f 0 0 w 0 w w w 0 w w w 0 w w 0 0 w w w w w 0 0 w 0 0 w w w w w w w 0 0 w 0 0 w w 0 0 w w 0 w w w w 7 NXj.t.NXF.f.f.D.W.x c _.~.F.~.t.`.(.j j.NX0 NXe.G.D.(.~.j.$ y.(.~.F.(.w.NXx W.t.(.G.x $ E.`.w NXr.~.~.W.D.(.).w.~.h W.f.Q.w 7 (.E.x NXH.~./.e.(.Q.Q.7 h `.j.f.(.u.`.~.y.F._.9.W.~.f.~.g ~.f E.~.x `.v NXv !.w h BXf ).W.D.~.).t.NXw.E.t.~.Q.G., w h w ; v.v.g C.0.v.c.z v.v.d.V.q.d.v.h.v.k l.v.q.h.v.- C.d.0.C.7 f f w 0 [ [ [ [ [ , f ",
"w g KXKXz 0 w f 7 l.KXLXLXLXLXKXz f JXLXLXLXLXLXJXh.7 0 a.Z.vXxXzXxXvXvXl.z 0 e w 0 w w w w 0 f w w w 0 f 0 w w 0 w w 0 0 w w 0 0 w w w w w w 0 0 0 w w w f 0 w w 0 0 w w w 0 w w w 0 0 w 0 0 w w 0 w w w w 0 0 0 w w w w w w 0 0 w 0 0 w 0 w w 0 w w 0 w 0 w w 0 w w 0 w w 7 ).Q.W.~.G.e.y.F.E.j X j.y.x F.t.(.(.j ~.NXe.).~.W.F.j.f (.$ r._.~.e.G.x `.~.E.~.w.G.f.$ H.`.j.`.G.W.O ~.~.x w.W.Q.0 W.f.W.% 9.NX(.X ~.f W.Q.w.W.% (.c 0 W.F.w.F.e.H.w ~.F.~.u.(.$ > _.~.NXh `.NXx E.x `.!.~.w h NXD.(.E.(.$ y.~.~.~.W.!.f.$ _.w w h f q l.v.d.V.d.v.v.q.v.c.0.v.l.v.v.q.v.q.v.- - k v.7 v.l.h.V.w w q q : [ [ [ [ [ f w ",
"0 g JXKX4 < w 0 q DXLXSXmXmXmXmXg w JXKXmXmXmXJXLXSXq 9.Z.vX$.1 & $ 9 J.SXa.f w 0 w w 0 0 w w 0 0 w w 0 w w w 0 w w w 0 w w w 0 0 w w 0 0 w w 0 w 0 0 w w 0 0 w w w w 0 w w 0 w w 0 w w 0 w w 0 w 0 0 w w 0 0 w 0 w w 0 0 w w 0 w 0 w w w 0 0 w w w w w 0 w w 0 0 w w 0 w w 0 W.(.(.W.j.Q.~.y.~.E.w F.D.y.~.f./.~.G.(.Q.(.E.f.BXf./.W.G.$ y.(.~.j.(.r.G.W.`.j.W.~.F.X F.~._.Q.j.).D.~.F.Q.~.y.W.G.~.v `.e.Q.~.(.e.~.j ~.G.x `.F./.0 f r.`.E.^.r.(.W.D.G.Q.x /.F.v (.g Q.G.(.~.~.).w.E.F.NX, w.~.`.~.F.E.F.~.F.G.j.NXf.~.F.~.7 w h w 9 h.v.V.l.d.v.v.d.v.v.d.l.c.v.l.k v.v.l.l.z c v.7 v.v.v.v.f w w w 0 s [ [ [ [ w w ",
"w g JXJXz w w w f JXKX8.n = n % w w SXKX5 - % q.LXSX; l.xXxX% g w z a.; mXC.q.0 w w 0 w w 0 w w w 0 0 w w 0 w 0 0 0 w w w 0 0 w w w 0 w w 0 w w w w w 0 w w w w 0 0 w w 0 w w 0 w 0 w 0 w 0 w w 0 w w w 0 w w w w w 0 w w 0 0 w w 0 0 w 0 w w w w 0 0 w w 0 0 w w w 0 w w w w w.v v w.w D.j.0 r.G.v x x e.j.h F.y.v x > y.u.w t.x F.j.w 0 x x j j.j.x x g y.0 f.F.h 0 v 9.e.w.h v G.j x E.y.0 h G.u.0 D.H.f.9 x w.e.f e.E.v f.F.h 0 g H.r.v D.h F.j.0 v G.w.h G.e.w.g w.t.g w j.D.j w.f f.0 h w.e.9.x f F.y.f e.f f.0 y.H.g w f h w 0 z z z 9.x h.d.g z g 0.z z z z q.d.w g h.9.h z w z q.z z w w w w g s [ [ [ s 0 w ",
"0 k JXJXz 0 w 0 7 SXLXmXmXmXmX7.7 w JXKX9.$ n q.KXJX; l.AXmXs.9 7 0.d.- a.mXd.w w 0 0 w w 0 0 w w 0 w w w 0 w w w 0 w 0 w f w w w 0 0 w w 0 0 w 0 w w w 0 w w 0 w 0 w 0 0 w w 0 w w w w w 0 0 w w w w 0 w w 0 0 0 w 0 w w 0 w w 0 w w 0 w w 0 f 0 w 0 0 w 0 w w w 0 w 0 7 w 7 $ ; > 9 0 $ $ 0 > $ > 7 > > $ 7 $ > > > 0 > > 0 $ 7 $ $ 0 7 7 9 , $ > > > 0 , 7 $ $ 0 0 > 7 > , 9 > $ ; 9 $ $ 0 9 $ > , $ > > 0 , > > 7 > $ > $ $ 7 0 7 $ > 7 $ ; $ $ 0 > $ > , X 7 7 w 7 > 0 0 > $ 0 7 w , w 7 7 9 0 0 0 $ ; 0 7 0 , 0 > > 0 0 0 0 7 0 7 q 7 7 7 ; 7 0 7 0 7 7 7 0 7 > = 7 7 $ 7 0 7 7 ; 7 q 7 7 7 0 7 7 , 0 : 0 , , 0 ",
"w g JXKXg w w w 0 0.JXLXLXLXLXJX8.$ SXLXmXC.mXSXLXnXq 7 a.LXC.> g 0 7 : d.SXd.0 0 w w w 0 w w 0 0 w w 0 0 w w 0 w w w 0 w 0 w 0 0 w w 0 w w w 0 w 0 0 w w 0 0 w w w w 0 w w 0 w 0 w 0 0 w w w w w 0 0 w w 0 w w 0 w w w 0 w w 0 w w 0 w w 0 w 0 f w w w 0 w w 0 w w 0 $ % $ % $ $ $ % X $ X X $ $ $ $ $ $ $ $ $ $ $ $ X $ $ X $ $ $ $ % $ $ X > $ $ $ $ $ $ $ $ $ X X $ $ $ $ % $ $ $ % $ $ X $ $ $ $ $ $ X X $ $ $ X $ $ $ $ $ $ % $ $ $ $ $ $ # $ $ $ $ $ $ $ $ , , $ > > > , 0 $ 7 $ 7 $ , > $ $ $ = 7 , > , > 7 > > > > $ X $ $ X $ % = X $ $ $ % $ $ $ $ $ $ $ $ $ $ $ $ $ $ X $ $ $ $ $ $ % $ $ $ # $ X $ $ % # ",
"0 c JXKXk 0 0 7 f 7 z v.l.h.mXLXv.7 JXKXLXLXLXLXKXh.= mXLXJXJX3 = 7 g = v.C.s.0 f 0 w w 0 w w w w 0 0 w w 0 0 w 0 w w w 0 w w 0 w 0 w w 0 w w w w 0 0 w w w w 0 0 f w w 0 w w 0 w w w 0 0 w w 0 w w w 0 w w 0 w w w w 0 w w 0 w w 0 w w 0 w w w w 0 w w w w w 0 w 0 $ X $ $ % X $ $ X $ X $ $ $ 7 X X $ $ X $ $ $ X X $ $ $ $ X X X . X X X > X X $ X X   $ $ X $ $ X X $ X X $ X X X $ X > X X $ $ X $ $ $ $ X $ $ $ $ X X $ $ $ $ $ X X $ $ X $ $ $ X $ % $ > 7 $ 7 , + + + , > > , > > > > > $ , 5 3 ; , 0 $ , > 0 $ 7 7 $ % % o . $ % o $ .   X X o X X X X % X $ $ $ % X % $ $ $ o X X X X X o X X X X X X X $ $ ",
"0 3 JXDXz f g 3 f f f , ; - v.LXv.- SXKXx.a.l.v.q.7 7 d.h.mXLXmXl.0.= f SXV.q.0 w w w 0 w 0 0 w w w w 0 w w w 0 0 w 0 w w 0 w w w 0 0 w 0 w 0 w w w w w 0 0 w w w 0 w 0 w w 0 w w 0 w w w w 0 w 0 0 w w 0 0 w w w 0 w 0 0 w 0 w w 0 0 w 0 w 0 w w w 0 0 0 0 w 0 7 % $ $ $ $ $ 3 $ $ X $ $ $ X $ X $ $ $ $ > X X $ $ $ $ X $ $ $ X h !.v $ $ G.q > X 7 v y.X $ w X > , > X X 0 $ $ v v X $ $ $ $ X X > $ X X $ $ X $ $ X $ $ $ X X $ X 7 z X $ $ $ X $ $ $ $ > > 7 , ; [ [ + 3 > , = X n $ > > , X s.N.n.3 ; $ 7 7 $ $ 7 $ % % > h.h.h.4 $ ^.% y.K.G.D.G.v h y.v g e.. $ $ 7.0.7.5 $ X E.0 D.!.h x ^.y.v h x y./.!.$ X ",
"0 g JXKXJXJXJXSXw d.KXJXJXJXKXLXh.; JXKXz n = = 7 f f - 7.KXJXJXLXnXj mXC.l.0 w w 0 0 w w w w w 0 w w w 0 w w w w w 0 w w 0 0 w 0 w w w w w 0 0 0 w w 0 w w w 0 0 w w 0 w 0 0 w w 0 0 w w 0 0 w w 0 w 0 w w w 0 0 0 w w w 0 w 0 w w w w w w 0 w 0 w w w w 0 0 0 X $ X $ % $ a.3 X $ $ $ $ X = X $ $ $ X X $ $ $ X $ X X X $ X > o D.(.7 /.'.!.G.'.G.G.^.'.O G._.H./.H._.(.'.y.!.'.NXG.X $ X X > $ $ $ X > X X = $ $ $ $ $ X $ X X $ $ X d.7.$ $ X $ X $ $ $ ; > < + > [ [ + 7 > # s.a.s.N.4 = , n s.n.V.3 = $ 7 7 7 7 7 $ X $ $ V.C.mX7.X BXw.'.W._.e.^.'.f.!.y.v G.o X < 3 l.7.z X w BXe./.'.H.^.7 F.'.h D.v H.y.  $ ",
"0 k JXKXJXKXKXJX0 d.KXJXKXJXKXN.0 , SXKX0.0 f g w f f ; s.mXz JXmXmXmXmXh.g 0 w w w 0 w 0 w 0 w w 0 0 w w 0 0 w 0 w w 0 0 w w 0 w w 0 0 0 w w w w 0 0 w w 0 w w w w 0 w w 0 w w w w w 0 w 0 w w w w w 0 w 0 w 0 w w w 0 w w w f 0 w 0 0 0 w w 0 0 w 0 w w w 0 $ $ $ X $ $ $ a.3 X $ $ X $ X $ $ $ X $ $ X $ X > $ $ $ $ $ $ X $ X X D.'.NXD.^.BXG.'.v x D.O !.e._.W.f.NXD.D.!.NXD./.h X $ $ $ X X $ $ X $ $ $ $ $ X X $ $ $ $ $ $ $ X X 7.s.X $ X $ % $ > 7 , 7 > + [ [ [ [ ; , < 4 s.s.x.3 $ , X s.x.x.5 $ , 7 , $ $ % $ $ $ > V.C.N.5 - ^.'./.F.(.h F.F.NXG.D.w.F.o $ > 3 s.7.3 o G.NX_.!.G.!./.X F.'.x F.v D.e.  $ ",
"w w z z z z c k w f z c 5 z k 7 0 0 z z f w w w w w w w 0 - z JX0.v.C.q.g 0 w 0 0 w w 0 w 0 w w 0 w 0 w w w 0 w w 0 w w w w 0 w w w 0 w w w w w 0 w 0 w 0 w 0 w 0 w w w w w w 0 0 w w w w 0 w 0 0 w 0 w 0 0 f w 0 w w w 0 w 0 w 0 0 f w 0 w w w w 0 w 0 0 0 X X $ X $ X $ X > 5 X = $ $ X $ X $ $ $ X $ $ $ X X $ X X $ $ $ $ $ X x !.y.H.D.y.D.G.x !.y.!.. W.'.y.y.0 !.e.D.G.D.D.y.G.X $ $ $ $ $ $ $ X $ X $ X X $ $ $ X X $ $ X $ X > 5 X $ X = X > > 7 > > $ > > + 3 > + $ 7 $ X n = X = > , $ 3 a.8.> > > $ 7 > $ X X X $ $ a.l.v.5 7 y.G.f.e.!.D.D.7 /.v F.^.w X $ $ 7.d.d.5 % G.7 D./.!.e.v /.H.e ~.!.X y.x X $ ",
"w w 0 0 7 0 w w w w q 0 0 0 q g w w q 0 w w w g w w w w w w w w f g g 0 w w w 0 w w w w w w w w w w w w w w w w w w w w f w w w w w w w w w w w w w w w w 0 e w w w q g w w w w w w w e w w w 0 f w w w w w w w w w w e w w w w w w w w w w w e w w w w 0 $ $ $ $ $ $ $ X = X X $ X X $ X $ $ $ X $ X $ X $ $ $ $ $ $ $ X $ $ X $ $ $   X = X . 7 $ X $ $ X G.h o X X X $ > X X = X X $ X $ X $ $ X X > $ X $ $ $ $ X X $ $ $ X $ $ $ $ X $ $ $ X > > > > 7 , 7 > > $ 9 , 9 > > > > , 7 7 $ , 7 $ $ n $ > > , 7 $ X $ $ $ $ $ $ X X X % X X . X X % > X X . X X X X $ $ $ X X X $ $ X X X X $ X X X X X $ X X X X $ $ ",
"0 7 0 0 0 0 7 0 0 7 0 0 0 0 0 0 0 0 w 7 7 0 7 7 9 0 7 0 7 0 7 0 0 0 , 0 0 0 , 0 7 0 ; 0 0 0 7 7 0 0 7 7 7 0 0 0 7 7 7 0 7 0 7 0 7 0 0 0 7 7 0 7 9 0 0 , 0 0 0 7 7 7 w 7 7 0 0 0 0 7 0 7 0 0 0 0 7 0 7 0 0 9 0 0 7 0 0 7 7 0 7 0 0 9 0 0 7 0 0 7 7 0 0 9 $ X $ $ X $ X X $ X $ $ $ X $ $ $ X $ X $ X $ $ X $ $ X X $ $ X $ $ X $ $ X $ $ $ X $ $ $ X $ $ X X 7 > $ $ $ > $ $ $ $ X X $ X $ $ $ $ $ $ $ X X $ $ X $ X $ $ $ X $ X $ X $ $ $ $ X $ X $ > $ > $ > $ > > > > , , > > > $ $ $ $ $ ; $ > > > > $ = $ $ $ $ X $ X $ X $ X $ $ $ $ $ $ $ $ X X $ $ $ $ $ $ X $ X X $ X $ $ $ $ $ $ X $ X $ X $ $ $ X $ $ X $ X ",
"$ $ $ X % $ $ $ $ $ $ X % $ % % X $ % $ $ % $ $ % $ % % $ $ $ $ $ $ $ % $ X $ $ $ $ $ % X $ $ $ % $ % $ $ $ X % $ $ $ $ $ $ % % $ $ X $ % $ $ % % $ $ X X > X > % $ % $ $ % % X X $ $ % % X X $ $ $ % % $ $ X X $ % % $ $ $ % % $ $ X X % $ % $ $ $ % % $ X $ > $ $ $ $ $ $ $ $ $ $ $ X $ $ $ $ $ > X $ > X $ $ $ $ $ X $ X $ $ $ X $ X $ $ $ X $ $ $ $ $ $ X 7 $ X $ X $ X $ X $ $ $ $ $ X $ X $ X $ > $ $ $ $ $ $ X $ $ $ $ $ $ X $ X $ $ $ $ $ $ $ $ % $ $ $ $ $ X X $ X X $ $ $ $ $ $ $ $ $ $ % $ # $ $ $ $ $ X $ $ $ X $ $ $ $ X $ $ X X $ $ $ $ $ $ X $ $ $ $ $ $ $ $ $ $ $ X $ X $ $ $ $ $ $ $ X $ $ X $ X $ $ ",
"v w.w.v v v w.v v v v v v v v v e.v v e.v v v v v v e.v v e.v v e.v v v e.v v v v v v v v v v v v v v v v v r.v v r.v e.v v v e.v v e.v v e.v v r.v v b v v r.v e.v e.v v v v v v v v v v w.v v v w.v e.v v v e.v v r.v v r.v w.w.v v v e.v v e.v v v w.w.w.v v v v v v v v v v v v v v e.v v v v v v v v v v v v r.v e.v v v e.v e.v v v e.v v b v e.v v v v v v v w.b v v v v v w.v w.v v v v v v v v v v v b v v v v e.v v v r.v v w.w.v w.v > > w w 0 0 0 > , 0 0 0 0 0 0 $ 0 0 0 0 0 w 0 0 0 X 0 0 w 0 0 0 9 0 0 $ 7 0 0 0 w 0 w w 0 X h v e.v v v w.w.e.v v e.v v e.v w.v v v v v e.v e.v v w.v v e.v v v v v v ",
"r.e.r.f.y.f.e.D.y.y.D.f.f.f.y.e.e.y.e.e.y.e.v D.y.y.y.e.y.e.f.e.r.r.g.r.r.r.r.r.y.r.g.y.y.e.y.y.y.e.r.y.r.r.r.r.r.r.e.r.y.e.r.r.e.r.r.r.r.r.r.r.r.r.y.y.r.r.r.r.e.r.e.r.y.r.y.r.g.r.y.r.y.r.p.y.r.r.r.r.y.e.r.r.r.r.r.r.r.r.r.r.e.y.r.r.r.r.r.r.r.r.p.r.r.r.r.r.y.r.y.y.r.r.y.r.p.r.y.r.r.r.g.r.y.e.r.y.r.r.y.r.r.r.r.r.y.e.r.e.e.e.y.e.r.r.r.y.y.y.r.r.r.r.y.r.y.e.y.r.y.r.y.r.r.r.r.r.y.r.y.r.r.y.r.y.g.y.r.y.r.r.g.r.r.r.r.r.r.y.r.r.r.r.r.r.$ 7 f w w w e.f.f.e.h 0 w 0 0 $ 0 w w h 7 7 w w 0 % 0 w 0 c 0 h h w w % 0 0 h w 7 0 0 7 0 $ h f.v D.K.y.v e.v e.r.v D.r.e.e.g.e.y.r.y.g.e.e.e.e.r.r.e.r.y.e.r.y.r.r.y.",
"e.w.'.G.(.'./.(.G._.!.'.(.'._.).D./.NXy.BXr.G.'.H.`.(.D.'.D.NX(.!.D.!.v r.r.e.e.r.r.r.v r.v e.e.e.e.r.e.v r.r.r.r.b y.e.e.e.e.e.e.e.e.e.r.e.v r.e.e.e.e.r.r.r.r.e.e.e.e.r.b e.e.e.e.e.e.e.e.e.v e.e.e.e.v e.r.e.r.r.r.r.r.r.r.e.e.e.r.e.r.r.r.r.e.e.r.e.e.e.e.e.v r.e.e.r.r.r.r.e.e.e.e.e.e.v r.r.v r.r.e.e.e.e.r.y.e.e.e.e.e.e.e.e.e.e.r.e.r.v e.e.e.e.e.e.e.e.e.e.r.r.r.r.e.e.r.e.r.r.r.r.e.e.e.e.e.v e.e.r.r.e.e.e.e.r.r.e.r.r.r.r.e.r.e.r.r.> 7 w w 0 w D.G.G.D.x 0 w w 0 X 0 > y.^.w.y.0 w w % 0 7 G.W.y./.y.0 w $ > r./.!.v h e.!.w $ h v W.`.D.f.E.j.G.D.f.D.(.f.e.e.e.e.e.e.e.e.e.e.e.e.e.e.e.e.r.r.r.r.e.e.e.",
"e.e.^.!.NX(.(./._.D.h ~.H.NX_.(.f._.NX(.BXy._.D./.NX`.!.BX^.NX!.'.NX^.v r.r.e.e.r.b r.r.r.r.e.e.e.e.e.r.e.e.e.r.r.r.r.e.e.e.r.e.e.e.e.g.r.r.r.r.e.e.e.e.v r.r.r.e.e.r.e.e.y.e.e.r.e.e.e.e.e.e.e.e.e.e.e.r.e.r.e.v r.r.r.r.b r.r.e.e.e.e.r.r.v r.r.e.e.e.e.e.e.e.r.r.y.b r.r.r.r.e.e.e.e.r.e.r.e.r.r.e.e.e.e.e.e.r.b e.e.r.e.r.e.e.e.e.e.e.e.e.e.e.r.e.e.e.e.e.e.e.e.r.r.r.v e.e.e.e.r.r.b r.e.e.e.e.e.e.e.e.e.e.e.e.e.e.r.r.r.v b r.r.e.e.e.r.r.$ ; w w w 0 ~.v e W.h 0 0 w 0 $ 0 0 v G.^.(.x 0 0 % 0 9 f.G.(.x % e 0 $ X ^.h f.'.e.(./.0 X h r.D.(.~.`.(.'.`._.W.NX'.f.v e.e.e.v r.e.e.e.e.e.e.e.e.e.e.r.r.v r.e.e.e.",
"e.e.F.'.`.w.W.`.G.'.f.~.G.(././.(././.NX(.y.!._.'.(.(.'.W.NX!.w.(.F.^.v r.e.e.e.r.r.r.e.e.e.e.e.v r.e.e.e.e.v r.e.e.e.e.e.e.e.v e.e.e.v e.e.e.r.e.e.r.e.e.e.r.v e.e.e.e.e.e.e.e.e.e.e.e.e.e.e.e.e.e.e.e.r.r.r.b r.e.e.v y.b r.r.e.e.e.e.b r.e.e.e.e.e.e.r.r.r.v r.v r.r.r.e.e.v e.e.e.e.r.e.e.e.r.r.e.e.e.e.e.e.e.e.e.e.v r.b y.e.e.e.e.e.e.r.w.e.e.e.e.e.e.e.e.e.e.e.e.e.e.e.e.e.e.e.e.r.e.e.e.e.e.e.r.e.e.e.e.e.e.e.e.r.v e.e.e.e.r.w.e.w.r.r.$ 7 g w w w D.F.~.NXv w w w 0 X 0 , e.(.D.F.w.0 w X 7 0 x /./.!.v 0 0 $ > j.~.W.G._.^.!.w $ h r.y._.'.(./.NXW.~.NXNXNXy.e.e.e.e.r.r.r.r.e.e.e.e.e.e.e.e.b e.e.e.e.e.e.",
"r.e.F.D.y.r.y.G.y.H.D.y.f.y.y.f.H.y.y.f.y.e.e.F.D.y.f.D.v D.y.r.y.r.y.r.r.y.r.e.r.r.r.r.e.e.u.e.r.r.e.y.r.r.r.y.e.e.e.y.r.r.r.y.e.y.r.r.r.r.r.r.r.r.r.r.r.r.r.y.r.r.r.r.r.y.r.r.r.r.r.r.e.g.y.e.r.r.r.y.r.r.r.y.r.y.r.r.r.r.r.r.r.r.r.e.y.r.r.r.e.g.r.e.r.r.r.y.r.r.r.r.r.y.r.r.r.r.y.e.r.y.r.r.r.r.r.r.e.r.e.y.r.r.e.y.y.r.r.r.r.r.r.r.r.r.r.r.r.r.r.y.r.r.e.y.r.r.r.e.e.y.e.e.r.r.r.r.r.r.r.r.r.r.r.r.r.r.r.r.e.y.r.e.r.r.r.y.r.r.r.r.r.r.r.r.$ , g w w e e.r.f.!.x 0 w 0 0 # 9 0 h w.h h g q 0 $ 0 w x e., r.x 0 0 $ 9 0 e.x 0 r.g v h X j r.f.F.y.f.NX~.r.y.f.D.y.e.r.r.r.r.r.r.r.r.r.r.r.r.r.r.r.r.y.y.e.e.r.y.r.",
"v v x v v v v v v v v v v v v v v v v v v v v v v v v v v v v v v v v v v v 9.p.w.w.v v H e.p.w.v v v 9.v v v v v v v w.v v b w.v v v v v v v v v w.v v v v e.v v v v v v v v v v v v v v v v v v v v v w.v v w.v v v v v v v v v v v v v v v v v v v v v v v v v v v v v v v v v v v v v v e.v b v v v v v v v v v v v w.v v v v v v v v v v w.v v v v v v v v e.v v v v v v v v w.v v v v v v v v v v v v v v v v v v v v v v v v v w.v v b w.7 7 w 0 w w w w 0 , 0 w w w 0 X 0 w w 7 0 0 f f 0 $ 0 w 0 , w > 0 w w $ , w 7 0 0 7 0 0 w X h e.x x v e.j.v v v v v v v v v w.v v v v v v w.w.w.v v v w.v v v v v v v ",
"P.H l i e q 0 w 0 w e 0 0 0 w 9 0 0 0 h e 0 0 q 0 0 0 w 0 e g w q 0 w e w w f qXl 0 0 D / D rXw d o.l d r h h 0 q h w w e e 0 h h 0 e w q q 0 0 0 d $.e s h 0 0 e w e e 0 w e w e 0 q q 0 w e 0 e q 0 0 0 e g q 0 w e 0 h w 0 0 0 e 7.a.z z z g 0 h w w e e 0 h e 0 0 e 0 w e w e 0 0 0 q 0 0 9 w 0 h e e w w 0 e q 0 0 w f e e w w e q 0 h w 0 q q w e e 0 e w e e q q w h q w g e q e e 0 h g w e w w q w e q w w e 0 e e 0 0 w e e w w w w q $ > w w 0 w 0 $ > , e 0 w w 0 $ 0 f f f f f 0 f w X 7 w w w w w w w 0 $ , w w w 3 w 0 w w $ 7 f w 0 w 0 , w w w 0 w w w 0 w w w g w e e w f w 9 w g f e g g f e w 0 w ",
"T.F h l q ; > > > = $ $ $ $ = $ 7 > $ 0 > X 7 > $ $ $ = > X q > $ 7 X 7 7 = 9 9Xq $ > P S P 0XU.7X5.q a 9 8 0 $ > 9 7 7 7 w X w 9 $ $ > $ > $ 7 < d $.9 r 7 7 > > $ 0 0 $ $ = > = $ + $ 7 $ e > > > > $ $ 9 0 $ $ $ ; > 0 7 > $ 7 7 7.x.3 5 3 7 7 0 > $ w 7 X h 9 $ $ 7 $ X 7 > $ = $ $ + 7 $ $ $ $ w 7 X $ $ 7 > > $ + = 0 9 $ > $ = $ $ 9 9 $ > > $ 0 9 $ = $ 0 0 $ > > 0 7 $ w > $ 9 0 $ 0 w $ $ 7 $ $ > > = $ $ $ + $ $ + = $ ; w $ = + $ 0 7 > w 0 w w 0 X X , w w w w 0 X 7 y y y q y y y w $ f q q y y t q y 0 $ 7 e y y y y y y f % 7 f w w w w g g q g w 0 w 0 w w 0 - @ - - = = = 9 - 7 7 8 - @ 8 - - 8 0 w ",
"T.p.p.p.K.7 > > > $ 7 7 7 7 $ 7 7 > > q 7 > 7 > 7 7 7 + 7 > w 9 > 7 > 7 > $ w 9X8 > 7 Z E D L H 3.uXr e 8 0 0 = $ w 0 X 9 w $ w 0 > ; 7 7 > 7 7 # s $.9 s 0 9 7 7 > 9 0 7 7 > > $ 7 7 7 7 7 0 > 7 > > 7 $ 0 w $ 7 7 7 > w > > 7 > 8 5 x.3 z 3 + 7 w 7 7 w 7 > e 7 7 > > 7 7 > 7 7 7 > = > 7 > 7 7 $ w 7 7 7 7 7 > 7 7 $ > 0 7 $ > 7 > > > 0 0 > > > = 0 0 $ 7 $ 9 0 > > 7 0 > = f 7 $ 0 w $ 0 w $ 7 7 7 > > 7 $ > 7 7 7 > = 7 7 ; 9 0 > $ 7 7 0 ; > e 0 w f 0 . X > w 0 0 w 0 $ w u u u u u u u q % 0 u u u u u u u q $ 7 u u u u u u u q $ 7 f 0 w w q = 0 7 q 7 w w w w 0 z N.N.N.N.N.N.N.N.N.N.N.N.N.B.N.N.N.V.w 0 ",
"T.A.y.p.y.q X > > = $ 7 > $ > > > > > 9 7 > 7 7 > 7 7 $ > $ w 7 $ 7 > > 7 ; 7 9Xq $ , P K T p O Z pXi r 7 q w $ $ 0 7 7 7 q $ q 0 > 7 $ > $ 7 + $ s $.s e 9 7 $ > X 0 0 $ 7 > $ $ 7 > 7 > 7 0 > + > $ 7 > 7 0 X = 7 > > w 7 > > > 9 s.z., z 3 > 9 q X 7 w 7 = g 7 > > > > $ > $ > $ > > > $ 7 $ 7 $ w 9 7 7 > + > $ 7 > $ 0 0 = 7 7 > > > 0 9 $ > > $ 9 0 > > $ 7 0 $ > ; w $ $ q 9 7 7 7 $ 7 f $ $ > > 7 = $ > $ > 7 = $ 7 > > $ 9 0 > $ 7 7 0 > > w w f f f z z z w w w w 0 X ; u u u u u u u q % 0 u u u u u u u q $ 0 y u u u u u u q $ 0 f w w - i.mXSXSXmX0.0 q w 0 7 d.DXM.B.B.B.B.B.B.B.B.B.B.bXB.B.B.B.DXz 0 ",
"T.p.e.u.b 7 7 7 > 7 7 + > > > > 7 > 7 w 7 7 $ + 7 $ 7 7 > > w 7 7 > $ 7 > $ f qXy 8 q P T K C # G pXe r 8 9 9 > 7 0 0 $ 9 0 $ w 9 $ = > $ 7 = > ; s $.0 r 0 9 > > > 7 0 $ 7 $ 7 7 $ > 7 7 $ q > 7 $ > = > 9 q > > $ 7 $ q $ 7 7 , , 5 a.3 z 3 > > 0 $ 7 w 7 $ g 0 $ > 7 + > = 7 > > > = > > = > 7 $ e 7 X 7 $ > > > = > > 0 0 $ X 7 > 7 X 0 0 = 7 $ 7 0 7 $ 7 > 0 0 $ > 7 e 7 + 0 7 $ 0 w $ q e = 7 7 $ 7 + 7 > 7 > > > 7 $ > > = 7 0 > > 7 > 0 > > w w f 7 0.HXHXc.7 w 0 w 0 $ 0 y u u u u u l q % ; u u u u u u u q % 0 u u u u u u u y % 7 f w 7 c.HXSXc.c.C.V.h.w w 9 = d.AXz.n.z.n.B.B.B.B.B.n.B.B.z.z.z.z.AXz 0 ",
"T.F y q 8 ; 7 $ > > 7 = > > 7 = > > > w 7 > $ 7 $ 7 + 7 7 = w > + $ 7 $ 7 X w 0XT D D D S S C * Z uXs s 9 8 w > 7 0 7 $ 7 f $ w 7 7 7 > > > > 7 $ s $.r e 9 9 7 ; $ 7 0 = 7 7 7 > > > 7 > > q $ 7 7 = > $ 9 0 > > $ X 7 q 7 > + $ 7 7.x.< z 3 7 7 w X 7 0 9 $ e 7 $ $ 7 7 $ 7 7 > $ 7 7 $ > = 7 7 7 0 7 $ 7 7 = $ 7 > 7 $ w 7 $ 7 + 7 7 7 7 0 $ = $ $ 9 0 7 > 7 7 0 $ 7 7 q > > w 7 $ 7 0 $ w f $ + = > $ > = $ $ 7 > > > > > > $ 7 0 7 7 > X q , 7 w w w 7 0.GXHXc.7 w w 0 0 X 0 u u u u u u u q % 9 y u u u u u u q $ 7 y u u u u u u q % 7 g = c.HXl.X o - r.< v.h.0 f 7 d.AXn.n.n.n.B.AXAXbXB.B.B.B.n.n.n.n.AX5 0 ",
"T.F h y q 7 > > > > 7 + > > + 7 > > > w 7 > > = > > 7 $ > $ w 7 7 > = > > > w qXS D D D S T C * Z uXi r q 7 0 7 > 0 0 $ 7 f $ w 0 $ 7 > > > > > $ s $.e r 0 7 $ 7 $ 0 9 $ + 7 $ 7 $ 7 X > 7 w > 7 $ > $ $ 9 0 = + 7 7 > w > = 7 $ q 5 z.3 z 3 , 7 w 7 $ w 7 = e 7 > 7 > 7 7 7 $ $ > + 7 7 > $ $ > $ w 9 $ 7 $ 7 7 $ > > = 9 0 > > $ 7 $ 7 0 0 $ > > > 0 7 7 7 X 0 7 7 $ > 0 $ > w , $ 0 0 $ 0 q = 7 7 $ 7 + 7 $ > = > > 7 $ = 7 $ 0 0 $ > = 7 0 > > w w g 7 0.GXHXc.7 f w w 0 $ 0 u u u u u u u q $ 0 u u u u u u u q $ 0 y u u u u u u q $ 0 0 z FXv.o ; O NXPXO 3 V.q.w 0 d.ZXn.n.n.n.B.n.B.n.n.B.n.M.n.n.n.n.AXc w ",
"^.F y y 8 7 = > $ 7 = > > $ 7 $ > 7 $ 9 7 > > 7 $ $ > 7 > $ q 7 = > > > > > w qXT D D D K T Z $ Z uXi r 8 0 0 $ $ 9 7 > 7 w $ e 0 $ + > $ 7 > 7 , s $.s r 9 7 > > > 0 0 $ $ 7 $ > 7 7 $ > 7 w 7 7 7 > > $ 0 w $ 7 $ 7 7 0 7 > $ 7 7 7.x.< z 3 > 7 w > 7 w 7 $ h 9 $ + 7 $ > > > 7 = > > + 7 > > > > w ; $ > 7 7 = > > > $ 0 7 > 7 = 7 > X 0 9 7 > > > 7 0 $ 7 $ 0 0 > 7 7 e > $ q 9 7 7 0 X 7 g $ 7 > 7 7 > > > $ 7 + = $ > $ 7 > 7 0 > > 7 $ 0 , , w w w q 0.GXHXc.- w w w 0 $ w u u u u u u u q $ 0 y u u u u u u q % : u u u u u u u q $ 0 - l.GX7 $ $ X IXy.o % a.h.w 9 d.ZXn.n.n.n.n.n.n.n.n.n.n.n.n.n.n.n.ZX5 9 ",
"T.F y q 0 7 > > 7 $ $ > $ 7 = > $ 7 = 0 > > > $ 7 = 7 $ 7 $ 0 9 > > > > > > e 0XT D D I K D D D :.pXi r 9 q 0 = $ w 0 > 7 w . , 0 = 7 $ > = > 7 $ s $.9 s 9 7 > 7 $ 0 9 = 7 > 7 7 + = 7 $ > w > > $ = > $ 7 w $ 7 7 > $ e , > > > 8 7.x.3 z 3 , , w > $ w 7 $ g 7 ; > = 7 $ > = $ > > > = 7 > > 7 $ w 7 > > = + > $ 7 ; $ 0 9 > $ 7 $ 7 7 0 7 $ > 7 7 0 9 $ 7 7 0 7 $ > > q 7 + 0 7 7 7 0 7 0 e $ 7 > $ = > > > 7 $ 7 7 7 = > + > 7 0 7 + 7 $ 0 7 > w w w 7 0.GXHXc.7 w 0 w 0 X ; t u u u u u u q % 0 y u u u u u u q $ 7 y u u u u u u q $ g - c.SXX $ $ $ g $ $ X 7.l.w 0 5 AXAXAXAXAXAXAXAXAXAXAXAXAXAXAXAXAXAXc w ",
"T.F i y 8 7 > > + > = > 7 $ > 7 7 $ $ w 7 > 7 > 7 $ 7 $ 7 $ q 7 > > + 7 7 > 0 0XT D D P ( D D D 4.pXy 8 8 0 0 > > 7 0 7 7 0 p @.w $ $ > > 7 = > $ s $.r s 7 7 7 > > 9 w $ > > > 7 $ 7 > 7 $ w > X 7 > > 7 7 0 $ > 7 > > 0 > $ > 9 7 5 z.< z 3 , 9 0 > $ w 7 = h 7 $ 7 $ > 7 $ > > 7 7 + 7 > > > > $ 0 0 7 7 7 + 7 > > > 7 0 9 ; > 7 > > $ 0 7 $ 7 7 $ 0 7 > 7 X 7 w = > 7 w > X 0 7 $ 0 0 $ 9 g X 7 > > 7 $ > > X 7 7 $ > 7 $ 7 $ 7 q X 7 $ $ 0 > 7 w w g 7 0.FXHXc.7 w w 0 0 X 0 u u u u u u u 0 $ 7 u u u u u u u q $ 7 u u u u u u u q % w = C.SX- % $ X X X $ X 7.v.0 w w 0 w q w w w 0 q w w w w 0 w w w w 0 0 w ",
"T.A.v q 8 7 > > 7 $ > $ > 7 > $ > 7 7 w > 7 $ > = 7 $ > 7 ; g 7 X > > $ = $ e 0XD D S D K D D D 4.pXi r 9 0 q > 7 0 7 $ 7 e qXrXH # 7 ; > > 7 + % s $.e e 9 9 7 7 $ 0 7 = > 7 > 7 + > > > 7 q 7 7 > > > 7 7 0 > > > > > e > = > > 7 8.a.3 z 3 , > q $ > w 9 X g 9 $ > 7 > > 7 > 7 X $ 7 = > > 7 7 $ 0 7 X > $ > 7 = > > $ 0 7 $ > > > > $ 0 0 7 > > $ 0 0 7 7 7 w 7 $ > 7 w > = e 9 $ 7 0 $ 0 q = 7 $ > > 7 > > 7 > > 7 > > 7 7 > 9 w > 7 7 $ w > ; w w q w 0.FXHXc.7 f w w 0 $ w u u u u u u u 0 % 0 u u u u u u u q $ 0 y u u u u u u q $ 7 7 h.HXg o $ $ $ $ = X a.s.; e w w w 0 w w 7 w 0 q 0 w 7 h g f 7 w w w w ",
"T.K.w.y 0 7 $ ; 7 7 = > > > ; 7 7 $ $ e 7 > ; ; + 7 > > 7 $ g ; 7 7 = > 7 $ h 0XS D D D T S D P 4.pXp q 8 0 0 7 > w 0 $ $ l U.( K # 7 > > $ 7 > < d $.s 9 0 7 7 7 > 7 0 $ > > > > > > X $ > 0 + 7 7 > > > 9 w 7 > > > > 0 7 > > > 7 s.z.3 z , , 7 w > > w 7 > g 7 $ 7 $ > > > , 7 > = $ 7 $ $ 7 $ 7 f , 7 7 > $ 7 $ > 7 $ w 0 $ 7 $ > 7 = 0 0 $ > > $ 0 0 + > $ 7 w $ $ > w $ $ 0 7 > 0 0 $ 0 q $ > > > > > $ 7 7 7 $ 7 $ 7 7 $ > 7 0 7 > 7 > w > 7 g w f 7 0.FXHXc.7 f w w 0 $ ; u u u u u u u q $ 7 y u u u u u u ; $ : u u u u u u u q $ ; g h SXmX= X $ $ $ . q.v.z 7 w w w 7 v '.r.j (.F.(.D.$ y./.!./.v 0 w 0 e ",
"T.p.p.y 8 7 & % 7 = 7 = 7 7 ; ; 7 7 7 q 7 7 ; ; = 7 - 7 7 7 q : 7 7 7 = 7 7 e 0XT D D D K D D P :.pXi r 8 9 0 7 $ 9 7 7 , b U.( ( # 7 > > 7 > = $ s $.9 r 9 9 7 > $ 0 0 $ > = > > > > > 7 = e > 7 > 7 7 $ 7 9 $ $ 7 > 7 9 7 7 > 7 q 7.a.3 z 3 , 7 w 7 ; q 7 $ h 7 7 7 7 7 7 7 7 7 7 > 7 = 7 = 7 7 7 f , 7 7 7 = = > = 7 7 q 7 $ 7 > = 7 $ w 0 $ 7 = = 9 q $ 7 = w w 7 $ 7 e 7 7 w 7 = 0 q $ q h = 7 = 7 7 7 , $ 7 7 7 7 7 7 7 $ 7 0 q $ 7 7 $ 0 > , q g g 7 0.FXHXc.- w 0 w 0 X 0 y u u u u u u w % 0 u u u u u u u q $ 7 y u u u u u u q $ 7 g q 0.FXmXX $ $ $ z V.d.0 f w 0 w 7 H.D.D.D.f.NXD.G.e./.^.^.'.e.7 w w 0 ",
"T.l f : % % * * # # # * * * * % . * * < * * * % # # # # * * * * * * # * <   w qXD D D P D D D P 4.pXp r 7 9 0 X $ 0 7 $ $ F I.L 4.* $ $ > > 7 X   s $.s s 9 7 7 7 $ 7 7 $ $ 7 X + > $ + X < w - $ + $ $ = 7 7 7 = + 7 = w $ $ $ $ 7 7.z.3 5 2 < , < # # , $ * 1 > # # $ # * * # # # $ # # # # # # # < $ # # # # # # # # # < < # X < # # # < < # * # # < , # # # < > # # # 3 # # , < # $ 2 * , 1 # X # < # # # # X # # # # # # # # # < # # # # > 7 , f w q 7 0.FXHXc.7 f w 0 0 X 0 u u u u u u u q % 7 y u u u u u u q $ 7 y u u u u u u q $ , w f = d.c.- f w 7 9.0.7 w q w w w 7 y.(.!.D.~././.H.e./.~.(._.y., w 0 w ",
"T.5X.X.X|.|.|..X.X_ _ |..X|.|._ |..X_ |.|.|..X_ |._ .X|.|..X|._ _ _ _ _ I C L 0XJ J S T ( ( K D 4.pXd i i h h w 0 e e @ w I.U.L U.# 0 , 0 , , , I.9X] s s 3 < > < < f 0 < 9 + s s @ s s s s s @ s @ 9 s s @ s < < , , , f , 0 0 0 y d.l.i b p C C P C C P P P D P P P F L G P H L L H L G G G L L H L L H G L L L G G L L L L H L Z H G L L L L L L L L L G H G L G H L L L G L L L L L L H L p.G G F G G H L L G G L G L G L H G L L L L H L H $ 7 w w g 7 0.FXHXc.7 f w w 0 $ w u u u u u u u q $ 0 u u u u u u u q $ 0 y u u u u u u q $ 7 w w g 7 = w w w f w 7 f 0 f w w w 0 w y.x c y.h y.h 0 g.v e.y.w w w w 0 ",
"T.|._ I _ I I I I I I I I I I I I I I I I I I I I I I P I I I _ _ _ _ _ .X.X XgX1X X/ D K T S D :.pXH i e g g , s d d a >XtXE ;.pXU Z a p p C P tXpX>X.X|..X:X XoXoXoX1X1X1X1X1X1XkX1X1X1X1X1X1X1X1X1X1X1X1X1X1X<X1X<X1XXXXX<X<XXXkXkX<X<XkXkXXXXX<X<X<XXXXX1X<X1XXXXXXXXXXXXXXXoX1XXXXXXX1XXXXXXXXXXXXXXXXX1XXX1XXXXXXXXX<XXXXXXXXXXXXXXXXXXXXXoX1XXXXXXXXXXXXXXX<XXXXXXXXX1XXX1XXXXXXXXXXXXXXXXX1XXXXXXXXXXXXXXXXXXXXXXXXXXX1XXXXXXXXXXXXX1X X$ 7 w w f 0 0.FXHXc.7 w w w 0 $ 7 u u u u u u u w $ 7 u u u u u u u q % 0 y u u u u u u q $ 0 w w 0 w w w f f f w w w w w w w 0 w 0 7 0 q 9 w , w w 7 0 9 $ 0 0 w w w ",
"T.F u l y - : - q ; - - ; - - q ; q ; y - - : - ; - - ; q ; h - = $ ; ; ; ; u 0X~ .XoXoX) G D D ;.iXa < 9 t A }.@X@XXXXX3XXXXX<X3X3XkXkXXXkXkX1X<XkX3X.X}..X}.&X:.V ^ R V R V Y Q Q V Q Q V Q A V Q N Q Q N ! Q M Q P N  .o.m u C C ] l.e v 7 3 7.s.7.2 5 3 2 5 4 4 4 2 4 2 2 4 2 2 2 2 2 2 2 2 3 4 5 2 2 4 2 2 2 2 2 2 2 4 4 2 2 2 4 2 2 4 4 4 2 3 2 4 4 2 3 2 4 4 2 3 2 8.2 2 5 2 4 4 5 2 4 5 2 2 2 3 2 2 2 4 2 2 2 4 2 2 3 3 2 4 5 2 2 3 3 5 , $ w w f q 0.FXHXc.- w 0 w 0 X 0 t u u u u u u q % 0 y u u u u u u q % 0 u u u u u u u q $ 7 w w w w w w 7 7 q w w 0 w w w f 7 0 0 w q 0 w 8 r 7 0 q q w q q 0 0 0 w ",
"T.L F u u u u u t t t t u t t y u t t u u t t t t u t t t t p t t t t t u t F tXE D T |.oX XD P :.iXD }.XXkXkXXX.X.X^ N tXR Q ^ Z 8XZ a C m m < 9Xd pXe 6 + @ [ + 7XR.< + + + + < + + + + < s + 9 + + + + + 3 + + < + + s + ' + % 0 8.z.6 c 5 s.7.z 3 3 c 3 3 z 3 3 3 3 3 3 3 3 3 3 3 3 3 k 3 3 3 3 z z 3 3 3 3 3 3 3 3 3 z z 3 3 3 3 3 3 z k 3 3 3 3 3 z 3 3 3 z z < 3 k z 3 3 z k 3 3 z 3 z z 1 g 3 3 3 3 3 3 3 3 3 3 3 3 3 3 4 5 z 3 3 3 3 c 7 7 f w w 7 0.FXHXc.- f w w 0 $ 0 t u u u u u u q % 0 y u u u u u u q $ 7 y u u t u u u q X 7 w 0 f g - 0 x z w 7 w 0 w w 0 z AXAXAXbXAXAXAXAXAXnXAXAXAXAXAXAXAXAXe 0 ",
"T.I u F u u t t t t t t t t t t t t t l t t t t t t t t t t l y t t t t t 8 F 0XT T R A T 1X;XD *X3XkX@XB C r + + 7 9   7XH a / r 7Xa 8 @ @ a m 7X9 yXF ' ' @ + S rX9Xs 9 9 9 9 9 @ + s 9 @ s 9 9 9 9 9 9 s s 9 @ 9 @ 9 s 9 9 ' s ; 7.a.< s.z.4 3 z 3 3 z 3 3 9.k 3 3 3 3 3 3 3 g 3 3 3 3 3 3 3 3 3 z 3 3 3 3 3 3 3 3 3 3 z 3 3 3 3 3 3 3 5 3 3 3 3 3 k 5 3 3 3 3 z 3 3 3 z 3 3 5 3 3 z z 3 5 z 3 3 3 3 3 3 3 3 3 3 3 3 3 3 3 3 3 3 z 1 3 3 3 z $ 7 f w g 7 0.FXHXc.7 g 0 w 0 X 0 u u u u C u u q # 0 a u u u a u u q $ 7 i u u p u u u e > 0 f f 0 q c.SXGXHXGXl.0 w 0 e 7 d.ZXn.B.n.M.n.B.n.B.n.M.M.n.n.n.n.n.ZXz 0 ",
"T.I F u u u t u t t t t t t t y t u t p t u t u t t u u t t p u u t t t t t F rXQ Q D D ! .X3X3XkXgXm Z 8 r a r a a a @ qXH m *.a 7XC - r t - A 7X9 yX} ' s @ + 4.2.U.s 9 @ 9 9 9 9 9 9 < 9 s 9 @ 9 9 9 9 9 s + 9 9 9 @ s 9 9 9 @ d 5 z.8.a.3 3 5 z 3 3 z 5 3 z 3 3 3 3 3 3 3 3 2 3 3 3 3 3 3 3 3 3 z 3 3 3 3 3 3 3 3 3 3 z 3 3 3 3 3 3 3 5 3 3 3 3 3 5 z 3 3 < 5 z 3 3 3 z 3 3 z 3 3 3 5 < z z 3 3 3 3 3 3 3 3 3 3 3 3 3 3 3 3 3 5 z 3 3 3 3 k 7 , w w g 7 0.FXHXc.- w w w 0 $ 8 ] ] d ] d ' d w % 0 d d ' d d d d r $ w d O.d ] Z Z O.r % 7 f 0 g mXHXC.d.q.s.v.v.k 0 0 7 s.AXn.B.B.B.B.B.B.M.B.B.B.B.B.AXB.n.AXz w ",
"~.F u y t ; ; & = = n n 7 - 7 - ; - ; h 8 7 7 ; = - n n = = q q = q ; - 7 > F tX! .X.XXXkXkXXXoX*XpX=.a a a a 8 8 a r - 9XZ Z / q >XZ @ 8 @ @ a 2Xd yX} s 9 9 + 3.,.9Xs + 9 9 9 9 9 9 9 2.a s @ 9 + 9 @ 9 r s d a + 9 9 s 9 9 , @ ' d.V.s.s.5 5 3 z 3 3 z 3 3 z 3 3 3 3 3 3 3 3 3 3 3 3 3 3 3 3 3 3 z 3 3 3 3 3 3 3 3 3 3 3 3 3 3 3 3 3 3 z z 3 3 3 3 z k 3 3 3 z 3 3 3 3 z 3 3 z 5 2 k z 3 z z 3 3 3 3 3 3 3 3 3 3 3 3 3 3 3 3 3 3 z 3 3 3 3 3 $ > w w q 7 0.FXHXc.7 w 0 w 0 X 7 d d d d d d ] q $ 0 d d Z O.d d ] e $ 7 h s r s i s Z e $ 7 g q C.FXz o o v ^.  a.a.w 0 = d.AXn.B.AXB.B.bXbXB.B.AXB.AXB.bXAXn.ZXz 0 ",
"U..X.X.X.X.X.X.X.X.X.X.X.X.X.X.X}..X}..X.X.X.X.X.X.X.X.X.X.X.X.X.X.X.XoXXXXX<X3XkXkXXXoX{.R D R <XpXP a a a r 8 8 a r @ 9XG m W a -XZ - r @ a rX7Xm 2X$.s @ @ + U.+.9Xi 9 9 @ 9 9 9 9 r fX5.< s 7 d s , 9 @ 9 rX,.+ 9 9 s < Z 3.< s $.].8.7.4 4 3 z 3 3 z 3 3 q.3 3 3 3 3 3 3 3 3 3 3 3 3 3 3 3 3 < z z 3 3 3 3 3 3 3 3 3 3 5 3 3 3 3 3 3 3 z 3 3 3 3 z 3 3 3 3 z 3 3 3 3 z 3 3 z z 3 3 z 3 3 z 3 3 3 3 3 3 3 3 3 3 3 3 3 3 3 3 3 3 5 3 3 3 3 z > 7 f w g 7 0.GXHXc.7 w 0 w 0 $ 0 d Z ' d d d Z e X 0 d ' d d d d ] w $ 0 6.$XzX$X6.6.zXZ % 7 q 0.HXh.o 7 o BXBXO < v.0.1 7 s.AXz.n.n.M.n.n.n.M.n.n.n.n.n.n.n.z.AXz 0 ",
"R.XXoX X X.XoX}. X.X}.XXOX.X.X.X.XoX.X X.X.X@X.X.X.XOX.X}..XoX.X.X.X.XB I N _ tX! R D D ( T R D *XgXZ a a a i @ @ t a 8 qX~ A ,.Z qXL + 8 . ( =Xt %.2X+.@ s s + U.Z 9Xs + 9 + 9 9 @ + d iX2.9 @ 9 pXZ + @ , O.iX9XZ + 9 i + #.fXs 9 Y.uX8.s.5 4 3 z 3 3 z 3 3 z 5 3 3 3 3 3 3 3 3 3 3 3 3 3 3 3 3 3 z 3 3 3 3 3 3 3 3 3 3 z z 3 3 3 3 3 3 z 3 3 3 3 3 z 5 3 3 3 z 3 3 3 3 z 3 3 z 3 3 z z 3 z z < 3 3 3 3 3 3 3 3 3 3 3 3 3 3 3 3 3 z 3 3 3 2 k > > f w g 0 0.GXHXc.7 g w w 0 X 0 d d d d ] ] d 0 $ 0 d Z d d ] d d e $ 7 vXcXcXcXcXcXcX} * 0 ; c.SX$ = X $ PXx   $ s.a.w q d.DXB.B.B.B.B.B.B.B.B.B.B.B.B.B.B.B.DXz 9 ",
"T.L y y 8 - n n ; = - - n - - - n - ; h = - - - = ; - - - - h : - = = t C C ( tXA T R R R R T W &XgXU @ @ a a 8 8 a r 8 qX4.Q R Z :XZ a S 3.0XK a 6.yX=.9 s s > 7XZ 9Xd 9 @ 9 9 9 9 + d iX4.w + G fXZ 9 7X9 1.>XuX7X+ r s + ,.iXZ 4 ].iX7.7.8.4 3 z 3 3 z z 3 z 3 3 3 3 3 3 3 3 3 3 3 3 3 3 3 3 3 3 z 3 3 3 3 3 3 3 3 3 3 z 3 3 3 3 3 3 3 3 z < 3 3 < z 3 3 3 3 z z 3 3 3 z 3 3 z 5 3 3 5 < 5 z 3 3 3 3 3 3 3 3 3 3 3 3 3 3 3 3 3 3 z 3 3 3 3 z > 7 w w g ; 0.GXHXc.7 f 0 w 0 $ 0 d ] ] d Z d d 9 $ 0 d d ] d Z ] d e # 9 s l q @ 8 8 a h $ 0 = C.SXX % $ $ X $ % o 0.v.0 q z N.N.N.N.N.N.N.N.N.N.B.N.N.N.N.N.B.N.f 7 ",
"T.I F C F u t u t t t t t u t t u u t u t t u t u t t t t u u y u u 8 0X8X7X9XU.T T T T / T T :.&XpXgXqXZ r a 8 9 a r 8 qX;.A W T >XrX9X7X( Z @ o. .yX,X@ s @ + U.o.qXs @ + 9 9 + @ + Z uX3.9 < ,.rXS 9 iXs U.7XiXqX+ r s + 2.qXo.s.eXiX[ s.5 5 3 z 3 3 z 3 3 z 3 3 3 3 3 3 3 3 3 3 3 3 3 3 3 3 3 3 z z 3 3 3 3 3 3 3 3 3 z 3 3 3 3 3 3 3 z 5 3 3 3 3 z 5 3 3 3 5 z 3 3 3 z 3 3 z 3 3 3 z 3 z z 3 3 3 3 3 3 3 3 3 3 3 3 3 3 3 3 3 z z 3 3 3 2 g > ; w w f 8 0.GXHXc.- f w w 0 X 9 d d d d ] ' d h # , d d d ] ' d d e $ w %XvXvXvXvXvXvX$.# q - c.SX$ = X $ $ X $ X s.l.7 g 0 - 9 - + 8 7 = 9 7 8 8 8 - 7 n - @ - q g ",
"T.P p.p.p.u t t t t t t t t t t t y t u y t t t - t t t t t l t t t t qXt - f P R T T T W T W ^ &X:..XgXJ r a 8 @ a a a rXW A T Y P Z 8 + n n @ } :.2XpX} 9 r 9 0X*.0XG + 9 @ 9 9 9 + G rX3.9 + 2.0X+.s fXd U.4.fXwX+ @ s + 3.qXS.s.R.aX] s.4 4 5 z 3 3 z 3 3 q.3 3 3 3 3 3 3 3 3 3 3 3 3 3 3 3 3 3 z 3 3 3 3 3 3 3 3 3 3 z z 3 3 3 3 3 3 z z 3 3 3 3 z 3 3 3 3 3 z 3 3 3 z 3 3 z 5 3 3 z 3 z z 3 3 3 3 3 3 3 3 3 3 3 3 3 3 3 3 3 k 5 3 3 3 2 z > 7 w w g q 0.GXHXc.7 f w w 0 $ 9 d ] d d d d ] w X 0 d d ] Z d d d e $ 9 vXcXcXcXcXcXcXo.* 0 7 d.HX0.. $ $ $ $ $ # v.d.0 w w w w w w.e 0 e.g v h 0 0 e.x u.w w g w 0 ",
"T.p.p.F p.l - u t t t t t t - t t t t l y - t t y t t t t t u y t t t qXu t l D R T T T / Q &XY &X&Xm dXK + a 8 @ q 4.0XqXE Q E %.P + a 8 a @ ' m :.} 9X>.+ + 2.qXZ -X5.+ 9 9 9 9 @ + ,.0X7Xs 9 7X7X,.a fXd U.*.fXuX+ r U.9 U.>X[.7.yXaXg.[ 8.4 5 5 3 3 z z 3 z 3 3 3 3 3 3 3 3 3 3 3 3 3 3 3 3 3 2 z z 3 3 3 3 3 3 3 3 3 z 3 3 3 3 3 3 < z 3 3 3 3 3 3 z 3 3 3 3 z < 3 3 z 3 3 z 3 3 z z < z z 3 3 3 3 3 3 3 3 3 3 3 3 3 3 3 3 3 5 z 3 3 3 3 k $ 7 w 0 g 7 0.GXHXc.- w 0 0 0 $ w d d Z d ] Z b e $ 0 d d d d ' d O.e $ 7 vXcXcXcXcXcXcXo.* 0 f 8 mXGXw X $ X $ $ s.v.g 0 w w w 3 r._.D.v _.^./.D.0 G._./._.v 0 w w w ",
"T.I F p.p.l t y t y t t t t y y t t y u y t t t t t t t t t u y t - u qXt t l P R T T T T ~ &XQ &X>Xa ;XwX3.K - r 8 qXZ a *.U E E Z 8 r @ @ a m Z :.>.o.pX>X>XwXd m *.U.+ 9 9 9 9 @ + 7X3.7Xs < 7X5.3.i hXH 7Xo.qX0X@ r iXs U.7XuX] aX].g.[ ] 4 3 z 3 3 z 3 3 z z 3 3 3 3 3 3 3 3 3 3 3 3 3 3 3 3 3 z 3 3 3 3 3 3 3 3 3 3 z 3 3 3 3 3 3 3 z z 3 3 3 3 z 5 3 3 3 z z 3 3 3 z 3 3 z 3 3 3 z < z z 3 3 3 3 3 3 3 3 3 3 3 3 3 3 3 3 3 3 z 3 3 3 3 z > > w w f 7 0.FXHXc.7 w w w 0 X 0 e e h r h q y 0 $ , e 7 q q 7 q 7 9 X 0 qXtXrXrXrXrXrXH   7 f w g SXmX; $ % = 7.V.z 0 w 0 0 w > D.D.H.f.g.NXD.F.D.!.!./._.t.7 w w 0 ",
"T.I u u u u ; y - t t t t t t t t t y u y t t t - t t t t t l t t t u qXt - y P R T T T / :.Y R &X&XZ D <X2.0Xa 8 r qXa a W A W Y m 8 @ 8 8 @ } =.=.>.@ d =.G s @ A Z rXZ + 9 q + 9 9 9X=.qXs a 0XJ qX5.pX+.7XA a qX@ s iXd 7XR.iX$.].].g.d.] 4 3 z 3 2 z 3 3 z 3 3 3 3 3 3 3 3 3 3 3 3 3 3 3 3 3 < z 3 3 3 3 3 3 3 3 3 2 z 3 3 3 3 3 3 3 3 z < 3 3 3 3 z < 3 3 3 z 3 3 3 5 3 3 z 3 3 z z 2 z z 3 < 3 3 3 3 3 3 3 3 3 3 3 < 3 3 3 3 3 3 3 3 < z 7 > w w f 0 0.GXHXc.- w 0 w w X w 7X9X7X7X7X7X7Xl # 8 :.OX&X*XOX*X*Xp # ; qXrXrXrXrXrXrXH * 7 f f q x d.7 w w 0 g c 0 w 0 w w w 7 v _.G.D._.W.(.D.c (.~.!._.r.7 w w w ",
"T.p.F F u l u u u l l u y u l u l u l l l u l u l l l u l u u l u y F qXC p F S W / / / ) &X~ W &X>XZ Z  XP 9Xd r i qXd Z *.( *.W S r i a @ ' *.%.=.>.' d } @ @ d *.Z O.wX9 s s s 9 s 0Xo.wXd 5.7XZ U.iX3.5.9Xo.Z qXs Z fXG eXJ.yXY.].].O.s.] 7.z q.z z z z z 0.z z z z 5 z z z z z z z z z z z z z q.z 5 z z z z z z z z q.z z z z z z z z q.z z z z q.z z z 5 q.z z z z q.z z q.z z z q.z z 0.z z z z z z z z z z z z z z z z z z q.z z z 5 c $ 7 w w w 7 0.GXHXc.7 f 0 w 7 % q I.U.U.U.U.U.U.i % 8 Y ^ {.^ :.^ :.p # 7 9XrXrXrXrXrXrXH % 7 q w f w 7 e w w w w 0 w w w w 0 0 e 0 h g w c 0 h 0 9 h g h x 7 w w w 0 ",
"T.p.F F u u y y y y y y y y y y y y t l y y y y t u y t y y F u y y F 0XT T / T T T T T :.:.W R 4.>XA D ! .XeX-XJ p wXa Z W E / Y D a p C o.o.U %.:.>.' d a } + a E Z < 3.qXuXd 9 d 2.qXZ -XuXwXZ A s +.2.9X-Xm Z wXd J fXS eX#.9XR.R.].K.s.7.] 5 z z 3 z z 3 q.z 3 3 3 3 3 z 3 3 3 z 3 3 5 3 3 3 3 z z 3 3 z 3 3 3 3 3 3 z z 3 3 z 3 3 3 z z 3 3 3 3 z z 3 3 3 z z 3 3 5 z k 3 z z 3 z z 3 z z 3 3 3 3 5 3 3 3 z 3 5 3 3 3 3 5 3 3 z z z 3 3 z , 7 w w g 7 0.GXHXc.7 f w 0 w % 7 l l y q l y h q $ 7 q i i e i i i q % w qXrXrXrXrXrXrXL % 0 g w w f f w w 0 w w w w w 0 w w w w w 0 w w 0 w 0 w w 0 0 0 0 w w 0 0 w ",
"T.I u u u u : t t t t t t t y t t t t u y - t t t t t t t t y - - ; u 0XT T / T T T T T &XY Y R &X>X;.~ C oXT 2.7XwX-X8 C *.A E E Q A Q U  .U U A =.>.a d @ { @ r U Z s r 0XiXZ + wXhXJ m #.9Xo.Z A @ + Z gX7XZ Z 0Xi J iX+.qX+.9X9X[.yXS.7.] [ c 5 2 2 z 3 3 z 3 3 3 3 3 3 3 3 3 3 3 3 3 3 3 3 3 3 z 3 3 3 3 3 3 3 3 3 3 z 3 3 3 3 3 3 < z 3 3 3 3 3 z z 3 3 3 3 z 3 3 3 z 3 3 z 3 3 3 z < 5 z 3 3 3 3 3 3 3 3 3 3 3 3 3 3 3 3 3 3 z 3 3 3 3 z $ , f w w q 0.GXHXc.7 e w w q % q 9X0X0X0X0X0X0Xl . q &X@X@X@X@X@X@XC # f qXrXrXrXrXrXrXH # 7 g w w 0 q 7 h h q 7 w w w 0 w w 0 0 0 w w 0 e q q w w w w w w w w w w w ",
"T.I u F u u u u t t t t t y - y t y t l t y t t t t t t t - p.U.( ( 7XtXQ T / R T R T Y :.! W R &X,X;.^ a ! _ o 8 a a a Z T U R T A U A *.=.U %.U =.>.o.a d m m a A S r + + 2.4.+ 0X<.a A Z 9 + A A a 9 a 7X3.A Z pXU.5.0XY.eXO.9XwXJ.].$.7.z [ ] 4 z g z 3 3 z 3 3 3 3 3 3 3 3 3 3 3 3 3 3 3 3 3 3 z 3 3 3 3 3 3 3 3 3 3 z 3 3 3 3 3 3 3 z 5 3 3 3 3 3 z 3 3 3 3 z 3 3 3 5 3 3 z 3 3 z z 3 z z 3 3 3 3 3 3 3 3 3 3 3 3 3 3 3 3 3 3 z 3 3 3 < z 7 7 w w w 7 0.GXHXc.= w w w w $ q qX0X0X0X0X0X0Xb % q OX@X*X@X@XOX@XC * 0 qXrXrXrXrXrXrXH # 7 g 0 w 7 h.SXGXHXSXh.w 7 0 w 0 w w w 0 0 0 0 w 0 7 0 7 w w 0 7 0 w w 0 w ",
"T.L F u u t t t t t t t t - y t t t t u y t y t t t t t t y tXU.U.( ( ( T T / R T T T ^ ^ ~ Y R *X>X;.;.m P oX@ @ r a m U W U E E Q Q T =.=.U U m =.>.%.Z @ @ m A A U r 9 + d qX+.7X+ a Q Z s a A A d @ m s Z A P ;.iX3.2.].eX+.9XpXS.].5.7.] 5 ] 4 U.I.4 z 3 z 5 3 3 3 3 3 3 3 3 3 3 3 3 3 3 3 3 3 z 3 3 3 3 3 3 3 3 3 3 5 3 3 3 3 3 3 < z z 3 3 3 3 z z 3 3 3 z z 3 3 3 z 3 3 z 3 3 z z < z z 3 3 3 3 3 3 3 3 3 3 3 3 3 3 3 3 3 5 z 3 3 3 3 z > > w 0 g 7 0.FXHXc.= f w w 0 % q qX0X0X0X0X0X0Xl # 7 OX@XOXOX@XOX@Xd # 7 9XrXrXrXrXrXrXL % 7 g g q mXHXmXh.0.v.v.v.g f f 0 w w w g !.!.h g x H.x v w w h D.h 0 w 0 0 ",
"T.I F C u y t t y - t t y t t t t t t l y - t t t t t t t C 9X; - - ; C R T / R T T Y :.~ ~ ! R &X>X) ^ Q m oXP 9 i C Y U E E E E A Q U %.U U U %.=.>.=.%.} m } %.A E d 7 @ + 7XiXd + Z A Z s a A A Z d o., Z A =.a rX2.2.eXeXZ 9XiXg.].Y.7.7.c [ 5 U.P.4 3 3 q.3 3 3 3 3 3 3 3 3 3 3 3 3 3 3 3 3 3 z 3 3 3 3 3 3 3 3 3 3 z z 3 3 3 3 3 3 z 3 3 3 3 3 5 3 3 3 3 z 3 3 3 3 z 3 3 z 3 3 3 5 3 z z < 3 3 3 3 3 3 3 3 3 3 3 3 3 3 3 3 3 z 3 3 3 3 3 > ; w w e 0 0.FXHXc.= e w w 0 X q qX0XqX0XqX0X0Xb . 7 &X@XOXOXOXOX@XC # 0 qXrXrXrXrXrXrXH o 7 f - C.FX0.o o j W.# a.a.f 0 f w f 7 H.D.v '.y.G.'.!.^.^.f.G.NXc 0 w w w ",
"T.F u u u y t t y t t t t y t t t t y u y t t y - - - t ; C wX- y u t P T T / T R T B ^ ~ ! Y R &X>X;.) ~ Y .X.X+ r C Q E E Q E E U N %. .U U U U -.>.%.%.%.%.%.-.A E &.a @ 9 r o.@ @ m U Z d a U A Z m A @ Z A A Z a @ Y.yXqXo.U.pXO.[.5.g.] 5 c [ 9XP.4 3 3 z 3 3 3 3 3 3 3 3 3 3 3 3 3 3 3 3 3 3 z 5 3 3 3 3 3 3 3 3 < z 3 3 3 3 3 3 3 5 z 3 3 3 3 k z 3 3 3 5 z 3 3 3 z 3 3 z 3 3 3 z 3 z z 3 3 3 3 3 3 3 3 3 3 3 3 3 3 3 3 3 3 z 3 3 3 3 k 7 > w w f 7 0.FXHXc.7 g 0 w 0 X q qX0X0X0XqX0X0Xp % 9 *X@XOXOXOXOX@XC # 0 9XrXrXrXrXrXuXL * 0 0 9.HXh.o = o BXPXO , v.q.7 w 0 w 9 y.G.H./.~.(.G.!.!._.!./.^.h w w w 0 ",
"T.I F C u y y t t t t t t t t t t y y l y t - C 0X0X9XqX9XtX9X- t t t P R T / T Q R :.W ~ W Y R &X>X;.^ ~ ^ T oXC 8 Z Q E T U W U U A =.*.A U *.=.=.>.%.=.=.%.%. .U S E A a Z 9 + @ Z Z A m Z Z A A A A A Z Z U A Z + @ Y.uX9XZ U.wXK.J.eXyXiX] c O.wXR.4 3 3 z z 3 3 3 3 3 3 3 3 3 3 3 3 3 3 3 3 3 z z 3 3 3 3 3 3 3 3 3 z z 3 3 3 3 3 3 z 3 3 3 3 3 3 3 3 3 3 z 3 3 3 3 z 3 3 z 3 3 z 3 3 z z 3 3 3 3 3 3 3 3 3 3 3 3 3 3 3 3 3 3 z 3 3 3 3 z ; , w w w q 0.FXHXc.= g w w 0 $ q qX0X0X0X0X0X0Xb # 0 OX@XOXOXOX@X@XC . 7 0XrXrXrXrXrXrXH * 0 = v.GX$ X $ % BXv . X s.v.w w w w 0 0 D.D.0 D.y.v _.G.e D.r.y.v , w 0 w ",
"T.I u u u t t t t t t t t t t t t t t u t t ; ( 7Xu F C F C y - - q - P R T / T T ^ :.R ;.~ Y R &X>X;.^ ~ ~ Q }.^ e P E E R U T T U U =.Q %.U U Q =.>.-.%.%.%.%.%.-.A E m m A a , @ m m S A A A A A A A A Z Z A A A @ b S.fX7Xo.#.#.S.J.wXrXhXyXwXuXpXR.6 5 2 9.3 3 3 3 3 3 3 3 3 3 3 3 3 3 3 3 3 3 z 3 3 3 3 3 3 3 3 3 3 z z 3 3 3 3 3 3 z 3 3 3 3 3 z 3 3 3 3 3 z 3 3 3 z 3 3 z 5 3 3 5 3 5 z 3 3 3 3 3 3 3 3 3 3 3 3 3 3 3 3 3 3 z 3 3 3 3 z > 7 w w f 7 0.FXHXc.7 w 0 w 0 . q qX0X0X0X0X0X0Xp # q *X@XOXOX@XOX@XC # q 9XrXrXrXrXwXrXH . 0 = C.SXn X X $ $ $ $ X 7.a.0 w w w w w X 7 q X 7 X x w 7 $ > > 9 w w w w ",
"T.p.F u u t t t t t t t t t - t t ; - y - t ; ( ( ; t t y - F P P P P D R T / R R ^ ^ Y ~ ! W R &X>X) ;.~ ~ Y |.XXA U Q E E A W U Q =.=.%.U U U U =.>.=.=.%.o.m %.-.E &.o.A o.Z @ m Z o.A A E A A S A A A A &.U A A a ] A.eX5.o.O.c S.J.iXeXS.iXhXiXiXeXA.3 3 z 3 3 3 3 3 3 3 3 3 3 3 3 3 3 3 3 3 < z 5 3 3 3 3 3 3 3 3 3 z 3 3 3 3 3 3 3 z 3 3 3 3 3 5 z 3 3 3 3 z 3 3 3 z 3 3 z 3 3 3 z 3 z z 3 3 3 3 3 3 3 3 3 3 3 3 3 3 3 3 3 3 z 3 3 3 3 3 > > w w w q 0.FXHXc.7 f w w 0 $ q 9X0X0X0X0X0X0Xp # 7 *X@X@XOXOXOXOXC # 0 qXrXrXrXrXrXrXH % 0 = c.GX% n $ $ X $ $ % s.l.7 f w w w w H.x 0 F.v D.x 9 f D.f.D.f w 0 0 w ",
"T.I p.u p.u t t y t t t t y y t C L I p.L L F 9X( ; t t y - D / R R R T T T / T R :.W W ~ Y Y W &X>X:.^ ~ ~ ;.R oX~ E Q E &.U E E Q =.=.Q %.U %.%.=.>.%.%.=.%.%.=.%.%.A A A Q m C o.U A A A &.A A A A A A A o.A A A Z K.,.c J o.J b S.J.R.K.6 ] iXhXyXrXiXk 3 z z 2 2 3 3 3 3 3 3 3 3 3 3 3 3 3 3 3 z 3 3 3 3 3 3 3 3 3 3 z 3 3 3 3 3 3 3 z 3 3 3 3 3 z 3 < 3 3 z z 3 3 3 z 3 v v 5 3 x z 2 3 z 3 3 3 3 3 3 3 3 3 3 3 3 3 3 3 3 3 z z < 3 3 3 k > > w w f 7 0.FXHXc.= w w w 0 . q qX0X0X0X0X0X0Xl . q *X@X@XOXOXOX@XC # 0 qXrXrXrXrXrXrXL # 7 0 g.HXz . $ $ $ $ X $ v.s.7 w w w 9 f./.D.g.!.'.!.G.g /._.^.`.w., w w 0 ",
"T.I p.p.p.l - y - - t - t t - y rX7X7X7X7X8X6X7XC - t t y - D T T T T T T T / T ^ -.W W ~ W ! ! &X>X4.^ ~ ~ ^ Y .X*XA Q E W Q E E A  .=.m %.U U U =.>.=.o.%.%.%.Q %.-.o.A A A o.S A A A A A &.A S A A A A A U A A A O.#.,.d J +.O.] S.J.] ] q.z ] rXU.pXhXeX3 9.3 g H 4 3 3 3 3 3 3 3 3 3 3 3 3 3 3 z 3 3 3 3 3 3 3 3 3 < z 5 3 3 3 3 3 3 5 z 3 3 3 3 5 z 3 3 3 5 3 3 3 3 z 2 eXP.6 z wXz c x z < 3 3 3 3 3 3 3 3 3 3 3 3 3 3 3 3 3 z 3 3 3 3 z > > w 0 e 7 0.FXHXc.= w w w 0 # q qX0XqX0X0X0X0Xb . + *X@X*XOXOXOX@XC * 0 qXrXrXrXrXrXrXH # 0 f 7 SXSX> X $ X $ % d.v.f w w w w 7 D.F.G.D.D.NXH.G.f.!.~./._.f.> w w w ",
"~.( p.p.p.p.u F C C F F u F u ( 7X; - y - - - - C C C C C a Q T T T T T T T / T -.^ Y R ~ W W R &X,X^ :.) ;.^ W ^ 1XE T E E A T E =.=.U U U U U U -.>.=.=.%.*.U U U :.*.A A A A A A A A A A &.A A A A A A S E A S A #.#.+.O.S +.J O.S.J.O.g.c 5 c ] v iXR.fXR.rXv H fXx 6 3 3 3 3 3 3 3 3 3 3 3 3 3 z 5 3 3 3 3 3 3 3 3 3 z 3 3 3 3 3 3 3 z 3 3 3 3 3 z 3 3 3 4 v v 3 3 2 9.6 wXiX2 9.rXz U.A.4 3 3 3 3 3 3 3 3 3 3 3 3 3 3 3 3 3 3 z 3 3 3 3 3 , , w w f 7 0.FXHXc.7 g q w w % q qX0X0X0X0X0X0Xy # q *X@XOX@XOXOX@XC # 9 qXrXrXrXrXrXrXH % 0 g 7 x GXmX$ $ $ n 7.V.9.0 w 0 w w 0 h /.D.y.^.f.^.y.w ^.G.G.!.v 0 0 w w ",
"T.I p.F F tXeX8X7XqX8X9X9X8XqX0X( ; t l t t t u P I I D m I R T T T T T T Q ( W &XR W R ~ W W R &X>X;.^ ^ ! ) W Q 1X^ E Q R U E U =.U U U U U U U =.>.=.=.%.*.U U U -.=.A A A A A A A A A A E A A A A A A U E A A S S.+.+.G +.o.o.K S.J.#.O.] c ] c b $.c K.iXhXwXA.wXiXp.k 3 3 3 3 3 3 3 3 3 3 3 3 z 3 3 3 3 3 3 3 3 3 3 z 5 3 3 3 3 3 < z 5 3 3 3 < z z 3 3 6 L.U.6 v p.5 b iXiX2 k uX4 eXA.2 3 3 3 3 3 3 3 3 3 3 3 3 3 3 3 3 3 3 z 3 3 3 3 z 7 > w w e 7 0.GXHXc.7 f w w 0 X f qX0X0X0X0X0X0Xl # 7 *X@XOXOXOXOX@Xp # 0 9XrXrXrXrXtXrXL # 7 f g 7 x h.7 w w 0 z x 7 w w w w 0 0 0 7 0 0 0 > 0 0 0 , 9 0 0 0 w w 0 0 ",
"T.L u : p.9X: u y y y t y y y y y u u u u y y a Q R / T / R / / T / R R R R / :.:.W ^ ! ) ~ ~ Y &X>X^ ^ ^ ) ;.~ R  X*XA *.R E ( %.:.=.*.U *.%.*.*.=.>.=.=.%.=.*.*.%.=.-.A S A A S E S S A E &.E E S S E A E &.A E A.S.S 1.+.+.+.+.,.S.J.#.#.] ] ] v J ] ] ] uXP.uXiXK.iXhXI.2 5 3 z 5 3 3 5 5 z 3 3 z z 3 3 5 z 3 z z z 3 z z 3 z 3 3 z 3 z z 5 3 z z z z 2 x 3 P.9XeXiXR.4 wXhXiX4 R.iXz qXI.8.z z z 3 z 3 v c 3 z 5 z z z 3 5 z z z 5 5 z 3 x $ 7 w w f 0 0.FXHXc.7 f w w 0 X q qX0X0X0X0X0X0Xp   q *X@XOXOXOXOX@XZ # 7 eXrXrXrXrXrXrXH # 0 f w w q 7 w w w w 0 7 w w w 0 w 0 w w w w 0 w w w w w f w w w w w w 0 w ",
"/.8X6XT.8X7Xu u p l l l l l l u l l l l l l l C T / / / / / ) / / / / / / / ( &X^ ) ;.;.4.;.~ ! >X>X4.4.4.;.;.) ~ 4.<X&.*.2.T ;.=.=.=.*.*.*.*.*.&.>.,X=.%.=.=.*.*.%.=.:.*.o.&.*.E &.&.E E &.,.E E &.&.S &.&.,.E &.S.#.+.1.,.,.,.,.<.S.J.S.1.O.#.O.g.+.] ] z p.8.r.fXp.z R.wXA.z z z 9.z z z z z q.z 0.z 9.z z z z z z z z q.9.z 5 z 9.z z 0.9.z z z z z q.9.wX0.R.wXiXjXR.8.wXfXiXwXhXfX9.wXeX0.z z z 5 z z wXe.5 z z z z z z z z z 0.z z z z z ; $ w w f q 0.FXHXc.- g 0 w 0 % g qX0XqX0X0X0X0Xb   7 *X@XOXOXOXOX@XC . 0 qXrXrXrXrXrXuXH # 7 f w w f f 0 w w w w w w w 0 w 0 w 0 w w w 0 w 0 w w 0 w w 0 w 0 w 0 w w ",
"T.6XU.U.U.u t t t t t t - t t t C I P D P P P P T T T E T T R T Q T T T T I ~ :.R W Y R ! ~ R R *X>X;.^ ! ! ;.Y W R 1X.XA Y Q %.=.U U U U U U U m :.>.=.=.Q =.Q U U E -.=.A A A A A A A A A E A A A A A A E U A S S.o.+.+.+.o.+.o.#.S.J.+.S.+.+.H O.+.b ] s 2 v 3 b b < z hXfX3 3 3 3 3 3 3 3 3 3 3 z 3 3 3 < 3 3 3 < 3 < 5 3 3 H z 3 3 < z 3 < 3 3 H z 3 p.jXL.R.rXuXhX9X4 9Xp.fXfXhXfXc wXhXp.6 2 b p.1 3 rXv 2 3 < 3 3 3 3 3 3 3 z < 3 < 2 k 7 > w w w 7 0.FXHXc.7 f w 0 0 X q qX0X0X0X0X0X0Xl # q *X@XOXOX@XOX@XC # 7 eXrXrXrXrXrXrXH . 0 f w w w w w w f f w f w w w w w w f w w w w w w w w w w w w w w w w w w ",
"T.P u u t t t t t t t t t t t 8 D _ T / R R R R T R T T T T / T T R R T R T :.^ W W W W ~ ~ W Y &X>X) ;.;.~ ~ R W Y |.*XD U A =.=.U U %.U U U *.=.:.>.=.%.=.=.U U U U %.-.A A A A A A A S A &.A U A A A A A S A #.#.S +.+.+.K +.o.+.S.J.#.#.#.+.+.,.+.d $.] 3 0.g 2 l 3 g p.qXv 2 3 3 3 4 1 3 g 3 3 z 3 3 3 3 3 c 3 3 3 3 z z 1 wXv 6 3 3 z z 3 3 4 0XK.2 p.hXuXR.rXiXhXwX4 eX1 eXeXiXfXz uXhXA.A.H p.wXp.H rXb 3 3 3 3 3 3 3 3 3 z z 3 3 3 3 z 7 , w w f 7 0.FXHXc.7 w w w 0 $ y 7X0X0XqX0X0X0Xl X 8 }.@XOXOXOXOXOXC # q qXrXrXrXrXwXrXH # $ 7 7 $ $ > > > 7 $ 7 > $ $ > > > > > 7 > > > > > > $ $ > 7 $ > > > $ > > ",
"T.p.C u u F I P P P D P P D P D T T T R E T T T T T T R T T / T T E T T T T :.^ W W Y W ~ W W R &X>X;.^ ~ ~ ~ W W ~ ^ oXQ *.Q =.=.U U U U *.U U m =.>.=.=.%.U U U U %.*.-.m o.A A A A A A A E A A A A A A A &.A S.+.+.+.+.+.+.o.+.+.S.J.#.L.#.+.,.,.+.Z o.$.e b c 3 b g 3 6 R.H 2 3 3 k 1 6 p.P.6 3 z 3 3 3 2 x wXc 2 3 3 z k 2 wXP.U.2 3 z 4 L p.6 rXK.6 p.hXrXwXuXiXU.wXA.9X3 wXH K.hXuXiXiXK.rXR.I.rXU.rXfXr.2 3 3 3 3 3 3 3 3 3 z 3 3 3 3 3 > 7 f w f 7 0.FXHXc.= w 0 w 0 X q qX0X0X0X0XqX0Xb . q &X@XOXOXOXOX@XC # : qXrXrXrXrXrXuXL # $ $ $ = $ $ $ $ $ $ $ $ $ = $ $ $ $ $ $ $ > $ $ > $ $ ; $ $ $ ; > > $ > $ ",
"T.I C C C D _ ( / R R R R R R R T T T ( R T T T T T T T T T / T T T T T T W &XW W W ! Y ~ Y W R &X>X^ ;.~ ! ~ Y W ) E 1X^ E %.=.%.U U U U U U U %.%.>.%.=.%.=.=.U U *.*.-.%.A U A A A A A A &.A A A A A A S E J S.J +.+.#.+.+.+.+.,.#.J.#.#.#.+.+.#.+.+.+.o.Z #.b 3 Z b g 2 U.p.6 3 2 6 p.b I.9X6 3 v z 3 3 2 H fXc v 3 3 z 4 P.iX9XiXc P.e.2 R.R.K fXp.eX9XfXiXwXwXiXk iXhXp.< eXp.6 qXfXwXL 9XrXP.I.iXR.fXhXb x U.2 3 3 3 3 3 3 3 z 3 3 3 3 z > > f w e 7 0.FXHXc.= w w w 0 $ q qX0XqX0X0X0X0Xb X 0 OX@XOXOXOXOX@XC # 7 qXrXrXrXrXrXrXH # 0 f f z c k z g z c k c z z g c z g w e g f e g g w g g g e g g e f w w w ",
"T.( p.I L I T T T T T T T T T T T E T / T T T T T T T T T T W T T T T T T ^ :.W W W W W ~ W W R &X>X;.^ ^ ~ ~ Y R ~ R .X XE %.=.%.U U U U U U %.A =.>.%.%.=.%.%.U U U %.%.-.A U A A A A A A &.A U A A A A S E #.#.o.+.+.+.+.+.S +.,.S.J.#.#.#.+.+.1.+.+.#.&.o.#.K l G Z l 3 A.fXR.1 9XA.A.U.I.eX2 2 9Xp.2 3 2 A.fXp.9X2 3 z 3 iXfXR.wXp.eXw.6 9XR.wXhX9XfXwXrXwXP.uXU.6 uXfXv l A.z 6 R.wX9X3 iX9XwXwXrXqXfXwXwXwXwX4 3 3 3 3 3 3 3 z 3 3 3 < c ; > w w w q 0.GXHXc.7 w 0 w 0 % e qX0XqX0X0X0X0Xp . 9 *XOXOXOXOXOX@Xd # 0 9XrXrXrXrXwXrXL # 0 = N.ZXAXAXAXAXAXAXZXAXZXAXAXAXAXAX' v v c x v x x v x x v x x x x v f w ",
"T.) ( _ T R T T T T T T T R T T T T T / T R T T T T T T T T / R T R Q R T :.;.~ ^ W W R ~ W W R &X>X4.;.W ~ ~ Y W ^ %.~ 1XT =.=.U U U U U %.U U U =.>.=.%.o.%.m %.A *.U =.-.U o.A A A A A S E A A A A A A S E S.+.+.S +.+.+.o.+.+.o.#.J.#.#.#.+.+.,.+.+.#.#.=.#.J b J J G s L I.eX7XhXfXwX9XU.wX6 6 rXp.2 g 6 A.iXI.wX1 3 z 3 iXhXqX7XA.0XrXA.rX9XwXhXrXeXrXwXeXA.iX9Xg uXfXb H b 3 3 @.p.H 5 iXR.iXhXwXuXfXp.hXhXrX3 3 3 3 3 3 3 3 z 3 3 3 3 z > ; w w w 7 0.HXHXc.7 w w w 0 . e qX0XqX0X0X0X0Xl . 7 &XOXOXOXOXOX@XC # 7 qXrXrXrXrXrXrXG # f - B.B.z.n.n.n.n.n.n.z.n.n.n.n.n.AX3 v w w 0 , w 0 0 0 0 0 0 9 0 0 v h 0 ",
"T.|.) _ / R T T T T T T T T T R T T T / R T T T R Q R R T T / T T T T T W :.^ ! R W W Y ~ ~ W Y &X>X^ ^ ~ ~ ~ R Y ~ ~ E 1X&X=.*.*.U %.U A U U U %.=.>.%.%.%.%.Q U U =.%.Q %.=.m S A A A A A E S S A A S A A +.S.+.+.+.+.#.+.+.+.+.+.S.J.#.S.#.+.+.#.o.S 2.o.o.2.J J K J J L l 6 R.fXfXfXhXwXwXeXp.H iXA.* 9XwXR.qXR.wX2 3 eXH rXfXrXP.0XrXhXhXrXiXuXK.iXU.fXI.p.v iX9Xs rXfXb K H v b v 5 c x iXU.rXfXeXuXfXb I.R.wXA.L 2 3 3 3 3 3 5 3 3 3 3 z > > g w f 7 0.FXHXc.- w 0 w w X q qX0X0X0X0X0X0Xb X 7 OX@XOXOXOXOX@XZ # f qXrXrXrXrXrXrXL % 7 - N.bXz.B.n.B.B.B.B.B.n.B.B.n.n.AXg v 0 x F.u.t.w.w.D.y.k.t.E.x 0 v e w ",
"T.|.) ( / T T R T T T R T T T E T T T W T T T R T T T E T T / T T T T T ^ ^ ~ Y Y ^ W Y ;.! W R >X>X^ ;.^ ~ ~ W W ;.! R |.@Xo.*.*.U U U %.U U U U -.>.=.=.%.=.=.U U =.%.Q %.-.m U A A A A A &.A A A A A A U #.#.S +.+.+.,.+.+.+.+.+.S.J.#.#.+.+.+.+.o.+.#.o.o.#.K J J K J K H 3 2 G R.L.fXfXwXiXfXuXeXU.u.0XrXrXP.iXrX6 3 iXfXeXp.fXp.hXhXeXhXeXU.rX6 iXA.iXL 2 k iXU.l rXiXb K G H H b 5 l H iXU.rXiX9XfXuXc 2 2 U.rXp.A.A.2 3 3 3 z 3 3 3 3 z > 7 f q g 7 0.FXHXc.7 f w w 0 $ q qX0X0X0X0X0X0Xb # = OX@XOXOXOXOX@XC # 0 qXuXrXrXrXrXuXH * 0 = N.B.z.AXAXB.z.B.B.AXB.bXAXn.n.AXe x w x F.).W.F.k.E.y.).t.j.w 0 x w 0 ",
"T.-X_ / R R T T T T E R T T T T R T Q / E R T T E T T R T T / E T T T T :.Y ;.! R W W W ) Y W R &X>X^ ^ ^ ) ~ R Y ~ Y W ! @X*.*.*.A U U U %.U %.Q =.>.%.=.%.=.Q U U %.*.U U -.%.A A A A A A &.A A A A A A S S.+.+.+.+.S ,.+.+.+.+.+.S.J.#.#.#.o.+.+.K o.,.+.+.2.K K J K J K G 3 3 3 3 6 9XiXwXiXuXc v hXfXp.c H @.uX9XA.U.fXhXqXw fXH P.hXeXhX9X2 H k uXH uX@.h b wX2.Z 7XuXH J K.J G b z H L aXU.L uXwXfXwXb g 1 p.hXeXiXI.6 1 3 3 z 3 3 3 3 z > > f w w 7 0.GXHXc.7 e w w 0 X q 7XqXqXqXqX0XqXp # 7 *XOXOXOXOXOXOXC # ; 9XrX0X0X0XtXrXH # 9 8 N.B.n.AXAXB.n.B.B.B.bXB.bXn.n.AXg x 0 w.G.j.Q.F.j.H.y.E.e.f.w 0 v f 0 ",
"T.|.U.( <.( T T R T T T T T R T T T T / T T T T R T T T T T / R T T T Y &XR ~ ^ W W W W ;.W W R &X>X4.^ ~ ~ ~ Y R W ~ ! -.>X{.&.%.U U U U U U U %.=.>.%.=.%.%.U U U U *.U U -.%.A U S A A A E A A A A A A J S.+.+.o.+.+.,.+.+.+.+.,.S.J.#.1.#.+.+.,.+.o.,.+.+.=.+.J K K J +.G g g 3 3 2 A.wXqXiX9X6 v A.eXg 2 4 l 2 R.hXiX9XfXA.g iXH p.hXP.wX7X6 2 g rXp.rX<.x H v F K b 9XK J K K D H v H J uXU.3 A.0XwX0Xb 3 3 p.hXrXhXI.2 3 3 3 z 3 3 3 3 3 > 7 w w f q 0.GXHXc.7 g 0 w w X y ) |.4.|.) =X) p # 7 B {.B B B B B p $ 7 |.:X.X;X X;X*XF # , - B.B.z.z.z.n.n.n.n.n.z.z.n.z.n.AXg x w f h 0 w w w c j w h w 0 0 x w w ",
"T.4.4.T.P.( T T T T T T T T T T T T T W T T T T T T T T T T / T T R T B ^ R ~ W W W W B ~ W Y R &X>X) :.~ ~ ~ W ! ~ W R =.,X*XE *.U U U U U U U U =.>.=.%.%.=.U U %.*.*.U U =.-.A A A A A A E S A A A A A #.S.S o.+.+.o.+.+.o.+.+.,.#.J.#.1.#.+.+.#.+.+.,.+.K 2.&.J K J J J L d x w g g 2 I.wXP.H 2 z 2 2 3 2 g b 3 z U.iXI.wX2 b uXL b hXp.P.9X2 c l A.v rXI.p G b H S b p.J J @.K K J #.G G uX7Xs < qXeX0XH g k H hXiXhXI.6 3 3 k z < 3 3 3 k > > w w f 7 0.GXHXc.7 f w w 0 % h |.=X=X-X=X=X=Xi # 0 B {.{.{.{.B {.C # 7 4.:X;X;X;X;X:XF # 3 8 bXZXB.bXAXB.bXbXbXAXbXbXbXbXbXAXw v h h h h h h h g g h e h h h v e 0 ",
"T.-XI.P.P.( R T T T T R R T T T T T T / R T T R T T T T T T / R T T R :.W Y ~ W W R Y R ;.! W R &X>X^ ^ ^ ~ ~ Y Y ~ ~ W :.:.1X*.*.U U U U U %.U U -.>.=.=.%.=.A U A U *.U U U -.U D A A A A &.A A A U A A S.+.+.+.+.J +.,.+.+.+.+.o.S.J.#.#.#.#.+.,.+.K #.+.o.<.&.+.K J J J J J b c b b , I.9X2 2 k b z 3 k 2 c H g 2 w.iXA.R.e b rXK p.iXk I.P.g c G c b wX2.Z @.b H +.H b J J K K J K #.L L uX7Xi h U.A.3.G x b v 9XfXU.P.2 3 3 5 z 3 3 3 3 z > > w w f 0 0.GXHXc.- f 0 w 0 X q 4.=X=X=X=X=X=Xl # , B {.{.{.{.B {.a % 0 |.:X;X;X;X;X:XF # 6 s ] V.a.V.x.V.x.x.x.x.x.x.V.x.V.a.w c x x x x x x x v j x x x x x x f w ",
"T.|.( W / T T T T T T T T T T T T T T / E T T T T T E T T T / T T T R :.! Y ) W W W Y R ~ W W R >X*X;.^ ~ ~ W Y W ~ W Y :.*.:X&XA U U A U A U U U :.>.=.=.%.%.U U A %.%.U U A -.%.m A A A A S A A A A A o.S.,.+.+.+.+.+.,.+.+.+.o.,.S.J.#.#.+.+.+.+.J o.,.+.+.,.=.o.+.J J K J K H H H H p l b x e d H z < c e l G 3 c c iXw.4 b Z #.L G wXc b b b l K b G U.2.L K H H K G H K J K K K K @.G L wXU.Z F b f b S H H c v fXL iXx < 3 3 z 3 3 3 3 3 7 7 f w w 7 0.GXHXc.7 f w w 0 X l ) =X=X=X=X=X=Xl # q B {.{.{.{.B {.a $ 0 -X;X;X;X;X;X;XF # 7 0 = n - n n = n = n = n - = n = - 0 7 0 7 7 7 7 7 7 7 7 0 7 > 0 > 7 7 w ",
"T.=X) ) / / T / R T / / T / R / R / R / / / R R T / / / R R / / R / :.^ ~ ! ;.~ ~ ~ ;.! ;.) ~ W &X>X4.4.;.^ ) ~ ~ ;.~ :.:.:.&X:X=.*.%.*.%.*.*.*.*.=.>.%.=.*.=.*.*.*.*.*.*.*.%.%.:.o.A o.o.U &.E E E S U #.#.,.+.+.+.+.+.,.+.+.+.+.,.S.J.#.S.1.#.,.1.,.+.1.+.+.,.#.2.#.+.K K K K @.K #.L #.b H b b G G z c G O.H K b v z A.p.x H K v J A.eXH v H #.G @.H A.H K K ,.p.L #.H #.@.K <.K K @.@.K #.qXU.G O.H v G K +.@.H K.fXK.fXr.4 z z z z z z 5 c $ 7 f w g 7 0.GXHXc.7 w 0 w 0 $ g 4.=X=X=X=X=X=Xi % 7 B {.{.{.{.{.{.p % 7 |.;X;X;X;X;X;XC < $ % $ $ # $ $ > $ $ $ $ $ > $ $ $ > $ % $ $ $ $ $ $ $ $ $ = $ $ $ $ $ $ $ ",
"T.&X) ) / R R / / T R R / T R R ( R ( / / T R R / T R T T T / / R R &X~ Y ! ;.) ~ W W ~ ;.~ ^ R &X>X;.^ ^ ~ ~ ~ W ) ) =.:.=.~ 1X%.U *.*.%.U %.*.U =.>.=.%.=.=.Y U %.*.*.%.U *.%.:.%.A A S S &.E E S S E S.@.#.+.+.+.,.+.#.,.+.+.+.,.S.J.1.#.#.,.+.1.+.,.,.+.+.1.#.2.K K K #.K K K K K K +.G #.b H G #.r.H J J J #.G H c 3 O.b G +.H K L b @.H G K K +.G +.H K +.@.@.K K K A.J K @.@.K @.@.K @.K +.K K G H H K K K H H iXb iXP.3 z z z 3 5 3 3 z 7 , w w g q 0.GXHXc.- w w w 0 X q ) =X=X=X=X=X=Xl # w B {.{.{.{.{.{.p % 7 -X:X;X;X;X;X:XZ # g w.v v w.e.v w.e.v w.v e.v v v v v v v v w.w.w.v w.v v w.v v w.v v v w.w.",
"T.=X) ! / R T T T T T T E T T Q T T E W T T T T T T T T T T / T Q W -.R W W ;.W R Y W W ~ ! Y R &X>X;.~ ~ ~ ^ W Y ~ ;.-.*.:.U 1X:.A U U U U U A U =.>.%.=.%.U U U A *.*.A U U U -.%.A A A A E A A A A S S.+.,.+.o.+.+.+.+.+.+.+.+.,.S.J.#.S.#.+.+.+.+.+.#.+.+.#.o.o.+.L J K K K J K K K J L G L G L K L J L J J J J H l c L J L J G J G l #.H H J J J H K H L J K K J K K @.J J @.K K K @.J K K.G J K H H H K K J L O.fXh A.hXh 2 3 z 3 3 3 3 c $ > w w w 7 0.GXHXc.7 w 0 w 0 % g |.=X=X=X=X=X=Xi # , B {.B {.{.{.{.a $ 7 |.;X;X;X;X;X:XF * l y.y.y.e.v e.e.v j.e.e.v e.y.w.e.e.e.y.r.r.r.r.r.r.r.r.r.r.y.r.r.r.r.r.r.",
"R.-X~ / / R T T T T T T T T T T T T T / T E T T T T T R T R / R T ~ ^ W W W ~ ~ W W R W ~ W W Y &X>X^ ;.~ ~ ~ W W ~ ;.-.~ :.U &X*XE U U U U U *.U -.>.=.=.%.%.U U U *.*.A U %.A =.-.A A A U &.A A A A #.#.+.+.+.+.K +.+.,.+.+.+.+.,.#.J.#.S.+.+.+.+.+.+.,.+.+.,.+.o.o.+.+.J K J K J +.J J J J L J J K K J K K K L S J H b #.K K K G K J H K G L K K K K #.G J J @.K K K K #.K J @.K K K @.J @.L J K K G G G S J J J H @.c H hXv 2 3 z < 3 3 3 z 7 > f w g 7 0.FXHXc.7 e w w 7 % e |.=X=X=X=X=X=Xl # 7 B {.B {.{.{.{.p $ 7 ) :X;X;X;X X:XZ . h y.v '.D.F.D.f.D._.D.y.F.H.D.F.f.e.e.e.e.e.w.r.e.e.e.e.e.e.e.e.e.e.e.e.e.",
"T.|.) ! W T T T T T R E T T R T T T T / T R R T T T T E T E / T T {.~ Y W W ~ W W W Y ^ ~ W W R &X>X4.^ Y ~ ~ W Y ! :.%.%.;.Y ;.1XY U U %.U U U U =.>.%.=.%.o.U U U U *.U U U U U -.U A A A E A A A A S.+.+.+.+.+.o.+.o.+.+.S +.+.,.S.J.#.#.#.+.+.,.o.+.+.+.+.,.+.o.=.+.K J K K J K K K J K J J K K K K K K J J J J K J b K K K J J J K G +.K J K K K K K L J J K @.K K J ( K J @.K K K K J K @.J K J J J J +.J J K H c G z wXH 2 z z 3 3 3 3 k > > w w q w 0.FXHXc.= f 0 w w % q 4.=X=X=X=X=X=Xi # 8 W {.{.B {.{.{.a # w |.:X;X;X;X;X:XF X h e.D.BX(.`._.G.NX'.`.(.'.(._.`.F.w.r.e.e.e.r.e.e.e.r.e.e.e.e.e.e.e.e.e.e.",
"T.4.W / / R T T T T T T R T R T T T T / R T T T T R T T T T / T Y :.Y ! W W ~ W W W ^ R ~ ! Y R &X>X^ ;.~ ~ ~ Y Y =.=.-.Y ;.Y 2.1X&XU U U U U %.%.=.>.=. .A %.%.U U *.*.U U U U U -.%.A A A o.A A A +.S.+.+.+.+.+.K +.K ,.+.+.+.+.+.S.J.#.1.#.+.+.#.+.+.,.+.+.1.+.+.&.#.J K J J K J K J K J K J K K K K J K K K J J K K H K K K J J K J L K K K K K K K K J J J @.K K K K K K J @.K K K @.K K @.J J K J K J J K J K J b J 3 G eX6 3 z 3 3 3 3 3 7 > f q f 7 0.FXHXc.7 e 0 w w $ y ) =X=X=X=X=X=Xl # q B {.{.{.{.{.{.p # 7 -X:X;X;X;X;X:XF # h e.^.^.NX!.~.NXNX`.~.'.D.NX/./.(.v y.v e.e.e.e.e.e.v r.e.e.e.e.e.e.e.e.w.",
"T.|.) ! R R R T T T R T E T T T Q R T R T T T T T T T T T T / T ^ -.R W W Y ~ ~ W W Y R ~ ~ Y R &X>X4.^ ~ ! ~ W W :.-.%.-.;.Y ;.=X*XA U U U U U U -.>.=.o.%.%.%.U U *.*.U %.U U U %.-.A A A E A A A #.#.+.+.+.+.+.o.+.o.,.+.+.+.+.+.S.J.+.S.+.+.+.+.S +.+.+.+.,.+.+.o.o.J K K K J K J K J K J K K K @.K J J J K J J J K J K K K K J J K L +.+.J K K K +.@.J J J K K J K K @.J J @.K K K K K K @.J K J K J K K J K J J l S b c eX2 z z 3 3 3 3 z ; 7 g g g 7 0.FXHXc.= f w w w % h 4.=X=X=X=X=X=Xp # 7 B {.{.{.{.{.{.p # 7 |.:X;X;X;X;X:XF # h y.f.v y.f.y.D.D.y./.W.f.H.y.D.K.r.r.r.r.r.r.r.r.e.r.r.e.r.r.r.r.e.r.r.r.",
"R.|.) ! R R T T R T T T T Q T T T T E / T T T R T T T T R T W T ^ ^ W R Y R ) Y Y ! ! R ~ W Y R &X>X) ^ ^ ) ^ W R :.-.-.%.;.Y ;.;.1XR U U %.U U U -.>.%.=.%.o.Q U U *.A U U U %.U U -.U A A &.A A A #.#.+.+.+.+.+.S +.+.,.+.o.+.+.o.S.J.#.1.#.#.+.,.+.+.+.+.S #.#.o.o.#.K J J K K J J K J K J K K K K K K K K K K J K J K @.K K K K K J J @.K K K J K K @.K K K @.K K K K K J J @.K K K K K <.K J J K J J K J K J K J F K Z x 9X3 3 z 3 3 3 3 3 > , w w w 7 0.GXHXc.= f w w 0 % q ) |.=X=X=X=X=Xi # 0 B {.{.B {.{.{.p $ 7 -X;X;X;X;X;X:XZ # h e.v w.v v v x v v f.w.x v v x v v w.v w.v w.v w.v v v v e.u.w.w.w.v w.w.",
"T.-XR ) / R T T E T T R T R T T T T R / R T T T T T R E T Q ( W :.Y ^ Y W W ~ Y W W Y Y ~ ~ Y R &X>X:.^ ;.^ ;.W U >.%.%.;.;.Y ;.%.1X:.U U U U U U =.>.=.=.%.%.%.U U *.*.U U U U U A -.U A A &.A A S S.+.+.+.+.+.+.o.+.+.,.+.K +.+.,.S.J.#.#.#.+.+.#.+.o.,.+.+.1.o.#.o.=.+.K K J K J K J K J K J K K K K K K J K J K J K J @.K K J J K K K K K K K K K K K K K K K @.K K K @.K J @.K K K K K K @.J J K J K J K J K K J b J L g eXh 3 z 3 3 3 3 k > > w w w q 0.GXHXc.= w w w 0 X q U.=X=X=X=X=X=Xi # 0 B {.{.{.{.{.{.a # 0 |.;X;X;X;X;X;XF # 7 w w 0 w w w w w 0 , 0 w 0 w w w w 0 0 w q g q w 0 e e q e f : q f q q 0 ",
"T.-XW W R R T T T T T T T T T T T R T R T T T T T T T T T T / ^ ^ R W W W R ^ ! Y W W W ~ W ! R &X>X^ ^ ~ ~ ) W %.:.~ -.-.;.Y :.*.*X*XA U U U *.Q =.>.%.=.=.=.Q U U %.*.U U U U %.U %. .A A E A A #.S.S +.+.+.+.+.+.+.+.,.+.K o.+.,.S.J.#.S.#.o.+.+.S +.,.+.+.,.+.o.+.o.o.K J K J K J K K J K J K K <.K K K K K K J K J J K K K K K K K K K K K K K J K K J K J @.K J K K @.K J K K K K @.K @.@.J K J K S J K K K J J G K J l 9Xx 2 z 3 3 3 3 z > > w w w 7 0.FXHXc.7 g w w 0 $ y 4.=X=X=X=X=X=Xl # 7 B {.{.{.{.{.{.p # 8 ) ;X;X;X;X;X:XF # 7 f w w f f w w 0 w w w w w w w w 0 w w f 1 < $ < & < $ < < & & 1 & < f 0 ",
"T.|./ ) ( / T T T T R T T T R T T T T / T T T R R T T T T T W :.B W W W W ^ ~ Y W W W W ~ ~ Y R &X>X^ 4.Y ~ ~ R -.-.%.%.Y ;.Y ;.%.~ 1XU U U U U =.-.>.=.%.=.Q =.U U %.%.U U U U U U U -.U A &.A A A.#.o.+.o.+.+.+.+.+.+.+.+.+.+.S +.#.J.#.#.+.+.+.+.+.+.#.,.S #.+.+.+.+.o.K J +.K J K J K K K K K K K K K K K J J K K K K @.K K K J K K K K K J J K J K K J K J K K J J K @.K K @.K K K K K K @.J K J K K K J J J K J K K K b R.b 4 z 3 3 3 3 3 > > w w f 0 0.FXHXc.= g 0 w 0 X q =X=X=X=X=X=X=Xp % 0 B {.{.{.B {.{.p $ 0 |.:X;X;X;X;X:XF # 7 f 7 , 0 $ 9 > 0 0 0 f w w 0 0 w w w w l 5X8X8X8X8X8X8X8X8X6X6X6X6X6Xq f ",
"T.|.U.P.T.( T T R T T T T R R T T T T W T T T E T R T T T T W :.W ^ R W W W ;.Y Y Y ! Y ~ Y ! R &X>X^ 4.^ ;.~ Y =.-.-.%.;.;.%.;.;.Y 1X^ U U U %.U -.>.=.%.%.%.%.U U %.*.U U U U =.m Q -.U A &.A S S.+.+.+.+.+.+.S +.+.o.#.o.+.o.o.+.S.J.#.S.#.+.+.,.+.+.+.+.+.1.+.o.+.+.=.#.o.J K J J K J J K K K J K K J J S K K J K K K K K K K K J K K #.K K K J K <.K K K K K @.K K K @.K J @.K K K K K K @.J K K K J K K K K J J K J E Z 9X9X4 z 3 3 3 3 k > 7 w w w 7 0.FXHXc.7 f w w 0 X h ) =X=X=X=X=X=Xi # q B {.{.{.{.{.}.p % 0 -X;X;X;X;X;X:XF # 7 w w.y.v f.g.K.f e.h > 0 w w 0 w w h 0 F dX5X4X4X4X4X4X4X4X4X4X5X5XdXp 1 ",
"T.U.P.T.P.( Q ( T T T T T E T T T T T / R T T T T T T T R T ^ :.W W Y W W W ) ! R ! W W ) W Y R &X>X;.^ ~ ! ~ -.-.;.-.%.%.;.Y ;.;.Y &X*XA *.U U %.=.>.=.=.%.o.U U U %.*.U U %.U %.%.%.U -.A U A +.S.J +.+.+.+.+.o.+.+.J ,.+.+.+.+.+.S.J.+.#.#.+.+.,.+.+.+.+.o.,.+.+.o.K &.#.J J K K K K K K K J K J K K J K J K J K J K K @.K K J K K K K ( K J J K J K @.K K J @.K K K K K J K @.K K K K J @.@.J K J J J K J K K K K K K K J U.uX3 z 3 3 3 3 z > > w w f 7 0.GXHXc.7 w w w 0 $ y ) =X=X=X=X=X=Xl # 0 B {.{.{.{.{.{.a % 7 |.;X;X;X;X X:XF # 0 , (.D./.H.H.'.7 ~.H.W.e.0 w w w 0 : : F sX|. X X X5X5X4X X X X X|.sXp f ",
"T.|./ 2.I./ T T T T T T T T T T T T T / T T T T T Q T T E T &X! Y R W W W Y ~ Y W W Y R ~ Y ! R &X>X^ ;.^ ~ W -.-.;.;.Y ;.;.Y ;.*.Y -.1XU %.U U %.=.>.=.=.=.%.U U U *.o.U U U U U U Q =.-.U S A #.#.+.+.+.+.+.+.+.+.+.o.+.+.+.+.+.,.S.J.#.S.#.+.+.+.+.+.+.+.S #.+.+.+.+.o.&.K K J K K J J K K K K J ( K J K K K J K K K K K K J K K J K K K K K K K K K K J K J K @.J K K @.K J @.K K K @.K K <.K K J K K K J K J K K K K J K b 9Xv z 3 3 3 3 c , > w w e 0 0.GXHXc.- w 0 w 0 X g 4.=X=X=X=X=X=Xi % 7 B {.{.{.{.{.{.a $ 7 4.;X;X;X;X;X:XF # 7 7 _.D./.F.v G.X D.!.!.!.7 w w 0 w k : F sX X X X X4X5XsXsX X X X XdXl f ",
"T.|.! ! R T T T T R Q T T T Q T T T T / R Q T T T R T T T R &XY R ^ W W W R ! Y ^ W W W ~ ~ Y ! &X>X;.^ Y ~ ;.=.Y ;.;.Y %.;.Y ;.;.~ U 1X-.A U U m %.>.%.%.U %.U U U U U U U U U U U =.U -.%.S S S.S +.+.o.+.+.J o.+.S +.+.+.S +.+.+.S.J.+.#.+.+.+.+.+.+.,.+.+.1.+.o.K o.+.&.S J K J J J J J J S J J #.K J J J J K K J J K K K J J J K J K K K J J J K K K J J J K K J K K @.K J @.K K K K K K K S J J J J K J K K J J J K J K l R.v 3 3 3 3 < z ; > w w f 7 0.GXHXc.7 w w w 0 # y ) =X=X=X=X=X=Xi * 9 ^ {.B {.{.{.{.p $ 7 |.:X;X;X;X;X:XF # 9 0 G.w H.e v F.> W.!.y.H.7 w w 0 w : & F sX|. X X X5X5X X5X|. X X XsXl f ",
"T.=X) ) ) / / / / ( ( / / / / / ( / / 4.( / / / *./ / / / :.-X;.) ) ;.) ;.;.4.;.) ;.^ ;.4.) ;.) >X>X-X4.4.^ :.>.*.4.;.;.;.4.;.4.:.;.;.>X*X&.*.*.*.5.>.=.5.=.=.*.*.*.*.*.*.;.*.*.*.*.*.2.=.:.,.#.S.,.1.,.1.,.1.,.,.1.+.1.1.,.1.#.#.2.S.J.1.S.#.#.,.1.,.1.1.,.,.1.,.,.,.1.#.2.,.#.<.<.@.@.<.K @.@.<.@.<.@.K <.<.K I.K @.@.@.I.A.( <.K <.<.K I.I.K @.A.( A.I.K <.@.I.@.@.@.@.I.K A.<.<.( K I.K A.<.K I.K #.@.@.( <.<.@.@.@.@.@.<.b 9Xy.0.z q.z z c > 7 q w g 0 0.GXHXc.7 e w w 0 X q 4.=X=X=X|.=X=Xl # w B {.{.{.{.{.{.C # 0 -X;X;X;X;X;X:XF # 0 w 0 w 0 w 0 0 w w w w 0 0 w w w 0 w , H dX X X X X X X X X X X X XdXl 0 ",
"T.&X) ) / / R T R / R T R R T / R T R / R T T R ( R R / Q &X~ ! Y W Y ~ ! W ) W W ~ W W ) W Y R &X>X! ;.^ ) :.-.%.;.;.=.;.:.%.;.;.Y *.^ 1XU *.U U :.>.=.%.%.*.=.%.U =.&.U *.U *.*.*.U U U  .Y S.@.+.+.+.+.+.#.+.+.+.+.+.+.+.+.+.+.+.S.J.#.1.#.#.#.&.+.+.,.+.+.<.+.+.+.+.+.+.=.J K K K K K K K K K K @.K K K K K K K K K K K K K K K K K K K K K K K K K K K K K K K K K K @.K K A.K K #.K K @.@.K K K K K K K K K K K K K K E b R.p.5 3 3 3 3 z > ; f 0 q 7 0.GXHXc.7 f w w 0 % g |.=X=X=X=X=X=Xl # 0 B {.{.{.B {.{.a # 7 |.;X;X;X;X;X;XF # 7 w 0 w w w w w w 0 0 w w 0 w 0 0 w w , F dXsXsXsXsXsXsXsXsXsXsXsXsXsXq 0 ",
"R.4.~ ! R R T T T T T T R E T T E R T R T T T T T T T T W :.~ ~ W W W W W W ~ W W W W Y ~ ~ W R &X>X^ 4.~ ~ :.-.Y ;.;.Y ;.;.Y ;.;.Y ~ %.1X~ U U U %.>.%.=.%.*.U U U U *.E U U U U U U U Q -.2.S.S +.+.+.+.+.+.S +.+.+.S ,.K o.+.+.+.#.J.#.1.#.+.o.+.+.+.#.+.+.1.+.+.+.S o.+.2.o.J J J J K K K J K K @.K J J J K K K K K L #.K K J K K J K K K K K K J +.K K K J K @.K K J #.J J K K K @.@.K K ( K K J K K K K J K K K J K K K H 9XH 4 3 3 3 3 z > , g w f 7 0.HXHXc.7 f 0 w 0 X q 4.=X=X=X=X=X=Xi # 7 ^ {.{.{.B {.{.p $ q ) ;X;X;X;X;X:XF # 0 w w w w 0 w w w w w w w w w w w w w w w w f f g g g g f g g g w w f f f ",
"T.|.) / / R T T T T T R T T T T T T T / T T T T T T T T ^ -./ W W Y ! W W W ~ ~ W W ! W ~ Y ! R &X>X;.^ ^ ;.-.%.Y ;.%.-.*.;.Y ;.;.Y ;.U &X*XA U U =.>.%.=.*.*.*.U A *.*.U U U U U U U U =.%.5.1.+.+.+.+.+.+.+.+.+.+.+.o.,.+.o.+.+.+.S.J.#.1.#.#.+.+.+.+.+.+.o.,.+.+.+.+.+.o.#.o.K K K J K K K K K K @.K J K K K K K J K J @.K K J K J J K K @.K K K K K K J K J @.K K K K ( K K @.K J K K K K A.J K J K K K K J J K K J K K K Z 9Xp.5 3 3 3 2 k $ 7 q g g 7 0.GXHXc.- w w w 0 $ q =X=X=X=X=X=X=Xl # 7 B {.{.{.{.{.{.a % 7 |.:X;X;X;X;X:XF # $ $ $ $ $ $ $ $ $ $ $ $ $ $ $ $ $ $ $ $ $ $ # % $ $ $ $ $ $ $ $ $ $ $ $ $ ",
"T.|.! / W R R T T T T T T T T T T T Q / R T E T T T E T :.^ ~ W Y R W W W Y ~ W Y Y ! R ~ W Y R &X>X^ ;.%.:.:.Y ;.;.-.Y %.;.Y :.;.Y Y Y :.1XU U Q =.>.%.%.%.%.A %.U %.*.U U U U U %.U U *.U 5.$.+.+.+.+.S +.#.+.+.o.+.o.,.+.+.o.+.+.S.J.#.1.#.+.+.,.+.+.,.+.+.+.+.J +.o.+.o.+.o.K K J K K J J K K J K K K K K J J J K J J K K K K J K K K @.K K K K K K K K K J K K J K K K K K @.K K K K K @.K J K K J K J K K K K K J K J K J qXH 5 3 3 3 3 z 7 $ g w w 7 0.GXHXc.7 f 0 w 0 X q ) =X=X=X=X=X=Xp # 0 B {.B {.{.{.}.p # 0 |.:X;X;X;X;X:XF # 7 7 > > > > > > > > > > > > ; 7 > > $ ; 7 7 ; ; : : : ; 7 > ; ; 7 7 ; 7 7 ",
"T.-X) R R / T T T R E T T R T T T T R / T T R T T T T R &XR ;.! Y ! W W W R ;.Y W ! Y Y ) Y ! R &X>X^ ^ ;.:.;.~ Y ;.;.Y ;.;.%.;.;.-.-.Y E 1X-.*.%.=.>.=.=.%.o.%.U U U *.U U U U U U U U U E Y.2.S +.o.+.+.+.+.o.+.+.J +.#.+.K +.o.+.S.J.#.#.#.+.+.,.o.K +.+.+.,.+.o.+.+.+.+.#.=.J K K J J K K K K J <.K K K K J K K J K J K K K J K J K J @.K K K K K K K K K K K K J K K K K K @.K K K @.K K @.J K K K J K J K K J K K J K K J 9XK.4 3 3 3 3 z , 7 w w e 0 0.GXHXc.7 f w w 0 $ y U.=X=X=X=X=X=Xi # 7 B {.{.{.B {.{.a % 7 =X:X;X;X;X;X:XF # 7 g w w w w f w w w w w w w 0 w w w w w f f g h f : w w w w w f w w f f f ",
"T.4.~ ) / R T T T T T R T T T T T T T / T T T T T R T ^ ^ Y ~ Y ! W W Y W W ~ ! W W W W ~ W Y R &X>X^ ;.;.:.;.Y Y ;.;.Y ;.;.Y ;.;.Y Y ;.U *X.XA Q  .>.%.%.=.U U U U U *.U U U %.U U U U U #.5.=.+.+.o.+.+.+.+.+.+.o.+.+.,.o.o.+.+.+.S.J.#.#.#.+.+.#.+.o.,.+.+.1.+.+.+.+.+.o.o.o.o.K J K J K J K K J K K K K K K J K J K K @.@.K J K J K J K K K K K J K @.K K K @.@.J K K @.K K @.K K @.K K K <.J J J K K J K J K J J K K J J L 7XA.4 3 3 3 3 3 > > w w w 7 0.FXHXc.- w 0 w 0 . y ) =X=X=X=X=X=Xl # q ^ {.{.{.{.{.{.a $ 7 4.:X;X;X;X;X:XF $ 7 f w w w w w f w w f w w w 0 w w w w w f 0 0 0 & & , 0 0 0 0 0 f q , w w ",
"R.|.! / R R T T T R T T T T R T T T T / R T T R T T T -.^ Q ~ ! Y W Y ! W W ~ ^ Y ! W W ~ ~ Y R >X>X;.-.=.:.;.Y %.;.;.Y Y ;.Y ;.;.Y %.Y U :.1X*.*.=.>.=.%.%.%.U U A *.*.U %.U U U U U %.Y #.1.=.o.+.J +.+.+.+.+.+.K +.J ,.+.+.+.o.#.S.J.#.1.#.+.+.,.+.+.,.+.+.+.+.+.o.+.+.+.+.+.&.K K J K J K K K J K K K K J K K J K K K K K K K K K K K @.K K K J J K K K K K K K K K K K K J K K K K K K K @.D K K J J K J K J K J K J J K Z 9XA.4 3 3 3 3 k 7 ; w w f q 0.FXHXc.7 w 0 w 0 $ q 4.=X=X=X=X=X=Xp # 7 B {.{.{.{.{.{.p $ 7 |.;X;X;X;X;X XZ # 7 f 7 0 > 0 7 > w 0 0 0 > 0 w 0 w w f f p sXsXtXsX4XtXsXsXtXsXtXsXsXtXe w ",
"T.) ) / R R T T T T T T T T T R T T T / T T T T T T R &XW W ~ ~ ! W W Y W W ~ ~ W W W W ^ Y Y R &X>X^ ^ :.:.;.%.Y ;.-.Y %.;.Y 4.;.~ Y -.Y %.1X;.A =.>.%.%.%.%.U U U *.*.A U U U U U U U &.S.#.>.&.+.+.o.+.+.+.+.+.o.K o.,.+.+.+.+.,.S.J.#.1.+.+.+.+.+.+.,.+.+.,.+.+.+.o.J +.+.+.=.o.J J K K J J K K K K K K K J K J J K J ( +.J K J K J J K K K K J J @.K J K J @.@.K K K K K K K K K K @.J K @.J K J K K K J K J K K K J K K G 7XI.4 3 3 3 3 k ; > f w w 0 0.FXHXc.7 w 0 w 0 $ 0 ) =X=X) =X=X=Xi # 7 Y {.{.B {.{.{.p # 0 -X;X;X;X;X;X:XZ # 7 0 D.D.D.H.G.!.e r.D.x W.v 0 0 w w w , H dX X X X5X5XoX X5X X X5X XdXp f ",
"T.|.! ) W R T T Q T T T E R T T T T T W R E T T T T B :.W W ~ W Y Y W ! W W ~ Y Y W W W ~ ! W W &X>X;.;.:.;.-.Y Y ;.;.Y ;.;.Y ;.;.%.Y Y -.U ;X*XA :.>.=.=.=.%.%.U U *.*.U U U U U U U U #.1.=.=.=.+.K +.+.+.,.o.+.+.+.+.,.+.+.+.o.+.#.J.#.#.#.+.+.+.+.+.+.+.+.,.+.+.+.S o.+.o.K o.#.K K J K K K K K @.K J J K K K K K K K K K J K J K K K K K K K K J @.K J K J K @.K K K K K K @.K K K K K K <.J K K K J J K J K J J K K K K D 7XP.4 3 3 3 3 3 , 7 w w w 7 0.FXHXc.7 w w 0 0 X q 4.=X=X3.|.=X=Xp # 8 B {.{.{.{.{.{.a . 7 |.;X;X;X;X;X;XF # w , _.D./.H.f.^.> (.D.!.g.h 0 w 0 w w < P sX|. X X X4X4XsX4X X X X XsXl f ",
"T.-X( ) I./ T T R T T T T R T T T T T / T T R T T T ^ ^ W W ~ W W W W W W W ~ W W ! W R ~ ;.W R &X>X:.:.-.:.=.;.%.;.;.Y ;.;.%.;.;.Y ;.Y ~ U ^ 1XA -.>.=.%.=.o.U U U U *.U U U %.U U U U 1.#.2.&.:.#.+.+.+.+.+.+.K +.o.o.+.+.S +.+.+.S.J.#.1.#.o.+.+.+.+.,.+.S #.+.o.+.o.+.+.+.+.&.#.K J J K K K K J #.K K J J J K K J J K K K K K K J K K K K K K J K K @.K J J K K J K K #.K J A.K K K K K K K K K J J J K J K J K J K J J K G =XR.4 3 3 3 3 z $ 7 w w w 7 0.FXHXc.- w w w 0 $ y 4.=X=X|.3.|.=Xl # q B {.{.{.{.{.{.p < 7 -X;X;X;X;X;X:XF # 7 7 (.g./.j.v G.$ x (.'.v 0 0 w w w f f F dX X X X X4X4X4XsX X X X XsXl 0 ",
"T.|.P.P.P.( T T T T R T T T T T T T T / T T T T T Q :.W R Y ~ ~ R Y Y ! R Y ) ~ W Y W Y ~ ! W R &X,X:.:.:.-.;.%.Y ;.;.Y %.;.Y ;.;.%.Y -.Y -.Y 1X%.=.>.=.%.%.%.U U U *.*.U U U U U %.*.=.S.=.2.o.=.=.J o.+.+.+.+.o.+.K +.+.+.+.+.+.+.S.J.#.S.#.#.+.,.+.+.,.+.+.1.+.J +.+.o.+.J o.o.=.J K K K J J K J ( K J K K J J K K K K #.K K J K K K K K @.K K K K K K J K K K K J K K ( K J K K K K K L I.<.J K K K K J K J K J K J K K K D 3.R.4 3 3 3 2 k 7 $ w w w 7 0.FXHXc.7 f 0 w 0 X g =X=X=X=X=X3.=Xi # 7 B {.{.{.{.B {.C X 7 |.:X;X;X;X;X:XF # 7 w f.0 y.9 x f.7 D.F.e.!.v 0 w 0 0 f : F sX|. X X|. X X X X|. X|. XsXl 0 ",
"R.U.P.P.P.( T T R T T T T R T T T T T / T T R T T ^ :.R Y W ~ W ! W W W ~ W ~ W W W W W ~ Y W R &X>X:.:.;.;.;.Y Y ;.%.Y %.:.W ;.;.Y %.Y ;.Y U *X&X=.>.=.=.=.U A U U *.*.U U U U U U U &.S.o.2.&.2.2.o.+.+.+.+.+.+.+.+.+.,.+.o.+.+.,.S.J.#.L.#.+.+.#.+.o.,.+.+.#.+.+.+.J +.o.+.+.+.o.+.+.J J K K K J K K J K J K J K J K K K K K K J K K K K K K J J K K K K K J @.K K K K K J J <.K K K K K <.K J K K K J J K K K K K K J K J J 5.eX4 3 3 3 3 z > , w w g 7 0.FXHXc.7 e w w 0 $ q ) =X=X=X=X|.3.l # 7 ^ {.{.B {.{.{.p % 0 4.:X;X X;X;X:XF # 7 w 7 w 7 w 0 0 0 0 7 0 7 w w w 0 w q , F dX4X4X4X4X5X5X4X4X5X5X4X5XdXF 0 ",
"T.|.4.) / ( T T T T T T T Q T T T T T W T T T T T -.^ W ! W ) Y Y W W W Y W ~ W W W W W W ~ W R &X>X:.:.-.;.;.%.-.;.;.~ ;.;.%.;.;.Y Y -.Y %.%.&X1X=.>.=.%.=.%.U U U *.*.U *.U U U U %.#.1.=.2.o.=.:.o.+.o.+.,.+.+.S +.+.#.+.+.+.o.,.#.J.#.#.#.+.+.,.+.+.+.+.+.,.+.o.+.+.+.+.+.+.o.#.o.+.J +.K K J J <.K K K K J J J K K L K K K K J K J K K K K K K K K K K K K K @.K K K @.K J K K K K K K K K J K K K K K K J K K J J J J K J K uXw.2 3 3 2 k 7 > w w f q 0.FXHXc.= f w w 0 X q =X=X=X=X=X|.7Xp # q B {.&X{.{.{.{.p # 7 |.:X;X;X;X:X:XF . 0 w e w w w w w w w w e w w 0 w w w f f p 8X8X5X8X5XtX5X8X8X6X5X6X5X8Xe 0 ",
"T.=X/ ! W R T T T T T T E T R T R T E / R T T T R &XW W W W ) W W W W W W W ;.! W W Y W ~ ~ ~ R &X>X:.:.;.;.;.Y %.;.%.Y %.;.Y ;.;.%.~ -.%.~ -.;.oX-.>.%.%.%.=.U *.U *.*.U U *.U U U *.S.,.o.=.&.=.=.,.+.+.,.+.+.+.+.+.+.,.K +.o.o.,.S.J.#.#.#.+.+.+.o.K +.+.+.,.+.+.+.+.+.+.+.+.#.o.&.o.J J J K K K K K K K K K K K K K K K @.K K K K K K K K K K K K K K K K K @.K K K K K K L <.K K K @.K K K J K K K K K K K K K K K K K K K F 9Xp.2 3 3 3 z ; 7 w w f 7 0.FXHXc.7 e w w 7 % q ( T ( / ( T / i # 7 M V V V V V V a % ; / ^ ! ! |.! ^ C # 7 w 0 0 w 0 0 0 0 w 0 0 0 w 0 0 0 w 0 0 0 < < * < < * 1 & * & * & 1 < 0 0 ",
"T.=X) ) ) / / / / / / W / / / / / / / / / / / / ;.:.^ ~ ;.) ;.;.;.~ ~ ~ ^ ) ;.;.~ ~ ) ~ ;.) ~ Y >X,X>.;.:.;.:.;.;.4.:.;.-.4.;.:.:.;.;.;.;.;.;.%.*X,X>.=.=.=.=.%.*.*.*.*.*.*.*.*.%.%.2.S.=.2.2.2.2.5.=.#.#.,.1.,.+.+.,.,.1.#.,.,.#.1.S.J.#.L.1.#.,.1.,.,.1.1.+.1.#.+.,.,.+.,.,.+.,.,.2.,.@.#.K @.@.K <.<.@.@.@.K <.K @.@.@.<.@.@.@.@.@.@.K I.I.K K <.K 1.<.@.@.K I.@.K @.@.I.@.#.<.K @.<.A.K <.I.@.K @.@.K K #.( @.@.@.K <.K #.@.H eXK.5 z z 5 c $ 7 w w f q 0.GXHXc.= g w w w % q T T I T T I T y # 0 N M M M M M V a % q R ! _ ! ! ! ! p < $ X $ $ X % % $ X % $ X $ X $ X $ X % $ $ $ = = $ $ $ $ % % % % & & X $ % ",
"T.-X! / R R T T T R T R T T R T T T T R T T T T ^ ^ Y W W ^ ~ W W W W ^ Y W ^ Y W W W W ^ W W R &X,X .:.^ ;.;.Y Y ;.;.Y -.;.%.;.*.~ Y ~ %.Y Y %.:.1X>.=.=.=.%.A U U *.*.A U U U A U #.1.o.&.2.o.o.&.=.o.+.+.+.+.S +.+.+.+.o.+.+.o.+.S.J.+.1.#.#.+.#.+.+.,.+.+.+.+.o.+.o.J o.+.S +.o.#.o.J J J J K J K K J K K K J K S J J ( K K J K J J J K K K K K J K K K K J K K J J K @.J K K K K @.K K @.K K J K J K D K K K J K J K J J T H 9Xp.< 2 3 2 k > > w w w 7 0.GXHXc.7 g w w 0 $ f K T / T I I T i % 7 N M M M M M M a # 7 I ! ! ! ! ! ! p $ , 0 7 0 0 0 7 0 0 0 0 0 0 0 7 0 7 0 0 0 ; : y ; : : 0 w 0 0 & : : : q : ; ",
"T.|.) / W / T T T T T E T T Q T T T T / T T R E :.Y W W R Y ;.! ^ W W R R W ~ ! W W ^ R ~ W R Y &X,X:.:.-.;.;.Y %.;.;.Y %.;.~ ;.;.Y %.Y Y -.~ -.*.1X,X=.=.%.%.U U U U *.U U U U %.%.1.o.&.&.2.&.&.,.>.2.+.+.+.+.+.+.+.+.+.+.S +.+.+.S.J.#.#.#.+.+.,.+.o.+.+.+.1.+.J +.+.+.+.+.+.+.+.o.=.K K +.J K K @.K J K J K J K J K J K K K K K K K J ( K J K K K #.K K K K @.K K K K K K J @.K K K @.K K @.K K J K J K K K J K J K K K K K Z R.K.< 3 3 3 z > > w w w q 0.GXHXc.- f 0 0 0 $ q I T I T L ( T h % 0 N M M M M M M i $ 0 T ! ! ! ! ! ! p # 7 f f w w w w w 0 f 0 w 0 f w w w w w q g : : : : & , 1 , , & & : : g q f ",
"R.|.~ W / R T T T T R T T T R T T T T / R T T Y -.! ! R W ^ ! Y Y W W ^ W Y ~ Y W W Y ^ ~ ! Y R &X,X-.:.-.-.;.-.Y ;.-.Y ;.;.Y ;.;.Y -.;.Y %.Y -.*.*X,X=.%.%.%.U U U %.*.U U %.U =.o.1.&.,.=.1.&.&.&.=.=.+.+.+.+.o.+.o.+.#.+.+.+.+.,.#.J.#.S.+.+.+.+.+.S ,.+.+.,.+.+.J +.+.o.+.+.o.+.+.&.+.J J K K K @.K J K K J K K K K J K K K J K K K J K @.K K K D K K K K K K @.K K K K J K @.K K K K K K <.J K K J J K K K K J K J K K K K L 7Xp.6 3 3 3 k > > w w g 7 0.FXHXc.= w w w 0 X q I T L T T I T i % 0 N M M M M M M u % 0 T ! ! ! ! ! ! p $ 7 f w w 0 0 0 w 0 w 0 w w 0 w w w 0 w w h F F F u.F F F F F I F F u.p h f ",
"T.=XW ) R R T T T T T T T T T T R T T W T T T ^ ^ W Y Y W W ;.W R W W W W W ) W R Y R W ~ Y ~ R >.,X:.-.;.;.;.Y Y ;.;.Y Y ;.%.;.;.%.Y Y -.~ %.Y %.&X1X=.=.%.o.U U U %.*.U U U U =.1.#.&.&.&.2.o.,.&.2.=.+.+.+.+.+.+.S +.+.+.+.+.+.+.S.J.#.#.#.+.+.+.+.+.,.+.+.+.+.o.o.+.+.+.o.+.+.+.o.#.&.J K J K K @.K J K J J K J J K K #.K K K K J J J +.K K K K K K K L K J @.K K K K @.K J @.K K K K K K @.J K J K K K J J J K J K J K K K F qXA.6 k 3 3 5 > > w 0 g 7 0.FXHXc.= w 0 w 0 $ g D I ( T T ( T i X 0 m M M M M M M a # : T ! ! ! ! ! ^ p $ 0 f 0 f w f w w f 9 0 0 0 0 0 7 w 0 w , L dXsXsXsXsXsXsXsXdXsXsXsX4XdXl f ",
"T.-X) ! R R T T T T T T T R T T T T T / T T T :.Y W W W W W ;.! W W ! W ! Y ~ W W W W W ~ W R Y &X,X:.:.-.;.;.Y Y ;.;.%.;.;.%.;.;.Y -.Y Y Y -.Y %.:.1X:.o.%.%.A U U U *.U %.A U =.#.#.#.=.o.2.o.&.&.o.5.&.+.#.+.+.o.J +.,.+.o.+.+.o.S.J.#.1.#.#.+.,.+.+.+.+.+.,.+.J +.+.+.+.+.+.o.+.+.o.#.o.+.J J K @.K K K J K J K K K J K K K K J K K K K K J K K K K K K K J K @.K K K @.K K @.K K K K K K @.J J K J K K K K K K K J K K J K G 7XA.6 3 3 3 3 > > w w w 7 0.FXHXc.7 w w w 7 X q I ( D T T I D e % q N N N M M M M a # 7 T ! ! ! ! ! _ p # 7 0 G.F.W.G.W.'.w y.(.H.w w e.f.0 w w , H sX_  X X X5X X5X X X|. X XsXl , ",
"T.|./ / / R T R R T T T T T T T T T T / R T ^ :.W W Y ! W W ;.W W Y Y W Y W ~ ~ Y ! W W ~ W W Y ,X>X:.-.-.;.;.Y Y ;.;.Y *.;.Y ;.;.Y Y -.Y ;.%.~ %.=.1X>X=.=.%.%.U A *.*.U U U U 2.S.=.=.#.,.=.2.,.&.&.=.=.+.+.+.+.+.+.+.+.+.+.+.+.#.S.J.+.#.#.+.+.+.+.+.,.+.+.,.+.+.+.+.o.S o.J +.+.+.+.=.o.+.J K J @.K K K K J K K J K K K K K J K J K K @.K K K L K K K K K K @.K J K K @.K J @.K K K K J @.@.J K K J K J J K J J K K K J K K G 7XU.6 3 3 3 k 7 , w w f 7 0.FXHXc.7 f 0 w w % q T I T I ( ( T i % 7 m M N M M N N i $ 7 R ! _ ! ! R ! p # 0 7 _.D.(.F.v G.$ (.0 !.!.y.'.!.7 w w , F dX X X X X4X5XdX4X X X X XdXl f ",
"T.|.! ) R / T T T T T R T T T T T R T / R T -.^ W W W Y W W ~ W W W W W W W ~ W Y R W W ~ ~ W %.,X,X:.-.-.;.;.Y %.;.;.Y ;.;.Y ;.;.Y %.Y ;.Y -.Y %.:.,X1Xo.%.%.A %.U U *.U U %.U 1.#.&.&.&.&.=.o.&.&.,.=.:.+.,.+.+.+.+.+.,.+.o.+.o.+.S.J.#.1.#.+.+.,.+.o.,.+.+.#.+.o.+.+.o.+.+.+.o.+.o.J &.o.L J K J K K J K J K K J K J K @.K K K J J K K K K K K K K #.K K K K @.K K K K K J K @.K K K @.K K @.J K K K K J K J K K K J K J J K J 4.U.2 3 3 3 z > 7 f w f 7 0.FXHXc.7 w w w w % q L T ( T D T I i # 7 N M M M M M M a % 7 T ! ! ! ! ! ! p $ 0 7 /.v ^.v r.W.$ !.D.!.!././.H.; f f 0 F dX X X X X4X5X5X4X X X X XsXl 0 ",
"T.&X! / / R T T T T T T T T R T T T T R T Q &XW Y ! W ! R Y ) ~ W W W Y ! W ~ W W Y ! Y ;.! Y =.>.,X;.-.-.;.;.-.Y ;.;.Y ;.;.Y ;.;.%.~ %.Y Y -.Y %.:.,X@X-.%.%.U U U %.%.U U U U #.2.&.o.2.&.2.&.&.&.=.,.=.,.+.+.S +.+.+.,.+.+.+.+.+.#.J.#.#.#.+.+.,.+.+.#.+.+.,.+.+.S o.+.+.+.J +.+.+.+.#.o.J +.K J @.K K K K J K K K K J @.K K J K J K K @.K J K K J K K K K K K K J J K @.K K @.K K K K K @.@.J K J K S J J K K J J K J K J K J <.eX3 3 3 3 3 > > f w e 0 0.GXHXc.- w w w 0 % q I T T ( I T ( i # 0 N M M M M M M y % 0 T ! ! ! ! ! ! p # 7 w v 0 v 0 s v 0 h F.x x H.v y.w f q : F sX|.|. X X6X X|. X X|. X_ sXl 0 ",
"T.&X/ R / T T T T R T T T T T R T T T / T Y ^ Y ! ! Y W R ! ;.W W ! Y Y W Y ~ Y W ! Y W ~ W Y -.&X,X-.-.:.;.;.;.%.;.;.Y Y ;.Y ;.;.Y ;.Y ;.Y Y ;.Y :.>.:X&X*.*.%.U U %.*.U U U =.1.o.,.&.o.&.2.&.,.&.=.#.:.2.#.o.+.o.+.J ,.+.+.+.+.+.S.J.#.#.#.+.+.,.+.+.,.+.+.,.+.+.+.+.+.+.+.+.+.o.o.+.+.o.+.J J J #.K K J J K J K K K J K K K K J K J J K K J K K K K K J K K K @.J K K @.K K K J J J K J @.@.J J J K K J J K K J J K K J J K J +.eX2 g 3 3 k 7 ; w w g 7 0.FXHXc.- w w w 0 $ q T T ( D T D T i % 0 N M M M M M M y $ 7 T ! ! ! ! ! ! u % 7 w 0 w 0 0 w 7 w 0 7 9 0 > 0 0 0 w w < F dXsXsXsXsXsXsXsXsXsXsXsXsXdXF 0 ",
"T.|.I.P.P.( T T T T T T 4.) ( 2.Q R T / Q ^ ^ W Y W Y W Y W ~ ;.4.^ 4.W W W ~ ! W W W W ) W -.=.&X,X:.&X:.4.:.%.Y ;.;.Y ;.;.Y :.;.Y Y -.%.-.4.:.4.:.>.*X*X=.*.U U U U *.A %.U #.1.2.,.5.2.&.2.&.&.&.&.&.,.=.+.o.+.+.o.+.1.1.1.+.+.+.#.J.#.S.#.,.+.,.J +.+.+.+.L.#.1.+.S +.+.+.+.+.+.J +.+.o.o.J K D I.<.I.I.J K J K J K J K K K K K K K J 1.I.I.I.J K @.K J K J K @.J K K K K J I.L.I.I.K J K @.J K K K K K K K K K K K K S K J J K wXv 2 3 3 c , $ w 0 e 0 0.FXHXc.7 f w w 0 X g I T I ( I T ( i % 0 m M M M M M V a # 0 T ! ! ! ! ! ! p $ 0 f w w f f w w w e f w w w w w w w w 0 l ( ) ) ( ( ( ) ( ( _ ) ( ( ( q w ",
"T.=X) U.( ( Q T T T T R U.I ( 4.R T T W Q &XW W Y W W W Y W ~ 3.W ;.4.R W W ~ ~ Y Y W Y ;.W -.%.&X,X>.:.-.4.:.Y %.;.-.Y %.;.Y ;.;.Y Y ;.%.4.;.%.5.>.,X:.1X%.%.A %.U *.*.A U =.S.1.2.&.R.2.o.2.&.&.&.&.&.,.>.,.+.+.+.+.,.Y.+.L.1.o.&.S.J.#.#.#.+.+.,.o.+.,.+.#.Y.+.Y.,.+.+.o.S +.J +.+.+.+.+.&.+.J K P.L K I.J K K K K K K K K K K J K J K P.K I.L.J K K @.K K J K K K K K K J J L.K ,.T.@.J K @.J J K J J K K K J K J J K J J K J L fXeXU.wX3 3 ; > w w w 7 0.FXHXc.7 f w w 0 $ q D I D T ( D I q % 7 N M M M M M M y $ , T ! ! ! ! ! ^ p # > 7 , 7 7 0 7 7 7 0 0 7 0 , 0 > 7 0 7 0 , # & % * $ & * * < * & < # % f : ",
"T.|.I.( P./ T T T T T T 4.) I.4.T E T ( Y &XW W ! W Y ! ! R ~ 4.4.) ^ R W W ~ W R ~ ! R ) *. .%.&X,X4.-X4.3.;.%.Y ;.;.Y ;.;.%.;.;.~ %.Y %.;.3.;.4.:.,X=.*X&Xo.%.U A U *.%.%.&.#.=.5.2.5.2.o.=.&.=.&.o.2.,.=.=.+.+.+.+.+.Y.,.1.#.+.#.S.J.+.S.+.+.+.+.+.+.,.,.K Y.1.Y.1.+.+.+.+.+.+.o.+.+.o.+.=.#.K K P.@.I.K J K K J K J K @.K K K J K K J I.I.I.L.K K K K K J J @.@.K K K @.J J I.I.@.P.@.K K @.J K K J K K K K K K K K K K J K J L iXfXfXhXeXp.7 7 w w w q 0.FXHXc.7 w 0 w 0 . 0 T ( T T I T T i $ 7 N M M M M M M a % 7 T _ ! ! ! ! ) p $ $ $ $ $ $ $ $ $ $ ; $ $ $ X $ $ $ X $ $ $ $ % ; $ $ ; % $ $ $ % $ $ $ $ % ",
"T.|.~ W ( R T T T Q T T T T T T T T T / ^ ^ R Y W Y W W W Y ) Y ~ R W W Y W ~ W R W Y W ) -.-.%.&X,X:.:.:.;.;.%.Y ;.=.;.;.;.Y ;.;.%.=.;.Y Y :.;.Y :.,X=.&X*X=.*.U U *.*.U U #.1.o.2.o.=.,.o.2.&.#.&.o.&.&.2.2.o.o.J +.+.+.+.+.+.+.+.S.J.#.S.#.+.+.+.+.o.+.+.+.,.+.+.+.+.S +.o.+.+.+.+.o.o.+.o.o.L K K @.D L K K K K J J K @.K K J J J J K K K K K K J K K K K J +.K J J K K K K K @.K K #.J ( <.D K J K K K K K K K K K J J J J K J rXiXfX9XrXwX$ 7 f w f 7 0.FXHXc.7 f w w 0 $ q T T ( ( I ( I i $ 0 N M M M M M M i $ 0 I ! ! ! ! ! _ p $ 7 g 0 w w w 7 7 = q 7 w w w 0 0 0 w w w w w w 0 w w f q w 0 w w 0 0 w 0 0 ",
"T.-X) ) ) / / / / W / / R / / T R / T / &X;.) Y ~ ~ W W ;.! Y ) ~ ^ Y W ) ~ ~ ~ ^ ^ Y ! 4.-.-.=.,X,X:.:.:.:.-.5.%.;.;.:.;.;.-.5.;.Y ;.;.Y :.=.:.*.:.,X:.:.1X;.;.%.U ;.*.U *.Y.,.2.o.1.=.=.2.2.&.=.2.2.=.o.2.>.o.,.,.+.+.1.,.+.+.+.,.S.J.#.S.#.+.,.1.+.#.,.+.+.,.#.+.+.+.+.+.+.+.1.+.S +.#.o.,.2.K K @.@.#.D #.K K K K @.K K @.@.J K <.J K @.@.#.J K @.K K K A.( K @.<.J K I.K K <.K @.K K @.K p.@.@.@.J K <.K K K @.K K K <.#.( <.K wXuXeX4 uXeX# , w w w q 0.FXHXc.7 w 0 w 0 . q L T I T T D T q % 7 m M M M M M M i % 7 T ! ! ! ! R ! p % 7 q 0 f 7 0 k.mXmXC.d.7 0 f 0 w w 0 > 0 w w w w w w : g w w w 0 w w w w w ",
"T.-X! ) / R / T R T / T T ( U.I ( U.R R -X4.3.R ) 7XR W 7XW W 4.;.-XW W -X) W 3.3.U.R ;.3.:.-.3.,X,X4.4.-X;.=.-X:.Y 3.4.3.%.;.-X;.Y 3.:.Y 4.:.3.;.:.2X4.=.1X-XY.*.A 5.*.U 5.Y.o.5.2.5.2.o.Y.5.o.5.Y.Y.2.&.Y.5.=.L.Y.+.1.1.Y.1.S Y.2.#.[.P.Y.S.+.Y.Y.D L.Y.S #.1.Y.1.+.1.Y.J 1.L.Y.1.+.1.Y.+.1.Y.J A.I.I.P.L I.P.J @.P.L.I.D I.P.J @.T.K K P.@.P.D <.T.J A.I.L.P.D A.P.J @.P.K K A.<.P.J K R.K K L.I.P.J <.P.I.K K K K K K K K K K K 9XwXU.6 rXeX# 0 w w f 7 0.FXHXc.= w 0 w 0 $ q I ( I T I T T e $ 0 N M M M M M M a % 0 T ! ! ! ! ! ! p $ 7 g w q z SXHXmXmXSXHXmXc w w w 0 h G.v 7 0 0 7 0 e h j 7 0 x h 0 0 0 0 w ",
"T.=X! ) R R T T T T T T T 4.U.T / U.T ^ -X4.3.R ~ 3.Y W 3.) W 4.) U.W ) U.;.W 4.4.3.W ! 3.=.%.3.,X,X:.4.3.;.-.3.;.Y 4.4.3.-.%.3.-.Y 3.4.R 4.;.3.;.-.2X2.-.>X:X5.*.A 5.=.Q Y.S.&.1.2.Y.2.o.Y.5.o.1.5.Y.2.o.5.5.=.L.1.S 1.+.Y.1.S Y.1.S.J.L.Y.S.+.Y.1.S 1.Y.S 1.1.Y.1.S 1.Y.S 1.1.Y.1.S L.1.o.1.5.o.@.@.I.P.D A.P.J @.L.L.A.L I.P.J @.P.L K I.I.L.L <.P.J K I.L.P.D <.P.J @.T.K K I.I.P.L @.P.K K I.I.P.J K P.A.K K K J K K J J K K K x p.p.6 9XR.* 7 w 0 e 7 0.FXHXc.= w w w 0 # f D T T D ( T T i % 7 N M M M M M M a % : T ! ! ! ! ! ! p # 7 g 7 h GXSXz o n n z GXSXg 0 w > y.'.!.G.G.y.G.D.(.(.G.y.D.G.'.G.f.e.7 w ",
"T.) ) / / T T R T T T R T ) U.T / U.R ^ 3.4.-XR ;.=X! R 3.) ~ ) ;.3.W ;.U.~ R 4.4.3.R ) 5.%.Y >.,X,X-X:.3.;.=.3.;.-.4.4.3.%.-.3.-.Y 3.4.%.4.4.5.:.-.2X4.=.-X1XU.*.*.5.2.U Y.1.o.5.2.Y.2.&.5.5.o.5.1.5.2.=.Y.5.=.5.Y.S 1.#.Y.1.S Y.1.K.[.Y.Y.#.+.Y.Y.S 1.Y.S <.1.1.1.S 1.Y.G ,.Y.Y.1.S 1.Y.S 1.Y.&.#.<.I.L.L @.P.J #.L.L.L.L A.P.K p.U.J K I.I.I.D A.P.J p.U.L.L.D A.P.J K P.K K I.@.P.J K T.@.K P.L.P.L @.P.I.K K K J K J K J K J K v 2 3 2 @.A.# 7 f f f 7 0.FXHXc.7 g q w w % q I T T L I I ( q % 0 N M M M M M M i # 7 I ! ! ! ! ! ! p % 7 g 7 mXSX7 . $ $ $ o 0 GXC.- f 7 y.NX!.NX(.^.BX^.e.!.!._./.^.!.H.'.x 0 w ",
"R.-X! ! R R T T T T T T T / U.T / U.~ &X4.4.3.R 4.U.Y ~ 3.~ ! 4.) 3.R ! -X~ ! 3.4.3.W ~ ,X;.Y 3.,X,X4.>.>X;.;.3.;.%.4.>.3.;.%.3.;.-.5.:.%.3.:.-X*.-.2X4.:.5.1X>Xo.U 5.;.o.[.5.&.1.2.5.2.o.Y.2.&.1.5.5.2.=.Y.1.=.5.1.G 1.,.Y.1.S Y.1.#.^.S.Y.1.O.Y.1.J 1.Y.J 1.,.1.Y.+.1.Y.S 1.1.Y.1.J 1.Y.S 1.Y.o.1.@.I.L.L I.P.J @.I.L.L.L <.P.K K R.K K I.<.P.L @.P.K K I.P.L.D <.P.J K R.@.K I.@.P.J @.P.K K L.I.P.L K T.@.K K K K J K J K J J +.b 3 3 3 2 3 , , w w e 7 0.FXHXc.7 f w w w X f D T T T ( T D i % 7 m M M M M M M a # 0 T ! ! ! ! ! ! p $ 7 q j GXl.o $ X $ o . O v.GXh f 7 w.g.D.G.H.^.J.G.H.!.f.D.D.y.F.D._.7 e w ",
"T.|.) / R / T T T T T T T ( U.I / U.^ :.4.4.3.R ) 3./ ~ 7XW / 4.4.3.~ ) U.;.! 4.4.3./ -.>.;.%.3.>X,X4.4.3.=.=.>X:.*.4.4.3.-.~ 3.;.%.5.4.%.:.:.5.;.:.2X:.:.5.>X:X&.U 5.;.+.Y.1.&.5.2.5.2.&.Y.1.o.5.Y.R.2.,.Y.5.o.5.L.S I.1.Y.1.K Y.1.S.[.Y.Y.1.+.1.1.S L.Y.S 1.1.Y.I.S L.Y.+.1.1.Y.2.+.1.L.S 1.L.o.1.I.I.L.J @.P.J K P.L.I.D I.P.K @.P.D @.I.A.L.J @.P.K K P.L.L.J A.P.L @.P.K @.I.@.P.D @.P.K K I.I.L.K K P.<.K K J K K J K J K J ( v 2 3 3 3 k $ > w w f 0 0.FXHXc.8 f w w 0 % w T D ( T ( T ( i % q N M M M M M M a $ 0 T ! ! ! ! ! ! p # 7 0 0.HXz % $ $ X y.F.l q.HXq.7 f w 0 7 0 0 ; 0 7 0 7 0 9 0 f , H.e.7 w w ",
"T.=X) ! R R T T T R T T T ) U.( ) U.-X=XU.4.3.) 3.3.4.4.3.4.4.4.) 3.) 4.3.3.U.4.4.3.) >.3.3.3.4.,X>X3.:.>X4.3.3.4.3.>X4.5.4.>.3.4.3.>X4.4.3.:.3.4.5.2X4.>.3.>X<X2.;.5.2.Y.R.5.1.5.1.Y.5.5.Y.Y.5.Y.1.Y.1.5.5.1.5.,X1.1.Y.,.Y.1.1.Y.1.J.[.S.Y.L.L.Y.Y.1.Y.Y.1.Y.1.5.L.1.Y.Y.1.Y.1.Y.Y.1.Y.Y.1.Y.Y.1.5.<.A.L.I.P.P.I.L.I.L.P.A.P.I.A.L.P.I.P.A.<.P.I.P.L.I.P.I.L.L.I.P.L.I.P.P.A.P.I.A.P.I.L.P.I.L.I.I.P.A.I.P.I.K J K K J K J K J J K b 2 3 3 3 z 7 > w w f q 0.FXHXc.= f 0 w 0 X f I T T I T T I i $ 7 m M M M M M M y % ; T ! ! ! ! ! ! p $ 0 7 0.FXz n $ $ . '.IXBX3 SX9.0 f w 0 v 0 w v 0 x 0 j f w > 7 7 9 > w w w ",
"T.|.) W / R T T T T T R T ) U.4.U.U.>X4.4.4.7X4.3.7X4.3.=X3.3.4.) 7X4.3.=X3.3.4.4.7X4.>.3.4.>.3.>X2X-X4.-X3.5.-X4.3.3.:.3.4.5.3.4.3.-X4.3.3.-.3.4.>X2X3.3.3.4.1X>X5.5.5.[.5.Y.5.Y.2.5.5.5.Y.5.5.Y.5.Y.5.5.Y.5.1.R.5.1.Y.,.Y.P.Y.R.Y.S.[.Y.Y.Y.Y.Y.Y.1.Y.Y.1.Y.,.L.Y.L.Y.Y.1.Y.1.Y.Y.L.Y.Y.L.Y.Y.1.5.1.1.P.I.Y.P.I.P.I.L.P.I.P.P.I.P.P.I.P.I.I.P.I.P.P.A.P.L.I.P.I.P.P.I.P.P.A.P.I.@.P.I.L.P.I.P.L.I.P.I.P.P.1.J J K K K J K J K J #.v 2 3 3 < z , 7 w w w 7 0.FXHXc.7 f w w 0 X q I T I T T T T y # q N N N M M N M a % 0 T ! ! ! R ! ! p $ 0 w k FXh.o ; $ $   # $ 7.a.w q w 0 v '.D.e !.^./.!.(.D.w D.D.r.v f.0 w w ",
"R.=X) W R / R T T T T T T / 4.( ( =X) 4.4.4.4.) 4.) 4.) 4.) 4.4.~ 4.) 4.4.) 4.4.) 4.4.:.4.4.4.4.>X>X>X:.-X;.>.4.:.5.4.4.4.4.4.,X:.5.3.:.:.4.;.4.:.>.,X5.>.4.=.>X:X*.;.L.Y.5.2.2.5.,.5.1.2.5.1.1.5.2.5.2.1.5.5.1.5.5.1.Y.,.1.1.1.1.2.J.[.S.Y.S.I.1.Y.1.1.1.1.Y.,.1.1.1.1.1.<.Y.2.1.1.1.1.1.1.1.1.1.Y.1.#.I.@.I.I.@.I.A.I.A.<.I.I.@.I.I.A.I.<.<.I.@.I.I.I.I.I.A.I.@.I.I.<.I.I.@.I.I.<.L.A.L.I.A.L.I.A.I.<.A.I.<.J K K J J K J J K K ( b 3 3 3 3 z ; , w w f 7 0.FXHXc.7 f w w 0 $ f S ( T I ( I D l # 7 m M M M M M M i $ 7 T ! ! ! ! ! ! p # 7 g = mXGX= o $ $ $ X # v.h.0 0 w > D.D.G.$ e.'.e.NXD.G.e.'.(.!.!.!.0 w 0 ",
"R.=X/ ~ R R T T E T T T T T T T R :.^ ^ Y W R Y W Y R ! W Y ~ Y Y W Y R W Y ~ Y Y R =.-.;.-.Y Y &X,X-.-.Y ;.;.Y Y ;.-.%.~ ;.Y ;.-.Y %.%.Y Y %.Y =.:.,X=.:.-.^ -.1XQ *.S.o.o.&.,.o.&.#.o.&.&.2.&.&.&.o.&.&.&.,.&.+.>.o.o.#.+.+.+.+.K S.J.#.#.+.+.+.,.+.o.,.+.K ,.+.+.+.o.+.+.+.S o.J S o.+.+.o.J o.o.#.+.L J J J J J J J J @.J J J J J J D K K J J J J K J J K J K #.J J J @.J J K K K K K J K @.J J J J J J J K K J K K K J K K J K b 2 3 3 3 z > 7 w w w 7 0.FXHXc.- w w w 0 X 0 I T T ( D I ( q % 0 N M M M M M M a % 0 T ! ! ! ! ! ! p $ 7 f 7 h GXSX0 $ $ $ , a.a.f 0 w w 9 e._.G.D.'.D./.~./.D.v G.D.F.f.'.g 0 w ",
"T.) ) ! R R T T R T R E R T T T W :.W ) W Y ! W W ! W Y Y W ) ~ W Y ! W W W ~ ! Y Y -.-.;.Y ;.W ,X,X:.;.-.:.;.Y %.;.-.%.*.;.Y :.;.~ -.=.;.%.~ %.*.:.,X-.;.-.-.%.1X:.o.Y.2.&.,.=.,.&.&.&.&.o.2.,.&.,.&.,.&.&.2.&.,.=.&.+.,.+.+.@.+.+.S.J.#.#.#.+.+.,.+.+.,.+.+.#.+.+.o.S +.+.+.+.o.+.+.+.+.+.+.+.o.#.=.#.K J J J K J K K K K K J K K J J J #.K K J J J K K K K J K K J K J @.J J @.K K K K J K ( J J K J J J K K K K K J K K K J J +.b 3 3 z 3 3 > > f w w 7 0.FXHXc.7 w 0 0 0 $ q K I ( I T T T l # 7 N M M M M M M y % 0 I ! ! ! ! ! ! p # 7 w g q z mXz 7 7 7 z h.k w w w 0 f w v h v v x v w v w e h h e x c 0 w 0 ",
"T.7XI.) ( ( R R T T T T T T E T ^ ^ Y ~ *.P.P.( R W W W ^ Y ~ / P.I.U.W Y W ~ W W -.-.%.-.;.P.2.R.,X:.^ -.-.;.Y Y ;.;.Y ;.;.Y ;.;.Y.4.P.P.P.Y ^ U :.,X:.:.=.;.U &X.X$.5.S.S.P.T.Y.#.&.&.&.,.=.S.Y.J.S.P.+.,.2.&.&.=.=.+.+.S.I.A.S.P.S.J.+.S.#.+.+.,.+.+.+.+.+.,.#.S.A.#.+.+.+.+.J +.+.+.+.+.+.+.o.+.=.1.A.A.K J J K J K S K A.P.A.A.J K J K K K K K K K A.A.A.A.K @.K K K @.J J @.K K K @.K K A.A.A.A.I.K J K K S J K S J K J K J K b 0.f.g.g.z > 7 w w f 7 0.FXHXc.7 e w w 0 $ 0 D T T ( T D T i % 0 m M M M M M M y $ 0 T ! ! ! ! ! ! p $ 7 w w w w 7 w g q g 0 0 0 0 0 w w w 0 7 0 0 9 0 7 w 7 0 w 0 w w 7 7 w w 0 ",
"R.U.T.I.P./ T T T T T R T T R Q :.^ ! ~ ) P.4.I.Y W W W W R ~ W I.P.I.W R R ~ ^ U -.-.%.*.;.Y.P.Y.,X:.:.-.-.;.Y Y ;.;.Y -.;.Y ;.~ 2.2.Y.Y.2.%.-.=.:.,X=.-.-.-.%.:.1X1.1.1.Y.L.J.L.,.&.&.&.&.2.1.T.Y.T.S.1.&.=.&.&.,.5.&.#.I.J.I.J.L.J.J.#.#.#.+.+.,.+.+.,.+.+.,.#.L.T.<.S +.+.o.+.+.S o.+.+.o.S +.+.#.#.A.T.A.S K J K K J K K A.T.A.J J K K K J K K K K A.A.T.A.K K K K K @.J J +.K K K K K K <.A.P.A./.A.J K K K J K K K J J J J ( v q.y.0.E.u.$ ; w w f w 0.FXHXc.= w 0 w 0 X 0 T I T I T I ( i % 0 N M N M M M M a # 7 T ! ! ! ! ! ! p # 0 w 0 w w w w f f g w w 0 w w w 0 w w w 0 w w w f f w w w w w f f w 0 w w ",
"T.=X) P.I.R T T T T T R T T T R &XR W Y P.2.I.( Y W W W W W ^ W I.2.I.! W Y ~ Y Y -.%.Y ;.;.I.2.U.,X:.:.^ ~ ;.Y Y ;.%.-.Y ;.Y ;.-.;.2.I.U.2.Y %.%.:.,X:.;.-.=.^ U :XY.&.P.L.L.S.Y.+.&.+.&.&.2.1.1.Y.S.Y.,.&.1.o.,.o.5.&.+.A.L.S.I.L.S.J.+.S.+.+.+.+.+.+.#.+.+.,.+.A.S.A.+.+.+.+.o.o.+.+.S +.+.+.+.+.+.Y.G.L.A.J K J K K J @.A.A.A.A.J K K K K J K J K K K A.A.A.K K J K K @.J K #.K K K K K K A.A.A.A.A.A.J K K J K J K K K K K J K r.g.0.t.u.g.$ 7 g w w 7 0.FXHXc.= f w w 0 X g I T T ( T ( I y # 7 N M M M M M V a # 0 T ! ! ! ! ! ! p # 0 w w w w f 0 7 7 7 w g w w w w w 0 w w w w 0 w w 0 w w w w w w 0 w w w w ",
"T.|.) ! _ R R R R R R R R R T ^ B Y ^ ~ ! ~ ! ^ ! ^ Y ! ^ W ~ ^ ! ^ ! ^ ! ! ^ ~ -.:.Y ;.:.;.;.Y ,X,X:.:.:.:.:.-.Y :.;.Y ;.:.Y :.;.Y ^ -.Y -.^ ;.%.:.,X;.:.:.-.;.Y -X9X=.,.=.&.&.=.&.&.,.=.,.2.&.o.&.&.=.=.2.&.=.=.&.=.=.,.+.+.o.K ,.S.J.#.1.#.+.+.,.o.o.,.,.o.,.,.S o.+.E o.,.K +.+.+.+.o.+.+.+.+.o.,.=.+.K J K K K K K K ( K K S K J J K @.<.J K K K @.( K S K <.K J K J @.K +.K ( K K K K K K K L K D S K K K K K K K K K K K K ,.b 2 3 3 2 3 > 7 g q g 7 0.FXHXc.7 f w w 0 $ q L T T I D T T l # 7 N M M M M M M y $ 0 I ! ! ! ! ! _ p $ 7 w 7 w e = g 0.d.0.7 = f 0 w 7 w w 0 0 w 0 0 0 0 w w 0 7 w w 0 w w w 0 0 ",
"A.( K K K L L S J D L L L D L E T J T K S K T K K K T K T K K T S J T K K S T K o.&.K E E +.E K *.,.E ,.E K &.S K ,.E K E K E ,.,.K E K S K &.S K ,.2.E &.K ,.S E A.U.+.+.+.#.G #.J #.+.J #.#.+.J #.J #.+.#.J +.#.L +.#.#.L O.L J O.#.K.#.#.H #.G #.G G G #.G #.#.G #.G G #.J O.G J G #.G G #.G O.J #.G #.H G G L H G G H L G G H L G G G G L H H L G G G G G H L L G G G L H L L G H L #.H L #.L H L G G G G G G H L G L L G G G J v 3 g z 3 x > , w w 0 7 0.GXHXc.7 w w w 0 X q D T ( I L D T e # 0 m M M M M M M i $ ; T ! ! ! R ! ! p $ 0 f w g 7 v.GXFXGXFXSXl.0 f w 0 0 w w w w w 0 j v 0 f g e.0 0 w w w w 0 0 ",
"% % $ > $ $ % $ $ > $ $ $ , $ % , & $ $ $ $ $ $ $ $ $ $ $ , $ $ $ & $ $ > $ $ $ $ $ $ $ $ $ $ $ & $ $ $ $ $ $ $ > $ $ $ $ $ $ $ $ $ > $ $ $ $ $ $ $ % $ $ $ $ $ $ $ % $ < $ $ $ $ $ # $ $ $ # $ $ $ $ $ < $ # # $ $ $ $ $ $ $ $ $ $ $ % % $ $ % , $ $ , $ $ $ $ $ $ $ > $ # , $ > $ $ $ $ > $ $ $ $ $ $ $ $ > $ , $ , $ $ , $ < $ $ , , > , , $ , $ $ , , $ $ , > > , > > > $ $ $ , $ $ $ $ $ $ $ & > > $ > , $ > > > $ $ $ $ , $ , > > > > > > $ 7 w w 0 > e c z g > 0 w w 0 $ f T T T I T ( I y $ 7 N M M M M M N i % 7 T ! R ! ! ! ! p # 7 f w 7 C.HXC.q.f q.mXHXc.$ f f w w w 0 f , !.F.!.G.h H.'.^.h w w w w w w ",
"0 ; 7 7 7 7 0 : 7 7 7 ; 7 0 9 , > , , 7 7 7 0 7 , 7 0 7 , 7 7 7 7 0 7 7 7 , 0 , 0 , 7 7 , 0 7 7 , , 7 7 7 7 0 , 7 7 7 , 7 0 7 7 7 7 7 7 7 , 7 0 7 7 7 7 7 7 > , 7 0 7 , 9 0 , > 7 7 0 7 < ; 7 7 < 0 7 7 7 , 0 , $ 7 0 7 , , 7 7 0 , 7 0 7 7 , , 7 , > 7 , > > > , 7 7 7 , , 7 7 > , > 9 , > > > 7 7 , , > > 7 > , 0 0 > 7 7 $ ; 0 7 > > , > > > > , , 7 > 7 > > > , 7 > > 7 7 , , , $ > , , > $ > 0 , > > > > 7 , , > > > > , > > > > > , > 0 > $ 7 w 0 w D.e 0 p.g j.h 0 w 0 % q K T T ( I T T i % 7 N M M M M M M a % 0 T ! ! ! ! ! ! p $ 7 f 8 b.HXd.o o X o n h.C.9.0 w 0 0 0 w w 7 D.G.!.^.^./.!._.g w w 0 0 w w ",
"f f f q g w w w g f w w w w 0 0 0 0 0 0 0 0 0 f 0 0 0 0 0 0 0 0 0 0 0 0 0 0 0 f 0 0 0 f f f e g f w e f f w f f f f 0 0 0 0 0 0 0 f 0 0 0 0 0 0 0 0 0 0 w w 0 0 0 0 w f w f f f w w w f f f w w 0 0 0 0 0 0 0 0 0 0 0 0 0 f 0 0 0 0 0 f 0 w f f w h h h j h x h h h j h j h h h k x f w j j h x x h h j x h w w w w f f f w $ 0 w h v x v v x v v v x v x v v v 9.x v x z v v v w.v v v w.x v v x x x x v x v x v x v x v v x v v x v v x v f f $ 7 f > D./.D.y.^._.^.F.9 f 0 % q I I T T T ( T y # w N M M M M M M a % ; R ! _ ! ! ! ! p # 9 w 0 SXC.n $ $ X e.IXl 7.v.w w w w f w w 0 v /.(.r./.G.D.!.x 7 w w w 0 w ",
"w w 7 w 9 w w f w 7 0 0 0 $ X X % X $ $ $ X % X $ $ X $ $ X $ $ % X $ X % > X $ . $ % 0 w w w 9 > 0 0 f w w w w w 0 $ X $ X X % % % X X $ X $ $ X $ $ X $ $ % X $ X 0 w 0 w > > 0 0 w w f g e 0 % X X $ X $ $ $ X $ $ X $ $ . X $ $ X . % $ w 0 0 h v x j x h x h h j j v h j j h v x w v h x h h x x h x v w 0 w 0 w 0 w 0 > 9 0 v h f h h h e g g h e h e h g h f h f h g f g w w h f g g q g g h g g h h e g h e h g h e f h g h h e f v g 0 $ 7 f 7 H.H.F.D.D.NXf.W., e 0 X g I T T ( I T T h % 0 N V M M M M M y # 0 T ! R ! ! ! ! p # 7 q q.FX0.. $ X 0 IX(.. 5 v.f 0 w w w w w 0 v w.f h h h e x x w w w w 0 w ",
"w g w.w y.7 7 7 h y.> 0 e > X 0 g 7 . X . . X 0 . X $ X X $ X $ $ % $ $ $ > X 7 h . $ w w 0 0 w.f.f.9 , 7 7 0 0 0 0 > X $ $ 7 $ . > 0 0 % % X . $     X 7 $ X x $ X 0 0 w 0 y.H.h 9 7 , w 9 0 w % w 7 X . . X . X . . X X . g = > . 0 h X > w w 0 g x 7 h 0 f w g w w 0 0 w g 0 w w x e v 0 0 0 w f 0 0 0 x w 0 w w 0 w w 0 % , 0 v e 0 0 0 0 0 w 0 w w 0 0 0 0 w 0 w 0 0 h h g w.x f j g j h w w 0 0 0 0 0 0 w 0 0 0 0 w w 0 0 0 0 0 0 0 x h 0 $ , f 0 v /.F.j./.H./.r.0 w 0 $ f T T R T T T / i # 7 N V V V V V V a # 7 R .X_ ! ! ! |.p # 0 7 d.FXk X $ X $ h o X 3 x.c 0 w 0 w f 9 0 0 > 7 9 7 0 0 7 9 , 7 w w w 0 ",
"7 v BXv NXD.W.v _.!.H.D.0 . f.G.G.e.h g v l w.f x h X $ $ $ X $ $ $ X $ $ >   F.BX0 % w w f w '.f.W.D.G.y.^.v G.y.9 X 0 ^.H./.$ > !.G.^.K.w.e.v $ v G.v $ X x BXu.  0 w w 0 y.'.f.e.G.!.v G.f.> h /.w.7 e.F.q h h h w.h g h G.7 $ . ).NXX $ w w e h x w E.k.E.j.W.j u.H.f.F.F.k.x w x w v 0 E.u.E.H.H.f.0 v w 0 w 0 w w w w $ 7 0 x h 0 0 w w w 0 w w 0 w 0 w 0 w w 0 f 0 u.f.x F.).k.y.W.G.g w 0 w w 0 0 w w w w 0 w w w 0 w w w w 0 w w x h 0 $ 7 w w 0 w 0 7 0 9 0 0 w w 0 X 0 p p p F l C p q $ 0 p p a a C a C 8 $ 0 C C p C C C C i $ 7 0 9.HXd.. $ $ X X $ X 4 v.k 0 w w w 7 G.H., G.D.H.G.0 0 F.F.!.e.7 w w 0 ",
"0 v '.(.'.^.G.'.F._.NX~.0 $ ^.O r.r.^._.G.W.F.!.G.0 X $ X $ $ $ X $ X $ $ > . t.E.g % w w f 7 r.^._.!.G.'.F.'.NX~.0 $ G.(.!.(.7 F.W.!./.G.F.E.H./.e./.h $ $ 9.E.v   0 w w 7 x G.H._./.G.'.NXW.X j (.h '.E.E./.'.'.e./.G.r.'.!.$ & $ k.k.0 $ w w 0 h h g ~.i.~.F.E.x y.Q.Q.D.t.).h g v w x 0 Q.Q.E.t.W.j.7 v f w 0 w w 0 w w $ 7 w x w 0 w 0 w 0 w 0 w w w 0 w w 0 w 0 f 9 e.y.h H.j.).D.).E.7 g w w w w w w 0 w w w 0 0 0 w w 0 0 w w w 0 x e 0 $ 7 w w w w 9 j h h 0 w 0 w 0 $ 0 f f f , f f f 0 X 0 0 0 0 0 w 7 q 0 $ , 3 w w < w w 3 0 $ , f q SXC.o $ $ $ $ $ X h.a.0 w 0 w 0 v W.G.e.G././.G.v G.'.^.'.G., f 0 w ",
"7 v G.W.D.E.W.y./.F.!.y.9 X F.D.y.^.'.F.!.F.(.!.W.g $ $ X $ $ X $ $ $ X $ 7 o F.BX7 X w w w w D.!.F.G.G.W.'.f.!.y.7 > H.'.~.^.w H.!.W.!._.y.D.G.W.f.G.v $ X j BXw.. w w 0 0 x D.e./.G._.f.!.y.> h (.v (.H.F./.G.F.h y.D.(.'.^.$ > o ).NXX $ w w 0 h h h y.0 j.y.F.w.w.H.y.y.E.y.w.w v w v 0 y.F.u.F.f.t.w x g w w 0 0 w w 0 % 7 0 v e w w w w q w 0 0 0 e w w w w w w w 0 v W.j.F.u.t.F.w.y.H.t.f.x 0 q w 0 w w w 0 w w w w 0 0 w w w w 0 v g 0 $ 7 f w w 0 e.(.!._.y., w w 0 X 0 , L L l H H L 0 $ 0 , Z D i Z P Z 7 $ 9 : O.6.] 6.} 6.w $ 7 w 7 h.HXv.$ $ $ % $ 7.V.z 0 0 w w 7 x W.!.f.G._.^.W.e.!.W.(._.G.0 w 0 w ",
"0 0 0 9 0 w w 7 e 0 0 g 0 % $ v w 7 h f h h g $ h g X X X $ $ X $ X $ X $ 7 $ $ f X $ w w w w g 0 7 w 7 f.e.$ w f f $ o $ e h . 7 v 7 v g $ 7 x X x w w $ $ $ k X X 0 w w w w 7 G.v D.v > w w 0 $ x v $ 7 g 7 g 7 7 7 7 g q 7 $ 7 X > 7 X $ w w 0 h x 0 0 0 9 0 0 0 0 , 9 0 f 7 0 w x e v 7 w 7 0 0 0 0 0 x e w w w w 0 0 w $ 0 0 x f 0 0 0 w w 0 0 0 0 0 0 0 0 0 0 0 0 0 0 w w f 0 7 0 w 7 w 0 0 0 0 0 0 0 0 0 0 0 0 0 0 0 0 0 0 0 0 0 0 c h 0 $ 7 f w 0 x ^.~./._.D.7 w w 0 % 0 l <.p.F <.K p.w X 0 i A Q C U Z P w $ $ ] } 6.] $X6.=.w $ , w q 8 c.FXk = $ $ f v.q.w w w 0 w f 0 D.D.e.D.f.f.D.> D.F.r.W.v 0 w w w ",
"w w w w w w w w w w w 0 0 $ $   X X   X X . . % X X $ $ $ X $ $ $ X $ $ $ > $ X % $ % w w w w 7 w w w w w 0 w w w w $ % $ X . $ X   X   X % X . $   X X ; % $ % $ % 7 w 0 w w w w w 0 0 w w w 0 $     X $ X X . % $ X % . X % $ $ % X X $ $ w w 0 h v x x x x x x v x x x x x v x v x w w.v v v x x x x x v w 0 0 w w w 0 w $ 7 0 v x h g g g h h h h h c h h e h h h h e h h h h h j h h h h h h h e h h h h h h h h g h h h h h h e h h v h 0 % 7 w w 9 j ^.^./._.H.9 w w 0 $ 0 f F F l H F b 0 $ 7 w p C e C p C w $ 7 w Z } i $.$.} 0 $ 7 w w w 7 z w w w w w g w w w 0 w w 0 w 7 , 0 7 0 7 9 w 0 > 0 7 0 w w w w ",
"w w w w w w w w w w w w w 0 w w w w w w w q w w w 0 0 0 0 w w 0 0 0 w 0 0 0 0 0 w w w w w q g f w w w w w w w f f w w w w 0 w 0 w w w w w w q w 0 w w 0 0 w w q 0 w w w w w w f w f w w w w w w w w w 0 w w w 0 w w 0 w w w w q w w w w 0 w w w w e h h h h e h g g h h h h e h h h f w g h g h g h h h h h w w w w w w w w $ 7 q h v h v v x v x x x x x x x x x x x x x x x x x x x x x x v j x x x x x x x x x x x x x b x x x x x x v x e 0 $ 7 w w f 0 w.w.x y.f f w w 0 $ 0 f f 1 w 1 0 w 0 $ 0 w 0 0 w w w w f $ 7 w : : 0 f 0 0 w % 0 w w w g q w w w w w w w w w w w w w w h f w f w f w w w w w w w w w w f ",
"> > > > 7 > 7 7 $ 7 ; > > 7 > 7 ; 7 > 7 7 , , , 7 7 ; ; ; ; & & > 7 ; ; % & & & , 7 > > > > > , & ; ; ; ; 7 > 7 > > > , 7 , 7 , , 7 , , > > , > 7 7 > > 7 > , 7 7 , 7 , 7 > 7 > 7 7 $ 7 7 > > > 7 7 7 7 7 > 7 > 7 7 7 7 7 , 7 , 7 > > 7 , 7 7 , , 7 7 $ > > > > 7 $ 7 > > 7 > > $ 0 $ 7 7 $ 7 $ > > > > > > , > > , 7 7 7 > $ $ > > > > > $ $ $ $ ; $ $ $ $ & % > > = $ $ 7 $ > $ $ $ 0 $ $ = $ > > > > > $ 7 $ $ $ 7 > > > > $ > > > > 7 $ 7 7 $ $ 7 > ; 7 $ $ $ $ > > 7 > > $ > 7 7 7 7 7 7 7 > X > > 7 7 7 7 > > > $ $ > 7 9 7 7 0 7 7 $ > > > > > , 7 7 , , > , > > , > > 7 ; 7 , 7 7 > > , $ 7 7 7 7 > 7 > > 7 > ",
"$ $ $ $ $ $ $ $ $ $ $ $ $ $ $ $ $ $ $ $ $ % $ $ $ $ $ $ ; % & & $ $ $ ; % & % & $ $ $ > $ $ $ $ & & % $ $ $ $ $ X $ $ , $ $ $ $ $ $ $ $ $ $ $ $ $ $ $ > $ $ $ $ $ $ $ $ $ $ $ 7 $ $ $ $ $ $ $ $ $ $ $ $ $ $ $ $ $ $ $ $ $ $ $ $ $ > $ $ $ $ $ $ $ $ $ $ $ $ X $ $ $ % $ $ % $ X $ $ $ % $ $ $ % $ $ % $ $ $ % $ $ % % $ $ $ $ $ $ . $ $ $ $ $ = $ $ $ = $ $ # & > X $ $ $ $ $ $ % % $ $ $ $ $ $ X > > X $ % $ $ $ $ % $ % $ $ $ X $ $ X $ % $ % $ $ $ $ $ $ $ $ X $ $ % $ $ X $ $ % $ % $ $ % $ $ $ $ $ % $ $ % $ $ $ $ $ % % % $ % % $ X $ % $ $ $ % $ $ $ % $ % $ % $ $ $ % $ $ $ $ % $ $ $ $ $ % $ $ % $ $ $ $ % $ ",
"w w w w w f f w w w w w w w w w w w w f $ 7 e f f e h f : : 9.: e f h f : : & i.w w f f e g w w : : & & w f f 7 > w f f w e g e q f k h w e 1 w w h h h h h w e c h f < w h g h w f 7 $ w f w w f f g g w w 9 w w f e f g g f e h f e h w f h w f e f f w 0 % > $ $ , 7 > > > > $ $ 7 $ $ $ 0 $ > $ > > $ > > > $ > > > , > $ $ > $ 0 w w g g g e f q g g g 9.9.w h f e q q g e 9.k k 9.h g q q g g 0 w $ $ , $ > > 7 > > > & $ > > > > $ , , $ > > $ > $ $ 7 $ > > > , $ > $ $ $ , $ > $ , , $ > $ ; > , $ $ , > , $ > > > > > $ ; $ , > > > , $ $ > > $ > > $ > > > > > > > > , $ $ $ > $ , $ $ > $ , > > & , , > > ",
"w w w w w 0 , 0 w w 0 w w 0 w w w 0 w w $ 7 < |.sXsXsXsXsXsXsX4XsXsXsXsXsXsXsX4XsXsXsXsXsXsXsXsXsXsXsX4XdX( < ; > 1 o.%X#X#X#X$X#X#X%X#X#X#X#X#X#X#X#X#X#X#X#X#X#X#X#X#X#X#X#X%X .1 0 % f s lXlX..lXlX..lX..lXlX..lX..lX..lX......lX..lX..lX..lX....lX..w 0 $ > > f f f f f f w f g g f g f f f f w f w f f f f w f f f f f f , $ $ , - N.DXDXDXDXDXDXDXDXDXnXnXDXZXDXDXDXDXDXDXDXDXnXnXDXDXDXDXDXDXh.7 , $ $ , f f f f f f w f f f w w f 0 w 0 f f f f f g g f f w f f 0 $ $ $ $ , k f f f f f f f f g f g g f 0 0 f f f f f f g g g g w f f $ $ $ $ > f f f f w w f f f f w w f f f f w w f f f f f f f f w g f > $ ",
"w 0 w w 9 e.!.e.w w f e > H.y.9 w w 0 0 % ; & 6XtX X X X X X X X X X X X5X X5X5X X X X X X X X X X X X XsX) < 7 7 1 o.%X| | | | | | | +X| | | | | | +X| | | | | | | | | | | | +X+X2 7 $ f i lX{ { { X.{ { X.{ { { { { X.X.X.{ { { { { { { { { { { { X.lXw 7 $ $ $ f $ , > $ , $ $ 7 $ , , $ & 1 , 0 $ $ & > $ , $ , $ $ $ $ f 7 > X 0 - nXnXm.m.M.M.M.nXm.nXm.m.m.nXnXnXnXm.m.nXm.m.nXm.m.nXm.nXm.DXx.- $ % $ f 0 $ $ $ , $ $ 0 , $ $ $ , , 0 & $ , , $ , $ $ , $ , $ , f $ $ $ $ 0 f $ , $ $ , > > > $ > $ , 0 f g $ , > , $ , $ , $ $ > $ f > $ $ $ > f , $ , , $ $ , $ > $ , , , 0 f , $ $ , , $ , $ , $ $ $ f > $ ",
"w w w w , F.'.G.H.!._.G.D.'.y.> w w w w $ & 6 6X4X X X X X X X X X X X X X4X5X5X X X X X X X X X X X X XsX) < 7 > < o.#X| | | | | | | | | | | | #X#X+X| | | | | | | | | | | | +X,X3 7 $ g s lX{ { { { { { { { { { { { X...X.X.{ { { { { { { { { { { { ..w w % > , f , $ $ , , $ $ , , $ $ $ w y.x 9.$ , $ $ > $ $ $ , , > $ f , ; X , 8 nXnXm.m.m.m.m.m.m.m.m.m.m.m.nXDXbXm.m.m.m.nXm.m.m.m.M.m.m.ZXv.- ; $ $ 0 0 $ , $ , $ $ , $ , , $ k y.u.f $ $ $ $ , $ , $ , $ $ 0 0 $ $ $ $ 7 f $ $ , $ $ > $ $ > > $ 0 i.j 9.$ $ > $ $ $ $ , $ 7 $ , f $ $ $ $ > f > > $ $ $ , $ , $ $ $ 7 i.i.t.$ $ , $ $ > $ $ , $ , $ 0 , , ",
"0 w 0 w > F.'.(._.BXG.!.(.~.y.> w 0 w w $ ; 1 6X4X X X X X X X X X X X X XsX5X X X X X X X X X X X X X XsX_ < $ > > o.#X| | | | | | | | | | | | #X+X+X| | | | | | | | | | | | | +X1 7 $ f s lX` { { { { { { { { { { { X...X.X.{ { { { { { { { { { { X...w 7 $ $ $ f , $ $ , $ > , $ $ , , $ k k.u.i.$ $ $ 0 $ , , $ , $ , $ f , $ $ : - nXnXm.nXnXm.m.M.m.nXm.m.m.nXnXnXnXm.m.m.m.m.m.m.m.m.M.m.m.DXx.- $ $ $ 0 0 $ , , $ , $ $ $ $ > $ u.i.i.9.$ , $ , $ , $ $ $ , $ , f $ $ $ $ , f $ , $ $ & $ > > > > $ k y.k g $ , , $ , $ , $ , $ , $ f , $ $ $ , f $ & , $ 7 , $ , $ , $ 7 k.u.i.7 $ , $ , , $ , $ 0 $ $ f > $ ",
"w w w w w b G.D.G.D.e.e.f.!.h 0 w w 0 w $ q &  X5X|. X X|. X X|. X|. X X_  X X X X X X|. X|. X6X X|. X|.sXU.< > > , o.#XM | | | | | |  . .| | | | | | |  .| | | | |  .| | | | +X,X1 7 $ f s ..` { ` { { ` ` ` { ` { ` { { { { { ` ` { { { { ` ` { { { ..w 0 $ $ , f $ , $ $ $ $ $ $ $ $ $ $ $ $ $ 0 $ $ $ , $ $ $ $ $ $ $ $ f 7 ; % : ; nXnXz.m.z.z.m.m.m.m.m.m.m.z.m.m.nXm.m.m.m.m.m.m.m.m.m.m.z.nXx.- 0 % $ 0 , $ $ $ $ $ $ , $ , $ $ $ $ f 0 $ $ > $ $ $ $ , $ $ $ , f $ $ $ $ 0 f $ $ $ $ < $ > $ $ & $ $ , : $ $ $ $ , $ $ $ $ $ $ $ , f $ $ $ $ > w > $ $ $ $ $ $ $ , $ $ $ > : g $ $ $ $ $ $ $ $ $ $ $ $ f , $ ",
"0 w 0 w w 7 7 , , , 9 7 0 > 0 w w w 0 w $ 7 < 8XdX4X4X4X4X4X4XsX4X4X4X4X4X4XtX4X4X4X4XsX4X4X4X4X4X4X4XoXdX) 1 : > 1 o.%X#X#X+X#X+X+X#X+X+X#X#X+X#X+X+X#X#X+X#X+X+X#X+X+X+X#X+X%X#X4 7 $ f s lX..X...X...X.......X.X...X.X...X...X.....X...X...X...X...lXk f $ $ $ f 0 7 0 , , , 0 $ 0 & , , 7 7 , 7 0 , , 0 , 7 0 , , 0 0 7 g , $ % 0 - nXDXnXnXnXZXnXnXnXnXZXnXbXnXZXnXnXnXnXnXZXnXnXnXnXnXZXnXnXDXx.- , $ $ 0 g $ 0 , , , 0 7 0 $ 0 0 0 , $ 0 , , 0 , 7 , 7 , 0 , 7 0 f $ $ $ , 7 g $ 0 0 , 0 , , 0 $ , 0 , , , 7 , 7 0 $ 0 & , , , , 7 0 g , $ $ $ $ g 0 , ; , 0 , , 0 , , 0 , 7 , , 7 0 , , , , 0 , , & 0 , g 0 $ ",
"0 w w w 0 w f f w w w w f f 0 w 0 w 0 w $ 7 , L 8X8X6X6X8X8X8X X6X6X8X8X8X8X8X X X8X6X6X8X|.8X8X8X8X6X6X5XL 0 ; > , d  .+X .>. . . .>. . . .>. .>. . . .>. .>. . .+X .>.>. . . .A f 9 $ 0 w X.X.X.X.X.X.X.} } X.X.X.X.X.X.X.X.X.X.} } X.X.X.X.X.X.X.X.} f 0 $ > $ f f f 0 f w 0 f f g g w 0 f f 0 f f 0 f 0 f f f 0 f 0 f f f $ $ $ 7 q a.nXnXnXnXnXN.nXnXnXnXnXnXN.nXnXnXnXN.nXnXnXnXnXnXN.nXnXnXnXq.q , $ $ , f 0 f f f 0 f w f 0 f g f f f f f f f f f f f f f f w f , $ $ $ $ $ f f 0 f f f f 0 f f 0 f 0 f f f w w 0 f 0 0 0 w f f f f 1 > $ $ $ , 0 f 0 f f 0 f f f 0 f 0 f 0 f f f 0 f f f f 0 f 0 f f g f $ , ",
"w w 0 0 w w w w w w 0 0 w 0 w w w w w w $ 7 f , & < * < * < & < < < < < $ 1 < & < & $ < < & < < , < & < < , w > $ w , & 1 & 1 1 1 1 1 & & & , < < & & 3 , 1 1 1 1 & , 3 & 1 1 < 1 w , X f f : : : : 1 & k & & : & & k & & & & & : & & f & & & & : : & & f 0 % $ , $ $ $ $ $ $ $ $ $ $ $ $ $ % $ $ , $ $ % > $ $ , $ % $ $ $ $ $ $ $ 7 g 7 - - 8 n - - - - - - - - - - - - - - - - - - - n - - - - - 0 w $ $ $ $ % $ $ , $ $ $ $ % $ $ $ % $ $ $ $ $ $ $ $ $ $ , $ $ $ $ $ $ $ $ $ , $ $ % $ , $ $ $ $ $ $ $ & $ $ $ $ , > $ $ $ $ $ , $ $ $ $ > $ $ $ , $ $ $ $ $ $ $ $ $ $ % $ $ $ $ $ % $ , $ $ $ $ $ $ $ $ $ $ $ $ ",
"w 0 w w w w w w w w e 0 w w w 0 0 0 w 0 $ , w w q q h g g w w w f q w w q q 0 g w q g g g q w w g q w w f w w > , f f e g g f f g g e e w e e e w 0 0 0 q 9 0 7 0 e 7 7 e w e 0 w f 0 $ w f f g w w w w f f w w w f f g e 0 w w g f f w w f f k g 9 0 w f 0 % $ $ $ , $ , $ > > $ $ , $ $ , $ , $ $ , $ % $ $ $ % $ $ , $ $ , , $ $ 7 f f f f 9 - q g g f g f h f w w w h f f f , 0 f f 3 w w w f g w f $ $ , > $ , $ $ $ $ , $ , $ $ $ , $ $ 0 $ $ $ $ $ $ $ % % , $ , 7 , $ % , $ $ , $ $ $ $ , , $ $ , $ > $ $ $ , % $ $ $ $ $ $ $ $ $ > > $ $ $ $ $ , $ 7 $ $ $ , $ , $ , $ , > > > $ $ $ $ $ $ $ $ $ $ , $ $ $ , ",
"0 w 0 w 0 g 0 7 w 0 0 0 , w 0 0 w w w 0 $ > w w w w 0 w f w w w w w 0 w 0 h e.0 0 0 w 0 w 0 0 w w 0 0 w w w w $ $ f w w 0 0 l s w , q q 3 0 0 w w w w 0 g r.x K.x h f.v 0 e w w w f 9 % w w w 0 f g c f 0 0 w w w w w 0 w 0 w 0 e v 0 b h h h w w w 0 0 w 0 $ $ , $ , % , 0 ; $ $ , 7 $ , , $ $ > , $ , j 0 k f j 0 $ > > > , $ , % 7 w w w = e 0.d.w w f w w w w 0 w w w 0 0 h w.w.x v v 0 w w w w w w > $ $ $ 7 % $ f g ; $ > $ $ , $ , $ , $ , f , k f g f j f $ $ $ $ , $ $ $ , $ $ % 0 g 7 % $ > > $ > < $ , $ $ j , g , g 0 > 0 , $ , , $ $ $ , $ , $ X 0 g w % $ $ $ $ , $ , $ $ f 0 f f f f f f 0 f $ $ & > $ ",
"w w w 7 y._.D.v x b x h y.e v q 0 0 w 0 $ , w 0 0 0 w w w w w w 0 w w w 9 F._.e.7 f w 0 w w w 0 0 w w w w w w > $ e w 0 b #.#.+.#.H f g 0 0 w 0 0 w w > f.NXx !.W.0 !.!., w 0 w w f 7 $ w w 0 e O.$.$.$.O.w 0 w w w w 0 w w w 0 x '., '.e./.f.> w 0 w w w 0 X > , $ 1 p.v j x j 0 $ $ $ $ $ $ 7 $ > $ , u.F.E.g w.j.% > , $ $ $ > $ > w 0 0 c.SXSXC.a.z ; f w w w 0 w 0 w 0 0 _.D.D.(.D.(.e 0 w w w w w $ $ > > $ w.G.G.G.E.w.$ , $ , $ $ $ $ $ f F.u.E.x E.u.y.y.% 0 , , $ $ $ > $ $ h F.G.E.G.y., $ > > $ $ > $ $ , y.E.j.j.E.u.u.j.. 0 $ $ 7 $ $ $ $ % f H.G.G.G.H.0 $ , , $ > $ , % y.t.t.H.H.j.k.j.H.j., $ > $ , ",
"w 0 g ; F.NXD.G.'.(.^.!.^.^.NXD., w w w $ 7 w w w w w 0 0 w w 0 0 w w w 0 G.D.H., w w w 0 w w w w w w 0 w w w $ $ g w d #.a $ = r +.O.7 w w w 0 w 0 w w e F.D.D.w.X G.w., w w w w w , $ 0 , ] [.@ X > 7 b O.w 0 0 0 w w 0 w w w 0 G.F.'.(.NXD.> w w 0 w w 0 X > $ 0 E.r.% % # 0 w.& $ , $ , , $ $ > ; % 9.v x y.j 9.$ > $ $ , , $ % 0 w 0 C.SX9 7 e 5 a.q.7 w w w w w w w 0 v _.E.y./.v F.7 e w 0 w 7 g $ $ ; $ r.E.f % % 7 G.w.$ & $ $ $ , , $ % y.f w.F.E.j e.g $ , $ $ $ $ $ > $ j !.x % % , F.F.$ ; > > $ $ $ , % w.E.y.Q.F.F.E.j.% $ $ $ $ $ $ $ $ f E.r.% X $ t.E.f $ $ $ $ , > $ j j.x D.y.j.j.j.H.u.h $ , $ $ ",
"w w w 9 D.^.!.'.NXD.W.~.!._.'.v 0 w w w $ 7 w w w 0 0 w w 0 w w w w w w 7 j._.x 0 w 0 w w 0 0 w w 0 w w w w f > $ f s 2.$ O X % # $ o.b 0 0 w w w 0 w 0 x W.H.H.w.f.G.w w 0 w 0 w w 9 $ 0 s ].] Q.v   $ X ] ] 0 w w w 0 w 0 0 f 0 G.r./.G.~.D., w w w 0 w 0 $ > % D.y.O (.t.O   w j % 0 $ $ , $ > > $ g Q.j u.j.E.x $ > $ , $ $ > $ 0 = v.SXn O H.IXo 3 a.0 w 0 0 w 0 0 0 0 w !.^.F.!.'.G.0 w w w w w w > $ $ g !.$ O . O 9.f x 0 $ $ 0 7 $ $ , $ t.g t.j.j.t.t.$ $ $ 7 $ $ $ $ ; 7 G.g O X . o O F.e.% > $ > > , $ f y.u.i.y.y.f.t.j.$ > & , $ $ $ 7 $ H.e.O X o . O y.H.$ $ 7 > $ > % j 9.y.j.k.j.y.j.y.j., $ $ $ , ",
"0 0 w 0 x e v y.v j h y.NXv r.c 0 0 0 w $ 7 w w 0 w w 0 w w w 0 w 0 w f w w h 0 f f w 0 w 0 0 w w 0 w w 0 w w $ ; , O.Z 9.H.0 # $ # d +., f w w 0 w w 0 w x 0 0 w e w w w 0 w w 0 w 0 $ , ] [.X `.UX> X $ 9 O.w w 0 0 w 0 w w w w w , 9 , 7 0 w 0 w 0 w 0 0 % $ 0 E.$ O F.Q.O %   j 0 $ $ & > > , $ $ , 0 f f $ 0 f $ $ , $ $ $ $ $ > 0 SXd.X o /.NXo X d.7.7 w w 0 w w 0 w 0 w g j g f j w f q w 0 w w $ $ X y.y.O % O H.BX0 7 h $ , $ $ $ , $ $ $ 0 0 $ 0 , $ $ , $ $ > , $ $ % v F.o .   . 1 & h G.$ , $ > > $ $ , 0 $ 0 % 0 $ % $ > $ , $ , $ $ $ w G.%   . . o o % G.0 $ , $ $ $ , , $ , , $ , , > $ 7 $ $ $ , $ ",
"w w 0 w 0 0 0 > , 9 7 v v 0 0 0 w w w w $ $ w w 0 w 0 w w 0 0 w 0 w 0 7 7 , 7 w 7 7 w w 0 w w w 0 w w 0 w w w $ 7 > eX#.E.UXE.o $ X 8 #.0 0 w w w 0 0 w w 0 0 w 0 0 0 w w w 0 0 w w 7 $ $ S.[.# . u.> X $ > $.h 0 w w 0 w w w w w 0 0 7 0 9 w w w 0 0 w w 0 X $ f G..   % # . . X h f $ $ $ > $ $ $ , $ % # $ $ # $ 7 , $ $ , , > $ 7 w SXc X X > > $ X d.d.0 w w 0 0 w w , 0 w 7 7 0 9 7 0 0 g 0 w 0 w ; $ % H.j o X o 9.1 O ; j $ $ , , $ $ , , $ % $ $ # % $ , $ $ , $ > $ $ X r.f.O % o , NXNX$ t.7 $ , $ $ $ , $ $ $ # $ $ % $ 7 > $ $ $ , $ $ $ h F.  .   % w.. . F.j $ $ $ , , $ $ , $ % $ $ % $ , $ $ , 7 $ $ ",
"w w w 0 w 0 0 D.v h e.0 e.w w e w 0 w w $ 7 w w w w 0 w w w w w 0 w h v v y.v h y.v w w w w w 0 0 w w 0 w 0 w > 7 < [.5.O # $ $ $ # i #.0 w w 0 w 0 w w w f j 0 j w x g 0 w w w 0 w ; $ : O.xXo $   X $ X 7 $.g 0 w w w 0 w f f w v x e.h y.f f w w w 0 w 0 $ $ 0 G.$ . o   .   . x 0 $ , $ $ , $ , $ $ f k $ j 9.g $ $ , $ , $ $ $ 9 0 mX] o = $ X $ X s.d.8 w w w w w 0 e.c w j v h v x j v 7 w w 0 w > $ X D.e.o . . o o   0 j $ $ $ , $ $ 7 > $ h h $ w.x 0 $ $ & > $ > $ $ % w.D.o .   X $ o # j $ $ , & > $ > > $ f k $ x w.g $ , , , $ $ $ $ $ w G.X .   % NX).# E.f $ > $ , $ $ $ $ 7 x $ j 9.j $ $ $ , , $ $ ",
"0 0 w w w 0 v (.^.W.W././.x 0 0 w w w w $ , w w 0 w w 0 0 0 w 0 w 9 y.NXv W.!.0 !.^.$ w w 0 0 w w w 0 w w w w > > e O.yX8 . $ $ % $ +.d 0 0 w w w w 0 w 7 f.(.9 NXh '.h 7 w 0 w w w 7 $ 0 l xXb   > $ $ . ] ] 0 w w 0 w 0 w 9 , y._.v ).H.!.H.$ w 0 w w w 0 $ $ % F.e.O %   . o 7 j $ $ $ $ , $ $ , $ f D.y.y.E.Q.h $ $ , $ $ $ $ $ 7 = v.SXX X $ $ X < a.g 0 w 0 w w w w D.!.y.'.!././././.^.q 0 w w w > $ $ h E.# o . % . . j 0 $ , $ $ $ , $ % j j.i.j.E.E.f $ , > $ 7 $ $ $ $ , W.f o . .   o h j $ $ $ $ $ 7 & $ 0 j.y.y.E.Q.x % $ $ $ , $ $ $ ; $ F.w.O X o % h k D.$ $ > , $ $ , , $ j.y.y.F.W.y.% 0 $ $ $ $ , ",
"w w w 0 w 7 y.G.^.!./.D.D.f., 0 0 w w 0 $ 7 f w w 0 w w w w 0 w w 0 f G.D.D.y.X H.r.7 f w w 0 w 0 w w 0 w w g ; > w > Y.yX9 % $ $ O.#., w w w 0 0 w 0 w 0 h W.W.NX/.'.v 0 w w w w f 7 $ q & O.xXc X > . d $.w w 0 0 w 0 0 w w , W./.D.!.D.f.e.9 w 0 w 0 w 0 $ $ $ w !.j   .   , x 0 $ , $ , $ $ , $ % w.u.7 G.t.p.f $ $ $ , $ , $ % 0 0 0 SXC.X $ X < a.d.0 0 0 w 0 w w 0 v G._.BXD./.!.~.~.F.w.0 w w w $ $ $ $ j.G.% . . . j h $ , $ $ 7 > > > % y.g j F.e.j., , $ , $ , $ $ $ > $ v !.7 . % X f 9.$ $ $ , $ $ $ , % j u., E.t.j.f $ , $ , $ > $ $ $ $ g !.h   % o $ v , $ > $ $ $ $ , $ 0 j.% F.y.y.j $ , $ $ , $ $ ",
"w 0 0 w w 0 x ^.v h ~.G.Q.b 0 w w 0 w w $ 7 f f 0 w w w 0 w w 0 w 0 h W.G.G.v y.G.g w w w w w 0 0 w w w w 0 g $ > w w 0 S.c 7 0 0 C 0 w w 0 w 0 w 0 w w 0 h G.r.'.F.'.e.7 w w 0 w f 7 $ f w 7 K.b , 0 0 c e w w w w w w w 0 w , y./.G.G.(.'.v 0 w w w 0 0 0 $ $ $ $ h j $ $ $ , 0 $ , $ , $ $ , $ , > 7 j.j.9.w.i., $ , > $ > $ > $ , w 0 z h.q 0 0 c z 7 w w w 0 w w , w '.G.H.(.!.!.!.~.~.~.q 0 w 0 w > $ > $ $ w.7 $ $ $ f , $ $ 7 , $ & , $ $ g H.y.9.w.w.$ , $ $ $ , ; $ % > $ $ x w % $ $ f $ $ 7 , $ $ 0 $ , $ 0 j.j.v 9.w.f $ $ $ $ , $ $ $ $ > % h j $ $ $ 0 , $ $ > & $ 7 > > $ $ y.k.u.u.u.g $ $ $ , $ $ , ",
"0 0 w w 0 w w x 0 w , 0 x 0 w w 0 w 0 w $ 7 w w w w f w w f w 0 w w q v 0 0 w g w w w w f w f f w w w w 0 w w $ $ w w w , 0 w w w w w w 0 w w w w w w w w w w , 0 7 7 7 w 0 w w w w 7 $ w w g 7 , e w w f w w w 0 w 0 w w w w g 0 h e c 0 x h 0 w w 0 w w 0 X $ $ 7 $ % > $ 0 $ $ $ $ $ $ > $ , $ $ $ $ > 0 $ $ $ , $ , & > $ $ $ $ 9 f w 0 7 w w w w 0 w w 0 w w w w w w c j > 9 h e e f g l : 0 w w f $ $ > $ $ $ $ , $ , $ $ , $ $ $ , $ $ $ $ $ 0 0 $ , > $ $ , $ , $ , $ $ $ , $ % $ $ , $ $ $ $ , , $ $ $ $ 7 , $ , 0 $ , , $ , $ , $ $ , > % $ , , $ $ $ $ , $ $ , $ $ $ , $ $ $ , $ $ f % > $ 0 $ $ $ , $ , $ ",
"w w w 0 w 0 0 0 w w w w 0 0 w 0 w w 0 w $ $ w f q q q g q q g q q g q 0 e e w q q g q e q f f f w q q w q w w $ > w 0 q e e w e q e 0 0 9 h w w w w 0 q q e 0 e 0 e e e w e 0 e w w 7 % w q e g e e 0 w e w w g 9 0 w w w e w g 0 0 e 0 e 9 0 w w w 0 w w 0 $ $ , $ , 7 > & $ $ , $ , > , > , ; , $ , , > $ & $ 0 $ , $ $ $ 0 $ $ % , f w g g g f w w g g f w w g g f f f 0 f g f f f f g f f : f f 0 w > $ > > $ , 7 $ , $ > > & 7 , $ , $ , , , $ $ $ 7 $ ; = , $ 7 $ , $ $ $ , $ , , $ , $ , , $ 0 $ $ $ 0 , $ , $ 7 $ $ , $ $ , $ 7 $ , > > $ $ > $ $ > > ; & > > , $ , 0 $ $ 0 & > $ , , $ $ , $ , 7 , $ , > > > ",
"w 0 0 w w 0 0 w 0 w w 0 w 0 w w 0 0 w w $ 7 g < < & 1 6 * 1 6 & * 1 < & < < & < * 6 1 * & < < & 1 * & % < , f > $ w f 1 & 2 1 1 & 6 1 1 & 6 & 6 & 2 1 1 6 & 6 & 1 < 1 1 < 1 1 6 1 w 7 $ w w & & & & & 1 k & 1 1 f 1 1 1 1 1 & 1 f 1 : 1 1 1 1 & 1 f : f 0 0 X $ $ % $ X % $ X $ ; X % % X % % % X % % % % X $ X % % % $ X X # $ $ $ 7 f 8 - - - n n n - - - n n n ; ; n - ; - - ; - - ; - - ; n - - 7 f > $ $ % X $ % $ X % $ X ; X % % X % % % % % n % % % % % $ % $ % X $ $ $ $ $ % % . = % % % % $ % n % % % X X % % % $ % X % % % % n % $ $ $ $ $ $ % % % $ % % % % X % % % % % % % X % % = % $ X $ % % = % % = $ ",
"0 w w w 0 w w w w w 0 w w w 0 0 w w w 0 $ 7 0 L 6X) |.6X=X|.6X) 6X) U.|.6X) |.6X=X6X|.U.6X|.) =X=X|.U.6XU.F w ; ; f d  .=. .=. .=. .=. .=. .=. .=. .=. .=. .=. . .=. .=.=. .=. .Z f 0 $ 0 w } } ` } } ` } } } ' } } } } ` ` } } } } } ` } } } { } } } ' w 0 $ $ X v e.w.w.w.w.w.w.u.w.w.e.w.e.e.w.w.w.e.w.e.w.w.u.u.w.w.w.w.u.% X $ 7 0 s.N.N.V.nXnXV.V.V.V.x.nXN.b.N.nXV.V.V.V.N.nXV.V.x.V.x.nXN.V.q.w 7 % X 0 e.w.w.w.w.w.w.w.u.w.w.w.e.w.e.w.w.e.w.w.w.e.w.e.w.w.u.u.h X $ X X ; w.u.w.w.e.e.w.e.w.e.u.u.w.w.r.w.e.e.w.w.w.w.w.e.w.e.w.e.j $ $ % $ X w.u.w.w.w.e.w.w.w.e.e.u.w.w.e.e.w.w.w.u.e.w.w.w.e.w.w.w.x $ $ ",
"w w w 0 w w w 0 0 w 0 w w 0 w w 0 w w 0 $ 7 1 5XdXoXsX4X4X4X4XtX<XsXsX<X4X4X<XtX4X4X4XsX<XtXsX<X4XsX4XoXdX|.< 7 7 < A %X+X#X+X+X+X#X+X+X+X#X#X#X#X+X#X+X#X+X+X#X+X+X#X#X+X#X#X%X+X1 f % w s lXlX....................lX................................lXw 0 X $ % D.y.r.r.r.r.r.t.t.t.p.r.r.r.u.r.e.u.r.r.r.r.r.r.p.r.y.y.e.G.f X $ 0 - nXDXnXDXnXnXnXnXnXnXnXnXnXnXnXnXnXnXnXnXnXnXnXnXnXnXnXnXnXLXx.- 7 $ X v H.w.y.y.r.u.r.r.t.t.t.u.r.r.e.u.r.r.r.r.y.t.t.u.y.e.e.p.r.X $ % X w E.u.r.r.t.t.r.e.r.y.u.t.r.r.r.r.r.r.u.u.p.u.y.t.t.r.r.y.D.% $ $ $ $ E.t.r.u.r.p.r.y.r.r.t.y.r.p.u.r.r.r.t.t.w.y.y.e.r.t.r.u.F.7 $ ",
"w 0 0 w w 0 w 0 0 w w w 0 w 0 w w 0 w w % ; 6 6XoX|..X.X.X.X X.X|..X.X.X X5XoXoX.X.X.X|..X.X|..X|..X|..XsX) < 7 $ & } +X| |  .| | |  .| | | | | +X+X| | | | |  .| | | | | | | | $X1 f % , s lX` ` ` ` { ` ` ` ` ` ` ` X.X.X.` ` ` ` ` ` ` ` ` { ` ` { ..w 0 $ $ $ D.g g f g g h f h f : q h t.u.y.w.f h h f h h : h h : g 0 p.f X $ , - nXnXz.m.m.m.nXz.nXz.nXnXnXnXnXnXnXm.m.nXm.m.nXz.nXm.nXm.m.nXa.- $ $   j r.w f g h f h h h f f t e.u.t.w.f g g h h y : h g g f v e.X $ $ X w p.: h f f f h g g f h q 9.t.u.u.h f h g g h k y : h g h p.% X $ X $ p.f h h f g f h f h y : j u.u.t.j q f h h h f f h f h : D.; X ",
"0 0 w w w w w w w w 0 w w w w 0 w 0 w w % 7 < 8X<X.X X.X X.X X X X.X X*XoXoXsXdX X X.XoX.X X X X X X X.X4X) & ; 7 1 o.#X| | | | | | | | | | | +X| +X%X+X| | | | | | | | | | | +X+X1 7 $ f s lX{ { { { { { { { { ` { X.X...lX..` ` { { { { { { { ` { X...w 0 X X & y.j h h h j j h k k j h 9.t.t.F.E.h k h j h h h h h h k h D.f X $ f - nXnXnXm.m.m.m.m.m.M.M.M.nXnXnXnXDXnXnXm.nXm.m.nXm.m.M.m.m.DXx.- $ %   v y.h j j h j h h h k h 9.t.i.E.E.j h k h k k j h h j h u.e.X $ $ X w D.f h h j j h h h h k h i.t.p.Q.w.: h h j h h j h k h x D.X $ $ X $ D.h h h k j h h h k j h u.t.y.Q.t.h h h k h k j h j j h H.7 X ",
"w w f 7 0 f w w w w w w w e w 0 f w w w $ 7 < 6X<X.X.X X X X.X X X X.X XoX<X XoX X X X X X.X.X X.X X.X.XsX|.1 7 7 1 o.%X| | | | | | | | | | | | +X+X+X| | | | | | | | | | | | +X,X1 0 $ 0 s lX{ { { { { { { { { { { ` ..X.X.X.{ { { { { { { { { { { { lX0 0 $ $ % p.j h j h h h k h h k h h t.u.9.i.k : h k h j k k h j h g D.1 X % 1 - nXnXm.m.nXm.m.nXm.M.M.M.m.nXnXnXnXnXm.m.m.m.m.m.m.nXm.M.m.nXv.; $ ; X v y.f h k h h h j h h k h u.i.9.t.j h k 9.k h k k h h f u.e.X $ $ X w D.g h k h h h h k 9.k h w.i.i.i.j k h h j h j k h k h x y.X $ X $ $ D.h h h h h h j k k h h 9.t.w.i.9.g j h h h k j h h j k D.7 % ",
"w f 7 w.x , 7 9 > 0 7 , 0 7 h v $ 7 w w $ q < 6XtX.X.X X.X.X.X X X.X.X X X|..X X.X X.X.X.X.X.X.X X.X X.XsX) < 7 7 < o.#X .| | | | | | | | | | | | | | | | | | | | | | | | | | +X$X& 7 $ f d lX` { { { { { { { { { ` { ` ` ` ` { { { { { { ` { ` { { { lXw 0 $ X $ p.9.h 9.9.h h 9.k k k h h g g h f 9.9.9.9.h h k k k k h f p.f % $ & - nXnXm.m.m.m.m.nXm.m.m.m.m.m.nXnXnXnXm.nXm.m.m.nXm.m.m.M.m.DXx.- ; % X v y.: 9.k 9.9.h h k k h k h q g g h 9.9.9.h 9.h j k k f w.r.X = $ % g D.0 h h h g h k k 9.h 9.: k k : k h h k h h k k h h h h D.X $ $ $ = D.g g h 9.9.h h 9.h k k h h h : h h g h h 9.k k h 9.h k D.7 X ",
"f 7 y./.e.D.e.y.D.G.G.f.v D.y.!.D.v 0 w $ 7 < 6XdXdXdXsXdXsXdXdXsXsXdXsXsXdXsXsXdXsXsXdXdXdXdXdXsXsXsXsXdX/ < 7 = , o.%X#X%X#X%X#X%X#X#X#X%X%X#X%X#X%X%X%X%X#X%X#X#X%X%X%X#X#X%X .1 9 > 1 s lXlXlXlXlXlXlXlXlXlXlXlXlXlXlXlXlXlXlXlXlXlXlXlXlXlXlXlXlX..w 0 $ $ % k.k.k.p.p.k.p.y.E.p.y.E.p.D.D.k.p.p.k.p.p.k.p.E.k.p.y.E.p.F.0 X X k k nXDXnXDXDXDXDXDXDXDXDXDXDXnXDXDXnXDXnXnXDXDXDXDXDXDXDXDXDXDXv.; , $ X h E.p.k.p.y.p.k.p.E.k.p.H.k.p.D.D.p.p.y.p.p.k.p.k.p.H.p.F.w.  $ $ X 7 F.D.D.D.D.D.p.E.y.p.p.k.p.E.E.p.E.k.p.H.k.p.y.E.p.D.D.D.D.X $ X X $ H.H.D.D.y.p.k.p.k.p.y.E.p.D.D.D.D.D.D.D.D.p.p.k.p.k.p.k.F.$ X ",
"f > ~.h b ~.!._.!._.G.^.F.G./.!./.e.7 w $ 7 w e u l l h i l i l l i l h i l l i i h i l i i h l l l h i l w w > $ w 0 r i e r i s i i e i s i e r e i e i i e i r i e i s i e i h f 7 $ w w 0 s s e s h s e r e s e s e e s e s e s e s e s e s e s e 0 w 0 X $ $ $ f 0 7 7 0 , 0 , 0 , 0 , 7 0 : : 7 0 7 0 , , 0 , , 0 , 7 $ $ $ $ 7 e w k z g z z z k k z z c 9.9.k 4 g z z z z z z k z z z z z g w 0 > X $ $ : f 7 0 , , 0 , , 7 , 0 , 0 7 0 0 , 0 7 0 , 0 7 f & , 0 $ $ $ % X $ 7 0 , 0 ; 0 0 7 7 : 0 , , 0 & & , 0 , 7 0 , 0 $ 0 $ 0 0 $ $ X $ $ $ $ , 0 , : f 0 $ 0 , 0 & $ 0 0 0 , 0 0 , , 0 , & , & 0 0 7 $ X ",
"w 0 y.^.f.~.W.F.y.!.^.y.e./.G.H.!.F., w $ > w h x j x x j j j j j x j x x h 0 x x x x x x x x x x c x x x g w > > w h v x v x x z x x j x x x v x 0 x x z x x x x x x j j x x v c w 0 % 0 w v x x x j j j v x j x x x v f h v x v z x x x x j j j v v x w 0 $ $ % g f f w 0 0 0 f 0 0 f f f f , : h 0 f 0 w f f 0 0 0 0 w w g $ $ X 7 w h v x x x l h x v x h x 9.9.l : v h x l x l l j h h l v x x h 0 > $ X > f f f 0 f 0 0 f 0 0 f f f $ , f f 0 0 0 f 0 0 : f f 0 0 , % $ X $ $ w 0 0 0 0 0 0 w 0 f 0 f f $ , 0 f f 0 f 0 f 0 0 f f f f 0 $ $ $ X $ f f f 0 : f 0 w f 0 0 0 f 0 % f 0 f 0 f 0 0 0 0 0 0 f g w $ $ ",
"w w 0 x h x g w e w j f 0 x 0 g v w w w $ 7 w x j w q h j x g f j h w w h v f v f g f g h g h x x h e w x x 0 > $ 0 h v w w h h v h g h x w f h v w v e h e h f h h x x j g g h v w 7 $ q g v w w f j x h g g x f g w v f v h w f h f g h j v j g e g v w 0 X X $ f $ $ ; 0 0 0 & $ f $ , $ w , 0 f $ $ ; > 0 ; 1 f f & , , f > X % 0 0 v h w w x h x h f x h w g h j g v w g g g g g g x x h f 0 v x 0 > % % 0 f $ ; , 0 f $ , f & $ 0 f , f 0 $ & & , $ , f f 1 ; > 0 w X $ X $ > f $ $ 0 0 f , $ 0 0 $ $ f 0 7 f $ , 0 7 , & 0 f f , % 0 f % $ X $ $ f , 7 0 0 f 0 ; , 0 $ , , f $ f $ , , ; 0 $ 0 f 0 , 0 $ f $ $ ",
"0 w 0 0 0 0 0 0 0 w 0 0 e 0 w 0 7 0 w w $ , w h h w w j.j.j.j.v j.y.w 0 g x g v w 7 u.H.E.t.t.D.E.u., w h h w $ > w h h 0 0 t.j.j.D.w.y.D.f 0 w v w v 0 0 x F.F.j.u.j.E.j.q q g x w 7 $ w g j w 0 w.j.y.F.e.w.F.j 0 0 v f x w 0 f F.F.F.w.y.E.H.w 0 w x w 0 $ $ $ w & $ : 9.9.u.j f u.k $ $ 7 & 0 f $ $ 9.u.i.k x u.u., $ $ f ; $ $ 7 w x f 0 w j.f.j.f.x j.y.0 q g x g v w 7 t.F.E.u.y.H.E.e.7 0 h h 0 > $ $ 7 0 % , u.9.9.9.g u.j $ $ f $ f , $ 0 u.u.9.j u.i.9.$ $ 0 w X $ $ % > f $ $ 9.9.9.u.f 9.9., $ 0 7 0 , $ , u.u.9.g 9.i.u.$ $ , 0 % $ $ % $ f $ % k 9.j 9.k j u., $ 0 f 7 f $ $ 9.u.i.k j i.u.0 $ $ w $ % ",
"w 0 0 w 0 w w 0 w w 0 0 w w 0 w w w w w $ 7 w x g 0 w w.E.y.E.y.y.j.f 0 g x w x w 7 v ).E.j.f.u.F.r.0 0 h x 0 7 $ w h x w 0 x W.y.F.j.f.j.h 0 w v 0 v 0 w g Q.W.j.j.w.j.j.w w g j 0 0 X 0 e v w w f E.j.D.k.y.j.v 0 0 v w v e w f F.~.D.j.w.y.E.e w w v 0 0 $ X % w > > $ 9.u.9.i.j 9.j $ $ , 0 & 7 , $ 9.k.u.9.j j u.f % $ f $ X $ 0 0 j h w w t.W.y.F.j.f.f.0 w g x e x w 7 w.).E.j.y.w.E.e.0 0 h h 9 > $ X 7 f $ $ 9.t.9.u.9.9.j $ $ f , f , $ , k.y.9.9.h u.9.$ $ 7 0 X $ $ % 7 w $ $ k y.j i.9.9.9., $ f , 0 0 $ $ i.y.u.9.g 9.u., > ; w $ X $ X $ f $ $ f i.9.u.u.9.9.f % , f $ f $ $ 9.k.u.9.k j i.0 $ $ q $ $ ",
"w w w w 0 0 w w 0 w w w 0 0 w w w w w w $ 7 0 x h 0 0 v x e.v 9.w.j w w g x e v 0 w f x h v x f v x 0 0 x h 0 > $ w h x 0 0 x v u.x w.v w.0 w w v w v 0 0 w x x x v g x w.q 7 g v w 9 % 0 g j 0 0 h w.w.w.w.v e.w w 7 v w x f w 0 x x h u.f h u.w 0 w x w 0 $ $ % w > $ , h g k g g k 0 $ $ 0 0 , 0 $ $ 0 g 0 k , , k f $ $ f $ X $ , 0 v g 7 w 9.x w.x x u.x 0 w h x g v 7 w w 9.g w.h f w.x 0 0 x x f > X $ 7 w $ $ g f k f f k f $ $ f $ f $ $ $ g 1 g g $ g g $ $ , 0 X $ $ $ > w $ $ f f j f f h f $ $ f & , w $ $ f f f k , f g $ $ $ w % $ $ X $ f $ $ f g k f g g k $ $ , 0 , f $ $ f g , k ; f k , $ $ w $ $ ",
"0 w w 0 w 0 0 w 0 w w 0 w w w 0 w 0 0 w $ 7 0 v h g w w w 0 w w 0 w e e h v w v w f f w w 0 w w w w e w x x 0 > > w c x w f f w 0 w w 0 w e f h v w v w f g 0 w w w g f 7 g g g x w 0 $ 0 e v w g e w 0 0 0 w 0 f e w v w v x f f f 0 w w f w w w w w v w 0 X $ X w 7 , , $ $ $ $ $ $ $ : $ f 0 0 0 $ , $ $ $ $ , $ $ $ 0 $ g $ $ X 0 0 v h e f w w 0 w w w w g q h j g v w f w w w 0 w f w w g 0 x h w ; $ % 0 0 $ 7 $ ; $ ; $ $ $ 0 $ f $ f 0 $ , $ , $ $ 0 $ , 7 > 0 w X X $ % ; g $ , $ , $ ; $ $ $ $ $ f 0 0 0 $ : $ $ % $ > > > > > , q $ X $ $ $ g 7 $ ; $ $ 7 $ $ $ ; , 0 0 7 f ; , , $ 7 $ $ , $ 7 7 $ f $ X ",
"0 w w 0 w w 0 w w w 0 w w 0 w 0 w w 0 w $ 7 0 h v v v x v v x v v v x v v h w v v x v v v v v x v x x x x h 0 > $ q g v x x x v x x x v x x v x x 0 x v v v v x v x v v v v v v h w 7 % w w v v x v x v v x x v v x v v w h v x x v v v v x v x v x v x 0 0 $ $ $ 0 f f f f f g g f g g f f f 7 , f f f f f h f f f g g f f g $ X $ 9 0 g v v v v x v v x x x v v v h e v v v v v v v v v v x x v v h w $ $ $ $ g f f f f f f f f f f f f , 0 h f f f f f f f f f f f f 7 X $ $ $ % g f g g f f f f f f f f f 0 $ f f g g g g g f f f f f f w X $ $ X $ f f f f g g f f f f w w f 0 , f f f f f f f f f f f f f w $ $ ",
"w w 0 w w w 0 w 0 w w w w 0 w w 0 w 0 w % 7 w 0 0 w w 0 w w 0 0 0 0 7 w w 0 w 0 f w 0 0 0 0 w w 0 0 0 0 w w w $ $ g 0 0 0 w w 0 w 0 0 0 0 0 0 0 0 w 0 0 w 0 0 0 0 w w 0 0 0 0 0 0 w 0 $ 0 0 0 0 0 0 0 w w w 0 0 0 0 w 0 w w w 0 0 0 0 0 0 0 0 0 0 0 0 0 w 0 $ $ $ % $ $ , $ $ , , $ $ $ & $ $ $ $ $ , $ > $ $ $ , $ $ $ $ > $ $ $ X > w 0 0 0 w 0 0 0 0 0 0 0 0 0 w w w 0 0 0 0 0 0 0 0 0 0 w w 0 0 0 w > $ % $ $ $ $ $ , $ $ , $ $ , $ $ $ $ $ , $ , $ $ $ $ $ , $ , $ $ $ % $ % $ $ $ $ > $ $ $ $ $ , $ , $ $ $ , $ & $ $ $ , $ $ $ $ , $ $ $ $ % $ X $ $ $ & > $ $ $ $ $ , $ $ $ $ $ , $ $ $ $ $ , $ $ , $ $ $ $ % ",
"0 w 0 w 0 w w w 0 w 0 w 0 w w 0 w w w w $ 7 w w w w 0 , f f w w w w w w w w w , , f w w w w f f w w w w w f w $ $ e 0 w w 0 f , 0 w w w w w w 0 w w w , 0 w w w w w w w w w 0 w w w > $ w w w w w 0 0 0 f f w w w w w f w , , 0 w 0 w w w w w w w w 0 w w 0 X $ $ 0 $ $ $ $ $ $ $ $ , $ > $ , 7 , $ $ $ , $ , > $ $ , , > $ & $ > $ , w w w w 0 0 0 0 w w w w 0 w w w w 0 q 0 w w w w w w w w f 0 0 w w $ $ > > > > $ $ $ $ 7 $ $ , $ 0 & $ $ $ $ $ , $ , $ , $ > & $ $ $ , $ $ , $ > > , $ $ $ , $ 0 $ $ , $ 7 $ $ $ $ $ 7 , $ , $ , $ , $ & $ $ $ > > 0 $ $ $ $ $ , $ , $ , $ , $ 7 $ $ $ 7 $ , $ $ , $ $ , $ , $ , ",
"w 0 w w 0 0 0 0 0 0 e 0 0 w 0 w w 0 0 w $ 7 w w f 0 l F l q 1 f w w w 0 f f w p F l 0 f w 0 0 , w 0 0 w e 7 0 > $ e w w , w l d e w 0 w w w 0 w 9 3 l b b 9 3 w 7 w 7 w w 0 w f 0 w 7 $ 0 0 w , w b b s f , w w 0 0 w 0 3 e b c g 3 w w w 0 0 w 7 w g w w 0 $ > , $ $ $ f f 0 $ $ , $ , $ , $ $ 0 f w $ $ $ $ > $ $ $ $ $ , $ $ > $ 0 w w 0 0 c z z g 0 w w 0 w w w 7 9 z d.z 7 w 0 w w 7 w 9 w h w 0 0 > $ , $ $ $ , f f ; $ $ , $ $ 7 $ $ 7 f f $ $ $ $ , $ $ > $ , $ $ $ $ $ , > $ $ $ 0 f 0 $ $ $ $ $ $ , $ 0 g f $ $ $ $ $ $ $ , $ $ , $ $ $ $ > $ $ $ $ 0 f 0 $ $ 7 $ $ , $ $ $ w g 0 $ $ , $ $ $ $ $ $ 0 $ % $ ",
"0 w w 0 0 f.h f.h h W.0 G.y.> w w 0 w w $ > f 0 f ( ( K ( 4.L f w 0 0 w , H ) ( ( ( ( h 0 w 0 G.G.h h x c x e , $ g w 0 G #.#.+.#.J w w w 0 w 0 i #.#.o.#.#.i , f 0 D.W.x h h x h h , X w w 0 b $.O.] O.$.e 0 w w w 0 e O.$.O.O.$.b 0 f 9 w.~.w.h h x h h 7 $ $ 7 $ 0 x j k j x w $ , $ > $ $ h j h j x j $ 7 $ f j.x , 0 f , f $ X , w 0 f d.a.a.a.a.q.0 w w w 0 0 d.a.h.s.a.h.w w w w G.F.h h x h x w $ $ $ , > h x k h w.k , $ $ , $ , j v h h w.h $ $ $ u.y.0 , 0 0 0 > $ $ ; $ $ f v j h j 9.0 $ $ , $ $ h j h h w.j $ , $ j j.f , 0 f 0 , $ $ $ > $ f j h j j x 0 $ , $ $ $ f v h j j j : $ $ f j.j 0 , f f f $ ",
"w w w w 9 (.^._.!.W.!.W.'.y.> 0 w 0 w w $ 7 f f ( D $ # % 8 ) L , w w 0 H ) y # X $ P ) g > y.W.e.e._.!.W._.D.X > w 0 O.#.7 X X = O.+.f w w 1 d #.a % X $ i 1.d 9 x ^.e.e.!./.G._.W.$ $ w 0 b $.9 # . $ d $.h w w w f $.d $ . $ 9 $.b f 9 ^.y.e.F._.G.(./.f X > $ 0 w.:   o   $ v 0 $ $ $ $ j h % o . % j h $ % t.w.k j F.y.j.F.f $ , w w a.d.$ X X 3 a.d.0 0 w 0 d.a.< X X $ d.a.e > j.G.r.r._.G.~._.f.X $ > $ h k # o . . h j $ $ $ $ j f .   % % v g % g j.j k j.j.y.F.y.% $ $ $ g x %   o . f x > $ , $ h h # o   # j j $ ; j.j h t.H.t.F.j.> $ , $ 0 x , .     ; w.f $ $ $ f v %   o . f v 7 % j.x j x F.t.j.H.f ",
"w 0 0 w , /.D.'.G.!._.!.^.f.9 w w 0 w 0 $ , 0 H ( # $ $ $ . 7 ) l 0 0 h ) q % $ $ $ * D K , r.!.!.'.'.'.^.D.G.. > 0 p #.$ X > > % # o.d , w w +.d # $ $ % . a #.0 h ~.G.'.'.'._.D.!.0 $ w f $.9   , $ $ * ] ] , w w ] ] . # $ $ % 9 $.h 7 !.F.'.'.NX_.F.W.v X > $ j w O . . % o ; x $ , $ f x % . X . o . j f % t.t.E.F.Q.G.y.u.x . 7 0 d.s.. $ $ X X , a.e 0 0 g a., X $ $ $ o s.d.> f.W.^.'.'.'./.D.G.. > $ w x .     . . . j f $ $ j h o . % .   % x ; 0 y.y.E.E.E.H.9.y.$ $ 7 ; v $   . . . o h h $ $ w j   o . . o . j w $ j.e.E.F.Q.F.u.y.0 . $ $ j 0 o . . . o 7 j $ $ 0 v %   X . . o h h % y.e.E.F.Q.F.y.t.x ",
"w w 0 w f e.f v D.y.x e.H.F.w.0 w w w w $ , f ( u # O . $ $ . D G , < F ( # o o $ $ # t ( g 7 f.F.y.D.e.e.x v > > 0 G Z . o O > $ . i +.0 w h #.$ $ X X $ X = #.h 7 v G.y.H.g.r.x w., # 0 b O.X $ $ X $ % 7 $.e w w $.0 $ X . $ X X ] b , x G.f.D.y.e.x v w % $ 7 v %   . . . . . j 0 $ $ j f o . o . . o 0 h $ > e.x 9.9.h h g 0 X 0 0 a.3 X o X X $ X s.d.q 7 d.a.o   $ X X o 3 a.0 0 f.H.f.D.r.w.v v $ $ $ h f o % o . . o 0 j $ $ j $ . X o . . o h g $ h e.j u.j h f g $ $ $ g g   . O   . o $ j > $ j w   . o . . o w h % w t.j w.j j f g > $ $ , j . . .       X j 0 $ g h o       .   $ x $ 7 t.j w.x k g g 0 ",
"0 w w 0 $ 7 f 0 $ 9 0 0 7 f w w w 0 w w $ 7 g ( y > `.t.  $ . F K 1 & L D # Q.`.  $ % q ) q f 7 > 9 > 0 0 0 0 > > , O.d # W.E.o $ # s #.f , d +.$ X 0 0 X $ $ o.l 0 0 > 7 7 7 0 0 0 9 > , b ] % . f 0 . $ = O.e 7 w O.9 . > h X > X ] b 0 0 > , 7 7 9 0 0 0 $ $ 0 h X   % $ o . . j f $ $ j $ o . , . .   0 j $ $ X $ % $ $ % $ $ $ 7 w a.< 9 `.v o = X d.d.7 q d.5 e.IX_.o 7 X 3 a.0 0 , > > 7 9 0 0 0 > $ $ h 0 o o 0 . . . $ j $ 7 v % o % 1   .   f g $ $ X X % $ $ $ $ $ $ $ g g   X 9.% o % % x ; $ j ;   % , . .   7 x $ $ . $ % # $ $ $ $ $ $ 0 j X o % $   X % h 0 % k w     : #   X % v $ $ % # % $ $ $ $ $ ",
"w w 0 c D.x > x f.> 7 0 9 7 0 0 0 w w w % 7 f ( t (.IXj % $ # L L 0 0 F D 9.IXE.% $ % u ( f q f w w w w w w f 7 > , Z d y.UXj.. >   d #., w e #.; # IX~.O , 7 #.e w w f f f f f w w 7 % 0 c O.X 0 UXy.  % 7 O.f f w $.s O BXBXo > % O.b , w f f f f f f f 0 $ $ $ v %   NXE.O * . j 7 $ $ j f O t.NX% .   w g $ & > > , , $ , $ > $ 7 w a.2 '.IXh X $ X s.d.0 7 d.V.l ).h $ $ . 3 a.9 f f f w f w w f f $ $ $ j g O i.BX% * o 0 j $ $ j 0 O Q.).O # o k f $ , , > , $ , , $ $ $ $ f j O Q.BX% .   ; x $ $ h g O u.NX. .   w h % $ , , 0 $ $ $ & $ $ > 7 j % * NXy.O # % v , % g j o 0 BXh o . $ x $ $ 7 , $ $ $ $ $ , ",
"w e 7 F.'.G.D.!.G.G.D.D.G.W.y.!.w.9 w 0 $ 7 , H wXh X   $ # t ) g 0 f , aXA.O O $ % % ( H , f w w 0 w 0 w w f $ , f 0 yXH # o $ . > #.i 0 w , #.Z f BX, X . Z +.0 w w w < & w w w w 7 $ 0 0 $.s u.NXX $ % O.] 0 w 0 b O.% BXw.* % s $.w w w w w w 0 0 0 w 0 $ $ $ k f $ Q.% o o w x $ , $ 0 v . E.i.O . % v 7 $ $ $ $ $ , $ $ $ > % 7 0 d.C.w X . $ X 3 a.0 0 0 c SXd.O . $ $ X a.q.7 f w w 0 0 w w w f > $ $ 7 w.o H.y.O o % x 0 $ $ g j o Q.k o . ; j 7 $ $ $ $ > $ $ $ $ $ $ $ 0 w.$ i.f O %   j g $ $ 0 v   E.i.O . # v 0 $ $ $ $ $ , $ $ $ $ $ $ $ h f $ ).% %   f j $ , $ v $ 9.E.O .   j g $ , $ $ , $ $ $ , $ ",
"0 w > H.NX~.NX_._.NX/.(.'.W.'.NXD.7 w w $ 7 f , eXaX% = $ 8 4.F 0 w f , p.fXb # $ $ D ( 0 w 0 9.9.9.9.9.9.9.g , $ g , S.yX0 $ $ , +.G 0 w w 0 w 5.O.o % < d #.e w w k 9.9.9.9.9.9.j 7 $ w 0 s [.b o $ $ ] O.w 0 w w 7 $.S.o % $ q $.s 0 w g 9.9.9.9.9.9.j 0 $ $ $ $ e.v O . * ; 9.; , $ $ $ h y.% o % % j h $ , $ 0 0 0 0 0 : 0 > $ > w q mXC.$ > X w a.c 0 w w 9 h.GXz X $ $ d.h.0 w 0 j 9.9.9.9.9.9.f $ $ , $ f y.$ o X % h h $ , $ $ x r.o . . $ w.0 $ $ , 7 7 : 0 0 0 $ $ $ > $ : H.$ o # . g j $ , ; $ g y.% o . . j h $ $ 7 0 0 0 f : 7 0 $ $ $ & $ y.x O . % 7 v 7 $ 7 $ 0 y.: O % X h h $ $ , 7 f 0 0 0 f & $ ",
"w w > y.K.F.W.H.D.G.F.(.W.G.!.!.x 0 w 0 $ 7 f w f H w w w g i 0 w w f f f b l 0 f f l g f 0 0 j 9.9.9.9.9.9.k $ $ f w 0 O.e 0 w e i 3 w w w w , b b f w 0 i e w w w z 9.9.9.9.9.9.k 7 $ w w , b x f q g s e 0 0 w w f g ] w w w h h f w 0 g 9.9.9.9.9.9.j 0 $ $ ; > f f , $ , 7 f $ $ $ $ , $ h $ $ $ , 0 , $ $ $ 0 0 7 0 0 7 7 $ $ , w q e d.w 0 0 z z w w w w e q c c w w w z w 0 w w 9.9.9.9.9.9.9.g $ $ $ > $ k : $ $ ; f $ $ , $ $ : g $ 7 $ 7 f $ $ , & 0 0 0 0 0 0 7 $ $ > ; $ g w $ $ , 0 7 $ , $ > > g & > $ , w $ , $ , 7 : 0 0 0 0 7 $ $ $ $ $ f f $ $ $ 0 7 $ , $ $ $ h f $ $ $ 0 7 > & $ : 0 0 7 : 0 0 $ ",
"w 0 w 0 w 7 f f 0 0 0 0 0 f 0 w w w 0 w $ $ w w 0 > f , 7 0 7 0 0 w w w 9 , 0 , 0 , 0 > 0 0 0 9.9.9.9.9.9.9.k $ $ w w w , 0 0 , 0 > 0 w w w 0 9 7 0 0 , 9 0 , 7 w 7 k 9.9.9.9.9.9.k 7 % w w 7 7 0 9 0 $ 7 7 0 w w e 7 7 f 0 , 0 7 9 ; w : k 9.9.9.9.9.9.9.7 $ $ $ $ $ $ $ $ $ $ $ $ $ , $ $ $ $ $ % $ $ $ % = $ $ f 0 : 7 : f $ > % 7 w w 9 ; w 0 9 0 ; w w w w 0 > 7 0 7 0 > 7 0 0 w w 9.9.9.9.9.9.x f > $ $ $ # $ $ % $ % $ $ $ , $ $ # $ $ $ $ $ $ % 7 $ 0 0 0 7 0 , 0 $ $ $ > $ % $ $ $ $ % % % $ > $ $ $ $ $ $ $ $ % % $ > 7 f 0 0 0 7 0 0 $ $ $ , % $ $ $ $ $ % $ $ > $ , % % $ % $ $ $ % $ $ , 0 : 7 0 0 0 0 $ ",
"w w 0 w , $ 7 0 > w w 0 9 7 w , 0 0 w w $ 9 w 0 j e.0 x g.h D.0 w 0 0 0 D.h 7 K.h f.h f.x 0 0 9.9.9.9.9.9.9.g $ > w w f y.0 e f.g K.f w 0 f 7 f.e.> y.v r.v e.e.0 w 9.9.9.9.9.9.9.k 7 $ w w f.v , f.x y.x y.v 9 w 0 v g., w.e.x e.x f.0 0 k 9.9.9.9.9.9.z 7 $ $ $ j h % j f k g g j $ $ $ 0 9.$ 0 9.0 9.0 9.> $ $ w 0 0 0 0 0 0 > $ 7 f 0 x e.7 v y.j y.7 w w w 9 D.h 0 D.h f.x r.f 0 w 9.9.9.9.9.9.9.g $ $ $ 0 v , 7 w.0 x 0 x 7 $ $ h j $ g j f j f x $ $ 7 0 0 0 0 0 0 & $ $ $ > x 0 $ 0 g j w x w $ $ 0 9.> 7 9.0 9.0 v , $ $ 0 : 7 0 & 0 7 $ $ $ $ x g $ j f j g j h $ $ , w.w $ x 0 x 0 9.0 $ $ 0 0 0 0 0 0 0 $ ",
"w 0 h G.g.K.y.x f.w 0 v f.f.h r.G.y.7 f $ 7 w , f._.$ W./._.~.e., g 0 y.(.D.e.^._.!.'./.G.0 w z 9.9.9.9.9.9.f > $ w 0 x NX9 D.^._.~.D., f 0 v ^.G.x ^././.(.(.~.f 0 j 9.9.9.9.9.9.k : $ 7 e./.H.v ^._.~._.^.G.0 w w ~./.v W./._.!.'.^.v ; k 9.9.9.9.9.9.j 0 $ $ 0 j.y.f y.H.D.D.H.y.0 $ $ t.D.g w.D.F.y.F.j.x % , 7 0 0 0 0 0 0 > $ , f > D./.$ !./._.~.w.0 f 7 j._.D.y.^.'.~.G.`.v , f 9.9.9.9.9.9.9.g > $ X u.H.j x j.F.y.F.j.w.% $ y.H.f y.j.F.j.F.j.h % 0 7 0 0 0 7 7 7 $ % $ j H.t.. k.H.E.u.j.t.$ % e.H.g u.D.F.y.F.j.v % 7 0 0 0 0 , 0 , $ $ $ f D.y.f j.H.j.H.k.y., # j D.w.h D.F.y.E.D.y.% , 0 0 , 0 0 : 7 , ",
"f 9 y.~.(._.!.W.!.0 0 /._.(.G./.D.E.7 f $ , w 0 h W.0 W.F.'.D.D.> f > D.H.F.D.D.NXf.NXD.W.9 w 9.9.9.9.9.9.9.g > $ w f 7 W.w G.f.BXf.G.> w 0 r.G.G.D.D._.G.(.!.G.j 0 k 9.9.9.9.9.9.z 7 $ > D.H.G.D.D.NXf.NXH.!.w w h G.F.f.H.W._.F.'.H.y.; k 8.9.9.9.9.9.z 0 X $ g t.y.9.u.F.y.k.j.t.f $ $ y.u.w.u.w.Q.x Q.x e.$ $ & 0 7 & 0 0 7 > % 9 w 0 x W.0 G.G.'.D.f.> f 9 D.H.F.f.K.NXD.F.F.w.7 & 9.9.9.9.9.9.9.g $ $ $ t.w.u.u.u.Q.j ~.9.u.# f y.r.9.u.y.F.w.E.9.j % 0 0 & 7 0 & 0 , $ $ # w.u.e.x ~.y.g Q.w.y.$ $ t.u.u.w.w.Q.j ~.x t.X , : 0 7 : 0 0 7 $ $ % j e.t.9.w.F.t.F.t.y.f % w.u.u.w.9.Q.j Q.9.y.$ $ 0 0 7 & 0 0 7 $ ",
"w 7 r./.D.H.G.D._.f.0 G.D.H.D.G._.H., f $ 7 f 0 h D.r.F.~.H./.h 0 w w j /.G.y.^.D.^.D.^.f., w ] v ] O.] b b h > > w w 0 D.r.D.^.D./.e.0 w 0 w !.W.f.Q.G.!.G.G.G., 0 b O.] b O.] b l > > 0 h /.G.f.~.H.~.H.^.D.9 w 7 F.^.f.G.W.G.!.F.^.f 0 l b b b b ] H b , X > $ j.y.9.j.y.y.y.y.y.$ & $ x H.9.w.H.u.D.u.D.g $ , 0 0 0 0 7 q 8 > $ > w 0 x D.e.G.~.H.^.h 0 w 0 x /.F.f./.D./.e.j.x 0 w Z b ] ] v b ] h $ $ $ j F.u.9.D.u.D.u.D.g $ $ u.D.9.y.y.t.j.u.j., $ 7 0 9 0 7 0 9 7 $ $ $ f F.t.x e.y.t.u.D.x $ $ j H.u.w.j.u.j.w.H.g % 9 7 w 0 7 q w , $ $ $ > j.y.x k.y.y.y.y.y.$ $ 0 H.t.x H.u.D.u.H.9.$ > 0 0 8 0 0 7 0 $ ",
"w 0 h H.g h e x v H.w h h h c x K.e.7 w $ 7 f w w 0 w 0 0 7 0 0 w w w 7 w 7 w w 0 0 0 0 0 w w  .$X| $X$X$X$Xd $ > w 0 w 0 w 0 0 0 0 0 0 w 0 0 0 0 0 0 0 0 0 0 0 w 2  .$X$X$X$X| $X} > X 0 0 0 0 0 0 0 0 7 0 0 w w 0 w 0 0 0 0 0 0 9 0 w 1 } $X$X$X$X$X$X .1 $ > $ $ $ $ $ $ $ $ $ & $ $ $ $ $ $ $ $ % $ $ $ $ $ 7 r @ @ r 9 @ s $ $ 7 w w 0 9 w 0 w 0 0 0 w w 0 0 0 0 0 0 9 0 0 0 w 0 e 6.$X$X$X$X$X$Xd $ $ $ $ $ $ $ $ % $ $ $ $ $ , $ $ $ $ $ $ $ $ $ $ > 9 r s a @ r a 7 $ $ $ $ $ $ $ % $ , $ $ $ , $ $ $ $ $ $ $ $ $ $ $ $ 7 r r r s @ a 9 $ $ , $ $ $ $ $ $ $ $ $ $ $ , > $ $ $ $ $ $ % $ $ $ 7 r @ s @ @ s r > ",
"0 0 0 0 0 0 0 0 7 0 0 0 0 0 0 0 , 0 0 w $ , w w w w w f w w w w 0 w w w w w w w w 0 w w w w g VXCXCXCXVXCXCXi.X $ w w w w 0 w w w 0 w 0 w 0 w w w w 0 0 w w w e w 7 MXCXCXCXCXCXCXQ.X > w w w w w w w w w 0 w w w w w w 0 w 0 w w w 0 f q b.CXCXCXCXCXCXVX; $ $ , $ 7 , $ $ $ , $ $ > < , $ , $ , $ , $ , , $ $ $ w 0 0 0 0 0 ; > X 7 f 0 w w w w w w w w 0 0 w w 0 w w w w 0 w w w 0 w x 9.x 9.0.9.w.g $ $ 7 $ $ 7 , $ , $ , 7 , , $ $ $ , ; , , $ & $ , , 7 0 7 w 0 0 0 > $ % $ , , $ $ , $ $ , $ $ , $ , & $ , $ , , $ , , $ 0 0 : 0 8 0 0 7 $ $ $ , $ > $ 7 < $ , $ $ , $ ; $ $ > $ $ $ $ , $ $ 0 0 0 7 0 0 0 ; , ",
"w w f w w w w w w w w w 0 e w w w w w w $ > w w w w w f e w w w w 0 0 w 0 w f f w w w w w 0 k CXCXCXCXCXCXCXi.= > w w w w w w 0 w w w w 0 w w 0 0 w w e w 0 w 0 w 0 b.MXMXb.MXMXMXh.> $ w 0 w 0 0 w 0 e w w w w 0 w 0 0 w w w w w w w w q i.MXb.MXMXb.MXl., X > $ , $ $ , $ 7 $ > > > $ $ > $ , $ , $ $ $ $ $ , 7 7 0 0 0 , 0 0 , $ 0 f w 0 w 0 0 w 0 w w w 0 w w 0 w 0 w w f w w 0 w w 9.9.9.9.9.9.9.g $ $ , $ , $ $ $ $ , $ $ $ $ $ , $ $ > > > > $ $ $ $ 0 0 0 7 , 0 0 , $ $ & $ $ $ , $ , $ $ , $ $ > $ > $ $ , $ $ , $ , $ $ 0 7 0 0 0 7 , $ $ $ $ > > & $ $ & $ $ , $ , $ $ , $ , $ , , $ $ 7 $ f 0 w 7 0 0 0 $ ",
"w w f f 0 w 0 0 w w 0 w w f w 0 w w 0 w $ 7 w w g w 0 , < f w f w w 0 w g q 0 , < 7 f w w 0 f MXVXVXVXVXVXVXi.% , w 0 w w w < 0 0 f w w w 0 w w w 0 , , , f 0 0 w 0 f g k k k k 9.h ; % 0 w w f f 0 , w 0 w w w w 0 w w 0 0 0 0 0 f w 0 9 f k g k k k k h w $ $ $ , , $ $ $ % $ , $ $ , $ , $ $ % $ $ $ & $ 0 $ $ w 7 0 0 0 0 , $ $ 0 0 w w 0 q 8 0 0 w w 0 w 0 w w w 0 8 7 0 0 w 0 0 w x 9.9.9.9.9.9.g 7 $ $ $ , $ $ $ $ % $ $ $ $ > , , $ $ $ % $ $ 0 $ $ $ 0 0 : 7 0 : $ $ $ , > , $ $ $ $ $ $ , $ $ 7 $ = $ $ $ $ $ $ , $ $ : 0 0 0 0 0 7 & $ $ $ $ , $ $ $ $ $ $ $ $ $ , , $ $ $ $ $ $ $ $ > $ $ 0 0 7 0 0 : 7 $ ",
"w f 7 7 0 > x g 0 7 h w 7 9 0 0 0 7 x f $ 7 w w 1 f F L L p 0 0 w 0 0 w f q l L K H e 0 w w w g 8.1 9.1 1 8.f $ $ w w w 0 p G O.d w 0 w w w w f w e H O.H h 3 e w 0 9.9.9.9.9.9.9.k 7 $ w 0 0 0 h ] ] b w 0 w w 0 w w 0 w b ] b l 0 0 w f j 9.9.9.9.9.9.j 7 $ $ 7 $ $ ; h k h , $ $ , $ , $ $ 7 0 h j 0 > $ $ $ $ 0 : 0 $ 0 0 0 > % 7 w 0 0 0 d.d.d.z 0 0 w w w w w 0 5 d.d.d.h 0 w w w 9.9.9.9.9.9.9.g $ $ $ 0 > $ w h k f 0 $ , , $ ; $ , f j h 0 $ $ , % 0 0 0 0 0 0 0 0 $ $ $ $ $ $ 0 h h f , $ , $ $ , $ $ f h k f $ $ $ , $ 0 0 7 0 0 0 0 $ $ $ , , $ 7 g h h 0 $ , $ $ $ , $ 0 j h f , $ , $ & 0 0 : 0 0 0 0 $ ",
"G.> K.c v e.D.D.x v G.W.f w.x e.x v _.h $ , w 0 l 4.( P L ) ( f 0 w w w g L ( P F ( ) l , f 0 9.9.9.9.9.8.9.: ; $ w w w #.+.Z Z +.#.e 0 0 w w , H #.O.Z o.#.Z 0 w w j 9.9.9.9.9.9.k 7 $ w w 0 ] $.b d ] $.b 7 f w w 0 b $.] d ] $.] w w w j 9.9.9.9.9.9.z 0 $ $ $ $ g x h f g v h $ , $ $ > 0 j j f w j x > $ , $ : 7 0 f 7 0 ; > X , w 0 z a.s.s.d.a.s.0 0 0 w w w d.a.s.5 s.a.z w w w z 9.9.9.9.9.9.g $ $ $ $ ; j j f g x j 7 $ $ $ $ 0 x h f g x j $ $ , 0 0 0 7 0 $ 0 $ $ $ , $ > j j f f k v 0 % , $ $ 0 x h h g j j $ $ 7 , 0 0 ; : 7 0 $ $ $ $ > $ f v g 0 h 9.g $ , ; $ $ k j g 0 h x 0 $ $ $ 0 7 & ; 0 0 , $ ",
"F.x ~.!.~.G._.'.v (.'.^.^.NX/.G.NXW.(.e % 7 0 e ( C * # # % L ( 0 w w , L ( $ . % % p 4.l 0 f j 9.9.9.9.9.9.k & $ w , #.Z # * # . d 1.w 0 w 0 d o.9   .   > #.b 0 f z 9.9.9.9.9.9.j ; $ 0 0 ] $.> X % % s $.h 0 w 0 h $.s % % . $ O.] 0 w z 9.9.9.9.9.9.j 0 $ $ $ g w.% o o o % v f $ $ , ; j f   o o . f x $ $ 0 0 0 0 0 : 0 0 $ $ 0 0 g a.5 X X o X a.d.0 w w 9 h.s.> X X X z a.g 0 w 9.9.9.9.9.9.9.g ; $ $ , j f . o o o 0 v $ , $ 7 9., o o o X j j $ $ 7 7 0 : 0 f 0 , $ $ $ $ h h % o o   $ w.7 $ , $ 9.g o o o o g w., $ $ 0 0 0 0 0 0 7 $ $ $ $ f x %   o o $ x f $ , $ h h % o     , v 0 $ $ 0 0 0 0 0 0 0 $ ",
"'.D.!.!.~.W./._.^.NX'.y./._.W.'.'.~.(.v $ 7 f L D * O % $ X $ ( l 0 w l ) = % $ $ $ . P K 1 f 9.9.9.9.9.9.9.g $ > , b +.% $ $ $ % . O.H < 0 0 #.r . $ $ $   a #.w 0 z 9.9.9.9.9.9.z 7 $ f g $.> . X > X . d ] f f 0 ] d . $ $ $ # $ $.h 0 g 9.9.9.9.9.9.z w % $ $ x $ . X . .   $ j , $ $ f j   % . . . o k f $ $ 0 : 0 0 7 0 7 > $ 0 7 s.d.o > $ X X $ a.z 7 0 z a.X X 7 $ $ o d.d.7 f k 9.9.9.9.9.9.g > $ $ f h o . % . . o k h $ $ j f   * X .   . j 7 $ 0 & 0 0 0 , 0 & $ % $ 0 x %     .   o f j $ $ f k o % % %   o k f $ 7 f 0 7 0 0 0 , $ % $ $ x % o % % . o $ j $ $ 0 j % . % X . o 0 h $ , w : 7 0 0 0 7 $ ",
"f.v v h h e.f h v v h h f x v w.x v b F.$ , f eXp NXIXj . = . D L , ; H K % $ o X $ # 8 ) g 0 9.9.9.9.9.9.9.g > , , O.Z o   $ X $ % p o.0 0 b o.$ $ . . $ $ $ #.l 0 j 9.9.9.9.9.9.k 7 $ 0 b O.X 0 h X > X 7 $.g w w $.0 $ X   $ $ % ] b 0 k 9.9.9.9.9.9.k 0 $ $ 0 x % O O       X j 0 $ $ j 7   o O . . o 0 j $ $ 0 7 0 0 : 0 0 $ % 7 w a.w X X o > $ . d.d.q 7 d.s.o $   X 7 X < a.w w 9.9.9.9.9.9.9.g $ $ $ j w   X O   % o , j $ $ j $     O . . o h h $ 0 0 7 : 0 0 0 $ $ $ % h h o . $ o . . $ x $ $ j 0   . O o %   , j $ $ 0 0 : 0 0 0 7 $ $ $ 0 j   % o o . . . j 0 % g g o . O   .   $ j $ $ 0 0 0 0 7 0 & $ ",
"> 0 0 0 0 $ $ 9 , 0 0 0 0 0 9 0 0 0 w w $ 7 k aXH 9.(.h X X % H K 0 , H D # . D.f X % 8 ( g g j 9.9.9.9.9.9.g > > , O.a j IX(.O $ # r +.0 0 l #.$   w.w.. $ X +.l , z 9.9.9.9.9.9.j > $ 0 ] d f.UXNX. $ % > $.w w f $.0 . h f.X $ X ] ] , k 9.9.9.9.9.9.j 0 $ $ 7 j . u.NX%     o h f $ $ j 7 o * u.. . o 0 j $ 7 f 0 , 0 0 7 0 > $ 9 w a.3 o 0 f.X > X d.d.7 q d.s.X X D.w X X 3 a.f w 9.9.9.9.9.9.9.g > $ $ j f o . u.X o . 7 x $ 7 x $ o & 9.o .   f h % $ 0 7 0 0 7 7 7 $ $ $ h 0 k BXE.o . o % j 7 $ j 7   . 9.% o o 7 j $ > 0 0 0 : 7 0 : , $ $ 0 j % o k g o % . j 0 $ h g % O u.$ . . % w.$ $ f 7 0 0 0 0 0 , ",
"w w w w 0 e./.y.0 e 0 e G.f f w 0 w w w $ 0 < eXP.O O X $ % % ( F 1 f b ) . e.UXv X # u ( f q 9.9.9.9.9.9.9.g > > 0 H o.y.NXg $ $ * Z #., w e #.7 $ UXW.O + 7 #.w 0 j 9.9.9.9.9.9.g > $ , b [.h x > > X # s O.0 w f O.s O PXBXO $ $ O.d f k 9.9.9.9.9.9.k 0 $ $ ; x # ).k.  .   % v ; > $ k g O E.NX  . o g g % $ 0 0 0 7 & : 0 > % 7 q a.5 O PXBX. > X a.z q 0 c a.o D.UXh X X 5 h.; 0 9.9.9.9.9.9.9.g $ $ $ f k O k.NX. * o g h $ $ j 0 O ).).O . . j f % 0 0 0 0 0 & w 7 $ $ % f y.f 9.%   % . 7 v $ % h h O H.BXo % o g h $ > & 0 0 7 0 0 , $ $ $ 7 v X # BXu.o   % v 7 % w j o 9.BX0 o o & j $ $ 0 : 0 0 7 0 0 $ ",
"0 0 0 w > G.f.^.W.r.W.G.(.W.w w w w 0 w $ > , H aXH # $ $ # C ) w 0 w 0 ( P u.E.o X 7 ) F , w 9.9.9.9.9.9.9.f > $ w c yX#.O X > % r ,.h 0 w 0 O.o.c ^.% $ $ o.H , 0 9.9.9.9.9.9.9.k , $ f w [.Y.  X $ X > $.b 0 w 0 b $., ~.w . % d O.0 w g 9.9.9.9.9.9.9.< $ $ $ w.F.. O   .   h j $ , $ 0 w.% t.k O . $ v , $ $ 0 0 7 0 0 0 0 > X , 0 z v.< !.g . X 7.a.0 0 w 0 a.5 g.H.o X 3 a.z 0 w 9.9.9.9.9.9.9.g $ % $ , w.% e.j O . $ v 7 $ $ f x $ j.>   . w j $ $ 7 0 0 0 0 0 0 & $ $ , $ G.e.O   .   # x 0 $ $ , v $ t.h O . $ x ; $ 7 f 0 7 0 0 0 0 $ $ $ $ h h 0 k.o . . h h $ $ $ x 7 j u.O X % v f % $ f 0 : 7 0 : 7 , ",
"w w w w 7 F.D.~._.W.NXv '.'., w w 0 w 0 $ > f > P.aX> $ $ q ( l , w w 0 h eXF O > , K L , w 0 z 9.9.9.9.9.9.g > > g 7 O.yXh # > , +.d f 0 w 0 , 1.#.o 7 $ d #., f f k 9.9.9.9.9.9.k 0 $ w 9 c xX] # > $ ] ] 0 0 w w , O.J.  $ > s O.e w 0 k 9.9.9.9.9.9.k 0 $ > $ $ F.w.X % . 0 j $ $ $ $ $ w D.. . % $ x 0 $ & & 0 0 0 7 & 0 $ > $ 7 w 7 d.C.X $ > g a.w 0 w w 0 g C.7.o > 7 s.d.0 w w 9.9.9.9.9.9.9.g ; $ , $ 0 D.%   % $ x 0 $ $ $ $ j y.o X % $ x , , $ : 0 0 7 : , 0 $ $ $ $ $ 0 E.f . X X h h $ $ $ $ 0 j.%   % $ 9.w $ 7 $ 0 0 & 0 7 : , $ $ $ $ $ e.x O % X f j $ $ , $ > j.f o % X h g $ $ $ 0 0 7 : 0 0 7 $ ",
"0 0 w w 9 e./.w.r.W.e.G.g.K.h 0 w w 0 w $ , w w ; l f f w g h 0 f w w w f h j g w w g f f f 0 9.9.9.9.9.9.9.g ; $ g e , h w w w f h 0 w w 0 w 0 e h f f w h w w f w k 9.9.9.9.9.9.x 7 $ w w 0 w h w w w h q w w 0 0 f w s f f w g f w w w k 9.9.9.9.9.9.9.0 % ; > $ $ 0 $ , $ , ; > $ , $ 7 $ 0 7 7 $ , , $ , $ $ 0 0 & 0 0 0 0 > % 0 w w w c w w w f f 0 w 0 w w 0 g g e w w g w w w w z 9.9.9.9.9.9.g > $ $ > $ 7 7 , > > > $ , $ > > , 7 , 7 $ 7 > $ $ $ 0 0 0 & 0 0 0 7 $ % > > $ 7 , $ $ , 7 , $ $ > , > 7 > , > , , $ , $ & 0 0 7 0 : 0 7 $ % , $ $ 7 0 7 $ , 7 , 0 $ $ , $ 7 7 > 7 > 7 $ 7 $ 7 0 0 : 7 0 0 7 $ ",
"w w w 0 f 0 > 0 0 > 0 , 7 0 0 f 0 0 w w $ 7 w w 0 ; 0 0 7 7 7 e w w f 0 7 7 0 , 0 > 0 > 0 f f 9.9.9.9.9.9.9.h $ $ e 0 0 > w 0 > 0 $ w 0 w w w > 0 0 > 0 7 , ; , w w k 9.9.9.9.9.9.g > $ w w 0 > w w ; 0 ; 0 w w w w 0 > f 0 0 , 7 0 7 w 0 g 9.9.9.9.9.9.k 0 % $ $ 7 % % $ $ $ # $ > > $ > $ % % $ % $ $ $ % $ $ $ 0 0 7 0 , 0 7 > $ 7 w 0 > 0 0 > 0 , 9 , w 0 w 0 , 0 w > 0 > 0 > , w w 9.9.9.9.9.9.9.g > $ > $ % $ $ % $ % $ $ $ & > $ % $ $ % $ % $ $ $ , 7 0 0 7 0 7 0 7 > X > $ > % $ , $ $ % $ $ & $ $ $ $ > % $ % $ $ $ $ $ 0 0 0 0 7 f 7 > $ 7 $ # $ $ X $ % $ % % , $ $ # $ > % $ $ $ % % , , 0 0 0 0 0 0 & > ",
"0 0 0 x > 7 7 0 7 w f 9 > 7 0 7 h f w w $ > w 0 y.G.w r.D.D.F.q w w 0 h W.v e W.r.G.r.G.g.q q 9.9.9.9.9.9.9.g $ $ h 0 h G.0 h H.v G.h 0 w w 0 G.f.9 F.y.H.K.D.D.9 0 j 9.9.9.9.9.9.k 0 $ w 0 0 G.h g W.e.G.v 0 w w 9 f.G.> K.H.y.H.y.G.w 0 k 9.9.9.9.9.9.j 7 $ $ > $ w.j # t.9.w.9.$ , > $ g y., g y.k y.k y.0 $ , 7 0 : 7 0 0 $ $ $ 7 0 y.G.9 y.F.r.F.y.G.w w w h W.x e W.r.G.r.W.v 0 w x 9.9.9.9.9.9.g $ $ $ f y., f y.g t.k y.0 $ $ 0 y.0 f y.g y.k y.w % , 0 0 0 0 7 0 0 % $ $ , $ u.0 . j j y.h % , > , y.j $ y.h t.j t.j % , 0 7 0 : 7 0 , $ $ $ $ t.9.$ t.x u.j u.9.% 7 $ t.w.# w.9.w.9.w.w.% $ 0 0 , 0 7 0 0 $ ",
"w 0 v Q.F.!.H.g.F.w 0 D.W.G.e.D.G.j.9 f $ > w w w ^.v c (._.~.g 0 w > D.!.D.f.G.'.G.'.G.G.0 0 9.9.9.9.9.9.9.g $ $ f w h `.w h (.D.'.b 0 0 0 v !.G.e.W._.!.(.~.W.h 0 z 9.9.9.9.9.9.k , $ w w 0 _.v c '.D.'.e.0 w 0 h W.!.w.G.~._.G.'.G.r., k 9.9.9.9.9.9.j 0 $ $ > % y.w.$ y.H.D.y.0 $ > $ t.y.j u.y.E.u.E.t.u.. , 0 0 0 0 0 0 0 > $ 0 f !.!.e.G.!.'.G.'.G.y.9 , D.!.D.f.G.'.F.NXW.G.0 w 9.9.9.9.9.9.9.g > $ $ t.y.x w.t.Q.u.W.t.u.$ % t.y.v 9.y.Q.u.W.t.e.% 0 0 $ 0 7 : 0 $ $ % $ , , F.w # H.F.u.y.$ , % x y.u.k y.E.t.E.y.y.> , 0 0 0 0 0 7 & $ $ % h y.y.h y.F.y.F.D.y.0 $ f y.y.g y.H.D.H.k.y.f $ 0 0 0 0 & : 0 , ",
"w 7 y.!.^./.!.G./.0 0 ^./.^.G.^.H.G.7 f $ 7 f 0 y.!.h x '.v !.y.> f > f.W.G.D.G.'.F.NXG.!.0 w z 9.9.9.9.9.9.g 7 , g q 7 !.v 0 !.c H.G.> w 0 v W.W.D.G._.!.(.^.W.j 0 k 9.9.9.9.9.9.j 7 $ 0 w $ F.y.h r.^.e./., w 0 h W.W.D.G.!.'.!.'.E.r., g 9.9.9.9.9.9.9.7 $ $ > # x w.h y.H.j.y.f $ > $ t.y.t.t.t.E.u.W.t.u.. $ 0 0 0 : 0 : 7 $ % 0 f G.!.D.G.G.'.G.'.G.f., > D.W.G.D.G.'.D.'.G.G.7 w z 9.9.9.9.9.9.g $ $ $ e.y.t.u.t.E.u.W.t.e.% % e.y.t.w.t.E.u.W.t.t.% 7 0 f 7 0 0 0 7 $ $ > > % t.f w.W.Q.t.y.$ $ % x y.y.w.t.E.t.E.t.y., ; 0 : 0 0 0 0 0 $ $ $ h y.y.w.t.F.y.F.j.y.0 $ f y.y.x y.H.p.k.j.y.g $ 0 : 7 0 0 0 ; $ ",
"f 9 e./.y.K.D.f./.F.0 D.f.D.D.G._.H.7 w $ , f 7 G.G.K.D.F.D.G.g w w w g W.D.e.G.r.G.y.G.r.9 w 9.9.9.9.9.9.9.h $ $ f f w y.r.v r.e.G.x 0 w w 0 F.D.e.F.f.H.f.H.D.0 0 k 9.9.9.9.9.9.g 7 % w w 0 e.v f.G.f.G.e.0 w f 7 f.G.e.D.F.y.F.y.G.w w k 9.9.9.9.9.9.j 0 $ $ > $ f j k w.9.w.u.$ $ > $ g y.j j y.k y.g f., $ , 0 : 7 7 0 0 0 $ # 9 0 f.G.y.f.G.y.G.y.G.w w 0 h W.D.e.G.y.G.g.W.w.0 w 9.9.9.9.9.9.9.f > $ $ f y.x j y.j y.g f.0 $ $ f y.9.j y.g y.h y.f $ & 0 0 : 0 0 0 7 $ $ > > $ h j h g 9.y.j $ $ $ , y.v g y.j t.j t.j $ , 0 7 0 0 ; 0 $ $ $ $ $ e.u.g e.9.w.9.w.9.$ $ $ u.u.j e.9.w.i.w.u.% $ 0 0 0 0 0 0 7 , ",
"0 0 f f.0 0 0 g h y.0 0 w 7 f f v v 0 0 $ > w w 0 7 0 0 7 7 7 f w 0 w 0 9 7 0 > 0 > 0 > 7 f 0 9.9.9.9.9.9.9.k $ > w w 0 9 0 0 7 0 , 0 w 0 w w , 9 0 7 7 7 0 0 > f 0 9.9.9.9.9.9.9.k 0 $ w 0 0 0 0 0 7 0 7 0 0 0 w w , > 7 0 7 0 7 0 > 0 0 k 9.9.9.9.9.9.z w % $ > > $ $ $ $ $ $ % > > > > $ % $ $ % $ $ $ # $ , $ 0 & 0 0 ; 0 0 , % 7 f 0 > 0 7 7 0 > 0 > w w w w > > 0 q 0 > 0 ; 0 w w 9.9.9.9.9.9.9.g $ $ > $ # $ $ % $ % $ X $ , $ $ $ $ $ % $ % $ $ $ $ 0 0 0 0 0 0 0 & $ % $ , $ $ $ $ $ $ % $ > $ > $ % $ $ % $ % $ # $ $ 0 0 : 0 0 0 0 7 $ $ > > % $ $ # % $ % $ $ > $ , $ $ $ % $ $ % $ % , , 0 0 0 : 0 0 0 $ ",
"f 0 0 0 w w w 0 0 0 0 w w 0 w w 0 0 w w $ 7 w w e w w w f w f f w w 0 w w w w f f f w w f 0 f k 9.9.9.9.9.9.k $ $ f 0 w 0 w w f w w 0 w w w 0 w w f w w f w f f 0 f k 9.9.9.9.9.9.k , $ 0 w 0 w e w w 0 w w w w w w w f w w f f q w w w f f 9.9.9.9.9.9.k 0 $ $ $ $ > > $ ; , $ , 7 $ > $ $ 7 , > > $ , , $ > > , 7 7 0 0 0 0 , $ $ 7 w 0 w w w e q w w w w 0 w w w w w e e w w f w 0 w 9.9.9.9.9.9.9.g $ $ > > , $ , , > > > > > > $ , $ , $ , , $ $ , > & 7 0 : , 0 7 0 $ $ $ > > $ , , > $ > > > > $ , > , $ > , > , > > , $ $ 0 7 0 , 0 0 ; $ $ $ > > > > > > > 7 $ , $ , $ $ , $ , $ > > , 7 $ $ 0 0 0 7 7 0 , $ ",
"0 w 0 w w 0 w 0 w w w w w w w w w w 0 w $ > w w 0 w w 0 w 0 0 w 0 w w w w f w 0 , f w w f w 0 9.9.9.9.9.9.9.f $ > w 0 w w 0 0 w w 0 0 w 0 w w 0 w 0 f w 0 f w 0 f 0 k 9.9.9.9.9.9.j > $ w w w w w w w w w 0 0 w w w w w w w 0 w w w w w 0 k 9.9.9.9.9.9.j 0 $ > $ $ $ $ $ $ $ $ $ $ $ $ $ , , $ $ $ $ $ $ $ $ & $ f 0 0 0 0 0 ; $ $ 7 f 0 w 0 w w w w 0 w w 0 0 w 0 0 w w 0 w w w 0 0 w z 9.9.9.9.9.9.g $ $ $ $ $ $ $ $ $ 7 $ $ $ $ $ > , $ $ $ $ $ > $ $ $ $ 0 7 0 0 & 0 7 $ $ > $ $ $ $ $ = $ $ $ $ $ $ $ , , > $ $ $ $ , $ > 7 0 0 0 0 : : , $ $ $ $ $ $ $ > $ $ $ $ $ $ $ $ $ $ , $ $ > > $ : $ $ f : 7 7 : 0 0 $ ",
"w w 0 w w 0 w w 0 w w 0 0 w 0 w 0 w 0 w $ > w 0 w w 0 w w 0 w w 0 w w w g , < l l e , w w w 0 9.9.9.9.9.9.9.f $ $ w w 0 w w 0 w 0 w w w 0 w w e 0 0 e h e 0 0 w w w z 9.9.9.9.9.9.g 7 $ w 0 0 w 0 0 w 0 0 w w w 0 w w w 7 w c e 0 0 0 w f z 9.9.9.9.9.9.j 0 X X $ $ $ X $ $ % $ % $ $ $ $ $ $ $ , 7 0 $ $ , 7 $ $ 0 7 & 0 , 0 0 $ $ 0 w 0 w w 0 w w 0 w w 0 w w w w 0 0 k c f 7 w w 0 : 9.9.9.9.9.9.9.g = $ $ X $ % $ $ X $ $ X $ $ $ $ $ $ , , 0 $ $ , $ $ 0 0 0 7 0 0 0 7 $ X X $ $ X $ % $ X $ % $ $ $ $ $ $ > 7 0 $ $ $ , $ , 7 : 0 0 7 0 0 $ $ % $ $ $ % X $ $ $ $ $ $ $ $ , $ $ , , > $ ; > $ $ 0 0 0 0 f , f $ ",
"0 w w 0 w w w w w w w 0 w w w w w w w w % 7 w 0 w 0 w w 0 w w 0 w w 0 w 1 p.aXeX_ ) L g f w w 9.9.9.9.9.9.9.g > $ f 0 w 0 0 w 0 0 w 0 0 w 0 0 , 0 o.+.#.#.#.e w w 0 k 9.9.9.9.9.9.k $ % w w 0 w w w w 0 w w w 0 w w 0 f ] $.O.$.O.s , f w k 9.9.9.9.9.9.9., % $ $ $ X $ X $ $ $ $ $ X $ > > $ f x j j w.h $ $ $ $ f 0 0 0 7 0 7 > $ , w 0 w w w 0 w w 0 w w w 0 w 7 z l.a.a.a.d.0 q 0 w 9.9.9.9.9.9.9.g $ $ $ % X $ $ $ X $ $ $ $ % $ > $ h v j j v 0 $ $ $ , 0 0 : 7 0 0 $ $ $ $ $ $ X X $ $ $ $ $ $ $ $ $ $ g x x j v f $ ; $ : 7 w 7 0 0 0 $ $ X $ X $ X X $ $ $ X $ X $ $ $ $ 0 v j j v h $ $ , $ f 0 : 7 0 0 $ $ ",
"0 w w 0 0 f w w w w w w w w w w w 0 0 w $ $ 0 w w 0 0 w w 0 w 0 0 w w , p.fXp.l f q ( ( f f 0 j 9.9.9.9.9.9.g > $ 0 w w w w w w w w w w w w 3 c 5.d $ > 7 Z ,.e 0 0 j 9.9.9.9.9.9.k , $ 7 w w 0 w 0 0 w w 0 w w w w w $.] 7 $ ; b $.d w w k 9.9.9.9.9.9.k 0 $ X % $ X $ $ $ X $ X $ X $ $ $ v j X X % $ x k $ $ $ 0 7 : 0 : 0 0 $ $ $ 0 w w 0 w w w 0 w 0 0 w w 7 d.v.2 > > < s.a.0 0 w k 9.9.9.9.9.9.g $ % X $ $ $ X $ X $ X $ $ $ $ > w.g . % % 7 v 0 $ $ 7 : 0 0 0 0 f 7 $ % % $ $ $ $ $ $ X X X $ X $ $ v h X # % $ x g $ > $ 0 0 0 7 : 0 0 $ $ X $ $ $ $ $ X $ X $ $ $ $ $ h v % X # % h j $ $ $ 0 0 0 0 0 0 0 $ ",
"w w 0 h h , > > 9 , 0 0 7 7 , 0 0 w w w > X $ w 0 w 0 w w 0 w w w f w e aXp.O BX'.O # ( L , 0 9.9.9.9.9.9.9.h > X X 0 w w 0 0 w w 0 0 w w w > yX#.g.f   $   Z $.f 0 k 9.9.9.9.9.9.k 7 $ X 0 w w w 0 w w w 0 0 w q $ J.[.w.t.% $ # e $.q 0 k 9.9.9.9.9.9.9.0 % . X $ $ $ $ X $ X X $ $ $ % h G.0 w.O o o % x 0 $ : 0 7 0 , 0 0 & $ $ $ > 0 w 0 0 0 w 0 w w 0 w 0 c SXd.K.; $ X $ a.z 0 w 9.9.9.9.9.9.9.g $ X X $ $ X $ $ $ $ $ $ $ $ . e.p.k h O X o $ v 0 $ 0 0 0 0 0 & 7 7 $ % . X X $ $ X $ X $ $ $ $ % h G.0 9.O % o % v 0 $ 0 0 7 : 0 : 7 , > $ . X $ X $ X $ X $ $ $ % $ 7 E.k w.. o   . j h $ 7 0 : 0 : 7 0 ; $ ",
"w w $ /.H.y.G.G.x D.f.v v y.G.f.(.e 0 w $ $ X > w w w 0 0 w w 0 w f $ A.yX  O (.NX  % t ( 0 0 z 9.9.9.9.9.9.f > $ $ $ w w w 0 w 0 w w w w , b yX> `.UXw X # > #.g 0 9.9.9.9.9.9.9.j 7 % % $ 0 q 0 w w 0 w w 0 w 0 8 xXs y.UXy.. $ # O.c , k 9.9.9.9.9.9.k 0 % X . X $ X $ X $ $ > $ X $ . D.w.$ BXD.o % o f k $ > 0 0 0 0 0 0 7 > X $ X > w w w 0 w w 0 w w w = l.C.o IXBX  = o 5 a.0 w 9.9.9.9.9.9.9.f > X   . $ $ X X $ X X $ X $ $ F.k 9.BXw.O % . h f % 0 0 0 7 0 7 0 7 $ $ . X X $ $ X $ $ $ X X $ X D.e.% BXE.O % o f h $ $ 0 0 0 0 0 0 7 $ $ X X X $ $ X $ $ $ X $ $ . v D.O NX).o X . $ j $ $ f 7 0 0 0 0 0 , ",
"w 0 c NX_.^.(.!./.G.^./.D.'.E.(.~.9 w w $ X $ $ 7 w w w 0 w w 0 w w > T.eX  $ $ $ % % 8 ( e f 9.9.9.9.9.9.9.g > X $ X > w w w 0 0 w w 0 e , ] yX#   D.0 X $ $ o.l 0 j 9.9.9.9.9.9.k 7 $ $ $ $ 0 w 0 w w 0 0 w w 0 e xXs O y.j X $ % ] ] , k 9.9.9.9.9.9.k 9 X X   . X $ $ % X $ X $ $ $ X F.x O k 9.o % o 0 k $ $ 0 : 0 : 0 0 7 , X $ $ X 0 w w w w 0 w 0 w w - C.C.O 7 F.% $ X 3 a.w w j 9.9.9.9.9.9.h > % .   X $ $ $ $ X $ X $ % $ G.& O 9.f o .   f h $ $ 0 , 0 : 7 0 $ $ $   . . % $ X X $ $ $ X $ X H.j O f j O .   $ j $ 0 f : 0 0 0 0 7 $ $       % $ $ $ X $ $ X $ X r.y.O % w.. . o % x & $ 0 0 0 0 0 0 , $ ",
"w 7 f.j.G.!.f.D.H.!.G.G.(.!.r.G.!.h 0 w $ $ $ X $ 7 w w w w 0 w f q , A.eX* $ % $ $ % t ( e f k 9.9.9.9.9.9.g , $ $ $ X > w 0 w w w 0 w w w b yX7 $   X $ # $ +.e 0 j 9.9.9.9.9.9.k 7 % $ $ $ 7 w w 0 0 w w w 0 w w ].d % . X $ $ X ] b 0 g 9.9.9.9.9.9.9.0 $ . .   . $ $ X $ $ X $ X > X D.w.O   O o % o f h $ $ 0 7 0 7 0 0 0 $ $ $ X $ X 0 w 0 w 0 w w w 0 ; c.C.o + o $ = o 3 a.0 w 9.9.9.9.9.9.9.g > X   .   X X $ $ $ $ $ $ $ $ G.f o o o .     g g % 0 0 7 : 0 0 0 7 $ %   .   X $ $ $ $ X $ $ $ X D.w.o . o X X o 0 j $ $ 0 7 0 & 0 0 , $ $ . . . . X $ $ $ X $ $ $ X v D.o X O . . . $ j $ $ 0 7 0 7 & 0 7 $ ",
"w 0 e 0 0 e 0 e 0 f w w h q q w g g 0 w $ $ $ $ $ $ 0 w 0 w 0 w w w 0 h aXb * $ $ $ . K L 0 w 9.9.9.9.9.9.9.f > X $ $ $ X 0 w w w 0 0 w w w 0 yXL.O > $ > . d #.0 w k 9.9.9.9.9.9.k 7 $ % $ $ X > w w w 0 w w 0 0 7 [.[.o $ $ $ X 7 $.g 0 k 9.9.9.9.9.9.k 0 $ X   .   . $ X $ $ $ $ $ X X x G.X . . % o X x f $ , 0 0 0 f $ : 7 > $ $ $ $ X $ 0 w w w 0 w w f 7 c SXc   $ $ X . d.d.7 w 9.9.9.9.9.9.9.f > X .     X X $ X $ X $ X $ % y.D.o * . .   % v ; $ 7 0 0 0 : 0 0 , $ $ . .   . X $ X X X $ X = X j E.. o %     # j 0 $ , 0 7 & 7 0 0 7 $ $ .   .   X % X X $ $ $ $ X 0 W.0 O X . . o h h $ , f 0 7 0 0 0 & $ ",
"w w 0 w w 0 0 0 w f w w 7 w 0 w 0 w w w $ X $ X $ % $ w 0 w w 0 w w w $ T.fXl # $ . F ) h w w j 9.9.9.9.9.9.g 7 X $ X $ $ % 0 w 0 w w w w w 9 ] aXO.. X # a 2.h 0 w z 9.9.9.9.9.9.z 7 $ $ X X $ $ 7 w 0 w w 0 w q 0 e xXS.% $ $ 9 $.b 0 w k 9.9.9.9.9.9.k 0 % . .   .   X $ $ X $ X X > > $ D.F.. . o % j k $ $ $ 0 7 : 0 0 0 0 > $ X X $ $ % > 0 0 w w w w w w 8 v.GXs X $ $ d.a.9 e w z 9.9.9.9.9.9.f > X   .   X X $ X $ $ $ X $ $ $ E.t.o . . % v f $ , , : 0 0 7 0 0 $ $ %   . .     $ $ $ $ $ X $ $ % D.F.. . X % h j $ $ $ 0 0 0 0 0 0 7 $ % . . .   . % $ $ $ X X $ $ $ u.W.:   . . f j , $ $ 7 0 & 0 0 0 0 $ ",
"0 0 w w f 0 r.e.f.!.!.!.F.e w w w w 0 0 $ $ X $ $ $ X 7 f w w w 0 w w w > A.b , 0 w F e , w 0 9.9.9.9.9.9.9.g , $ $ $ X $ $ $ w w w 0 w w 0 w , O.H 1 w 0 d l , w w x 9.9.9.9.9.9.j 7 % $ $ $ X % $ 0 0 0 w 0 0 w w 0 c K.0 0 0 e b 0 w 0 g 9.9.9.9.9.9.j 0 % X .   . . X X $ X $ X X $ $ $ $ w.$ $ $ $ f > > , $ 0 0 : 7 0 0 & > $ $ $ $ $ $ X 9 f w w 0 w w 0 g 7 l.c 9 0 e z f w w w 9.9.9.9.9.9.9.f > X . .   .   . % $ $ X X $ $ $ 0 v $ $ $ , w $ $ $ f 0 7 : 0 0 7 , $ $ .     .     $ $ $ $ $ X $ > > v 7 $ $ , f $ > > , 0 0 7 7 w 0 , $ $ X . o .   . X $ X $ $ % $ > $ v f % $ $ f $ $ , ; 0 0 0 ; 0 , 0 $ ",
"w w w 0 f 7 G.!.^././.^.!.e., w 0 w w w $ X $ $ X $ $ $ 9 0 0 w w w 0 w f $ 0 0 0 0 , 0 f w 0 x 9.9.9.9.9.9.g , X $ $ X $ X X 7 w 0 w 0 w w w 0 $ , w w 0 0 , 0 0 w z 9.9.9.9.9.9.j 7 $ $ X $ $ $ $ > 0 w w w w w 0 0 7 > 0 0 9 0 9 w 0 w k 9.9.9.9.9.9.z 0 $ X   .         $ $ $ $ $ $ , $ $ # $ $ $ $ % $ $ $ $ 0 0 0 0 0 0 7 $ $ % X $ X $ $ % 7 w w w w 0 w 0 w = 0 0 0 w 7 0 0 w f 9.9.9.9.9.9.9.g > X . . .   .   X $ $ $ $ $ $ > $ % $ , $ $ $ $ , $ 0 0 0 0 0 f w > $ X   . .   X   . % $ X $ $ $ $ $ # $ > $ $ % > $ $ , 0 0 : 0 0 0 7 $ % . . . . .   . $ $ $ X $ $ $ $ % $ $ $ $ $ $ $ $ > 0 0 0 0 0 7 & 7 ",
"0 w w 0 f 7 F.^.!./.(.^.~.e.9 f 0 w w w $ X $ X $ $ X $ $ 0 w w w 0 0 w > F.D.h ~.D./.f.0 w 0 f f f k f f w w > $ $ X $ X $ $ $ 0 w 0 w 0 w w !.F.7 ^.H.!.G.Q.G.7 f f f f g 1 f f f 7 % X $ X $ $ $ X 7 w w w 0 w 7 G.^.0 G.W.G.!.F.~.w 0 f g f f 0 g g w 0 $ . . .   . .   . % X $ $ $ % x F., j j.u.k.w.H.w $ , , , 0 $ 0 $ $ $ $ $ $ $ $ X X $ $ w w w 0 w 0 v (.e.h (.D.^.D./.y.; f g f g g w g f f > X   .   .   . . X $ X X $ $ t.j.$ u.f.u.f.u.j.7 $ $ , $ , 7 $ $ , $ $ . . . .   .   X $ $ X $ X x H.0 j D.w.D.w.H.f $ > > $ 0 $ & > , $ $ . . . .   . . . $ X $ $ $ 0 F.h 0 H.u.j.u.D.j $ $ , , , > , , , $ ",
"w 0 w w f 9 y.f.f.v f.y.G.h 0 0 w w 0 0 $ $ $ $ X $ X $ % $ w w 0 w w 0 x '.f.e.!.BXD.W.0 w w 0 k k f z k k w > X $ $ $ $ $ X % X 0 w 0 w , e.G.G.y.H._.G.(.!.G.x 0 w g 9.f 9.g z w 9 $ X $ $ $ X X $ $ > w w w 0 h G.G.y.F.W._.F.'.D.y.> w w k w 9.9.g f 0 % . .   . .   . . . $ $ % $ $ y.e.v u.u.~.j Q.x e.% $ $ $ $ $ $ $ , > $ X X X $ $ $ $ X % w w w w > F.F.D.D.D.NXy.NXD.G.0 f 0 g k g x f z f > X     .   .   . . X $ $ % > y.e.x u.t.G.u.E.w.j % 0 $ $ $ $ , $ $ > X .     .   . .   X $ X $ % t.u.x u.9.Q.j Q.x t.# , & $ $ $ $ $ > $ % . . o . .   .   X $ X $ . w.u.u.v 9.Q.x Q.w.y.$ , $ $ > $ $ $ $ $ ",
"w 0 0 w w 0 0 w > 0 > > f w w 0 w 0 w w $ $ $ $ $ $ $ X $ X $ f w w w 9 y.NX_.v ^.'.!.G.7 w w 0 b.i.9.MXi.b.w > X $ X $ $ $ X > X > 0 w 0 0 x ^.~.D.!._.~.(./.!.g w w f b.h b.b.b.9.7 $ $ $ X X $ $ $ X $ 0 w w 0 w W./.D.G./._.^.(.^.v 0 1 k b.w i.b.b.i.0 $   o . . o .   .   X $ $ $ % e.j.r.e.j.F.y.F.j.u.% $ , , $ $ & > > > $ $ $ X $ $ $ X $ $ 7 w 0 w 7 p./.W.H.!.'.W.'.^.G.7 w 7 k.b.$ b.b.i.f , $   .   . .   .   . $ $ X $ y.j.u.y.D.k.j.F.j.g $ $ , $ $ $ , $ , $ %     .     .       $ $ $ X e.D.y.e.D.E.y.F.j.w.% $ $ 7 $ $ , $ , $ $ .   .     . .     X $ $ X x j.f.u.j.F.y.E.j.y.% $ , $ $ & > $ , $ ",
"w w w w 0 w w w w w f w w w w w w 0 0 w $ X $ X $ X $ X $ $ % 9 w 0 0 f 0 w v v g.e f.v 0 w w 9.k.b.9.MXb.b.0 > $ X > $ X $ $ X > X > w 0 0 0 y.e.b y.v r.v e.e.0 0 9.i.b.f k.MXb.9.= $ X $ $ $ $ X $ X X $ w w w 0 e.y.x e.y.v y.x f.0 0 9.9.k.z i.i.MXi.> $ . . .   . .     .   X $ X $ 0 9.g g x 0 w.0 9.$ , , $ $ , , $ > $ > X X $ $ $ X X X $ $ X 7 w w 0 f f.v x f.h D.c f.x 0 w 9.i.i.3 b.b.b.w > # .   . .   .   .   . $ $ $ f x f g j f x 0 x $ $ , $ 0 $ & $ > $ $ $ . . . . . . . .   . X $ $ 0 9.f f 9., x 0 9., $ , $ $ , $ $ > $ $ $ . . . . . .   . . . X $ X > x g 0 x 0 x , 9.0 $ , $ $ 7 $ , $ $ , ",
"0 w w w w w w w w w w w w w w 0 w w w w $ X $ $ $ $ X $ $ $ X X 7 w 0 f w w 0 0 7 w 7 0 w w w 0 9.i.k 9.9.i.0 > X > $ X $ $ $ X X $ X , w w w 7 0 0 , 0 9 7 0 0 w w 0 9.i.9.i.z i.w 7 % $ $ X $ $ $ X $ $ X 7 w w w 0 , 0 0 9 7 7 0 7 w w w 0 j g 9.g 9.9.0 $ .       .   . .       $ X > $ $ $ $ % $ $ $ $ $ $ $ ; $ $ , $ $ , > $ $ X $ X $ $ $ $ $ $ $ 7 w w w > 0 0 > 0 > 0 > 0 w w w g k 9.i.9.i.w > % X .   .   .   . .   X $ $ $ % $ $ $ $ # $ $ , , $ $ , $ > $ > > $ % . o   .     .       X % $ $ $ $ $ % $ $ $ % $ > $ , $ , , $ > > $ $ .       .   .   .   . % $ > % $ $ # $ $ $ % $ , $ $ , , $ $ 7 $ $ ",
"0 0 0 0 0 0 0 0 0 w w 0 0 0 0 0 0 0 0 w $ $ X $ X $ $ $ X $ = $ $ 0 w 0 0 0 0 0 w 0 w w 0 0 0 w 1 7 0 7 > 7 w > X $ $ X $ X $ $ > X > X 0 0 0 w 0 0 w 0 w w 0 f 0 0 0 0 7 0 7 0 7 w 7 $ X $ $ $ X $ $ $ $ $ X 7 0 0 0 0 0 0 w 0 w 0 w 0 0 0 w 0 0 7 f 7 0 0 $ . % . . . . . . . X X X $ $ $ > > $ , , $ $ $ , $ > > , $ $ , $ $ $ $ $ $ $ $ X $ $ X $ X $ $ w 0 0 w 0 w w w w w w w 0 0 0 0 w 9 0 0 > 0 $ % . . . . . . . . . . . % $ , > > 7 $ , , $ > $ $ $ , $ , $ > $ > $ % . . . . . . . . X . . X $ $ > $ > > > > > , $ > $ , $ $ $ , $ > $ $ X   . . . . . . . . . X $ $ > , $ , > > 7 $ , $ $ , $ $ $ 7 $ , , ",
"% $ $ % $ $ $ $ $ X $ $ X $ X $ $ % $ $ % $ X $ $ % $ $ $ X % $ % $ % $ $ $ % X % $ $ % X $ $ % % # % $ % $ $ $ $ X $ X $ % X $ $ % $ $ X $ $ % X $ $ % X $ $ % $ % % % $ $ $ % $ $ % X % X $ X $ X $ X X X % % $ X $ $ % % % $ $ % X X $ X # % $ X X % $ X % $ % X % $ X X X $ % $ % % % $ $ % $ X $ X $ % $ $ $ % $ X $ $ X $ $ % $ $ X $ % $ $ X X % $ X % % $ X X $ $ % $ $ $ % $ $ $ X % $ $ $ $ X $ X X % . % % X $ X X $ % $ $ % X $ % % X $ $ % % % % $ % $ % $ X X $ X % X $ % % X X $ $ X $ X % $ X $ $ % $ X $ $ X $ % % X X $ X $ X X X X % X % % $ X $ . $ X $ X $ X $ X X $ X # % % $ % $ $ $ X $ $ % # ",
"0 0 7 7 7 7 7 7 7 0 0 , 0 , 9 0 7 7 0 7 7 0 0 7 7 7 7 7 9 0 0 7 7 0 0 7 0 7 0 0 0 7 7 0 7 9 0 7 7 9 0 0 0 0 7 7 0 0 7 0 7 0 9 0 7 7 0 7 0 7 0 7 0 7 0 7 0 7 0 7 9 0 0 7 0 7 0 0 7 7 0 0 0 0 7 0 0 0 7 0 0 0 0 7 7 0 7 0 0 9 0 7 7 0 0 0 0 0 9 0 0 0 0 0 0 0 0 7 7 0 0 7 0 0 > 0 0 7 0 9 0 7 7 7 7 0 , 0 0 0 7 7 0 0 7 0 0 > > 0 7 7 0 7 0 7 0 7 0 0 0 7 7 0 0 7 0 0 , 0 9 , 0 7 7 0 0 7 , 0 0 7 0 > 0 0 0 0 0 0 7 0 0 7 0 0 7 0 7 7 7 0 0 0 9 0 0 7 0 7 0 9 0 7 7 0 0 7 0 0 0 0 , 0 0 9 0 0 0 7 0 > 0 0 0 7 0 0 0 0 7 0 0 > 7 0 0 7 0 0 0 0 7 0 0 0 0 0 0 w 7 7 0 7 0 0 0 7 7 0 0 , 0 0 0 0 9 0 9 7 0 7 7 7 7 w 7 w 0 ",
"0 e v v w.w.g w w w w w w f f 0 w w w w w 0 h y.y.y.w.f f w w w w w w w w w 0 w e w h v x v x f g g f w w w w w 0 e w w w w 0 f w w w w w w w w w w w w w w w w w w w w w w 0 w w w w w w w w w w w w w w w w w w w w w w w w w w w w w 0 w w w 0 w w w 0 w w w w w w w w w w w w w w w w w w w w w w w 0 w w w 0 w w w w w w w w w w w w w w w 0 w w w w w w w w w w w w w w w w w w w w w w w 0 w w w 0 w w w w w w w w w w w w w w w 0 w w w w w w w w w w w w w w w w w 0 w w w w w w w w w w w w w w w f w 0 w w w w w w w w w w w 0 w w w w w w w e w h g w f w w q f s 1 3 0 w 0 0 w e z z z c w f 9.x z 9.f w ",
"w w w.D.r.y.g w w 0 k w w w 0 0 0 0 w 0 w 0 v f.w.y.y.w 0 w w z w 0 w 0 0 0 w 0 w w h f.D.H.y.7 w w 0 c 0 0 w w 0 0 w w 0 w w 0 w 0 w 0 0 w 0 w w 0 w w 0 w w 0 0 w 0 w 0 w 0 w w 0 w 0 0 w 0 w w 0 0 w 0 w w 0 w 0 w 0 w 0 w w w 0 w 0 w 0 w 0 w 0 w 0 w 0 w 0 w w 0 w 0 w 0 w 0 w 0 w w w 0 w 0 w w 0 w 0 w 0 0 w 0 w 0 w 0 w w 0 w 0 w 0 w 0 w 0 w w w w w 0 0 0 w 0 0 w w w 0 w 0 w w 0 w w w 0 w 0 w 0 0 w w w w 0 w 0 w 0 w 0 w 0 0 w 0 w 0 w 0 w w 0 w 0 w w w 0 w 0 w 0 w 0 w 0 0 0 w w w 0 0 w 0 0 0 w 0 w 0 w w 0 w 0 w 0 0 w w 0 w 0 0 g x v v h v v v x h w f [ [ [ [ s [ f 0 0 g z 9.q.z w w d.z z q.f w ",
"w w y.v w.y.h w w z d.q.w 0 z 0.z w w w w 7 x r.f.e.e.f 0 0 z d.z w g z q.c w 0 w 0 h g r.y.h w w q 9.d.z 0 f q.q.g w w w w 0 w 0 w w w 0 w w w w w 0 w w 0 w w 0 w w 0 w w 0 w 0 w w w w w w 0 0 0 w w w 0 w w w w 0 w w 0 w w w w 0 w w 0 w w w 0 w w w 0 w w w 0 0 w w w 0 w w w 0 0 0 w w w w w w 0 w 0 w w w 0 0 w w w 0 w 0 w w w 0 w w w w w 0 w w 0 w w w 0 0 w w w 0 w w w 0 0 0 w w w 0 w w 0 0 w w 0 0 w w 0 0 0 w 0 w 0 w w 0 w w 0 w w 0 w w 0 w w w w 0 w 0 0 w w w 0 w w w 0 w w 0 w w 0 0 w 0 0 0 w w 0 0 0 w 0 w w 0 w w 0 w w w g v r.r.w.7 h D.q g 0 w [ : [ [ [ [ f w w g g f 9.z w f g z z k e 0 ",
"w w y.e.E.~.h w w w q.g 0 w f f 0 w w w w 0 v D.f.w x f w 0 f q.g w f f w w 0 w 0 0 x w e.j.c w w 7 k q.w w w f f w 0 0 0 w f 0 w 0 0 w w w 0 0 0 w 0 w w 0 w 0 w 0 w w w 0 0 w w 0 0 w 0 0 w w w w w 0 w 0 0 w 0 0 w w 0 w w 0 0 w w 0 w w 0 0 0 w w 0 w 0 w 0 0 w w w 0 w w 0 0 w w w w w 0 0 w 0 0 w 0 w w 0 w w w 0 0 w 0 w w w 0 w w w 0 0 0 w w 0 0 w w 0 0 w w 0 0 w w 0 0 w w w w w 0 0 w 0 0 w w w 0 w w 0 w w w w w w w 0 w 0 w 0 w w 0 w 0 w w 0 0 w 0 0 w w w w w 0 0 w w 0 w w 0 0 w 0 w w w w w w w w 0 w w w w w 0 w w 0 w w 0 0 0 e r.x x w.v v w.v h w w [ [ ' s [ [ f 0 w k f z z g w w d.z z d.w w ",
"0 w v v w.w.w w w 7 w 0 0 w w 0 0 w w 0 w 0 g v v x x w 0 w 0 w w w 0 w w w w w w 0 h j v w.h w w 0 w w w 0 0 w 0 w 0 w w 0 w w w w 0 w w 0 0 w w w w 0 w w w w w 0 0 w w 0 w w w w w w w 0 w 0 0 w 0 w w w w w w 0 w 0 0 w 0 w 0 w w 0 0 w w w 0 w w 0 0 w w 0 w w w 0 0 w w 0 w 0 0 w 0 w 0 w w 0 w w 0 w w 0 0 w w w w w w 0 w 0 0 w 0 w w w w w w 0 0 w w 0 w w w w 0 w w 0 w 0 w 0 0 w 0 w w w w w w 0 0 w w 0 0 w w 0 0 w w w w w w 0 0 w w 0 w w w w w w w 0 w 0 0 w 0 w 0 w w 0 0 w 0 w w 0 0 w w 0 0 w w 0 0 w w 0 0 w 0 w w 0 0 w w w w h v 0 0 w g f w f f w 0 w 3 0 9 f 0 w w 0 w c z c z w f z c g z 0 0 ",
"w w 0 w 0 7 w w w w 0 w w w 0 w w 0 w w w w 0 0 0 0 0 w w w w 0 w w w w 0 0 w 0 w w w 0 0 w 0 0 w w 0 w 0 w w w f 0 w w 0 w w 0 0 w w w 0 w w w 0 0 w w 0 w 0 0 w w w w 0 w w 0 0 w 0 0 w w w 0 w w 0 w 0 w 0 0 w w w 0 w w 0 w w 0 w w 0 w 0 w w 0 w w w w 0 w w 0 0 w w 0 w w w 0 w w 0 w w w 0 w w 0 w 0 w w w 0 0 w 0 0 w w 0 w w w 0 w 0 w 0 0 w w w w 0 w w 0 0 w w 0 w w w 0 w w 0 w w w 0 0 w 0 0 w w w 0 w w 0 w w w 0 0 w 0 0 w w w w 0 w w 0 0 w 0 0 w w w 0 w w 0 w w 0 w w 0 w w w 0 w w 0 w 0 w w 0 w w 0 w w w 0 w 0 w w 0 w w w w w w w w w w 0 w w w f 0 f 0 w 0 w w 0 w w 0 0 0 0 0 w w 0 0 0 0 w w "
};
