/* XPM */
static char *mb_ringmod_sc_stereo[] = {
/* columns rows colors chars-per-pixel */
"333 256 256 2 ",
"   c #15161B",
".  c #16181D",
"X  c #1B1A1E",
"o  c #161417",
"O  c #0E0F12",
"+  c #261C1D",
"@  c #301C17",
"#  c #1E231C",
"$  c #23271A",
"%  c #312F18",
"&  c #1C1E24",
"*  c #161C25",
"=  c #251E24",
"-  c #271E25",
";  c #2E1F26",
":  c #1F2026",
">  c #1D222A",
",  c #172528",
"<  c #1C2B34",
"1  c #1C2937",
"2  c #1C3336",
"3  c #232125",
"4  c #242A21",
"5  c #24262D",
"6  c #29262D",
"7  c #26282F",
"8  c #29292E",
"9  c #2A2525",
"0  c #322227",
"q  c #33242B",
"w  c #3A252A",
"e  c #2B322A",
"r  c #293424",
"t  c #373829",
"y  c #252632",
"u  c #262932",
"i  c #2A2B35",
"p  c #272738",
"a  c #262B39",
"s  c #2B2D3B",
"d  c #292735",
"f  c #352C36",
"g  c #23333B",
"h  c #2E313B",
"j  c #293137",
"k  c #31333D",
"l  c #3A3339",
"z  c #56311A",
"x  c #692B19",
"c  c #71331C",
"v  c #5A1D23",
"b  c #711B24",
"n  c #482929",
"m  c #5B3B2C",
"M  c #573729",
"N  c #5C3C35",
"B  c #583C36",
"V  c #4B3230",
"C  c #64392C",
"Z  c #66372B",
"A  c #673C35",
"S  c #743C3A",
"D  c #702F28",
"F  c #77191D",
"G  c #204B20",
"H  c #594229",
"J  c #5A4533",
"K  c #594639",
"L  c #504D37",
"P  c #68432B",
"I  c #67453A",
"U  c #784A3A",
"Y  c #7C563C",
"T  c #74462D",
"R  c #615415",
"E  c #1B3849",
"W  c #2B2E43",
"Q  c #2A3143",
"!  c #263846",
"~  c #343642",
"^  c #373944",
"/  c #383A46",
"(  c #3B3D4B",
")  c #35374A",
"_  c #2C3956",
"`  c #373B57",
"'  c #342D43",
"]  c #1B2C6A",
"[  c #343C69",
"{  c #4B364A",
"}  c #673C56",
"|  c #6E3758",
" . c #433D63",
".. c #713760",
"X. c #1C545C",
"o. c #1A4752",
"O. c #3E414E",
"+. c #274957",
"@. c #3E4152",
"#. c #39415B",
"$. c #254851",
"%. c #045D68",
"&. c #14566D",
"*. c #364365",
"=. c #275767",
"-. c #324A72",
";. c #006676",
":. c #036872",
">. c #296876",
",. c #276D5D",
"<. c #594645",
"1. c #424453",
"2. c #464A5A",
"3. c #4A4D5D",
"4. c #444758",
"5. c #564B54",
"6. c #684947",
"7. c #734B44",
"8. c #7B4C41",
"9. c #764D49",
"0. c #7A4E4B",
"q. c #744546",
"w. c #6D524A",
"e. c #735345",
"r. c #7D5143",
"t. c #72554D",
"y. c #7A524C",
"u. c #74594D",
"i. c #7A594C",
"p. c #6D5759",
"a. c #755353",
"s. c #795454",
"d. c #745A52",
"f. c #755759",
"g. c #735A5B",
"h. c #7B5B5C",
"j. c #7A5956",
"k. c #6D4A56",
"l. c #78615B",
"z. c #6E6A51",
"x. c #484B66",
"c. c #4E5162",
"v. c #4C5369",
"b. c #515466",
"n. c #535669",
"m. c #56596C",
"M. c #585C6D",
"N. c #5A5E72",
"B. c #575776",
"V. c #4D4D76",
"C. c #7A5C62",
"Z. c #6D526B",
"A. c #5D6177",
"S. c #456575",
"D. c #6D6466",
"F. c #776366",
"G. c #62667B",
"H. c #7A6471",
"J. c #506554",
"K. c #843B1A",
"L. c #8C1C29",
"P. c #933437",
"I. c #8F312D",
"U. c #A8393D",
"Y. c #AD382B",
"T. c #A11B17",
"R. c #D2130E",
"E. c #A3491D",
"W. c #8A4734",
"Q. c #A74532",
"!. c #9C561B",
"~. c #8A3267",
"^. c #993672",
"/. c #A13877",
"(. c #AC3B45",
"). c #824D45",
"_. c #83554B",
"`. c #865649",
"'. c #975947",
"]. c #865755",
"[. c #905156",
"{. c #AE4445",
"}. c #AC4E4C",
"|. c #8B6245",
" X c #916158",
".X c #8D546D",
"XX c #88636E",
"oX c #A8626C",
"OX c #C94545",
"+X c #D74B4B",
"@X c #E74F50",
"#X c #CB4232",
"$X c #579745",
"%X c #81831C",
"&X c #B3B111",
"*X c #CFD10A",
"=X c #B7A721",
"-X c #162E8E",
";X c #1C37A9",
":X c #015B98",
">X c #0E5494",
",X c #394D89",
"<X c #037686",
"1X c #0B7A93",
"2X c #2D7282",
"3X c #2E7789",
"4X c #3A56AB",
"5X c #0069AD",
"6X c #0C75B4",
"7X c #096AB3",
"8X c #215FB0",
"9X c #534B94",
"0X c #515190",
"qX c #6C5890",
"wX c #54698E",
"eX c #676B84",
"rX c #6D7193",
"tX c #4658A7",
"yX c #5A57A7",
"uX c #4B5CB5",
"iX c #655EB3",
"pX c #6B5DA7",
"aX c #4C66B3",
"sX c #7265B3",
"dX c #173BC5",
"fX c #007BC9",
"gX c #366FCF",
"hX c #3B60D7",
"jX c #4863C8",
"kX c #566BD9",
"lX c #4E6FCF",
"zX c #6A65C7",
"xX c #6F69D0",
"cX c #5970E9",
"vX c #5072EE",
"bX c #5F6DDF",
"nX c #BA3F89",
"mX c #8E5A91",
"MX c #A94183",
"NX c #92699A",
"BX c #C64494",
"VX c #DE49A4",
"CX c #8074E6",
"ZX c #028592",
"AX c #018AA5",
"SX c #0197AE",
"DX c #338DA1",
"FX c #359FB5",
"GX c #2A96AD",
"HX c #2D91A3",
"JX c #5A85AA",
"KX c #0283D1",
"LX c #20A9C7",
"PX c #4783E9",
"IX c #898EB4",
"UX c #99A0CA",
/* pixels */
"7 7 7 7 5 7 5 5 7 5 u 7 u u 7 7 5 u u 7 u 7 7 7 7 7 5 7 y 7 6 5 3 9 4 7 7 5 5 7 5 7 7 7 7 7 5 7 5 5 7 5 5 7 5 5 7 5 7 7 > 7 7 7 7 7 5 7 7 5 7 5 7 7 5 7 7 7 5 7 7 5 7 5 7 7 5 7 7 5 7 7 5 7 5 7 7 5 7 7 5 7 7 5 7 7 5 7 7 7 7 7 5 7 5 5 7 5 7 7 5 7 5 7 5 7 5 5 7 5 7 7 5 7 7 5 7 7 5 7 7 5 7 7 7 7 5 7 7 5 7 7 5 7 7 5 7 7 5 7 5 7 5 5 7 5 5 7 7 7 3 7 7 5 5 7 5 5 5 7 3 > > 3 7 5 : 5 7 5 7 7 7 7 5 3 > 5 7 5 5 > 7 5 5 5 5 5 7 7 : 5 7 7 5 7 5 5 7 : 5 7 : > 7 7 7 7 5 7 7 7 7 5 5 : 3 7 > > 5 : 5 7 7 5 : 7 > 5 5 : 7 7 : 3 u 3 7 7 7 5 u 7 7 7 : 7 7 7 > 7 7 5 5 3 > 3 5 > 5 5 : 7 3 > 7 > > 7 7 7 7 5 7 5 5 7 5 7 3 5 5 5 5 7 5 7 7 3 7 5 5 7 3 7 7 5 7 5 3 7 7 5 7 7 7 5 G , 2 , 5 ",
"7 7 3 = 7 5 7 7 7 7 3 - 3 - 3 3 5 5 3 3 3 3 9 9 5 7 5 7 5 5 p E E E $.! 8 7 5 7 7 5 3 y 7 7 7 7 7 7 7 7 7 7 7 7 7 7 7 7 7 7 7 5 5 7 7 5 5 7 5 7 7 5 7 5 5 7 7 5 5 7 5 7 7 5 7 5 7 5 5 7 7 5 7 5 5 7 7 5 7 5 5 7 7 5 7 5 3 y > 7 7 7 7 7 5 7 5 7 7 5 5 7 7 7 7 7 7 7 5 7 7 5 5 7 5 7 7 5 5 7 7 y 7 5 5 7 5 7 7 5 5 7 5 7 7 5 3 7 7 7 7 7 7 7 7 5 5 7 h 7 i h i u i u h 3 ~ ( / ^ h s ( i 5 i u u i 7 i h O.u 5 5 h / 5 ~ h j 7 i u 7 ( s 5 7 h 5 i h 5 ^ h 5 ^ ^ 5 i i u i i 7 5 u s i ( / h ( ~ h O.u 5 7 u ^ h ~ i ~ ) 7 u ( ~ > ^ h s 7 i u u i u ^ i h 7 s 7 5 h ^ k O.~ j O.s ~ ~ 5 ~ ( u h ^ 7 7 7 u 5 5 j u 7 u 7 ! g 7 g g 7 j 7 u a 7 ! 7 7 ! u u a 5 j ! 7 5 7 5 7 r r G G G , u ",
"7 u +.+.u 5 7 7 5 3 $.X.+.X.+.+.5 u +.=.+.+.X.+.g 3 7 5 1 o.>.$X$X$XS.>.u 4 7 7 7 7 7 7 5 7 7 5 7 5 5 7 7 5 5 7 5 7 7 7 5 7 7 5 7 5 5 7 7 7 5 7 5 7 7 5 7 5 5 7 7 7 5 7 5 7 7 5 5 7 7 5 7 7 7 7 7 5 5 7 7 7 7 7 5 5 7 7 7 7 5 7 7 5 5 7 7 7 5 5 5 7 7 5 7 5 7 7 5 7 5 5 5 7 7 5 7 5 5 7 7 7 5 3 5 7 7 5 5 7 7 5 7 7 5 7 5 7 y 7 7 5 5 7 5 7 7 7 5 a rXi v.n.c.h c.O.v.5 / eX1.N.( c.N.m.& A.2.( eX~ x.c.n.M.i : n.m.x.n.O.m.c.@.@.c.v.@.3 u rXi n.n.@.n.m.( N.b.2.@.1.( 4.c.~ & 1.A.7 A.m.@.eX~ v.n.m.i > N.c.~ A.~ N.n.2.( A.( 2.m.O.v.h c.h @.A.i A.Q eX~ c.i i G.O./ eX1.n.n.^ N.m.1.A.4./ m.n.2.: 7 i 7 3 =.$.g >.$.>.=.g =.X.$.>.g =.X.=.X.i X.=.g =.X.7 >.$.7 5 7 , < G G G G G y 5 ",
"5 2 GXLXa 3 7 7 5 =.GXLXLXLXLXGX5 g GXLXLXLXLXLXGX! 5 8 >X$X*X$X$X%X&X$XX.j 5 7 5 7 5 5 7 5 5 7 5 7 7 5 5 7 7 5 7 5 3 y 7 7 5 7 7 5 7 5 5 7 7 5 7 7 5 7 7 5 7 5 5 7 7 5 7 7 5 7 7 7 5 7 3 y 7 7 7 7 5 7 5 7 5 5 7 7 5 7 7 7 7 7 5 7 7 5 7 5 7 7 7 5 7 7 5 7 5 5 7 5 7 7 7 5 7 7 7 5 7 7 7 5 7 7 7 5 7 7 7 5 7 7 5 7 7 5 7 7 7 7 5 7 7 5 7 5 5 7 5 i A.4.N.3.n.7 x.O.c.: , v.5 2.~ v.m.v.i eXm.( A.n.2.c.3 x.O.& b.A.1.4.~ 2.N.n.3.c.h n.5 i G.2.N.x.M.: / B.2., n.3.( ^ 2.3.j & N.rXu O.( ~ A.h n.: c.@.: @.c.h c.h c.& m.1.A.Q N.7   m.m.eXh m.rXk 3.k N.n.n.i 7 x.2.> n.7 b.v.Q N.N.O.A.( c.( & N.5 7 a 5 5 =.=.X.=.$.X.=.! =.=.E >.$.=.X.! +.! =.+ 4 ! $.5 X.$.5 5 5 < , G G , G G 1 7 ",
"5 u GXGX2 < 7 5 7 SXGXDX3X2X1X>.7 u GXGX3X2X3XHXLX>.4 E $X=Xt > & * e J.3X+.y u 7 5 7 7 7 5 5 7 7 7 5 7 7 5 7 7 7 5 7 7 5 5 7 5 7 5 7 7 5 7 7 5 5 7 7 5 7 5 7 7 7 y 5 7 5 5 7 5 7 7 5 7 5 7 7 5 5 7 7 5 7 5 5 7 7 5 7 7 5 5 7 5 7 5 7 7 5 7 7 5 7 5 7 5 7 7 5 7 7 5 7 7 7 5 7 7 5 7 7 5 7 5 7 7 7 5 7 7 5 7 7 5 7 5 7 7 5 5 7 5 7 5 7 7 7 5 7 7 5 j n.N.m.2.3.x.m.k A.O.5 N.i m.( v.b.n.x.n.m.B.( M.m.c.c.N.h : n.m.2.n.@.3./ rX@.n.2.A.5 s n.N.n.2.3.3.n.@.N.3.c.^ n.c.( v.3.@.N.v.x.1.1.( N.i m.x.M.h 5 k N.c.N.k N.3.c.O.A.i c.v.k m.j c.#.m.c.n.N.) c.@.rX7 u ( eXs m.s m.3.~ N.n.1.B.^ @.n.2.v.3 u i 7 5 +.=.=.+.$.=.X.$.=.=.$.X.=.=.+.j =.+.=.$.u E +.5 ! >.g 3 7 5 7 r G G G G , 7 ",
"5 a GXGXa 5 7 5 j GXGXj + + + = u u GXSX< 3 X +.LX3X> =.$X$.* 7 6 $.X.> 1X=.j 5 7 5 7 5 5 7 7 5 7 5 7 5 5 7 5 7 7 7 5 5 7 7 7 7 7 5 5 7 7 7 5 7 5 7 7 5 7 7 5 7 7 5 7 5 7 7 5 7 5 7 7 5 7 5 7 7 7 5 7 5 7 7 7 7 7 7 5 5 7 7 7 7 5 7 7 5 7 5 7 7 5 7 5 7 7 5 7 7 5 7 5 5 5 7 7 5 7 5 5 7 5 7 7 7 5 7 5 7 7 5 7 5 7 7 5 5 7 7 7 7 7 5 5 7 7 7 7 y 7 i ~ k k Q u 1.^ 7 @.4.i k i @.~ ~ 2.k ~ 7 i ( s a ~ k 3.h 5 y ~ u / O.~ Q 7 ~ i s 2.^ 5 u ~ ~ Q h 5 4.O.5 @.1.i 5 @.O.7 ^ 2.O.i 7 ~ k h a 3.) ~ 2.k 5 5 O.@.i 1.s @.1.u s 2.( 7 4.( ~ u j O.G 5 ( @.h k 7 ( y i 4.^ 3 ~ u ~ 2.~ Q i ) @.4.u ( 1.i 7 u u 7 y g g g g g o.$.7 j u ! j g g g ! $.5 g +.j j g 5 $.g 7 u 7 7 7 2 G G G G , 7 ",
"5 j GXSXu 5 7 5 5 HXLXZX3X3X>.! 5 a GXGX> 3 X X.LX3X, =.HXHX2 5 5 ! g 9 >.>.! 5 7 7 7 7 7 7 7 7 5 5 7 7 7 7 5 5 5 7 5 7 7 5 5 7 5 7 7 5 5 7 5 7 7 5 7 7 5 7 5 5 7 5 7 7 7 7 7 7 7 5 5 7 7 5 7 5 7 5 7 7 5 7 7 5 5 7 5 7 7 5 5 7 5 7 7 5 7 5 7 5 7 7 5 7 5 7 7 5 7 7 5 7 7 5 5 7 7 7 7 7 7 7 7 > 7 7 5 5 7 5 7 7 5 7 5 7 7 5 5 7 5 7 7 7 3 y 3 > 3 : : & 3 : 3 & : 7 & & > & 3 & & : & : : 5 = & > > : : & & 7 3 > 5 : & : : 5 : > 3 & & 3 3 = & 3 : 5 & : 5 & & 3 7 & & 3 & & & : 3 & = 3 3 X = > X > 5 5 & & : : > & & 5 > & : 5 X : > 5 > , , 7 : & 3 3 3 > 7 3 & > 7 = 5 > & 3 3 5 3 : : y = & 3 3 > 3 > 3 3 > 5 3 3 = : 3 3 : 3 5 3 > 3 = & 5 3 = 3 > 3 3 = & 5 3 5 5 3 , , = 5 = : 3 ",
"5 u GXGXg 5 7 7 3 o.GXLXLXLXLXGXa 2 GXSX3X3X2XHXLX>.3 5 >.LX,.+ u y 5 3 &.3X! 5 7 7 5 5 7 5 5 7 7 7 5 7 7 5 7 7 7 5 7 7 5 7 7 5 7 7 5 7 5 7 7 5 5 7 7 5 7 5 7 7 5 7 5 7 5 5 7 5 7 5 7 7 5 7 7 5 5 7 7 5 7 5 5 7 7 5 7 7 5 7 7 5 7 5 7 7 5 7 5 7 5 7 7 5 7 5 5 7 7 5 7 7 5 7 7 5 5 7 5 5 7 5 7 5 7 5 7 7 5 7 7 5 7 5 7 7 5 7 7 5 7 7 5 7 7 5 & & & & & & & & & & X * & & X & & & & X & & X & X & & X & & & & * X & . & & & X & & X & & & & & & & : & X & & * X & & * & & & & & & & & & & & * & & & & X & & X & & & & & & X . & & X & & 3 : : , # & : 3 > > > 3 & 3 > 3 & & & 3 > & > : : > : & > > & & & & & & & X , & X * & & & & & X X * & X & & * * X , & & & & & & & X , . # & * & & & ",
"> 1 GXGXu 5 5 5 7 3 g +.+.$.3XLX+.7 GXLXLXLXLXLXHX! & HXLXGX3X= - 7 u = >.=.E 5 7 7 7 5 5 7 5 5 7 7 5 7 7 5 7 7 7 5 7 7 5 7 7 5 5 7 7 5 7 5 5 7 7 5 5 7 5 7 7 5 7 7 5 7 5 7 7 5 7 7 5 7 7 5 7 7 7 5 5 7 5 7 7 5 7 5 7 7 5 7 7 5 7 5 7 7 5 7 5 7 5 7 7 5 7 5 5 7 5 5 7 5 5 7 7 5 7 7 5 7 7 5 7 7 y 3 5 7 5 7 7 5 7 5 7 5 7 7 5 7 7 5 7 y 3 & & X & & o & & . . & & & & & & & . o & & & . & o = & X & & & . X & X & & & X & X     & &   & . X . & . & X &   X & & & & X & . & & * = X & & * = & . & & & X & & & * & X X & & & & X & & > & & - G G : : : > > & & & > & 5 & g 2 3 = : > & 3 & & 5 = & & *   o o & X X X X X & X   & . . , X & & X & . & X & &   X X . . X . . X & X * X X & & ",
"7 2 GXGXg u j i 7 u < > u 3 >.LX+.7 GXGXX.o.+.+.2 3 5 $.o.HXLX1X=.g + $.HXX.a 5 7 5 5 7 7 7 7 7 5 5 7 7 7 7 5 5 5 7 5 7 7 5 5 7 7 5 5 7 7 7 7 7 5 7 7 5 7 7 5 7 5 7 7 5 7 5 5 7 7 5 5 7 7 7 7 5 5 7 7 5 7 7 5 7 5 7 5 7 7 5 5 7 7 5 5 7 7 5 7 5 7 7 5 7 5 7 7 5 7 7 7 7 7 5 5 7 7 5 5 7 7 7 7 5 7 7 7 5 7 7 5 7 5 7 7 5 5 7 7 5 7 7 7 3 & & & . & & a X & & & & & X & . & X & & * = & & & . * & & & &   k b.i & & 3.5 3   7 ( / . 3 u & 7 & 5 . 7 > = & O.i   & X & X * & & o & & & . & o & & & X . & & & . 1 > X & & & . & & & & = & 5 5 , G G = > : & & + = X & 3 = < :.:.o.X : : & > = & & * & & E X.=.o.o b.i s 3.1.2.1.1.3 { ^ 3 O.  & X E E $.2 X   c.7 1.n.k s m.O.~ i h ( N.b.& X ",
"> g GXLXGXGXGXAX3 +.LXGXGXGXLXLX! 7 GXGX5 + 3 3 5 y u + X.LXHXGXLX=.! 3X=.$.5 5 7 7 7 7 7 5 5 7 7 5 7 5 5 7 5 7 7 7 5 5 7 7 7 7 7 7 7 7 5 7 7 5 7 7 7 7 5 7 7 7 5 7 7 5 7 7 7 7 5 7 7 5 7 7 7 7 7 7 7 7 5 7 5 7 7 7 5 5 7 7 7 7 5 7 7 5 5 5 7 7 5 7 7 5 7 7 5 7 7 y 5 7 7 7 7 7 5 7 7 5 7 7 7 7 7 7 7 7 5 7 5 7 7 7 7 7 7 5 7 5 5 y = & * & & & & o.2 & & . X & & & & X & & & = & & X & & & . & & X & o 4.n.7 G.A.b.b.G.b.2.N.n.o n.M.3.N.4.G.N.N.~ N.A.eX/   & & . & & & X & & & & & & & & X & & & & & X & & =., . & X & & . & 3 > & > & G G G & & & < X.o.:.&.= & & < :.&.o.X > > 3 & = & X & & o X.2X>.X.O G.3.3.A.m.1.1.rXO.b.4.6 n.  & & < $.o.< & & rXO.b.G.2.m.3 4.G.h { ~ 1.(   & ",
"5 a HXSXGXGXGXHX3 +.GXGXGXGXGXX.3 a SXGXj 5 7 u 7 7 7 3 +.=.E GX3X2X<X2X$.5 5 7 5 5 7 5 5 7 7 7 7 7 5 7 7 5 7 7 7 5 7 7 5 5 7 5 5 7 5 7 7 5 5 7 7 5 5 7 5 7 7 7 7 7 5 7 5 7 5 7 7 5 7 7 y 3 7 7 7 5 5 7 5 7 7 7 7 5 7 7 5 5 7 5 7 7 5 7 7 7 5 7 5 7 7 5 7 5 7 7 7 5 7 5 5 7 5 7 7 5 7 7 y 3 7 7 7 7 5 7 5 7 7 7 7 > 7 7 7 7 5 7 5 5 & & & X X & & X.1 X & & & & . . & & . & & * o . & & X & & & & & X & & 1.eXG.1.N.rX4.G.8 ( ( o m.~ G.( c.G.( 4.N.eX1.m.3 X & & & & X & & . X & & & o . & & & & X . & & . & X.< & & & & & & = & > 3 > & G G G > - , , E E o.o.& & = < &.%.o.= > = & 5 & & & & & o +.:.2X+.X 3.G.A.2.m.l 1.1.eXc.3.s b.  & & < o.E 2 X 1.eXG.m.2.b.m.> 4.A.~ 4.k O.( o & ",
"5 7 u j u g u u 7 5 u a 2 g u 3 7 7 u u 7 7 7 y 7 7 7 7 5 + $.HX< >.=.! 5 5 7 5 7 5 7 7 5 7 7 7 5 7 5 7 7 7 7 5 7 7 7 y 7 5 7 5 7 7 7 7 5 7 7 7 5 7 5 7 5 7 5 7 5 7 7 7 7 7 7 7 5 7 7 7 7 5 7 7 5 7 5 7 7 7 7 5 7 7 7 y 7 5 7 5 7 7 7 7 5 7 7 7 7 5 7 5 7 7 7 5 5 7 7 7 7 7 7 7 5 7 7 7 7 5 7 7 5 7 5 7 7 7 7 5 7 7 7 7 5 7 5 7 - & & . & X . & . & 1 & & & X X & & & X & & & o & & & . & & X &   & &   h c.~ 2.O.( { 4.k b.( 3.o N.B.~ ^ 6 c.k 3.1.4./ 1.(   & . & & & . & & & o & & & X & & . & & & X & o < > o & X & . & & = 3 > = = , 2 - , > = & & + & + = - & & 5 E o.> > & = = & * & & . * . ! X.+.E X ~ 1.1.~ 2.3.O.7 1.) ( m.s . & & 2 ! o.2 . 1.3 ^ m.n.~ h m.1.5 c.c.& ~ s X & ",
"5 7 7 5 5 7 7 5 7 7 7 7 , > u u u u 7 7 7 7 7 y 7 7 7 7 7 7 5 5 7 y u 7 7 5 7 7 7 7 7 7 7 7 u u 7 7 7 7 7 y 7 7 7 7 7 u 7 7 7 7 u u 7 7 7 7 7 y 7 7 7 7 7 7 7 7 7 7 7 y 7 7 y u 7 7 y u 7 7 u u 7 7 7 7 7 y 7 7 7 7 7 u 7 7 7 7 u y 7 7 7 7 7 7 7 7 7 7 7 7 7 7 7 7 7 y 7 7 y u 7 7 y u 7 7 u u 7 7 7 7 7 y 7 7 7 7 7 u 7 7 y 3 & & & & & & & & & & . & X & & & . & & X . & & X & & & & & . & & & & X & X & . . * . . & X X . X & c.&   & . & & &   . & X X & X & & X & & & . & = * & . o & & & & . & & & & X & & & & & & = & & & 3 > & : - > = > > & 5 > : & & & & & 5 & & = & > > & & & & & & = & & . X . & *     X   & X & . . o X . & & & . & X & & X X *   X X . . . . . . & X   & & ",
"> 3 > 5 5 3 : 5 > 5 3 > 5 3 5 > 3 3 > 5 : 3 > 3 5 3 & 3 : 5 5 3 > > 3 3 3 > 5 3 5 > 5 3 : 3 > 3 > 3 : 3 5 > 3 3 3 > 3 > 3 3 : > > 3 3 3 > : 3 7 3 > : 3 5 : 5 3 & 3 5 3 3 3 > 3 : 3 3 > 3 3 > 3 5 3 : 3 5 > 3 3 3 > 3 > 3 3 : > 5 3 3 3 > 3 3 5 > = > > 3 7 3 3 & 3 5 3 3 3 3 > 3 > 3 3 > 3 3 3 3 3 : > 3 5 > 3 > 3 > 3 3 3 > & & X & X . & . & & & & . X & X * & X & & & X & & & o = & & o * & & . & & & X & X & & & X & & & & X = & & & . & X X & & & X & , X . & X & X & X & & X & & * & & X o & . & & . & & & . & & > & & - & & & & # & & & & & & & & & & + & & - * & & & & & & & & . & X X & . & & X & & X & & & X & & & X & & & & & . & & X & X & X & X , & & & X & & & . & X & & X ",
"& & & & & & & & & & & & & & & & & & & & & & & & & & & & & & & , & & & & & & & & & X & & & & & & & & & & & & & & & & & & & & & & & & & & & & & & & & & & X & & , & & * & & & & & & & & & & & & & * & & & & & & & & & & & & & & & & & & & & * & & & & & & & & & , & & * & & & & & & & & & & & & & & & & & & & & & & & & & & & & & & & & & & & & & & = & & & & , # & & & & & & & & & & & & & & = & & & & & & & & & & & & & & & & & & & & & & & & & & & & & & & & > & & & & & & * = & & & & = & & & = & & & & & & & & = & * & & & * & & & & & & & & & & & & & & & , & & & & & & & & & & & & & & & & & & & & & & & & & & & & & & & & & & & & & = & & & & & & & & & : & & & & = & & & & & & & & ",
"~ ~ ~ k ~ l ^ k ~ k k k l ~ ~ ~ ~ ~ k ^ k l ^ k ~ k ~ ~ ~ l ~ ^ ^ ~ ^ ~ ~ ~ ^ l ~ ~ ~ ~ l ^ ^ ~ ^ ^ ~ ~ O.k k ^ k ^ ^ ^ k k ^ ^ l ^ ~ ^ ~ ^ k / ^ l ^ ^ l ^ ^ ~ k ^ k ^ l ^ ~ ^ ^ k ^ ~ ^ ^ ^ l ~ ~ ^ ~ ^ l ^ ~ l ~ / ~ ~ ^ l ^ ~ ~ l / ~ ~ ~ ^ ^ l ~ ~ ~ ^ l / ^ k l ^ ~ ^ ^ l k ^ ^ k ^ ~ ^ l ^ ~ ~ ^ k ^ ^ k O.k k / k k / k ^ ~ ^ l ^ ~ ^ ~ ^ l ^ ~ k k l k ~ ^ ^ l ^ ~ ~ l ~ ~ / l ^ ~ ~ l ~ ~ l ^ ~ ~ ~ ^ l ^ ~ ~ ~ ^ l ^ ^ ~ k / ^ k / k ~ ^ ~ l ^ ^ ^ k l ^ ^ k k ^ ^ ~ ^ ~ ~ l ^ ~ ~ l ~ ^ ~ ~ l ^ ~ ~ ~ / j & 7 5 5 5 > 5 > > 5 5 5 5 7 : , 5 5 5 5 7 7 5 7 & : 7 7 > 5 5 3 5 7 & : 7 - = 7 7 7 7 7 & 5 ~ ~ k k k / ^ ~ ^ ~ ^ k l ^ ~ l ^ ^ ^ ~ ^ k ^ ^ k k k / k / k ~ ~ ~ ~ l ",
"/ ^ / 1.O.O./ 4./ @.4.1.@.1./ / ^ O.O.^ O.^ ^ 4.( O.O.~ / O.@.^ / / / / / / / ^ / / / / / ^ ^ ^ ^ ^ / / k O.O.k k O.^ ^ O.^ ^ ^ ^ / / ^ ^ ^ ^ ^ / / ^ ^ / / / ^ O.k O.^ O.^ ^ ^ O.^ ^ ^ ^ ^ ^ ^ / / ^ ^ ^ ^ / / / ^ / / ^ ^ / ^ / / ^ / / / ^ ^ ^ ^ / / / / ^ / ^ ^ O.^ ^ / / / O./ / ^ ^ / ^ / ^ ^ ^ ^ ^ ^ ^ ^ O.^ k O.O.^ / O.^ / ^ ^ / / ^ ^ ^ ^ ^ / O.k O.O.^ / / / ^ / / / / / / ^ / / / / ^ ^ ^ / / / ^ ^ ^ ^ / / / / / / ^ ^ ^ / / ^ k O.^ ^ / / ^ / ^ ^ O./ / / / ^ ^ / ^ / / / / / / / ^ ^ ^ ^ ^ / / / / / i & 7 7 7 5 h O.2.O.l 5 7 7 7 : : 7 7 h 5 : 5 7 7 : : 7 5 h i i ~ 5 7 : : 5 i Q 3 5 5 : 5 & 7 / ^ 1.1.( k k ^ k ^ k 1.( ^ / / / ^ ^ ^ ^ ^ ^ O.^ O.O./ / / / / / / / / ",
"^ / eX3.A.A.A.A.c.A.c.eXA.G.A.M.O.A.eX@.rXk m.M.2.eXm.3.A.3.eXA.c.3.3.k / ^ ^ ^ / ^ ^ ^ ^ ^ ^ ^ ^ ^ ^ ^ k k ^ ^ ^ ^ ^ ^ ^ ^ ^ ^ / / / ~ ^ ^ ^ ^ ^ ^ ^ ^ ^ ^ ^ ^ k O.^ ^ ~ ^ ^ ^ k ^ ^ ^ ^ ^ ^ ^ ^ ^ ^ ^ ^ ^ ~ / ^ / ^ ^ ^ ^ ^ ^ / ^ ^ ^ ^ ^ ^ ^ ^ ^ ^ ^ ^ ^ ^ ^ ^ ^ ^ ^ ^ ^ / ~ k / ^ ^ ^ ^ ^ ^ / ~ ^ ^ O.^ ^ ^ k k O.^ / k k / ^ ^ ^ ^ ~ ~ / ^ / ^ ^ ^ k O.^ ^ ^ ^ ^ ^ ^ ^ ^ ^ ^ ^ ^ ^ ^ ^ ^ ^ ^ ^ ^ ^ ^ ^ ^ ^ ^ ^ ^ ^ ^ / / ~ ^ ^ ^ ^ ^ O.O.k ^ ^ ^ / ^ ^ ^ ^ ~ ^ ^ ^ ^ ^ l / ^ ^ ^ ^ / ^ ^ ^ ^ ^ ^ ^ ^ ^ ^ ^ ^ / j X 7 7 7 3 l c.4.3.O.7 7 5 7 & & 7 5 m.O.4.i 5 7 : : 5 l A.~ m.4.7 7 : & i n.n.1.i k M.k X 7 ~ 1.eX2.1.b.2.2.c.( 4.N.2.~ ^ ^ ^ ^ ^ ^ ^ ^ ^ k ^ k l k O.^ ^ / / ^ ^ ^ ",
"^ l v.n.eXn.A.n.A.O.u n.4.rXA.m.O.G.eXA.eXO.A.@.A.rXm.A.rXM.A.n.eXeX3.k / ^ ^ ^ ^ / ^ ^ ^ ^ ^ ^ ^ ^ ^ ^ O.^ ^ ^ ^ ^ ^ ^ ^ ^ ^ ^ ~ / / ^ ^ ^ ^ ^ ^ ^ ^ ^ ^ ^ ^ ^ ^ k ^ ^ ^ ^ ^ ^ ^ ^ ^ ^ ^ ^ ^ ^ ^ ^ ^ ^ / / ~ / ^ ^ ^ ^ ^ ^ ^ ^ ^ / ^ ^ ^ ^ ^ ^ ^ ^ ^ ^ ^ ^ ^ ^ ^ ^ ^ ^ ^ ^ / ~ ^ ^ ^ ^ ^ ^ ^ ^ / / ^ ^ l ^ ^ ^ k O.k ^ / / / / ^ ^ ^ ^ / / ^ ^ ~ ^ ^ ^ / ^ ^ ^ ^ ^ ^ ^ ^ ^ ^ / ^ ^ ^ ^ ^ ^ ^ ^ ^ ^ ^ ^ ^ ^ ^ ^ ^ ^ ^ ^ / ~ ^ ^ ^ ^ ^ ^ ^ l k O.^ ^ ^ / ^ ^ ^ ^ ^ ^ / ^ ^ ^ / / ^ ^ ^ ^ ^ ^ ^ ^ ^ ^ ^ ^ ^ ^ ^ ^ ^ / k X 7 7 u 3 / n.X 3.O.> 5 7 7 : : 7 5 4.b.M.2.: u & : 5 i 3.m.2.  7 7 : . 1.4.8 eX1.b.G.i & 7 / / m.m.G.M.G.G.A.b.eXeX@.l / ^ ^ ^ ^ ^ ^ ^ ^ ^ ^ O.k O.k ^ ^ ^ ^ ^ ^ ^ ",
"^ ^ 3.G.A.h n.A.c.A.1.n.3.M.n.m.A.m.M.eXM.^ n.A.G.n.A.N.3.eX1.O.v.c.3.k ^ ^ ^ ^ ^ l / / ~ ^ ^ ^ ^ ^ ^ ^ ^ ^ O.k ^ ^ ^ k ^ ^ ^ ^ ~ / ~ / / ~ ^ ^ ^ ^ k O.k O.^ ^ ^ ^ ^ k / l / ^ ^ k ^ ^ / / l ^ ^ ^ ^ ^ ^ ~ / ^ ^ ^ ^ ^ ^ ^ ^ ~ ^ ^ ^ ^ ^ ^ ^ ^ ^ ^ ^ ^ / ~ ^ ^ ^ ^ ^ ^ / ~ / / ^ ^ k O./ / ^ ^ ~ ^ / l / / ^ ^ / ~ / / / ^ ^ l ^ ^ ^ ^ ~ ^ ^ ^ / ^ ~ / / l ^ ^ ^ ^ ^ ^ / ^ ^ ~ ^ ^ ^ ^ ^ ^ ^ ^ ^ ^ / / ^ ^ ^ ^ ^ ^ ^ ^ / ~ ^ ^ / ~ ^ ^ k k O.k / / ^ l ~ ^ ^ ^ ^ ^ ^ ^ ~ / / ~ ^ ^ ^ ^ ^ ^ ^ ^ ^ ^ ^ ^ ^ ^ ^ ^ ^ / s & 7 7 7 3 k 2.3.eXm.3 7 5 7 : & i 5 m.c.O.4.: u : : 5 i c.m.m.1.5 y & & s n.n.4.M.m.b.k & 7 ^ / m.eXm.m.eXn.2.G.eXeX@.~ ^ ~ ^ ^ ^ / k k ^ ^ ^ ^ ^ ^ ^ ^ / ^ ^ l / ^ ",
"^ ^ 1.( ( ^ O.@./ 1.O./ ( / / O.@./ / / O.^ ^ @.O./ ( ( l O./ / / / / / ^ ^ / / / / / / / / / / ( l ~ ) ^ ^ ~ ~ ^ ^ ^ O.^ ^ O.t l k / / / / / / O.^ ^ O.O.k / / O.k ^ O./ / / / ^ O.O.^ / / O.^ / ^ / / / / / / / ^ ^ ^ ^ / / ^ / / / / ^ / / / ^ ^ ^ / / / / / ^ ^ O.^ / / / / / / O.k / / / / / / / / / / ^ / / / / / / / ^ O./ ^ ^ ^ / / / / / / / / / / / ^ / ^ / ^ / / / / ^ / / / ^ ^ ^ ^ ^ / / / ^ / / / ^ ^ ^ / / / / / / / / / O.^ k O./ / / / / ^ / / ^ ^ ^ ^ / / / / / ^ / / ^ ^ ^ ^ / / ^ / ^ ^ / / ^ ( i   7 5 7 7 k ~ ~ 1.@.3 7 7 7 & & 7 7 i i u 8 7 7 : : 5 8 ~ 3 j k 5 8 & = y j k > h i i j & 7 / / 4.^ ( N.A.^ O.O.O./ / / / ^ O.^ / O./ O./ O.k / / k O.O.k / / / / ^ ",
"l k k k k k h h k h k k k k k k h k h k k k k h h k k h k k k k k k k k k k k k k k h k k k ~ ~ k ` 4.V l { l { L l { l { V l x.0X-.k k k k k k j k k k e k k k k k k k k k k k k k j k k k k k k k k k k k k k k k k k k k k k k k k k k k k k k k k k k k k k k k j k k k k k k h k k k k k k k k k k h k k k k k k k k k j k k k Q h k k k k k k k k k k k k k k k k k k k k k k k k k k k k k k k k k k k k k k k k k k k k k k k k k k k k k k k k k k ~ Q k k k k k k k k k k k k k k k k k k k k k k k k k k i & 5 7 7 5 5 5 5 > 5 7 7 5 7 & 3 7 7 5 5 5 7 7 7 : : 7 5 > 7 5 5 5 y * * ; 5 3 5 5 5 5 5 & 5 k h s h k ( k j k k h h k h k h k k h k k k k k k k k h k k k k k k k k ",
"p.V f e 9 5 5 5 4 5 5 3 5 5 3 5 5 5 5 5 4 5 7 8 4 5 5 5 5 5 5 3 5 7 4 8 5 5 5 7 4 5 5 5 u y 3 y X -.qXz I H H P N N H N H N J 6.k.uXu 8 5 5 u u 3 e L e e e 7 5 5 5 5 4 5 5 3 5 5 5 5 4 5 3 5 5 8 5 3 5 5 5 7 4 5 7 4 5 5 8 5 5 4 5 3 5 5 5 i 4 5 5 7 4 5 8 7 3 7 4 5 8 j %.g 2 g 7 5 4 8 5 3 5 i 5 3 i 7 5 5 5 5 5 4 5 5 5 5 4 5 = o.&.a g < y 5 5 8 5 5 5 5 5 5 4 5 5 3 5 5 7 5 7 4 5 5 5 5 i V.k s i i 9 5 8 5 5 7 4 5 8 5 3 5 7 u 4 5 5 i 4 5 3 i 5 3 { } q f 8 8 5 5 3 5 5 5 7 4 5 5 5 5 7 6 5 5 6 6 5 5 3 5 5 5 & 5 7 5 7 7 & & & 7 7 5 7 7 : & u 7 5 5 5 5 5 7 & , 7 7 7 7 5 7 5 y - & p 5 7 5 5 5 7 7 3 & 5 5 7 7 7 3 5 7 5 5 5 7 5 5 5 5 5 u 5 5 4 8 5 7 7 7 4 7 5 5 < 7 5 7 5 5 ",
"p.V f l e = & 3 & & : & & 3 X : : : : # : & 5 3 : : : : & 3 & & & : , 5 3 & : & & 3 & & 5 3 = &   ,Xm.z B m M M M m M M M M B M z yX> X X & 3 3 , r L r 4 5 4 : : : & : : & : & & : & & : : : X 8 : & : : X 3 : : X 3 : & 8 & : : & : & : # 7 & 3 & 3 & # 5 3 & & : & 9 < %.2 < g > : # 7 3 X : 5 & & 8 3 & : & : : & & : & : & & + E &.1 1 1 > & 5 5 & : & : & : : X 3 : X 3 7 & 3 : & : : & 7 B.f d y 5 & & 7 & & 3 & : 5 : : : 3 5 : : & 8 : : X 8 3 . { k.6 8 9 = & : & : & & : : & : & & & X : & 5 3 & & # 3 : 7 & 5 7 7 5 7 3 & & 7 7 7 5 p * - ; q q ; p 0 q d & 3 i q q ; p w q ; * - d 0 q q q 0 q q & = y y y 5 8 7 7 5 7 7 7 5 8 7 7 5 8 9 9 % 4 9 w 3 3 0 9 0 0 0 9 % 9 - 8 7 ",
"5.{ { 1.1.3 3 & 3 : : 3 : : 3 : : : : : 3 & 5 3 : : : : : : 3 : : 3 + 5 3 : 3 3 : : 3 : 5 3 X & O [ Z.M N V m m M N N M M M N N z yXtX,X7 3 7 = # r L r 8 4 3 : 3 : : 3 : 3 : 3 3 : 3 : : 3 & 3 7 3 : 3 & 3 : 3 : : : : : 7 3 : : 3 : 3 : 3 7 : : : : 3 : 5 5 & 3 : : 7 < &.< 2 g > : : 5 5 : : 5 3 : 7 5 : : : : 3 3 : 3 : : 3 & + o.&.* E > y = 3 5 # : 3 : : : : : : : : 3 7 & : : : : 3 & d 0Xf p 8 5 3 = u : : : 3 3 5 3 : : 3 5 : : : 5 3 : : 7 3 X { } 6 f 8 5 & : 3 : 3 : 3 : 3 : 3 : : 3 : 3 5 5 & 3 : & 3 7 & 5 5 7 5 u X o o 7 7 7 5 p - * p n w n w w w q & & q n w q n n w q * > q w w q w w w q * & p 7 7 7 9 3 u u 5 3 5 7 5 7 5 u :.1X<X<X<X<X<X:.<XZX:.:.ZX:.<X<XZX:.h 7 ",
"k.5.1.{ / 5 & 3 3 & : : & 3 : : & 3 & 3 : & 7 5 & : # = : : : = : : & 8 3 & : : & 3 3 & 5 y [ [ _ 4X5.M N M m M M N m m M M m m M A k.pX_ o 5 5 & 4 L r r 5 4 : : # : & & : : : 3 : : : : : : : 5 : : : : : : 3 # : : : 3 7 & # & 3 : : : : 5 : & 3 : : : 5 3 : : 3 : 9 < &.2 < g > : 3 5 5 & : 8 3 & 8 5 & # = : 3 & : 3 & 3 : , * &.] 1 1 > * : 3 5 : 3 : : 3 : : : : : : 5 5 : 3 = # & : X d V.s s 8 7 : : 7 = : : : : 5 : : & 5 5 # : : 5 3 3 : 7 3 . { } ; q 6 - > : & : : : & 3 : : : $ = 3 : : 5 3 : 3 & 3 : 5 X 5 7 7 7 6 ! $.$.7 5 7 7 d = - ; ; n q q w w q & & q w 0 w ; w w p * - q w w q w w w q & & 7 5 7 - ! 3XDXGXDX=.5 5 5 5 5 j AX:.:.:.:.<X:.:.<X:.:.:.:.:.:.:.:.AXg 5 ",
"5.B k t f 3 : : : : : 3 : : : 3 : : : : : & 5 4 : : : : : : : : : : & 5 3 & : : 3 & > 3 $ ,XpXZ.mXqXm m N M M M M J I I m M N m M m z n.4X,X_ & : 5 L e 8 4 # . : : 3 : : = # : & : : : & 3 : : 5 3 & : : : : & & 3 : : & 7 3 3 : : : : : 3 5 : : : : : : 7 > : : & : 5 < %.< 2 g > : & 5 3 : : 7 : : 7 3 : : : # & 3 : : : : : *   E &.1 1 1 * : 3 5 & 3 & : : : : : 3 : : 3 5 & : & : 3 : # 8 0Xf p d 3 3 : 8 : : : : 3 8 & : & 3 7 & 3 : 7 : : : 7 : * { } d d 6 3 = : 3 : : 3 : & : : : & & : : & 7 3 : : : : : 5 & 5 5 7 7 6 3XFXDXa 5 7 5 ; * * p n ; w w w w q & & q w w w ; w ; w - * p w w w q w w f & & 7 y = =.FXDX=.$.=.=.X.a 5 7 5 g ZX%.%.%.%.<X<XZX:.ZX:.<X<X:.:.%.%.ZXg 5 ",
"p.V 6 9 9 5 : & : : : # & = : & 3 : 3 & : X 5 3 & 3 : $ & & : : : : & 5 5 : : : 3 > & & - ,X5.z z z M m m M M M M I e.7.m M N m m M B N <.0XyX@ & 5 L r $ Q ,X[ # : : : : : : : & & = 3 = : : : 8 3 : # & 3 : : = : & : 3 5 : : 3 : : : : : 8 3 3 : : : & 5 3 : : : 3 7 < %.j 2 j , : & 5 5 # : 7 : : 5 5 : : : : & : : : = & : & + E &.< 1 < > : 5 5 : : # = : : : : = : : 4 5 & 3 : : : : & d B.f d 8 5 = & 7 : : = & : 7 : : 3 3 5 & & 3 8 : : : 7 3 . { } 6 f 9 3 : 3 : : & : & 3 : & : : 3 : 3 : 5 5 : : : : : 7 X 5 7 5 7 3 2XFXDXu 7 7 7 p & & q w w ; ; w w q & & q w w w 0 n n q & & q w w w w w w 0 & : u - +.FX=.X O 9 3.& o.=.u 7 5 g ZX%.:.%.:.:.ZXZX<X:.<X:.:.:.:.:.%.ZX2 5 ",
"p.V q q 9 = : : : : : 3 : : : 3 & : : : : 3 5 5 : : : : & = : : 3 : 3 8 3 : : : & 3 3 > - ,X5.z M M M m N m J I N 7.7.I m M B m M m M N z B sX}.M > L r j tXmXiX> + : : 3 : 3 & $ : & : : : : : 5 : : 3 : : : 3 : : : 3 : 7 : : : : 3 X : : 5 : : : : 3 3 5 3 : : : : 9 < %.2 < g > > # 5 3 & : 7 3 : 8 3 : : : 3 3 : 3 : # : : & + o.&.< 1 > > : : 5 & : : : & : : : : : : 3 5 : : : : : = & 8 B.p f d y & : 7 : : # : 3 7 : 3 : 3 7 # : : 5 : : : 7 3 X { } 6 8 6 3 : : : : 3 : : : : 3 : : : : : # 5 3 : : : 3 & 7 & 7 7 7 7 5 >.FXDXa 3 7 7 y & & d w w w w w w d & & q w w ; ; q w q & & 6 w w ; ; w w 0 * & 7 i DX>.o & o N.IXo & =.o.3 5 g ZX%.:.%.%.:.,.:.:.:.:.:.:.%.%.:.:.ZXe 5 ",
"5.n 8 6 5 3 & : & : : : : : : : 3 : : 3 : & 5 3 & : : : : : : 3 & 3 & 5 3 & 3 : > & & = = ,X5.M M M M m m M U 7.U e.U 7.m M m m M M m m m m V.aXx.$ L j aX0XZ tX> & : : : = : : : : : : : : : : 7 : : : : : : : : : : : 3 7 3 : : : : 3 3 : 5 : # : : : & 5 3 : & 3 : 5 2 &.< < g > : : 5 3 : : 5 : : 5 5 3 : : : : : & : 3 : 3 > & E &.< < < : & 5 5 # 3 : : : : : : : : : 3 7 & 3 3 : : : & 8 0Xf d d 5 > > u : & 3 : : 7 : & : 5 5 & 3 : 7 : : 3 5 3 # { k.6 q 6 3 3 3 : : : 3 : & & : : 3 & 3 : & 7 3 : : : & 3 5 & 5 7 7 7 - 2XFXDXu 5 7 7 u = & q n q w q w n q & - ; w q @ n w 0 q > * q w n ; n w v - * 3 5 ! HXg X &   rX3.o X o.=.7 5 g SX:.:.:.:.:.<X:.:.:.:.:.:.:.:.:.:.AXg 5 ",
"Z.V 6 q 9 = > = 3 : 3 & : : 3 & : : : & 3 : 5 3 : 3 & 3 3 : : & : : & 5 5 # : : 3 & 3 & & tX} M N M M N N m I 7.7.7.e.7.N M B m M M m N M M z 5.0X$ L +.qXz m tXy & : : : : : : 3 & : : : : : = 7 3 : : & 3 3 & : : 3 & : 5 : : & 3 : : : : 5 3 & = : : & 5 3 3 : : : 9 < %.< 2 g > 3 : 5 5 : 3 5 3 : 7 3 X : 3 & : : : : & : : > * E &.< 1 > 5 & 3 7 & & 3 : : 3 & : : : & 3 7 & : : & 3 : & y V.f p d - & = y : : : : : 7 : 3 : 3 5 : : & 7 3 : : 5 3 . { } 5 d 6 3 & : & 3 : : & = $ : : : : & 3 & 5 3 & : : : : 7 & 5 7 7 7 3 2XFXDXg 5 u y y & & q w w ; q w w ; = * L.R.R.T.R.R.R.L., * L.R.R.R.T.R.R.L.* 3 3 +.FX5 & & X : & * X 2 X.5 7 e :.ZX:.<X<X<X<X<X<XZX>.ZXZX:.ZX>.ZX:.u 5 ",
"p.V q q 5 = > - 3 & : & & > & & : : : 3 = & y & & : & : & > & 5 : : & 5 3 : : : 3 : : : 3 tX} z M M m m N M 7.7.6.e.e.U B M m m M M B m M m m <.uX .L -.0XH m wX1 & : : : : : & : : : : : : # & 7 : 3 & : : : : 3 : : : : 8 3 : 3 : : : : : 7 : : : : : : 7 3 & 3 3 : 5 < %.j < g , : : 5 3 : 3 7 3 : 8 5 : : : # : & 3 & 3 : 3 : X E &.< 1 > > & 5 7 = : : : & : : & : : & 5 5 : : : : : 3 & 8 V.f s d 7 3 & 7 & 3 & 3 & 7 > - & 5 7 = : : 7 > 3 & 7 3 & { } ; q 6 5 & = 3 : : & - & - > & 3 > & : & 7 3 & = : : : 7 & 5 7 7 7 3 2XFXDXi 7 7 5 7 & : 9 ; n ; q n q ; - * v b v v v b b n * & n b b v v b b n * = 6 +.HXu X & X X & X X E =.5 5 7 3 9 3 = - 9 + r - 9 - 9 = = 9 - - 3 7 7 ",
"Z.<./ 9 5 5 & & : : 3 3 > - > - & : : : & & y = : 3 : 3 3 = & & # : : 5 3 : : 3 & : 3 & # tX<.M M M M m m m 7.U U 7.7.7.N M M B M m m N M M B M B.qXaXuXk.M M yX1 + = > : : : 3 = : : : & : 3 : 7 3 & # : 3 : : # : : : : 5 & : : & 3 : : : 7 3 # : 3 : : 7 3 : & : : 9 2 &.2 2 j > : & 5 3 : : 7 : X 7 3 : : 3 & 3 : : 3 > : & : + E &.1 < < = & 3 7 & : : : 3 : : 3 : : 3 3 5 X 3 : : : : & u 0Xs p 8 5 : = 7 : : : : 3 y > & : 3 5 & : = 7 3 : : 7 3 * { } 6 q d 3 3 > & & : & - & & - & & 3 3 : & 7 5 & : : : : 5 & 5 5 7 7 - 2XFXDXi 7 7 7 7 : > q n w ; w w w p - - p q ; q ; ; q q * - d ; q ; - 6 q 8 & & 9 i FX=.O & & & & X X X.$.5 7 7 7 7 5 h u 7 h r k u 7 3 k h k 7 u 7 7 7 ",
"p.{ { 9 6 = & > : : > & & 3 & & 3 : : & 3 & y - : : & : > & & > = : & 5 3 : : : : : = & 3 tXB M m M M B N m 7.U 7.7.7.U I I I m M M M N M M m m M z Y K H N H yXW & & & : : : : : : : > 3 : : : 7 3 : : : & 3 3 & 3 : : 3 5 & 3 : : : : 3 : 7 : & 3 : : X 7 5 & & 3 : 7 > %.1 2 g > 3 : 7 3 : : 7 3 : 7 5 & : : : : 3 & 3 & & = , X ] %.< < < > > 3 7 & : : : : 3 : : : : & 3 5 : 3 : : : : & d B.f p d 3 & & i 3 : : : : 7 - & : 3 7 & : : y & : : 7 3 . { } 6 q ; - & 3 & 3 : - * > > > 5 & & : : & 5 5 & = & 3 : 7 & 3 7 7 7 3 2XFXDXa 5 7 5 y > & q w w q w w ; ; * - ; n w w w @ n q & & q w w @ v w n q & & u 3 >.FX< X & & X * E &.j 5 7 7 7 3 k A.4.i N.b.A.4.3 4.A.b.A.~ > 7 7 7 ",
"5.<.~ 9 9 = - - & 3 3 3 & 3 = - : 3 3 : = > p - & 3 > = 3 3 - - : : = 7 3 : : 3 = & & . 3 tXB m M M M m m m 7.e.U e.7.7.8.7.7.J M m m m M B J M M H Y P P H z 0XW * & = : : : 3 : & 4 3 : 3 : : 7 : 3 : : 3 3 3 : : 3 : 3 5 : = : : 3 # : : 7 3 3 : : 3 : 5 3 : 3 & > 9 < %.2 1 g , : : 7 3 : : 7 : : i 5 : : : 3 : : 3 & > = & 3 # ] &.1 1 < , & 7 7 & 3 : : 3 > > 3 3 3 : 5 7 : : : 3 3 3 & p B.p s y 5 5 = 8 : : : : 3 u & - : 5 u & 3 : y - 3 : i 3 X { } d p d y & : > 3 : > - > - > & = > : : = 8 5 & > - : : 7 & 7 7 7 7 - 2XFXDXu 5 7 7 7 = & 8 w w q q w n p - * p ; d d ; ; @ p - * F R.R.T.T.R.R.F * = u 7 i 3XDX> & & & 2 =.$.4 7 5 7 7 : 1.4.4.1.1.G.1.3.( b.n.N.A./ > 7 7 5 ",
"p.n 6 6 - - * - : & & * * * * * & & & & * * > - & & & & * * * - * * * y > & & & # , E W Q tXB M M V m J K A I I I 6.7.I 7.I 7.N M M N m M M m m M H Y H H H z yX_ X & = & & & & = & & : 3 X & = 7 = = & # : , 3 & = = & 3 8 3 = & + & & 3 3 7 : & & & & , 4 3 & & & & 3 > &.2 2 g > : & 5 3 : : 5 : & u 3 & & & X & & X X # * & X o E &.* , * * o & = * X X X o o X + o o o X $ o # . . X X X - V.d 8 ; = + o 3 X & X X * - & o o $ 3 X = & - - X = 3 $ o B } ; d ; = = X = X + - * X * X - + X X X = 5 = X = * X = 7 & 7 7 5 7 - 2XFXDXu 5 7 7 7 & & 6 w w q w w w d & * b T.T.T.F T.T.v , . L.R.R.T.T.R.R.F   & u 7 3 u +.7 7 5 5 u g 7 5 7 7 7 7 3 s A.b.1.M.b.A.4.h N.b.m.A.( : 7 7 7 ",
"k.U.U.P.P.P.P.L.P.P.P.P.P.P.L.U.I.P.P.P.P.P.P.P.I.P.P.P.P.P.P.L.P.P.P.P.P.I.P.I.~.iXpXqXpXqXQ.U.Q.Q.}.}.'.}.}.}.}.}.'.{.'.).`.U P B B B N m I J B P Y P P J P 0X_ $ y 9 8 e r r t G % r t r t G t G G t t t % G t G G t G t t G t G t % G % t r r e 8 8 7 j i 7 7 i i i j :.g g g u u u i 8 5 > e 4 , e j e i i ) i f s h W ' ' ~ k -.>X_ [ [ [ [ _ [ _ _ [ _ [ [ [ _ [ [ [ [ [ _ _ _ [ _ _ _ ` yX` [ _ _ W W _ Q Q W W ' _ ` [ [ [ [ [ [ [ [ [ [ [ V.[ [ 9XqX[  . .[ [ [ [ [ *.[  .[  .[ [ [ [ [ *.[ [ [ [ [ [ [ [ W X 7 7 7 y - 2XFXDXu 5 7 5 7 : > q w w q w w w q - * L.R.R.T.R.R.R.L., , F R.R.T.R.R.R.F O = u 7 u 7 3 7 7 7 7 7 7 7 5 5 7 7 7 7 7 j i 5 j 8 j u 5 k i j k 5 7 7 7 5 ",
"Z.D v V n n n n n n n n n n n n n n n n n n n n n n n n n n n n v n n n n n n v  .qXc D D D Z S A Z ).).).).).).).).'.).).'.}.Q.Q.Y.W.T M M J N m J Y H J P m qX4XW % G G t t r r r r r r r r r t 4 % 4 r 4 4 r r 4 % 4 r r r r r r r r r r t r t r t G % t 8 , 3 3 7 6 g &.g 2 g u 9 3 5 j $.-.4XaXaXjXlXkXkXkXbXkXkXvXkXkXkXkXkXkXvXvXhXlXlXjXjXzXvXlXkXjXlXjXjXlXlXjXjXlXjXkXkXkXlXzXkXjXzXkXxXkXkXbXbXkXkXbXkXkXcXcXcXcXcXcXcXcXcXcXcXcXcXbXbXcXcXcXcXcXbXcXcXcXcXcXcXcXcXcXbXbXbXbXcXcXcXcXcXbXcXbXcXbXcXcXcXcX*.  7 7 7 7 5 2XFXDXg 5 7 5 7 = : q n w 0 q w w q & o F R.R.R.T.R.R.F   , F R.R.R.T.R.R.F , & 7 7 7 7 5 7 7 y 7 7 7 5 7 5 u 5 7 5 5 3 5 5 $ 5 3 5 5 3 3 5 3 5 3 7 7 7 ",
"k.B w w 0 ; - ; - ; ; ; ; ; - ; - ; ; ; ; ; q ; - ; ; ; ; ; ; ; ; - ; q ; - ; + *.0Xc C I P C C C C U 8.8.q.U 8.U 8.q.U 8.7.8.A Z S P.Q.P.C V H M m Y H H H M K.mX-.% r $ 4 $ $ 4 4 $ # $ $ 4 4 e 4 4 4 4 4 4 4 $ 4 4 4 : e $ 4 # 4 4 $ 4 , r $ $ 4 $ % r % G % 4 & & 7 > %.2 2 g > , $.,XlXkXlXjX4X,X,X-.[ +.] hX{ @.o.&.! 1 & > & jX,X2 1 > > 2 ] E E < < y i 5 y 6 5 5 8 u E E ] E u + 9 3 i B.l ' w f `  .{ { { ' l f { { ' { { { V V ' { { ' { ' { ' } ..{ { { ' V { f { { ' { ' { ' { { ' { { ' { { { ' V { { f * > 7 7 7 9 >.FXHXu 5 7 7 u & & 6 w w q w w w 0 o * F R.R.T.T.R.R.L.. , F R.R.R.T.R.R.L.* & 7 7 7 7 7 5 - = = 7 7 u 5 5 5 5 u g j g g g G j g g g g g g g g g u 5 7 ",
"k.V w w w q q q 0 0 0 0 q 0 0 w ; 0 0 0 0 0 w q 0 0 0 0 q 0 0 0 ; q ; w w ; w @ [ 9Xx D C C C Z Z C q.8.).8.8.8.8.8.8.8.q.8.).U T C N A I.Q.P.M M H Y P P H P R Z.-.X 3 4 4 4 4 4 4 4 4 4 4 4 4 e 4 4 4 $ 4 4 4 4 $ 4 4 4 e 4 4 4 4 4 4 4 4 e $ 4 4 4 4 $ e r r % % = 4 u &.2 2 2 2 tXkXlX,XE 2 < , # u < , , Q hXS Z , < E o.2 & # hX,X, , 1 ] E E p 1 1 1 E 1 1 E 1 1 1 1 1 W , 2 E ] ] * . u V.W p p [ [ p p y y y y 1 p p p > p p y p y W 1 p y W y >  .V.W ' ' p p p p p y y y y p y p * p p y y p p y y p y 1 y * 5 7 7 7 3 2XFXDXi 7 7 5 i & & e l t t t n t f 3 * Y &X=X=X!.=X=XR 3 : !.=X!.=X!.=X=X!.@ : 7 7 7 5 = j +.+.$.9 - i 7 7 5 g ZXZXZXZXZXZXZXZXZXZXZXZXZXZXZXZXZXZXg 4 ",
"k.B n n w q w ; 0 0 0 0 0 0 0 ; 0 0 0 0 0 0 f q 0 0 0 0 0 0 0 0 0 0 0 f w ; q @ ,XZ.x A A C Z C Z C U 8.8.U 8.8.8.8.8.8.8.8.0.8.).S Z A M m Q.Q.M H Y H H P R z n.0X$ 4 4 4 4 4 4 4 4 4 4 4 4 4 e 4 4 4 4 4 4 4 4 4 4 4 4 e 4 4 $ 4 4 4 4 4 e 4 4 4 4 4 : e 4 4 r G r r < :.2 2 =.kXhX_ 2 # , < ! 1 2 2 2 4 < _ jXY.Z 1 < < 1 4X[ o vX,X, ] &.E 1 2 E 1 1 1 1 1 1 2 1 1 1 E 1 E 1 1 < 1 E o.: u B.p '  .' p p W p p p p p ' p p p p W p p p W p p p W p > } ..' ' ' p p p p p p p p p p p p p p p p p W W p p p p p 6 & 6 y 7 7 - 2XFXDXa 7 7 7 7 > & t L t t t t t e : < %X*X*X&X&X*X*X%X, * %X*X*X&X*X*X*X%Xo : 7 7 5 5 >.DXFXHXHXDX+.- u 7 5 g ZX%.:.:.:.:.:.:.:.:.:.:.:.:.:.:.%.ZXg 5 ",
"k.V n f w 0 ; 0 q 0 0 0 0 0 0 q 0 0 0 0 0 0 w q 0 0 0 0 0 0 0 0 ; ; ; w @ @ @ @  .V.Z C A C Z C C A 8.8.8.8.U 8.8.8.8.8.8.8.8.8.8.I Z A Z C N P.Q.H Y L R P H z p.,X$ $ 4 4 4 4 4 $ 4 4 4 4 4 4 e 4 4 4 4 4 4 4 4 4 4 4 4 e 4 4 r 4 4 4 4 4 e 4 4 4 4 4 $ r 8 4 $ 4 r t , &.2 -.vX,X2 , 2 a < 2 g < < +.*.x.& E cX+XD a c 2 > 4X8X< cX,Xo.&.E V B E W 1 1 E 1 1 1 1 1 1 1 1 E W 1 E E 1 1 E ] u V.'  .' p p p W p p y p p W p p p W W p p p ' y p p ' p 1 } ..' ' ' p p p p p p p p p p p p p p p p y W p p p p d p d & 5 7 7 7 - 2XFXDXu 5 7 5 7 & : e t t t t t L t & * R *X*X&X=X*X*X%X# * %X*X*X&X&X*X*X!., : 7 6 9 3XFX=.> u g >.FX=.= 7 5 g ZX:.:.<X:.<X<X<X:.<X<X:.ZX:.ZX<X%.ZXg 5 ",
"Z.V n n w w 0 0 0 0 0 0 0 0 0 0 0 0 0 0 0 ; f w 0 0 0 0 0 0 0 0 0 ; ; V.,X,X,X,XjXk.Z C A C C Z Z C 8.8.).q.q.8.8.8.8.8.8.q.8.8.8.U S I C C A M I.Q.Y R P H H H 5.,X$ 4 4 4 4 4 4 4 4 4 4 4 4 4 e 4 4 4 4 4 4 4 4 4 4 4 4 e 4 4 4 4 4 4 4 4 e 4 4 4 4 4 4 r 4 4 4 4 4 t G %.-.vX,X, 2 1 g 2 < < 2 2 . 4XvXgX, _ vXcX5.k qX5 < 4X,Xo.kX8X] E 1 V.uX4X_ , 1 1 1 1 1 E 1 1 1 1 1 a 1 1 2 1 1 1 E &.qX[ ` W ' p p W p p _ p p W p p p p p p p p W p y p W p >  .} W ' ' p p p p p p p p p p p p p p p p p W p p p p p p d & 5 7 7 7 - 2XFXDXj 5 7 5 i & > t t t l t t t j = * %X*X*X&X*X*X*XY * * %X*X*X&X&X*X*X%X* = i - >.FXg O + & O o =.>.a 5 5 g ZX:.:.ZX<X<X<X<X:.:.<X<X<X<X:.ZX%.ZXg 5 ",
"k.V w n f 0 w ; q 0 0 0 0 0 w 0 ; ; ; ; 0 ; w ; ; ; 0 0 0 0 q ; q 0 ' jX .} }  .~.I.m Z C C C C Z A U 8.8.8.8.8.q.).8.8.8.U 8.8.8.8.8.8.C Z A C m P.!.L P H H c 5.tX$ 4 4 4 $ 4 4 4 4 4 4 4 4 4 e 4 4 4 4 4 4 4 4 4 4 4 4 e 4 4 4 4 4 4 4 4 e 4 4 4 4 4 $ e r : 4 4 4 e G >.vX=.2 E 1 < g 2 1 < V P.+.hXcXkX, ] vXvXZ.qXlX( jXuXvX,XzXuXB  .4X,XvXjX_ 1 , ,X] , 1 1 1 1 1 1 1 E 1 1 1 1 W 1 1 ] uX` _ ' p p p ' W - 4X[ 6 W p p d p W y p p ' y p p W p 5  ...' ' ' f p p p p p p p p p p p p p p p p W s p p p p p y & 7 7 5 7 - 2XFXDXu 5 7 5 7 & & e t t t t t t t & * !.*X*X&X&X*X*X!.+ , %X*X*X&X&X*X*XR , 3 5 a FX=.o : & & 2.IX5 o.+.5 5 g ZX%.%.%.%.:.%.%.%.%.%.%.%.%.%.%.%.ZXg 8 ",
"k.v n w w @ ; w 0 0 0 0 0 0 ; 0 w w 0 d w f ' f q 0 f 0 @ ; ; @ ; @ ' mXY.P.K.Y.Y.T m Z C A 7.7.7.8.8.8.).q.8.8.U 8.8.8.8.8.).8.q.8.8.8.A C A Z C P !.W.H P H H K tX$ 4 4 4 4 4 4 4 4 4 4 4 4 $ e 4 4 4 4 4 4 4 4 4 4 4 4 e 4 4 4 4 4 4 4 4 e 4 4 4 4 4 4 r 4 4 4 4 4 4 g vX,X2 ! 1 e 8 2 a < ! I.#XkXzXxXsX .uXNXMXmXNXsXtXkXtXNX8XiXvX(.Z.hX,XvXkX` E [ 4X-., E 1 1 s W 1 2 a 1 1 Q 1 1 1 , _ uX_ ' W W p p W p = jX,X- ' p p p p W p p p W p p p ' d >  ...W ' ' p p p p p p p p p p p p p p p p p p p p p p p p d X 5 7 7 7 9 2XFXDXa 5 7 7 7 & & t t t t t L t e : , %X*X*X&X&X*X*X!.* , R *X*X&X&X*X*X%X, 3 5 $.HX< X &   s IXc.X o.X.7 5 g SX<XZXZXZX<X<XZXZXZX<X<XZXZXZX:.ZXSXg 3 ",
"Z.x. . . .' ; 0 0 0 0 0 0 0 0 0 ; ;  .uX9XtXtXtX4XtX4XuX{ ' f ' ' 0 [ qXx m m C m m Z Z A A W.8.8.8.q.).8.8.8.8.8.).8.8.8.8.0.8.8.8.8.8.8.8.T C P T |.Q.P J H H K tX@ $ 4 4 4 4 4 4 4 4 4 4 4 4 e 4 4 4 4 4 4 4 4 4 4 4 $ e 4 4 4 4 4 4 4 4 e 4 4 4 $ r 4 e e 4 4 4 4 e lXaXG 2 E 2 .X,X< , , lXmXZ.vXNXmXmXqXcX.X].NXmXpXiXsXuX}.lXiXvXiXmXkXyXkXvX9X[ 4X4XmX8 2 a V P.1 , 1 E > _ tX< 1 1 E [ 0X,X' ' W p p W p 5 jX9X- W p p p p s p p p W d p p W W >  .Z.W ' ' p p p p p p p p p p p p p p p p p W p p p p p a i & 5 7 7 7 3 2XFXDXu 5 7 7 y > & f t L t t t t t : * %X*X&X&X&X*X*X%X* * %X*X*X&X&X*X*X%X* 3 3 +.HX> X &   & 7   X 2 =.7 5 7 o.X.X.X.X.X.X.X.X.,.X.X.X.X.X.X.X.o.u 7 ",
"B.qXqXpXqXzX' ; 0 0 0 0 0 0 ; ; w @ ,X .n V V n n n v  .4X4X4X4XtX4XuX[.Z Z Z Z Z Z C Z C A 8.8.8.8.U 8.).8.U 8.q.8.8.q.8.8.8.8.8.8.8.).U 8.U S R R Y W.E.H I H m jX4.$ 4 4 4 4 4 4 4 4 4 4 4 4 e 4 4 $ 4 4 4 4 4 4 4 4 4 e 4 4 4 4 4 4 $ 4 e 4 4 4 4 4 # 8 4 4 4 4 $ ,XvX:.G $.2 -.cX,X< ,X4XjXkXvXvXNXR.mXzXvXV. .NX9XtXzXmXjXZ.bXiXvXzXmXxXmXzXzXpX8XjXuXcXf ] {.I.S E [ 1 W 1 ! jX1 1 1 [ [ 0X-.[ p W p p ' p = hXtXy W p d p W W p p y ' p p d W p > } ..W ' p p p p p p p p p p p p p p p p d p p s p p p p p y * 5 7 7 7 5 >.FXDXj 5 7 7 7 3 & e t t t t t t t , * %X*X*X&X&X*X*X%X, * %X*X*X&X&X*X*XR * 4 3 _ FXg X & & & X : X E X.5 7 7 5 3 X = + + 9 X $ o $ - - & + & 4 9 5 7 ",
"k.D B B z 0X .; q q ; ; w ; 0 0 ; @ 9X[.Y.I.Y.P.Y.P.Y.Y.L.K.K.I.L.K.Y.I.M Z C Z C C C C C S 8.8.8.8.8.8.0.8.8.8.U 8.8.8.8.U ).8.U 8.).8.8.8.r.Y T P Y P Q.W.z.I z 5.,X$ 4 4 4 4 4 4 4 4 4 4 4 4 e 4 4 4 4 4 4 4 4 4 4 4 4 e 4 4 4 4 4 4 4 4 e 4 4 4 4 4 4 e 4 4 4 $ j cX=.,.E G +.vXvX,X2 lXpX[.kXvXvXmX#XoXbXcXb.{ NXqXtXxXqXkXv.vXrXvXbXmXzXsXzXNXmXhXjXhXvX9XcXoX(.tX] 4X1 E f ..uX1 1 E [ _ 0X_ >XW W p p W p d jXyXy W 1 p p W ' p p p W p p p W p 1  ...' ' ' p p p p p p p p p p p p p p p p p ' s p p p p p d & 5 5 7 7 - 2XFXDXi 7 7 5 7 : & e L t t t t t e : X %X*X*X&X&X*X*X%X* . %X*X*X*X&X*X*X%X& - 8 7 DX>.o & & & & . & =.o.3 7 7 7 7 ( u h ^ 7 1.j 1.l , 7 @.O.1.e u 5 7 ",
"f.).I } I 0X[ @ ; @ ; + @ ; @ ; ; @ tX} z M N M M M M M S D D D Z Z D A Z Z Z C C C C C C A 8.q.q.U 8.8.8.8.8.8.q.).8.8.8.q.8.8.q.8.8.8.q.8.e.i.P P |.R W.}.Y I H K tX$ 4 4 4 4 4 4 $ $ 4 4 4 4 e 4 4 4 4 4 4 4 4 4 $ 4 4 e 4 4 4 4 4 4 4 4 e 4 4 4 4 4 $ r 4 4 4 $ 4XuX2 :.o.G m.jXcX4XE uXY.A jXkXcXqX#X[.cXbX3.K bX9XyXsXqXkX5.kXpXzXNXmXNXsXjXNX.XhXjXiXbXvXcXpXmXpX .iXn p [ iXjXW 1 [ W _ 0X_ *.-.f p p W d d uXsXb { p p p p W p p y W p p p ' p * } ..' ' ' s p p p p p p p p p p p p p p p y W p p p p p p d X 7 7 7 7 - 2XFXDXa 5 7 5 7 & = e t t e t t t f & & !.&X=X=X=X&X=XR * , Y =X=X%X=X X=X$X$ 3 y 3 +.FX=.X & & & & o.X.u 5 7 7 7 7 A.k n.3.j G.2.b.3.e m.A.M.G.^ > 5 5 ",
"p.I.S A 6.k.jX9XyXtXtXyXtX9XyXtX9XtXiXA Z Z Z Z Z C C m m m M M m m M A A m C C C Z C C C T 8.8.8.8.8.8.8.8.8.8.8.8.8.8.U q.).8.8.8.8.0.U 8.W.W.T T Y R e.'.'.I M I tX$ 4 4 4 4 4 4 ! j $ 4 4 4 e 4 4 4 4 4 4 4 4 4 4 4 4 e 4 4 4 4 4 4 4 4 e 4 4 4 4 4 4 8 r 4 $ O.vX$.t ,.2 K.oXV.w.4X{ NXP.L } jXNX[.Y.B.bXxX4.m jXwX0XiXwXkX<.kXqXaXpXmXNXkXaXsX.XvXxXmXmXbXpXsXsXmXk.zX[.9X,XkXjXE _ [ W ! 0X_ _ >X' p p W y p uXsXY.I.1 p p p p p p W ' p p p W p >  ...W ' f p p p p p p p p p p p p p p p p p W p p p p p p p & 3 7 7 7 9 2XFXDXu 5 7 7 7 & & i l f q i ~ Q i $ , Z E.K.K.U '.'.6.: , D Y.Y.U.4XhXhX,XX & u y = =.DX7 & : 3 2 =.g 5 7 7 7 u : 1.3.eXM.7 O.eX2.3.O.b.n.M.A.O.> 7 7 ",
"p.U T D D Z V { { V { n { { V { { { V Z Z Z A A C C C C Z Z Z Z Z Z Z A Z Z C C m Z Z Z A A 8.8.8.8.8.8.8.q.8.8.8.8.8.8.).8.0.8.8.8.8.8.8.8.i.r.Y i.W.T W.`.'.I M K tX4 4 4 4 4 $ 5 kX0X$ 4 4 4 e 4 $ 4 4 4 4 $ 4 4 4 4 4 e 4 4 4 4 4 4 4 4 e $ 4 4 4 4 4 e 4 4 $ aXwX$ 0XaX,X.XzXJ.K tXP.NXD L z aX.XY.J { NX..K z 0XyX0XaX0XlXJ jXrXtXyXiXpXkXyXsX/.cXxXqXB.qX[.zXzXmX~.vXxXkXjXzXkX' [ _ W ] tX_ [ uX] tX] W I.' uXzXZ.tXy p p p W = _ uXp p p p ' p 1 { Z.W ' ' p p p p p p p p p p p p p p p p p p s p p p p p s & 7 7 7 7 - 2XFXDXj 5 7 5 7 = & 6.'.}.`.wXrXrXx.X * Z E.E.W.W.W.|.I , * D Y.Y.P.tXjXuX,XX 3 y 7 7 9 a 7 7 7 7 u 7 7 7 7 7 7 7 : O.k ( c.( 3.1.b.1.7 n.3.3.n.k 5 7 5 ",
"p.U U S Z A M M M M n V v n M M V M M A C A A A A A A C A A A A A A Z T A A A A A A A Z P U 0.8.8.8.8.).0.).8.).8._.8.).8.8.).0.).8.r.).8.Y _.r.e.).|.`.).r.'.W.H I tXe e e e e r ~ jX0X4 e e e e e e e e e e e e e e e e e e e e e e e e e e e e e e e e t e 4 *.vXH.r tXvXkXcXzXL w.tX}.rXH <.P uX[.Y.L K q.P L m V.n.qXaXyXlXC iXwXJ.yXzXqXkXyXpXoXxXzXaXK <.k.bXbXNX[.vXvXvXxXxXbX}.[ ! _ _ qX+.0XjX[ vX,Xn mX[ yXuXuXhXs [ ,XW ' _ 4XjX~ W W p ' ' W  ...) ' ' ' ' W W s ' W ' W W ' W W ' ' ' W ' ~ W ' W ' W i X 7 7 5 y 3 2XFXDXu 5 7 7 7 & & l B B B ` #.#.~ : , Z E.E.K.W.|.|.K * & S Y.Y.P.tXjXjX-.+ & 7 5 7 u 5 7 7 u y 7 5 7 5 5 7 7 7 7 5 5 : : 7 5 3 5 5 8 4 > 5 5 5 5 7 7 ",
"p.I.T Z Z C C C Z Z Z A Z A Z Z Z Z Z Z C Z A C C C C Z C Z C C C C C A Z C Z C Z C Z Z C S 8.8.8.8.8.8.).q.U 8.8.8.8.q.8.8.8.8.U q.8.0.8.Y r.r.Y r.|.Y r.Y r.Q.H H tX$ $ r 4 4 $ ! aX,X4 4 4 4 e r 4 4 4 4 4 4 $ 4 4 4 4 e 4 4 4 4 $ 4 4 4 e 4 4 4 4 4 4 e r $ aXzXqXr wXaXxXlXY H L pXsXtXM V K 1.Q.W.B B B B J K B M 0XaX0XaXH qXA.3.0XkX0XkXwXyXV.sXsXtXM B .XkXbXbXiXvXvXvXsXzXvXzX9X] W E {.{  .jX[ cX,Xn sX4XyXZ.zXvXp [ uX; p ,XvXkXW y p ,X' p 1 } Z.' ' ' p p p p p p p p p d p p p p p p d W p y p p y p y & 7 7 7 7 3 2XFXDXa 5 7 5 y & : i 8 i 8 i u j u : . C E.E.!.).'.'.I & * D #XY.P.tXjXjX,XX & 7 5 7 7 u 5 3 - ; 7 7 5 7 7 5 5 7 7 u 7 7 7 7 7 7 5 7 5 7 7 u 7 7 5 7 5 ",
"p.T S Z Z C Z C A Z Z Z Z Z Z Z C C C C Z Z A C C C Z Z C Z C Z Z C C A Z C C C C Z Z Z C I ).q.8.8.8.8.8.q.U 8.8.8.8.8.8.8.8.8.8.8.8.8.Y r.r.r.8.r.|.r.r.Y r.}.T H yX0Xg $ 4 4 $ _ tX,X4 4 4 4 e 4 4 4 4 4 4 4 4 4 4 4 4 e 4 4 4 4 4 4 4 4 e 4 4 4 4 4 4 r $ _ cX[.pXt aXJ.M.lXL I K pXcX9XM J K V Q.W.L B J B J V H H B.aXB.aXL Y.d.J.tXuXv.lXwXyXV.mXNXuXM J ..bXcXvXvXvXvXvXsXxXvXhXjX[ W _ mX{.V.bX].xX,Xn zXvXiXb.kXkXp  .jXd p 9XvXzXiXuXtXjX) p * } ..W ' f W p p p p p p p p p p p p p p p y s s p p p p s u & > 7 7 7 3 2XFXDXj 5 7 5 7 3 & q f l f j h h s : * Z E.E.K.|.|.'.K * & Z Y.Y.P.4XjXjX,XX 3 u 7 7 9 - a $.+.$.7 5 7 7 7 7 7 7 5 5 7 5 7 7 7 7 7 7 7 7 7 7 5 5 5 7 7 ",
"p.T S Z T A C Z C Z Z m Z N Z Z C C C C C C C A C Z m Z C C Z m C Z C A C C C C C I q.A U q.U 8.q.8.8.8.8.8.).8.8.0.8.U 8.8.).0.8.8.8.r.Y r.r.r.r.r.|.Y `.Y r.U E.H O.V.sX,X$ $ $ #.,XyX-.$ 4 4 e 4 4 4 4 4 4 4 4 4 4 4 4 e 4 4 4 4 4 4 4 4 e 4 4 4 4 4 4 4X4 aXbXW.pXA aXJ.b.iXL K J kXuXK J B K K S U V J K V B H B H 0X0Xm.tXL U.d.b.3.<.B.aXB.yX<.U.sX0XH V k.cXvXvXvXvXvXvXsXzXvXvXvX,X1 tXvX.Xx.bXmXsX,X .cXbX(. .bXbX ..XjXp V NXvXmXxXxXhXuX_ q d  ...W ' ' p p p p p p p p p p p p p p p p p W p p p p p p y & 7 7 7 7 5 >.FXDXu 5 7 7 7 & & i q i 9 i i i 7 : * m E.E.!.W.|.'.I * & D Y.Y.Y.tXjXjX-.. : y 7 7 u >.DXFXHXHX>.g 5 7 5 7 5 7 7 3 i h : 7 5 > : : 5 5 5 > 5 7 7 7 5 ",
"f.T Z Z A Z C C C C Z m Z m Z Z Z N Z m Z Z A C N Z m Z Z Z Z Z Z M Z A C C C C Z U q.8.8.8.U 8.q.8.8.8.8.8.8.8.q.).8.8.8.8.).8.8.8.q.Y Y 8.r.r.Y `.|.r.r.r.r.U Q.S % z A tX$ 4 $ #.-.V uX$ 4 4 e 4 4 4 4 4 4 4 4 4 4 4 4 e 4 4 4 4 4 4 4 4 e 4 4 4 4 $ u cXtXvXzXW.yX5.wXJ.6.5.K L P lXqXM J J K B V L K B B J B K J M wX0XV.0XV P.p.v.<.J.5.1.n.yXm S pX2.m B ).cXvXvXbXvXkXvXmXxXkXvXvX,XD jXvXpX..NXzXyXyXkXvXxXY.5.bX0X9X.XkX1 V sXcXqXbXpXvXjX[ v I. .Z.0X' ' p p p p p p v n p p p p p p p p d W s p p p p p y & 7 7 5 y 3 2XFXDXi 7 7 5 y & * B 8.7.q.v.B.B.@.& & C E.E.!.r.'.'.J , , D Y.Y.P.tXuXjX,Xo & u 6 6 3XFX=.< > 2 $.=.o.5 7 5 7 7 5 i n.n.1.j k m.O.1.k k k M.k 5 5 5 7 ",
"k.W.T T C C C Z C C Z Z Z Z Z Z Z Z Z Z Z Z A Z Z Z Z Z Z m Z N Z Z C Z Z C Z C A U 8.8.8.8.8.8.U 8.8.8.8.8.8.U U 8.8.8.q.8.8.8.8.8.U `.Y r.r.r.Y r.|.r.Y r.r.U U E.H H t tXe $ , uXx.# 4X4 4 4 e 4 $ 4 4 4 4 4 4 4 4 4 4 e 4 4 4 4 4 $ 4 4 e 4 4 4 4 ,X-.mXxX8XqXA p.uXwXJ.<.L K K J Q.`.V V K K B B K K J V K J V B L B.x.K <.L K c.J.<.<.L L n.iXJ B 1.B B B ..cXvXvXoXsXkXvXqXzXzXvXvXMX#XbXxXmXqXmXbXqXbXvXvXsXI.c.cXZ.pXxXkXD zXuXyX .jXqXvXkXhX9XI.[ NXzX' p f d p p p p [.{ 1 p p p p p p p y s p p p p p p 8 & 5 7 7 7 - 2XFXDXa 5 7 7 7 & * 6.}.}.`.eXwXrXx.X * C E.E.K.Y |.'.I & * S Q.Y.I.tXjXjX,X& > u - >.FXu o o j NXX 2 =.j 5 7 7 7 4 1.4.7 eX1.b.N.b.c.G.4.c.G.8 5 7 7 5 ",
"f.S S Z C C Z C C Z C Z Z Z N Z m Z Z m N Z Z A Z Z N Z Z m Z Z C C C A m Z m Z Z 8.8.q.).8.8.).).8.8.8.).8.8.q.8.8.8.8.8.8.8.8.8.8.Y r.8.8.).r.8.r.|.Y r.r.r.8.I Q.C M P tX7 $ _ pX% u tX$ $ 4 e 4 4 4 4 4 4 4 4 4 4 4 4 e $ 4 4 4 4 4 4 4 e 4 4 $ ` xXjXqXzX+.yXH U zXaXJ.<.K K J L Q.!.L V J K B J K J V J B J J B 3.<.B <.K L K b.J.L 5.1.L U '.1.H B B L V k.cXvXvX{.pXlXkXmXzXyXxXNXxX}.cXzXmXmXmXxXZ.vXvXbXyXM 6.vXk.sXvXkX.XvX0Xx <.jXU.zXvXcXkX9X .cXjX9X[ } { 1 W 1 q iX] y p p p p p p p p W W p p p p p a & 7 7 7 7 - 2XFXDXu 5 7 5 7 & * A  X'.).B.wXrX-.& # C E.E.K.W.|.'.K * * D #XY.P.tXjXjX[ - = 5 u FX=.o : o eXJXo X X.X.5 7 7 7 5 i b.b.1.N.M.3.N.N.3.M.m.b.k 5 7 5 7 ",
"k.W.S A Z C C C C C Z m Z m Z Z Z Z Z Z Z Z A Z Z Z Z Z Z Z Z Z C C C A Z Z Z Z C U 8.8.0.8.q.U q.8.8.8.8.q.8.8.8.8.8.8.8.8.0.8.8.8.Y r.8.8.r.r.U r.|.i.W.r.Y ).8.W.Q.H z pX,X$ *.-.$ 4 4Xr 4 4 e 4 4 4 4 4 4 4 4 4 4 4 4 e 4 4 4 4 4 4 4 4 e 4 4 $ -.Z.zXjXkX` yXm P zXaXJ.L L L K K E.W.L J B K B B K K J V B B J K 3.L { L <.<.K b.m.1.<.<.<.S W.3.K <.B B B 5.kXkXvX{.yXjXlXmXzXZ.#X}.vXvXcXmXmXpXoXmXy.vXvXjXyXm A .Xq.bXvXkXcXzX6.N } C.Y.mXvXsXxXyX.XvXkXvX[ 9X[ * V v W kX[ > p p p p p p p y ' p p p p p p d & 3 7 7 7 - 2XFXDXj 5 7 5 y = * 6.}.'.`.B.wXrXx.X * Z E.E.!.|.'.|.I & * D Y.Y.P.tXjXjX,Xo > 5 +.HX5 . &   B.^ o X E X.7 7 7 5 8 5 h k 3 h i 5 c.O.> h i i j 5 5 7 5 ",
"p.W.Z Z C Z C C Z Z Z Z Z Z Z m Z Z Z Z Z M A Z Z Z N Z Z m Z m C C Z A A m Z Z Z q.8.8.8.8.q.8.U 8.8.8.8.U 8.8.8.8.).U 8.8.).8.q.Y W.r.Y 8.r.r.r.r.|.r.Y r.r.8.Y P E.C H T yX$ *.,X# $ 4Xj $ 4 e 4 4 4 4 4 4 4 4 4 4 4 4 e 4 4 4 4 4 4 4 4 e $ $ $ 0X4.V.cXaXtXB.H T zXwXJ.L <.K K J P I L J J K B B K J B K J K N 5.<.L <.<.<.<.B b.J.5.<.1.L K <.5.L J K B B } uXuXcX{.6.yXlX.X(.W.#X#XbXvXbXmX.XcX.XY.).kXvXyX<.B A m C zX0XaXvXqXZ N N B Y.NXzX#XbXzXMXvXvXcX..tX,X  9X.Xq vX[ y p p p p p p p p W p p p p p p y X y 7 7 7 9 2XFXDXu 5 7 7 u 3 * I [.'.[.wXwXrXx.. * Z E.E.K.W.|.'.K & , D Y.Y.Y.tXjXjX,Xo = - +.DX> & & & o   & . 2 =.7 7 5 5 7 5 4 : 7 : 3 3 5 5 4 7 5 5 3 7 7 5 7 ",
"k.U T Z C C C C Z N Z Z N Z Z Z m Z N Z Z C A A M Z Z Z Z Z Z Z C C Z A Z Z Z Z A 8.8.U 8.).U 8.8.8.8.8.).q.8.8.8.8.8.q.q.U 8.8.8.Y i.r.8.r.r.8.8.r.|.Y ).r.Y r.).C W.W.H % 4Xk.*.-.# $ ,Xg $ 4 e 4 4 4 4 4 4 4 4 4 4 4 4 e 4 4 4 4 4 4 4 4 e # -._ yXc -.zXm.vX7.H A .X6.J.L <.K K L H K R J J K B B K K J V J I I 3.<.<.L L <.<.K p.M.<.5.<.<.K <.<.1.B B K V 5.aXyXyXQ.Z 0XjX.XY.U #X#XsXvXsXMX'.cX9XP.q.0XyX0XM } B B } }.c 0XvXB.C B B K Y.mXsXY.jXcXxX8.yXxX..jX9X[ hXmX{ vX[ = W p y p p p p d W p p p p p p i & 7 7 7 7 3 2XFXDXa 5 7 5 7 & * 6.}.'.`.B.wXwXx.# , Z E.E.W.W.|.'.I * * S Q.Y.I.tXjXjX,Xo > 6 $.FXg X & . & & & . E X.7 7 7 7 5 y m.O.7 m.O.n.O.> k b.3.m.h 5 u 5 5 ",
"a.S q.I } m Z N m Z Z m Z Z Z Z Z Z Z C Z C A Z Z m m Z Z m C C C C C A I A A } A 8.U q.).8.8.8.q.8.8.8.8.8.8.8.8.8.8.8.8.8.8.8.8.Y r.r.8.8.r.r.Y r.|.).).Y r.r.Y C T Q.H z ) uX0X*.$ $ tX^ $ $ e 4 4 4 4 $ 4 4 4 4 4 r 4 e 4 4 4 4 4 4 4 4 e % yX4X.Xc lXB.W.oXT J J K.I J.L K K J J J I J L J K B B K <.K B B 6.w.5.L <.L <.<.<.B M.J.<.J.L <.<.<.<.J.<.V K B { yX3.5.Y.N V.qX}.E.S <.Y.oXxX[..X).vXqXK <.<.<.5.<.N B N 6.#XI.Z.vXm.C B A N K.qXNXY.yXvXmXW.iXpXqXjXiXkXyXpX.XkX[ ; I.d [ [ y p p d p s p p p p p u & 7 u 7 7 3 2XFXDXj 5 7 7 7 : * A }.'.).0XrXrXx.. , c E.E.W.Y '.|.I * : D Y.Q.Q.tXjXjX,XX & u 9 DX>.o & & & & X & =.o.3 7 7 7 : O.c.4.O.4.G.3.3.k M.N.M.A./ 3 7 7 7 ",
"f.W.I 6.k.A Z Z Z Z Z Z N Z Z m Z m Z C C C A Z Z Z Z Z Z C Z C C C Z U q.I U I U 8.).8.0.8.U ).U 8.8.8.).8.q.8.8.8.8.8.8.q.).8.Y Y 8.`.U r.r.r.r.).|.Y Y ).r.8.8.T m W.T H z -.uX$.$ $ ,XiXl # e 4 4 4 4 4 4 4 4 4 $ $ $ e 4 4 4 4 4 4 $ 4 r % pXvX).5.kXJ T #XT L H L K J.K L w.L J J K K R I K A J <.<.I B J 6.p.<.<.6.<.<.<.5.L p.b.1.<.<.<.<.<.<.<.5.J B K K 5.N N Q.m K ).#X| 6.{ P.OXiXA Z.6.vXB.A <.<.6.<.5.A B N K #XI P.sXV.C { B } Z  .oXK.0XZ.[.k.P.Z.mXxXvXvXyXZ.xXjX[ w mXd 4X[ - p p p ' s p p p p p y & 7 5 > 7 5 >.FXDXu 5 7 5 7 # . } '.'.'.eXwXwXx.X * Z E.E.!.W.|.W.I * 3 D Y.Y.I.tXjXjX-.& & u 5 +.FX=.X . & & & X.X.u 5 7 7 7 5 ~ b.c.1.c.G.m.3./ m.n.M.A.O.3 7 5 7 ",
"k.U w.q.6.I Z C C Z C C C C Z C C Z C C C C A A C C Z C Z C C C C C Z q.8.8.8.q.U 8.8.q.8.8.8.8.8.8.8.8.0.U 8.8.U ).8.8.8.8.r.8.Y r.r.r.8.8.r.r.r.r.|.r.r.Y r.8.r.P C T E.m n -.bX#.$ 4 $ -.tX$ e 4 4 4 4 4 4 4 4 $ g uX! r 4 4 4 4 4 4 4 4 e % zXvXI.tXyXH J Q.J J J I K J.K L K J J L J J L R J I I <.6.I J N w.p.L w.w.<.w.<.w.<.p.J.<.5.5.<.w.<.<.L 5.<.B B B B K B { B k.k.Y.K 6.{ B Q.k.5..X5.kXZ.B <.<.6.K 5.6.A B A Q.S D sXB.C N N } m B P.Q.J M q.[.Z } zXzXjXzXyXN vXaX4XZ.zXy tX[ p W p p W s p p p p p d & 5 7 7 7 3 2XFXDXi 7 7 5 7 3 * I }.'.].B.eXrXx.# * Z E.E.!.Y `.'.I # , D Y.Q.Y.tXjXjX,Xo - y 7 = =.DX7 : : & g =.2 7 7 5 7 7 5 5 1./ h 1.k @.h 5 1.( ( 1.u 3 7 5 7 ",
"k.W.A A C C C C Z Z C C M Z Z Z C Z Z I A I I U A A I A C C C C Z Z C 7.8.U 8.8.8.8.8.U 8.8.8.q.U 8.8.8.8.q.8.8.q.0.8.8.q.U 8.r.Y 8.r.r.8.Y r.8.r.r.|.Y Y ).8.Y r.T P C Q.T % j tXj $ 4 $ 7 ,X$ e $ 4 $ $ , 4 4 4 $ *.kX*.$ 4 $ 4 4 4 4 $ 4 r n zXmXI vX<.H J J J H J K K J.L J K L P H J J J Y I I I 6.6.6.B I p.d.K w.w.<.<.<.a.<.p.M.<.5.w.<.5.6.<.L 5.5.K J B B B B B B k.<.K } K K <.} A <.H.6.0X{ K } { 6.A 5.5.A B I Y.S M yXb.Z N N N N B A I B B 0.].} } kXyXzXjXqXC lXyXvXmXzXp 4X[ - p p y W a d p p y p 8 & 5 7 7 7 - 2XFXDXi 5 7 7 7 : * I '.[.`.wXrXwXx.X , Z E.E.K.W.'.|.I * > D Y.Y.P.tXjXjX,Xo & - 7 7 7 a 5 7 7 7 5 u 7 7 7 5 7 5 7 7 : 3 7 : 5 : 5 7 : 5 3 : 7 7 7 7 5 ",
"p.`.U ).q.U A A A A A A A A Z A A A A q.q.7.7.q.q.7.7.U 7.I } I I I q.0.).).8._.0.8.).8.).0.0.).).0.).).).0.).8.8.).).8.).8._.Y `.r.r._.r.r.`.r.r.r.|.`.`.).`.r.).Y T H W.W.H r $ r 8 e r k tXe t j r *.,Xr e e j % -.uX-.t e e e e e e e e e V NXY.0XlXJ 6.K K J J K K I J.J.K w.L Y K K K K u.u.e.I w.t.w.6.6.D.d.<.u.p.<.w.w.d.6.D.M.z.<.w.<.w.w.w.5.<.J.6.<.<.<.<.I K <.k.<.<.<.6.<.<.<.<.6.H.6.6.k.6.5.<.6.<.6.Z.6.N 6.Q.U K k.<.6.} I 6.6.I { <.A N 0.].A I <.B.jXyX0XC jXqXvXsXkX' jX-.d W ' W ' ' W ' W ' W d & 5 7 5 y - 2XFXDXa 5 5 5 y & * A '.}.).N.wXrXx.X , c E.E.!.Y '.|.K & * Z Y.Y.P.tXjXjX,XX - u y 7 5 5 7 5 5 5 5 5 7 5 7 7 7 5 5 7 7 7 7 7 7 7 7 5 7 7 y 7 7 7 7 5 7 ",
"p.[.).).).8.Z Z C C C C Z A A Z C C A 8.8.8.8.0.8.0.7.q.q.q.U U 7.q.U ).0.8.8.8.).).8.8.).8.8.8.8.8.8.8.).8.8.8.8.).0.8.8.8.8.`.8.r.r.r.r.r.r.r.Y r.|.).r.r.Y r.r.).I P P Q.H r r r r 4 4 j tXe e 4 g iXsXg r 4 r $ tX0X-.r u r 4 8 r 4 , M m l NXK.lXN.R K K J J J L Y L J.L w.K u.i.K J w.w.e.e.Y 6.w.w.e.K p.p.a.6.p.w.w.w.6.d.<.p.D.t.J.J.w.5.w.p.<.<.w.w.K 6.I B <.B p.6.<.<.6.6.} <.<.<.6.Z.k.5.6.<.6.<.<.6.{ p.6.N K P.S N m } A N N N N I B 6.A N ..).} I C Z.uXqXB.N 6.V.bXxXcXP.hX,Xy p W p W W p p ' p W d & 7 7 7 7 3 2XFXDXj 5 7 5 7 & * 6.'.}.`.wXwXpXx.  * C E.E.K.|.'.'.I * * D Q.Q.P.tXjXjX-.. * p 7 7 7 7 7 7 7 7 7 7 7 7 5 7 7 7 5 7 5 7 7 7 7 7 7 7 5 7 7 7 7 7 7 5 7 ",
"k.'.8.).8.8.Z C A Z Z Z C Z Z Z C Z A U 8.8.8.8.8.8.8.8.U 8.8.U ).U 8.8.).U U q.U 8.q.U ).8.U 8.q.8.q.8.8.8.8.U 8.8.8.8.U 8.Y Y 8.r.r.r.8.8.r.r.U `.|.r.).r.8.Y 8.r.T C H Q.T n $ 4 4 4 $ e 4X4 4 $ ! 0X0XQ $ $ $ g sX} ,X4 4 4 $ r $ # $ Q.K.0X0X5.lXH H K J H J J J J K J.L L K w.Y L J K u.e.e.Y K t.w.7.I D.w.t.e.6.w.w.6.5.t.6.p.D.w.5.w.<.w.6.w.5.<.w.p.6.6.I K B B k.{ 6.} <.6.B 6.B <.6.H.6.5.} <.{ I 6.{ K k.k.N A B B B { I N N N } B N N K N M 0.].A } A k.jXB B B C B.kXkXxXP.jX0X- p p y W p p d p p p u X 5 5 7 7 - 2XFXDXu 5 7 5 7 = . I '.'.`.B.wXrXx.X * C E.E.K.W.|.'.I * * D #XY.P.tXjXjX-.+ & 7 7 3 5 5 5 5 5 5 5 7 5 5 , $ 5 5 7 7 7 5 7 5 5 7 5 5 7 7 7 3 7 7 7 7 7 ",
"Z.`.).).).8.Z A Z Z Z A A Z Z Z C C S 8.8.8.8.8.q.8.8.8.8.8.8.q.U q.8.8.8.q.).8.8.8.8.8.8.8.8.8.U 8.8.8.0.8.8.8.8.0.8.8.8.U `.r.Y 8.r.r.r.8.r.r.8.r.|.Y Y Y ).r.8.r.P P M T Q.M 4 4 4 4 4 4 tX4 ,X0X{ ,X0X! $ $ # -.Z.k 4X$ 4 k 4 , 4 $ n NXV.tXK iXtXH J K J J J J J J L J.K I u.e.i.K J K e.e.i.Y 6.t.e.7.w.p.t.k.w.t.w.t.w.6.t.6.p.D.p.6.p.6.w.w.w.<.6.6.p.w.6.I 6.K 5.k.6.6.K 6.7.{ I { { 6.Z.5.6.<.6.I { <.6.<.6.f.A 6.B B A B A N B N I A A N } A B q.[.A A A 5.uXN B B m 5.yX0XiXP.jXzXW p p p W p p p p p p i & 7 7 7 7 - 2XFXDXj 5 7 7 u & . } }.'.[.B.wXwXx.# , Z E.E.W.r.|.'.K & * S Y.Y.P.tXjXjX,XX & & * * & , & & & * & & : , # o * & & & & * & & & X & & & & & & & . X & & ",
"p.`.).8.).8.q.U U 8.U q.q.U U q.U 8.8.U 8.8.8.0.U ).U 8.8.8.8.8.8.8.q.).8.8.8.8.8.q.U 8.8.0.8.8.).U 8.8.8.8.8.q.8.8.8.U 8.r.r.r.8.8.8.r.8.r.r.r.Y r.|.).).Y Y 8.Y ).T C P C E.c : 4 4 4 $ $ tX+.iXqXzX*.,X*.@ $ _ zXB e jXyX% hX-.z $ # #.jX0X0X<.cX<.H J K J J J L I L w.J.L L e.e.e.J J Y e.e.e.Y w.e.t.7.p.p.k.w.w.k.k.t.k.6.p.6.D.D.p.w.p.w.w.w.p.<.6.e.p.d.q.6.I A k.5.6.6.6.6.6.<.6.K { 6.H.6.6.6.<.6.{ 6.6.K 6.C.<.6.B } B A A B N A B B N B 6.B B 0.[.A 6.A k.uXC { A N U P.M yX[.zXvX[ y p p p p p p p p p y & > 7 7 7 5 2XFXDXa 5 7 5 y & * I  X'.[.B.rXwXx.. , c E.E.!.r.'.'.I * * D Y.Y.Y.tXjXjX-.X & 5 = = = & + + + = = & + + $ $ + & = 3 & 3 3 : 3 5 : : 3 3 > 3 > 3 & 3 3 ",
"k.'.).).8.8.8.8.8.8.8.8.8.8.8.).8.8.8.q.8.U 8.8.8.U 8.8.q.8.U 8.8.8.8.8.8.U 8.8.8.8.8.8.8.8.8.8.8.8.8.8.).U 8.8.8.8.8.7.8.Y r.r.r.8.r.r.r.8.r.r.r.Y |.Y ).r.).8.8.8.I P C H W.W.$ 4 4 $ 4 $ tXzXq.# vX-.V zXV.0.tXq.@ 4 $ tX-.iXqX}.-._ sX} yX0XwXaXH J J J J J J e.I P K z.w.w.u.e.i.I I w.e.e.u.e.e.w.y.w.p.t.u.t.t.u.w.w.w.w.d.6.p.D.w.5.w.w.w.w.t.w.w.w.t.p.7.I 6.6.k.6.6.6.6.6.6.6.{ K 6.<.H.} 5.} <.6.6.<.7.{ 6.s.5.U N N B N 6.B N 6.6.B N B A B N q.[.{ A A B <.A A B B B A H qX/.kXvX[ - W p W p p p p p p y & 7 7 7 7 9 >.FXHXu 5 7 5 7 3 * I }.'.).wXwXrXx.. * M E.E.K.Y '.'.K & , D E.Y.Y.4XuXhX,XX & 6 E X.X.X.X.X.&.X.X.X.X.X.o.,.X.X.u u i h h s i i j h j h i h h i s u 7 ",
"p.).).).).q.8.U 8.8.8.q.8.8.8.U 8.U 8.8.8.8.8.8.8.8.| W.U 8.8.8.8.8.U 8.8.q.U 8.U 8.8.8.8.8.8.8.8.q.U ).).8.8.8.8.).8.8.8.Y ).r.8.8.r.r.8.r.r.r.Y ).|.).Y r.r.r.8.r.T C C P C Q.M 4 % $ 4 $ u e r 4 kX-.@ l yXlXaX4 : 4 $ *.,X0XsXuXuXhXI.C kXyXjXB.H J J J J H J Y K J K z.z.w.i.e.u.K Y e.e.e.e.e.u.e.e.p.p.t.w.k.t.w.k.t.w.w.w.w.D.D.k.w.p.w.w.p.p.w.6.t.t.p.w.6.6.a.6.6.k.6.k.6.w.6.{ 6.K 6.H.5.6.6.6.6.<.<.6.6.k.t.p.9.N B A N B B 6.I B A B A { N m 0.[.{ } A B N A B B m B B C 0XcX9XcX,Xy p d W p p p p p p i & 7 7 5 7 9 2XFXDXi 5 7 7 7 & . I }.'.).wXrXwXx.& * C E.E.K.W.|.|.I * * D Y.Y.P.4XjXjX,XX > - X.SXZX<X<XZX<XZX<XZXZX<XZXZXZXAXg k h i a i j i i i i i j i i j k 8 7 ",
"Z.'.).).).8.8.8.8.8.).U 8.8.8.q.8.8.q.8.8.8.8.8.U q.8.8.U 8.8.8.8.q.8.).8.8.8.8.8.q.8.U 8.8.8.8.8.8.8.8.8.8.q.U 8.8.8.q.Y Y r.r.Y 8.r.).8.8.r.r.8.8.|.Y ).r.Y 8.U r.U C P P M E.T , n r 4 4 $ 4 e $ 3.l # $ % ,XvX4 4 4 $ #.jX0Xq $ tX4Xx M gXtXkXK H J J K J J L e.Y J e.z.u.w.u.e.e.I w.e.e.e.e.e.Y i.e.p.p.t.a.w.t.t.t.t.a.w.p.w.p.D.w.p.p.w.w.w.t.w.w.w.w.p.p.I q.s.6.6.k.6.6.6.6.6.6.<.{ 6..X6.5.w.} k.6.<.6.6.k.9.5.f.B A 6.N } P 6.q.I 6.B A I A B q.].A A K A B B B A } B N A <.kXZ.zX,Xy p y s p d p p p p d X 5 7 7 7 - 2XFXDXu 5 7 5 8 & * } '.'.).B.wXqX2.X * C E.E.K.Y W.'.K * * Z Y.Y.I.4X4XhX-.X 5 - X.<X%.%.%.%.:.%.%.%.%.%.%.%.%.ZXg f 7 7 i 7 7 i y u i i u h u 3 k i 5 ",
"k.'.).8.8.8.8.U 8.8.8.q.8.8.q.8.8.8.8.U 8.q.).8.8.8.8.8.8.8.8.q.8.8.q.).).U 8.8.8.8.).8.0.).8.8.8.U 8.8.8.U U q.8.8.8.8.Y r.r.r.U r.r.r.8.Y r.r.Y r.|.W.).Y r.r.r.r.Y U P C H W.Q.# n r 4 4 4 4 e 4 $ $ 4 4 $ _ ,X$ 4 r $ t zX0X$ $ ,X0XE.w r uXwXH J J J K J J K Y I J w.D.u.w.u.e.i.I I u.Y e.i.e.e.Y d.p.e.w.w.a.w.t.w.w.t.t.w.9.D.D.p.p.k.t.t.w.a.w.w.k.t.t.p.I a.a.6.w.9.6.k.6.9.6.<.{ I <.H.k.k.k.6.6.<.6.6.6.a.0.6.f.} I I N A I 7.7.q.6.I { B N B | ].A I N A B A N { N A B B B [.Z x.9X- W p W s p p p p p a & 5 7 7 7 3 2XFXDXa 5 7 7 7 & * M S P.A V.-.0X` & : M K.K.c I Y U B * & v I.I.L.;XdXdX] 4 & - X.<X%.:.:.<X:.ZX<XZX:.<XZX:.%.ZXg j 7 h x.c.1.@.( v.@.x.@.x.s 5 k 8 5 ",
"p.`.).).).8.8.8.8.U ).U U 8.8.8.8.8.8.8.8.8.0.8.8.8.8.8.8.8.8.U 8.8.8.8.8.q.8.8.8.8.U q.8.8.8.U 8.q.8.8.).q.).8.8.8.8.Y Y 8.r.r.r.8.r.r.r.8.r.8.r.r.|.i.Y r.r.e.r.8.Y U Y P P M E.t M % , 4 4 4 e 4 4 4 4 4 4 $ $ 4 4 4 $ $ 0X0X$ # 5.OXY.% k kX5.H J J H w.J H I i.u.J K z.e.u.u.u.e.I u.e.e.e.e.e.e.i.p.w.t.p.a.w.t.t.w.p.t.w.t.w.p.D.t.d.t.p.k.w.t.p.a.w.t.t.p.w.s.a.k.9.k.a.6.w.k.6.6.<.I k.H.6.6.k.6.t.6.6.9.a.a.a.6.C.6.T q.B 6.q.q.7.7.6.I I 6.A N ).).} } A } B B A A N } B A B C M } 4X& p p ' p p p p p p d & 5 7 7 7 - 2XFXDXa 7 7 5 7 3 * B W.U S x.S.V.@.& , z K.K.c I T Y B & * Z I.K.D ;XdXdX-XX > - &.ZX%.ZXZX<X:.:.:.<XZX:.<X:.%.ZXg h 5 h 2.v.n.x.4.4.( N.~ O.7 7 h 7 7 ",
"p.`.8.).0.8.8.q.8.q.8.U ).8.U 8.8.8.q.U q.U ).8.8.8.U ).8.8.8.8.8.8.U 8.8.).8.8.8.8.q.U 8.8.8.8.8.8.8.8.0.8.8.8.8.8.8.Y ).8.r.r.r.8.r.r.8.r.r.r.8.r.|.Y ).Y r.r.8.r.r.8.r.I P P W.c M t 4 4 4 4 e 4 4 4 4 4 4 4 4 4 4 4 4 4 q.q.# $ % % V % ,XlXM J J J H w.K L K e.u.Y w.z.d.z.u.e.e.e.e.e.e.e.e.e.7.i.F.a.w.a.k.t.t.p.t.w.p.w.k.t.D.D.p.p.w.p.k.t.d.w.a.w.p.w.k.p.s.w.9.t.9.k.w.6.a.6.6.6.6.w..Xk.6.p.7.a.6.6.9.0.0.0.6.C.6.q.7.B 6.7.9.7.7.w.6.} I I N q.[.q.I A B B A B N N P N B A { A } kX' d p p W p p p p p i X 7 7 5 7 - 2XFXDXu 5 7 5 7 3 * B 8.U S V.V.0X@.& & M K.K.c U U Y V , & M T.I.K.;XdXdX-X+ > 3 X.<X%.:.:.<X<X:.:.:.:.:.:.:.%.ZXr j 7 h 2.h @.( ~ O.( ( ~ ~ 7 5 k i 7 ",
"k.'.s.f.f.8.8.8.).U q.8.q.8.8.8.8.8.U ).8.8.8.8.q.8.8.U q.U 8.8.).U 8.8.8.U q.8.8.8.8.8.0.8.q.8.8.8.8.8.8.8.8.8.8.8.8.Y 8.Y r.r.U r.r.r.r.U r.r.Y r.|.).`.r.W.r.r.U 8.r.r.P P C T Q.H t 4 4 4 4 e 4 4 4 $ 4 4 4 $ 4 4 4 4 4 D c , $ 4 , t z jXB.H J J J J e.I J Y e.w.K e.z.u.u.u.e.e.e.e.e.e.e.u.e.e.z.z.w.k.w.w.a.t.w.k.t.w.t.t.w.p.D.t.d.p.w.w.t.t.t.w.t.w.t.w.C.f.9.k.a.a.t.k.9.a.k.k.6.K k.XXk.6.f.k.a.9.k.k.a.a.k.k.s.p.7.6.A 6.0.9.0.9.9.I A 6.I N 0.[.q.6.A A N A B N N 6.B B A N N A qXiXtXy ' p p p p p p y & 5 7 7 7 9 3XFXDXa 5 7 7 7 & * m P.W.S x.V.S.#.X * M K.K.c I T Y B X & Z I.K.D ;XdXdX[ & > $ X.ZX%.%.%.%.%.%.:.%.:.%.:.:.%.ZXg j 7 5 3 5 3 > 5 5 7 > > 7 7 5 s 8 7 ",
"Z.[.8.g.f.0.8.8.8.).8.8.U 8.8.8.U 8.8.8.8.8.8.).U ).8.q.8.8.8.U 8.q.8.8.8.8.8.8.8.S 8.8.8.8.8.8.8.U ).8.8.U 8.8.8.8.).Y 8.8.).r.r.8.r.r.8.r.r.r.8.r.|.r.Y r.Y 8.U r.Y 8.r.U C P C E.T z % 4 4 4 e 4 4 4 4 4 4 4 4 4 4 4 4 e r r $ 4 4 4 z 1.kXL H J J 6.L e.Y H w.e.e.I w.D.t.u.u.e.e.e.u.e.e.e.e.e.e.p.z.t.t.w.a.w.t.p.t.t.k.t.t.w.p.D.p.d.a.t.a.a.t.t.a.w.t.t.a.C.f.9.k.0.9.a.k.9.a.t.k.6.q.k.XXa.k.k.a.a.0.a.a.a.a.a.a.s.m.9.7.A 9.9.9.9.0.9.6.6.w.q.N 0.[.q.6.} A N B B A N I A N B N B C .XvXiXp W s p p p p p y & > 7 7 7 3 >.FXDXa 5 7 5 y & * N W.U U x.V.>.` & & M K.c R T U U B , & v T.I.I.;XdXdX] $ > 3 X.SXZXZXZXZXZXZXZXZXZXZXZXZXZXZXj j k h k k h k k k h k h k k h k 7 7 ",
"p.`.s.s.a.0.U 8.q.U U 8.8.8.8.8.8.q.8.8.8.8.8.U q.8.).U q.8.8.8.8.8.8.).U q.8.8.8.8.8.8.8.8.8.8.8.q.U 8.).q.8.8.q.).Y r.8.r.r.r.8.r.r.r.r.8.r.r.8.r.|.Y Y r.8.r.r.8.r.8.r.T C P C T Q.M r 4 4 4 e 4 4 4 4 4 4 4 4 4 4 4 4 e $ 4 $ r 4 4 z wX4XH J J J e.I i.e.J w.e.i.I w.z.u.e.u.u.e.e.e.e.e.e.y.e.t.C.t.i.w.a.w.t.w.w.t.t.t.w.w.t.D.D.w.p.t.k.w.w.a.p.w.a.k.w.a.C.p.a.9.a.a.a.6.a.t.k.k.w.6.k.XXs.k.s.a.0.k.s.a.0.0.a.a.s.p.f.q.6.0.0.9.9.9.7.q.6.9.q.A ]. X7.0.I I A B 6.6.N q.B N B B I m Z.zXpX' p p p p p p s y & 7 7 7 7 3 2XFXDXu 5 7 7 y = * B P.U S x.V.0X#.+ & M K.K.c U U U V , & M K.I.D ;XdXdX-XX : i e g g g g G g ! g g g g g g ! j 7 8 i 8 i 8 u i u i 8 i u i u i u 7 7 ",
"p.'.).8.8.8.8.U 8.8.8.8.8.8.8.8.8.8.q.).8.8.8.8.8.8.8.8.8.8.8.8.q.8.8.8.8.8.8.q.U 8.8.8.8.8.8.8.8.8.8.8.8.8.8.8.e.i.Y 8.r.8.r.r.8.r.r.r.r.8.r.r.r.Y |.W.r.Y Y r.r.r.8.r.8.Y P C P C Q.P % $ r $ e , r 4 $ 4 4 4 4 4 4 4 4 e 4 , 4 4 4 % L kXc.H J H K e.e.e.e.I Y e.e.e.e.z.d.u.u.e.e.e.e.e.e.e.e.e.d.l.d.u.t.t.w.k.t.w.w.k.u.t.a.w.p.D.p.d.t.t.w.p.a.t.w.w.t.w.C.f.f.k.a.a.a.a.k.9.a.a.a.k.q.a.XXf.k.s.s.s.a.s.a.0.a.k.0.s.k.f.7.6.0.0.0.9.s.9.9.7.9.9.I ]..Xr.0.I 6.A A 6.7.A U N N N N N B 0..XyX` p W p p y p p i & 5 5 7 7 - 2XFXDXa 5 7 5 7 : & N P.U S -.S.0X#.X > z K.K.c I U U B & & Z I.I.I.;XdXdX-X$ * & & X & X X = X & X X & X & X X & : & & & & & : & & X , X & & & & & & & ",
"p.[.).).).).8.).0.8.8.).8.).0.8.).8.8.8.).8.0.).0.8.).8.0.8.0.8.).8.8.).).0.).8.).8.0.8.0.r.0.).8.8.0.).0.).8.8.8.W._.r.r.r._.r.r.r.r.r.r.r.`.r.r.i.|.i.r.`.).).r.r.r.r.r.`.U P P P W.W.V r e e t e e e e e e e e e e e e t e e e e e % N.jXL J K L Y u.e.u.u.w.e.u.u.u.z.D.d.u.u.u.u.e.i.e.e.i.u.u.l.d.d.u.u.a.d.d.a.a.a.d.d.a.a.t.D.D.d.p.p.a.a.t.a.a.d.p.a.s.C.d.f.C.a.a.s.s.a.s.s.s.s.a.t.s.XXs.s.s.s.s.s.s.a.s.s.s.s.j.a.C.a.7.0.t.9.0.s.0.0.9.a.9.9.].[.s.).q.6.q.6.6.0.I w.} A 6.I N } A D 0X[ s ' p W ' ' W d . 7 7 7 7 - 2XFXDXa 5 7 7 7 : * M W.U S V.V.V.@.& , H K.K.c P U U B & * v T.K.D ;XdXdX-X+ & 5 5 7 5 7 7 5 5 5 5 5 5 5 5 7 5 7 5 5 5 5 5 5 5 5 7 5 5 > 5 5 5 5 7 7 5 ",
"p.`.).).).q.8.8.8.8.8.8.8.8.U 8.U q.8.8.).U 0.8.8.U ).U ).U 8.8.8.U 8.0.8.8.8.8.U q.8.8.8.8.8.8.8.8.8.8.8.8.8.q.U `.r.8.r.8.r.r.r.8.r.r.8.r.r.r.r.r.|.i.r.r.Y 8.r.U r.8.8.r.U P P P P Q.t $ 4 4 e 4 4 4 4 4 4 4 4 4 4 4 4 e 4 4 4 4 $ % jX0XH J J J I e.e.u.e.e.e.e.Y e.w.z.u.w.u.e.e.e.u.e.e.e.u.u.p.u.u.u.z.w.t.t.t.t.t.w.w.a.a.9.g.D.t.p.t.k.t.t.p.t.k.w.t.g.C.a.p.C.a.9.a.s.a.a.a.9.s.a.a.s.XXs.a.s.k.0.a.s.a.0.0.k.s.s.9.f.f.7.9.9.9.9.0.9.9.9.0.9.q.]..Xy.0.q.6.I q.I 0.q.7.N B I B N A <.M yX` s W p d p y p p & 5 5 7 7 3 2XFXDXj 5 7 5 y = * N U P.I V.V.0X#.+ & M K.c T T U U V , & M I.T.D ;XdXdX] $ 7 ( / ^ ^ ( / / ^ ^ ^ O./ / / / / / / / ^ ^ / / O./ / / O.^ ^ O.^ ^ ( / ^ ",
"k.'.).).).8.8.q.U q.8.8.U q.).U ).8.8.8.U q.).8.8.q.8.8.U q.8.8.8.8.8.8.8.q.8.8.).8.8.8.0.W.q.8.8.q.8.8.8.8.8.8.Y Y r.r.r.U r.r.8.r.r.r.r.U r.r.Y r.|.W.).Y ).8.r.r.8.r.U e.U C P C m Q.m : 4 4 e 4 4 4 4 4 4 4 4 4 4 $ 4 e 4 $ w r $ 1.kXI L J I J w.e.Y e.e.e.e.e.e.u.u.z.u.u.u.e.e.e.y.e.e.e.e.g.d.u.u.t.u.t.t.k.w.t.t.u.k.w.k.6.D.D.p.d.p.t.w.a.t.w.t.a.w.C.a.d.a.p.f.a.s.a.a.a.0.a.s.0.k.s.XXf.s.s.0.a.a.s.a.s.s.a.a.s.k.a.C.q.9.9.9.9.0.9.9.9.y.9.7.].[.y.0.7.7.7.6.q.0.7.U } I q.B A B N M qX[ d p p p p p p d & 7 7 7 7 - 2XFXDXu 5 5 7 y & * B W.W.S x.S.-.` & & z K.K.T P U U B * * Z K.I.K.;XdXdX-X+ 7 ( l 4.( k ^ ^ k 3.{ Q k ^ 1.k ^ ^ / ^ ^ ^ ^ ^ ~ ~ ^ ~ ^ ^ l ^ ^ ^ l / ~ ",
"Z.'.8.).8.8.8.8.).8.8.8.q.U ).q.8.q.q.U 8.8.8.8.8.8.8.8.8.q.U ).8.8.U 8.).U 8.8.U 8.8.U ).8.8.8.8.8.8.8.8.8.8.8.Y `.r.Y r.r.r.8.r.8.r.r.r.8.r.r.r.r.|.r.Y r.r.8.8.r.8.r.Y 8.U P P H P W.K., 4 4 e 4 4 $ 4 4 4 4 4 4 4 4 4 e 4 : n t $ 0XaXP J J I L u.e.e.u.e.e.e.e.e.u.e.z.u.u.u.e.e.e.e.e.e.e.u.D.e.d.u.u.u.u.w.p.a.w.k.u.w.a.t.t.g.D.p.p.p.t.t.t.d.w.t.w.f.C.d.d.f.f.f.a.0.a.0.k.k.0.s.0.q.s..XC.s.s.s.a.0.s.a.0.a.0.a.s.0.k.f.a.9.9.9.0.y.9.9.9.0.0.9.]..X0._.0.0.q.6.q.9.9.7.6.A 6.B A B A m 0X[ W W p p p p p 8 & 5 7 5 y 3 2XFXDXu 5 7 5 7 & * M W.P.S V.V.V.#.* & M K.K.c I Y T B * , v T.I.I.;XdXdX] 4 7 / k G.n.v.A.O.m.A.N.1.G.n.c.N.3.~ / ^ ^ ^ ^ / / ~ ^ ^ ^ ^ ^ ^ ^ ^ ^ ^ ^ ",
"p.`.).).).8.8.8.U 8.U q.8.8.8.8.).U 8.8.8.8.0.8.8.U q.8.8.8.8.8.8.q.8.).8.q.8.8.8.8.8.q.8.8.8.U 8.8.8.8.8.8.8.8.Y r.8.8.U r.r.r.8.r.r.r.8.r.r.r.U r.|.).).Y r.Y r.8.8.8.8.8.8.T C P c Z Q.4 4 4 e 4 4 4 4 4 4 4 4 4 4 4 4 e r 4 V % $ lXb.H K K w.I e.e.e.e.e.e.e.e.e.e.u.D.e.u.u.t.e.e.e.e.e.e.g.p.u.u.u.u.u.u.t.w.w.a.t.t.t.w.t.w.p.D.p.p.w.p.t.k.a.t.t.w.C.f.k.a.a.a.C.f.a.s.a.0.a.a.a.a.a.s.XXs.s.s.s.a.a.a.0.0.a.a.s.s.a.0.f.f.0.9.9.7.0.9.9.9.0.9.7.[. X0.s.0.0.q.7.9.9.9.w.7.6.U N 6.A { M qX[ d W p p p p p d & 5 7 7 7 - 2XFXDXj 5 7 7 u : * N W.q.I x.0XS.#.X : z K.K.c T U Y B * * M K.I.D ;XdXdX-XX u ~ 1.rXeXA.m.A.rXeXm.eXb.G.G.B.n.~ / ~ ^ ^ ^ / / / ^ ^ ^ ^ ^ ^ ^ ^ ^ ^ ^ ",
"k.'.8.).).U 8.8.U ).).8.8.8.q.8.U 8.8.).8.8.8.8.U 8.).8.8.8.q.U 8.8.8.8.8.8.).U 8.).8.U 0.8.8.q.q.8.q.).).U 8.Y Y r.r.8.r.8.r.r.U r.r.r.r.U r.8.Y r.|.Y Y ).r.r.Y 8.r.Y ).8.8.U P c P H P.Z t $ e 4 4 4 4 4 4 4 4 4 4 4 4 e $ $ V n +.kXH J J K w.Y e.e.e.e.e.e.e.e.e.e.u.D.u.u.u.e.e.e.u.e.e.e.g.u.u.d.u.w.d.u.t.w.p.w.w.t.t.p.w.w.p.D.t.t.p.a.w.a.a.w.w.a.C.a.a.f.d.d.p.g.a.s.a.0.a.0.s.0.a.s.XXs.s.s.k.0.s.s.a.k.a.a.a.s.a.a.a.C.0.9.9.9.y.9.9.9.0.9.7.].[.0.0.0.0.7.7.9.9.9.9.7.U q.N A 6.B M B.,Xq p p p p p p u * 7 7 7 7 = 2XFXDXu 5 7 5 7 : * N W.W.S x.V.S.@.& , M K.T c T U T B * & v I.I.D ;XdXdX] 4 7 k 2.1.3.v.4.A.N.n.3.G.1.A.c.c.m.~ ^ ^ ^ ^ ^ ~ ^ l / / ^ ^ ^ ^ ^ ^ ^ ^ ^ ",
"Z.).).).8.).q.8.8.U q.8.U ).U ).8.8.q.U 8.U ).8.8.8.U q.8.8.U ).8.8.U 8.).q.U q.q.U 8.8.).8.8.8.U 8.8.U 8.q.8.Y 8.r.r.r.r.8.r.8.r.8.r.r.8.r.r.r.8.Y |.`.r.).Y 8.8.8.8.r.r.Y r.U P H C P T Q.M % r 4 4 4 4 4 4 4 4 4 4 4 4 e 4 , H % uXwXH J K K e.e.e.e.e.u.e.e.e.e.e.e.e.z.u.e.u.t.e.e.r.e.e.u.D.u.w.d.u.d.u.d.i.t.w.t.k.t.t.w.p.9.D.D.p.p.t.w.w.p.p.9.w.f.C.a.a.f.a.d.k.C.a.a.a.9.a.a.a.a.a.s.XXf.s.s.s.a.a.s.a.0.a.0.a.s.0.a.a.f.s.9.9.9.9.9.9.9.s.0.q.]. X0.s.0.0.7.0.9.9.9.9.7.7.q.A 6.A B C B.,X; ' p p p p p u & 3 7 7 7 3 2XFXDXj 5 5 7 7 = * B W.| S x.0XV.#.& # M K.K.c I T Y B & * Z T.K.K.;XdXdX-X+ 7 O.~ ^ ^ ~ / l ^ k b.2.~ ~ ~ / l / / / / / / / / / / / / / ^ / / / / / / ",
"p.`.).).8.).U 8.8.8.8.8.8.8.q.U ).U 8.8.8.8.0.8.8.8.q.U ).8.8.8.8.8.8.).q.8.).8.8.8.8.8.8.8.U 8.).U q.8.).8.Y Y 8.r.r.r.r.8.r.r.r.8.r.r.8.Y 8.r.r.r.|.r.Y r.Y 8.r.8.8.Y r.8.8.Y P H C P C Q.P % e 4 4 $ 4 4 4 4 4 4 4 4 4 e 4 4 z / lX5.H J J K e.Y w.e.e.e.e.e.e.e.e.e.e.D.u.w.u.e.e.e.t.e.e.g.d.t.u.d.a.t.u.w.i.t.t.t.t.p.w.a.t.w.p.D.t.p.w.p.t.t.p.w.t.h.f.a.d.d.f.f.a.p.f.a.a.a.a.s.s.0.a.s.XXf.s.s.a.k.0.s.a.a.a.0.0.s.s.a.a.f.f.9.9.9.0.9.9.9.0.9.9.]..X0.).0.9.7.9.0.9.9.7.9.9.9.A 6.I A Z B.9Xd s p p p p p d & 5 y 7 7 - 2XFXDXa 7 7 5 y & * B W.W.} x.-.B.#.& * M K.K.c T Y Y V , & M I.I.K.;XdXdX-X# 5 i i j j i i i i i i i i i j i i i i j i i i i i s i i i j j i i j j i i ",
"k.'.).0.).q.q.8.8.U 8.8.U q.8.8.U q.8.8.8.8.8.8.q.8.8.8.U 8.U q.8.8.U 8.8.8.U q.8.8.8.U 0.8.8.8.8.8.8.8.8.8.W.8.r.r.r.U r.8.r.r.U r.r.r.r.8.r.r.U `.|.r.Y ).r.r.Y r.8.8.8.r.8.U P c P P H K.W.V e 4 4 : 4 4 4 4 4 4 4 4 4 e 4 4 z A.jXH K J K K e.e.e.e.e.e.e.e.e.e.e.u.u.z.u.u.u.e.e.e.e.e.e.g.d.d.w.z.d.u.t.t.u.u.w.k.t.w.a.w.k.k.p.D.a.p.p.t.a.w.d.w.a.C.a.a.k.f.a.a.d.f.C.a.a.0.a.a.a.0.k.s.XXs.s.s.0.a.s.s.0.a.a.a.k.s.0.a.0.k.C.9.9.9.y.9.9.9.y.0.7.].[.0.0.0.0.0.9.9.9.9.0.9.9.8.A I 7.{ Z x.,Xd W p p p p p 8 & 5 5 7 y - 2XFXDXa 5 7 7 y - * N S W.S x.S.0X@.& : M K.c T T T U B : & Z K.I.L.;XdXdX[ > & y 7 7 5 5 8 5 7 7 5 7 5 5 6 7 7 5 5 5 5 5 7 > 7 > > 5 7 3 3 > 3 3 4 5 5 ",
"p.).).).).).8.8.q.8.U 8.).U ).8.8.8.8.8.8.8.).8.U 8.8.8.8.U ).8.8.8.8.8.8.8.8.8.q.U q.8.).8.q.8.8.U ).8.8.8.i.Y 8.r.r.r.Y 8.r.r.r.8.r.r.8.r.r.8.U r.|.).).`.Y 8.8.8.8.r.r.r.8.r.U C T C C P E.M r 4 4 4 4 4 4 4 4 4 4 4 4 e 4 4 H lXV.H K J K I e.e.e.e.e.e.e.e.e.e.e.e.e.z.u.e.u.e.e.e.u.e.d.g.u.t.u.u.u.t.t.d.u.u.a.w.w.t.w.t.t.t.D.D.p.t.w.a.w.t.a.w.h.g.a.f.a.d.f.a.f.f.g.f.0.a.0.a.0.a.a.s..X].f.s.s.a.k.s.0.a.a.0.a.0.a.0.a.s.C.9.9.9.y.9.0.9.9.9.q.].[.0.s.0.9.9.9.9.9.9.9.9.9.9.A q.7.A M 5.,Xp p p p p p p p & 3 7 7 7 - 2XFXDXu 5 7 5 5 = & B W.W.S x.V.wX` X : z K.K.c I T Y V , & v I.I.D ;XdXdX-XX & 7 7 7 7 7 7 7 7 7 7 7 7 5 7 7 5 7 8 7 8 f f f f f f 5 u h Q Q ~ ! g 5 u ",
"p.'.).s.a.0.U 8.8.8.8.).8.q.U 8.8.8.8.8.U q.8.8.8.8.8.8.8.).U q.q.8.8.8.8.8.8.8.8.).8.8.8.8.8.8.8.q.8.8.8.Y Y 8.8.r.r.8.8.8.r.r.8.r.r.r.r.8.r.r.r.Y |.Y Y r.Y 8.Y ).8.8.8.Y r.8.Y P T P P H Q.C 4 r V $ 4 4 4 4 4 4 4 4 4 e 4 % 5.lX/ H J J L I e.e.e.e.e.e.e.e.e.e.e.e.u.D.t.u.u.e.e.e.u.e.p.d.d.u.t.d.a.t.u.t.u.u.t.w.a.w.p.w.t.w.D.D.w.d.p.a.k.u.a.t.C.f.d.k.f.a.a.d.a.a.g.f.q.a.s.0.k.a.a.s.XXf.s.s.a.s.0.s.a.s.0.k.a.s.a.a.a.a.g.k.9.9.9.9.9.9.s.9.0.]. X0.].0.0.q.9.9.0.7.9.9.9.9.6.9.0.B B ..tXd W p p p p s i & 7 7 7 7 - 2XFXDXj 5 7 5 y & * B W.S U -.V.-.#.X : M K.K.c I U T J * * M T.I.K.;XdXdX] + & u 3 7 5 5 5 5 7 > 5 5 5 7 5 7 7 7 7 5 f +XOXOXOXOX@XZ -.PXgXgXgXlXvXj 5 ",
"f.`.f.f.f.9.8.8.q.U ).U 8.8.8.8.q.8.q.U 8.q.8.8.U ).8.8.8.U ).8.q.U 8.8.8.8.U 8.q.U 8.8.8.8.8.8.8.U 8.8.0.i.Y r.r.r.r.r.r.8.r.r.r.8.r.r.8.8.8.r.8.).|.).r.i.8.r.8.r.8.r.r.8.r.r.8.P U T C z W.W.4 t M 4 4 4 4 4 4 4 4 4 4 e 9 % yXtXH J K J J Y e.e.e.e.e.i.e.e.e.e.e.e.u.z.d.u.u.e.e.e.e.t.g.t.d.u.w.d.d.w.t.d.u.u.u.w.t.k.t.t.w.t.p.D.t.d.w.w.w.a.t.k.C.k.s.s.d.f.a.f.a.f.p.g.s.0.a.a.a.k.0.s.XXC.s.s.s.f.a.0.a.a.0.a.a.s.s.a.9.s.a.f.q.0.0.9.7.9.0.9.7.]..X).0.0.0.9.9.9.0.7.9.9.9.9.6.9.7.A N <.tXp p p p p p p y & 7 7 7 7 9 2XFXDXu 5 y 5 y = * N P.U S V.0XS.#.X : M K.K.c I Y U B * * Z K.I.D ;XdXdX-X$ 5 3 O.c.4.c.2.G.j 1.1.8 j 5 7 5 5 7 7 > f OXP.P.P.I.OXZ ] gX:XgX8X>XlXQ 3 ",
"p.].s.f.f.9.q.8.8.8.8.q.8.8.8.q.U ).U ).8.8.8.8.8.U q.8.8.q.q.8.8.8.8.).8.8.8.8.U ).8.8.8.8.8.8.8.q.8.8.8.W.Y r.8.r.r.U r.8.r.r.8.8.r.r.r.Y r.r.Y r.|.Y Y W.r.r.8.8.8.Y r.8.U r.r.P Y T P P C E.w t H % , 4 4 4 4 4 # t 4 e $ V kX3.H J Y H L w.e.e.e.e.e.e.e.e.e.e.e.e.e.z.a.u.u.t.e.e.e.z.p.u.d.t.u.d.d.t.u.t.u.t.z.t.w.t.t.t.a.w.g.D.p.t.p.p.a.w.a.C.f.a.f.d.a.f.k.d.a.d.f.C.f.a.0.k.0.a.0.s..Xf.s.s.k.s.a.s.a.0.a.a.a.s.0.0.a.a.a.C.a.9.y.9.9.0.y.9.0.]. X0.s.0.0.9.9.9.0.9.9.9.9.9.0.9.0.6.B } tXp ' p p p p p y & 7 7 7 7 9 3XFXDXa 5 7 7 6 & * B ).W.S x.V.V.#.X , M K.c c T U Y B & & v I.K.I.;XdXdX] + > & c.b.c.b.j n.& 1.c.N.b.5 7 5 5 7 7 7 f +XP.(.U.P.OXD &.gX>XhX8X7XgXQ 5 ",
"Z.'.).8.0.8.U 8.8.8.8.8.q.U 8.8.8.8.8.8.8.8.8.8.8.q.8.8.q.8.U 8.8.8.8.8.8.8.8.q.8.8.q.U 8.8.q.8.8.8.7.8.r.Y 8.8.8.r.r.U 8.8.r.r.r.U r.r.r.8.r.r.Y r.|.i.r.r.Y 8.8.Y 8.8.8.r.U r.8.U W.I H C M Q.C r C r $ 4 4 4 4 4 4 % $ e $ V.lXH H J K I J e.e.e.e.e.e.e.e.e.e.e.e.u.t.D.t.u.u.e.e.e.e.D.u.t.d.t.t.u.u.u.t.u.t.t.u.u.k.u.t.w.a.w.D.D.p.p.p.w.w.p.d.C.a.a.a.d.a.a.p.a.a.f.f.g.f.0.0.a.a.a.s.s.XXf.s.s.s.s.a.s.k.s.a.a.a.s.a.k.9.a.0.f.f.7.0.9.9.9.0.9.7.]..X0.0.0.9.9.9.9.7.9.9.9.0.7.9.9.0.I M } tXW p p p p p p i & 7 7 7 7 3 >.FXDXa 5 7 5 y = * N P.U T V.V.S.#.X : M K.K.T P U U B * > M T.I.K.;XdXdX-X+ > 3 x.1.2.2.j m.& 4.N.1.b.i 5 7 7 7 5 > f OXP.(.(.P.OXA ,XgX:XgX8X>XgX~ 3 ",
"f.).).).).).8.8.8.8.8.8.8.).8.8.8.8.8.8.8.8.).8.8.).8.U ).8.8.).8.8.8.0.).8.8.8.8.8.8.).).8.).8.8.8.8.Y `.8.r.r.r.`.r.r.r.r.r.r.r.r.r.r.r.r.).r.Y i.|.W.r.).).r.8.r.r.).r.r.r.r.r.r.).T P P P P W.V P t 4 r 4 r 4 r 4 V e e % aXwXH J L Y Y K e.i.e.e.e.e.u.e.e.e.e.e.i.u.z.u.u.u.e.e.e.d.g.u.u.d.d.u.d.d.d.t.d.u.u.u.i.w.a.t.p.t.k.p.D.d.p.a.a.t.t.f.C.f.a.f.f.f.d.s.f.a.f.f.f.g.s.s.s.s.s.s.s.XXf.f.s.s.0.s.s.s.0.0.s.0.s.s.a.s.s.s.f.Z.8.y.0.9.0.y.9.9.].[.y._.0.0.0.9.0.9.0.9.9.9.0.0.0.0.6.N 6.tXW p W p s s s u . 7 7 y > 3 2XFXDXu 5 7 5 5 & * B W.U S x.-.0X@.+ , z K.K.c I T U B * > v I.K.D ;XdXdX] ; & y k 7 k 8 5 l 3 / ( h k 8 5 5 5 7 7 5 w OXP.P.P.P.(.b &.gX-X8X>X>XgXh 5 ",
"p.[.).).).).8.8.).0.).).8.0.8.).).).8.8.0.).).0.8.8.).0.).8.8.8.).0.8.).).0.8.8.).0.).8.).8.).0.0.8.8.r.`.r.r.r.r.`.r.r.8.)._.r.r.r.)._.r.r.`.r.r.r.|.i.W.`.r.r.).`.r.r.r.r.r.r.r.r.`.U T P P P Q.T H V t e e r e e r M t e O.kX<.J K K Y Y I z.i.u.e.e.e.i.e.i.e.i.e.u.u.D.d.i.u.e.u.y.l.g.u.d.d.d.d.d.d.d.d.d.d.u.d.z.t.a.a.d.t.t.C.D.p.p.d.d.p.a.C.g.f.f.f.f.f.f.f.f.f.f.f.s.C.g.a.s.a.s.0.s..Xf.C.s.s.s.s.s.s.0.s.s.s.s.s.s.s.s.s.s.C.s.s.0.0.0.s.0.a.[. Xs.].0.0.s.0.0.0.y.0.y.0.0.s.0.y.w.6.q.tX` ' W ' W W ' d & 7 7 5 7 - 2XFXDXa 5 7 5 7 : * N P.U S V.V.S.#.X , M K.K.c U Y U B . & M K.I.I.;XdXdX-X# & 7 5 7 3 7 7 3 7 5 3 5 > 7 7 7 7 7 y > f +XOXOX(.OX@Xc -.PXgXgXgXgXPXQ > ",
"p.`.).).).q.8.8.q.8.U q.8.8.8.8.U q.8.8.8.8.8.8.8.8.8.8.8.8.8.8.8.8.8.8.8.U 8.8.8.8.8.8.0.8.U 8.U 8.8.).r.Y 8.8.r.r.r.8.Y r.r.r.8.r.r.r.8.8.r.r.8.r.|.i.i.Y r.Y 8.8.U r.8.r.8.r.r.8.8.r.P C P H W.W.z V % # 4 , $ 4 r % % $ ,XaXH J J J Y K K w.Y Y e.e.e.u.e.e.e.e.Y i.e.z.u.u.u.e.e.e.g.t.d.t.d.t.u.u.d.t.u.w.t.u.u.u.u.w.w.w.p.w.p.D.d.p.t.k.w.a.C.a.f.a.a.d.d.a.d.k.s.d.s.f.p.g.a.a.a.a.k.s.XXs.s.s.0.a.a.s.0.k.a.a.a.s.a.s.a.s.s.0.f.a.0.9.9.9.0.9.7.].[.0.0.0.0.q.9.9.9.9.7.9.9.9.9.9.9.q.q.I yX) p p y p y p d . 5 7 7 7 - 2XFXDXi 5 7 5 7 : * m ).P.I x.V.0X#.& & M K.K.c I T Y B , & Z I.I.D ;XdXdX] + > 7 7 y u 7 u u 7 7 u y 7 7 7 u 7 7 y y d N S S S | | w Q -.-.,XV.-.-.< 7 ",
"k.'.).).8.8.8.8.U 8.8.8.8.8.8.8.8.8.U ).8.8.8.8.8.8.8.q.U 8.8.).q.8.8.8.8.8.8.8.8.q.8.U ).8.8.8.8.8.r.Y r.r.U r.8.r.r.8.r.8.r.r.r.U r.r.8.r.r.r.r.r.|.W.).r.r.r.8.Y Y ).r.r.8.r.8.r.r.r.P P P H P Q.H H H # 4 4 r 4 4 n % t kXB.H K J I e.K w.e.e.e.e.e.e.e.e.e.e.e.e.e.w.D.u.u.u.e.e.z.g.u.t.t.d.u.t.d.u.u.t.u.u.w.d.u.u.t.a.t.t.w.p.D.p.p.t.t.k.f.h.s.f.a.d.f.a.a.d.f.a.f.f.g.a.g.a.9.0.a.a.s.XXC.s.s.f.a.a.s.s.a.0.a.0.s.k.0.0.a.a.k.f.f.0.9.9.9.s.0.7.]..Xr.0.0.0.9.9.9.9.9.9.0.9.9.9.9.9.7.9.I tX[ p p p p p p p & 5 7 7 7 9 2XFXDXa 5 7 7 y = * N W.U A x.-.V.#.X : M K.c c T U T V & , v T.K.D ;XdXdX-X$ & 3 > 3 3 > 3 5 > 3 3 > 3 7 3 3 3 3 = 5 - * * , * * * > 3 X . # X X X : 5 ",
"p.`.).).).8.8.8.).U 8.8.8.8.U q.8.8.8.U 8.U 0.8.8.8.8.U q.8.8.U U 8.8.0.).U q.).8.U 8.8.8.8.q.8.8.8.Y r.r.8.r.r.U r.r.r.8.8.r.r.r.r.r.r.r.8.r.r.8.r.|.r.Y r.8.Y r.8.8.8.r.8.r.U r.r.U r.T C P c H Q.T H V 4 4 4 4 4 4 n % *.kXL R J J L e.U Y w.e.e.e.e.e.e.e.e.e.e.e.e.e.z.u.e.t.t.t.p.z.a.t.t.d.u.t.d.d.w.d.d.u.d.t.t.u.u.t.k.t.k.g.D.p.d.p.w.t.C.f.d.a.a.f.d.a.f.f.a.a.d.s.d.a.g.f.a.a.a.0.s.XXs.s.s.a.0.s.s.a.0.a.a.a.s.a.0.a.s.s.a.a.p.0.9.9.9.0.0.q.].[.0.s.0.0.0.0.9.9.9.7.0.9.9.9.9.9.9.9.7.0XkXW p p p p p d & 7 7 7 7 - 2XFXDXu 7 7 5 7 & * B U P.U V.V.wX#.. : z K.K.P P U Y J * * M I.I.I.;XdXdX] 3 * & & & & & X , & & & X & * X * & & & & * & = & * = * & & & , : & & & & X ",
"p.`.).).8.8.8.S U 8.q.8.8.).8.U 8.q.U q.U q.0.8.8.8.U 8.8.8.8.q.8.8.8.8.8.8.8.U 8.8.8.U 8.8.8.8.8.8.Y r.r.r.Y ).r.r.r.U r.8.r.r.8.r.r.r.8.r.r.r.Y r.|.i.).Y ).Y r.8.r.8.r.8.8.Y 8.r.8.r.U C P P P T W.H z $ 4 4 4 4 4 M z aXtXH J P L I e.e.w.e.e.e.e.e.e.e.e.e.e.e.e.i.u.D.z.u.u.e.u.g.u.d.w.u.u.t.u.d.u.t.u.w.u.d.t.d.u.u.u.w.t.t.p.D.t.p.p.w.s.C.s.d.a.f.a.k.a.f.f.k.f.a.d.f.a.f.C.a.0.a.a.s..Xf.s.s.a.a.k.0.a.a.k.0.a.s.a.a.a.a.s.a.0.f.f.9.9.9.y.9.9.].[.0.0.0.0.9.9.0.9.9.9.9.7.9.9.9.9.9.a.I 0XvX) p p p p p y & 3 7 7 7 3 2XFXDXj 5 7 5 7 & * B P.U S x.0XS.#.X , z K.K.T T Y T B & * m I.I.K.;XdXdX-X# & y 7 7 5 5 7 5 5 5 7 5 5 7 5 5 7 7 5 7 y 7 7 y 5 y 7 7 5 y y y 7 7 u 7 5 ",
"k.'.8.).).8.8.8.8.).U 8.q.U 8.8.8.8.).8.8.8.).8.8.U ).U q.8.8.8.8.8.8.).8.q.q.8.q.8.8.q.8.8.8.8.8.Y Y 8.r.8.8.8.r.r.r.r.8.r.r.r.Y 8.r.r.r.U r.r.r.r.|.W.Y r.r.r.8.8.Y 8.r.8.8.r.Y 8.r.).T P C P P C Q.c M r 4 4 r 4 % H V lX@.H I K H I e.e.e.e.e.e.e.e.e.e.e.e.e.e.e.e.e.z.e.u.u.e.p.d.u.u.t.u.d.u.t.d.d.t.u.d.t.w.u.t.u.u.t.u.k.w.D.D.p.p.p.t.C.g.f.a.p.a.f.d.f.d.d.a.a.p.a.f.d.a.p.f.a.s.q.s.XXh.f.s.s.a.0.s.a.0.s.s.s.s.0.a.0.a.0.a.a.k.C.7.9.9.0.0.9.[. Xa.0.0.0.9.7.9.9.9.9.9.0.9.0.9.9.0.0.U 0XvX_ y p p p y i & y 7 7 7 - 2XFXDXu 5 7 7 8 & * B U P.U -.V.V.#.X & M K.K.c I T Y B * & v T.K.D ;XdXdX[ > > 8 7 7 5 7 7 7 7 7 7 7 7 7 7 7 7 7 5 7 y > , * , , , 7 3 $ : + : : $ y 7 ",
"Z.'.).).q.8.8.8.8.q.8.8.8.8.8.8.U 8.8.8.8.8.8.8.8.q.U q.U q.U 8.8.8.q.8.8.8.8.8.U ).8.8.).8.8.8.8.r.Y 8.r.8.8.8.8.r.r.8.r.8.r.8.8.r.r.r.r.U r.r.r.r.|.Y ).r.r.U Y 8.Y ).Y 8.r.8.8.8.r.8.I C P P T m W.W.M % : 4 $ , t z S.jXH H K I L I e.e.u.e.e.e.e.e.e.e.e.e.e.e.e.e.e.D.u.u.u.u.p.t.d.t.u.p.d.t.u.d.u.d.u.w.d.w.t.u.t.u.u.w.t.w.p.D.t.d.u.a.C.f.f.f.a.a.a.a.a.d.f.a.d.a.f.f.k.d.f.g.a.0.a.s..Xf.s.s.s.a.a.s.0.a.a.a.0.s.a.0.0.s.s.a.a.a.C.9.7.9.0.9.7.]..X0.s.0.0.7.9.9.9.9.9.9.7.9.7.9.9.7.0.q.B uX_ p p p p p u & > 7 7 7 5 2XFXDXj 5 7 5 y & * N W.W.S x.V.S.#.& 3 z K.K.c I U U B * & Z I.K.I.;XdXdX-XX & u 3 3 5 5 5 5 5 7 3 7 7 5 7 5 7 7 7 5 6 A S | S S S w E ,X-.-.-.-.-.u 5 ",
"p.`.).8.).8.8.8.8.8.8.8.8.U 8.q.).U q.8.8.8.0.8.8.8.).8.).8.).U 8.8.U ).8.8.U 8.8.8.8.8.8.8.8.q.e.W.8.r.r.r.Y r.r.r.r.8.Y 8.r.r.8.8.8.r.8.r.r.r.Y r.|.).Y r.r.r.r.8.8.8.8.8.8.Y 8.r.Y 8.U P P C P P T Q.H % 4 $ r $ t c jX0XM L U I J w.e.e.e.e.e.e.e.e.e.e.u.e.e.e.e.e.u.z.u.w.e.d.D.t.d.u.t.u.d.t.t.d.u.w.t.d.u.d.t.d.u.u.u.w.t.t.p.D.p.p.k.g.f.a.s.a.d.f.a.f.a.f.a.a.f.d.f.s.f.d.f.C.0.k.a.s.XXs.s.s.s.q.a.s.a.a.a.0.k.0.a.a.s.k.0.a.a.9.C.a.0.9.s.9.9.].[.0.).0.0.9.9.0.7.9.9.9.0.9.0.9.9.9.9.9.M 9X[ - p p p p y & 7 7 7 7 9 >.FXHXu 5 7 7 u = & B W.S S V.-.0X@.= , M K.c c I T U B * * Z T.I.D ;XdXdX] + & u u ~ j k k l i 7 h 7 h s 3 7 7 7 7 > q +XOXOXOXOX@XZ -.PXgXgXgXgXPXh 5 ",
"k.'.).).).U 8.8.8.U q.U ).8.8.8.U ).8.).U 8.).8.q.8.8.8.8.8.U q.8.8.q.).8.U q.8.U 8.q.U ).8.8.8.Y ).Y r.r.8.r.8.Y r.r.r.r.8.r.8.8.r.r.r.U r.r.r.8.r.|.Y ).r.Y r.8.r.8.8.8.8.8.).Y r.Y ).U I U C P C M E.T % # t t # t 6.kX1.H H L I L e.e.e.u.Y e.e.e.e.e.e.e.e.e.e.e.e.u.z.t.w.u.g.d.t.d.u.t.u.d.u.u.u.d.d.t.u.t.u.u.t.d.t.z.t.t.t.p.D.p.p.k.C.f.f.f.a.k.f.f.a.a.d.d.f.k.d.f.f.s.a.a.g.f.a.a.f.XXC.f.s.s.0.s.s.0.a.a.a.k.s.a.a.a.0.k.0.s.a.f.C.9.9.0.9.9.]. X0.0.0.0.0.9.9.9.9.9.9.9.9.9.9.9.9.9.9.N 0X[ > p p p p d & 5 7 5 y 3 2XFXDXi 7 7 5 p & * B U I.} x.V.V.#.X , z c K.c P U Y B * , v I.K.D ;XdXdX-X@ > = 2.b.3.b.1.G.i 2.c.O.m./ 5 7 7 5 7 5 f OXI.P.P.b OX| >XgX>X8X8X>XhXQ 3 ",
"p.`.).0.8.).q.8.8.8.8.).U 8.U q.q.8.q.U 8.8.8.8.U 8.8.U 8.U ).8.8.8.U 0.8.).U 8.q.8.8.8.8.8.8.8.Y r.8.8.r.r.8.8.8.r.r.8.8.r.r.r.r.8.r.r.r.8.r.r.U r.|.).Y ).Y r.r.r.r.Y 8.r.8.8.8.8.8.r.U Y U T P P m W.Q.t , M V > z wXaXH J J w.Y K e.Y e.e.e.e.e.e.e.e.i.e.e.e.e.e.e.u.z.t.u.z.p.t.d.d.t.w.d.d.u.t.d.u.w.u.d.w.u.t.u.w.d.u.u.k.w.D.D.p.t.f.C.a.d.f.a.d.a.a.a.f.k.a.a.a.f.d.f.d.f.d.p.f.a.9.a.XXs.s.s.s.k.a.s.a.s.a.0.0.s.0.a.a.a.s.0.a.0.f.f.9.9.0.9.9.].[._.s.0.0.0.9.9.9.9.0.9.9.9.9.9.9.9.0.t.C qX[ y p p p p 8 & 5 5 7 y - 2XFXDXi 5 7 5 y - & B W.W.S x.S.0X#.# , M K.K.T T T U B & * M T.I.K.;XdXdX] + > 3 c.v.c.m.i c.: / c.A.i & 7 5 7 5 7 > l OXP.(.P.P.OXD -.gX>XgX8X>XgXW 5 ",
"Z.).f.s.f.0.8.8.8.8.8.U 8.U ).8.8.8.8.U 8.8.).8.8.8.U ).8.q.8.8.8.8.8.8.8.8.8.8.8.8.8.8.8.8.q.U Y r.r.8.r.r.8.8.8.r.r.8.r.8.r.r.8.r.r.r.r.8.r.8.r.r.|.Y Y ).r.8.r.U r.r.r.8.8.Y 8.8.r.8.8.r.r.T P P m P Q.z # H V $ t kXb.H J J I I L e.u.w.e.e.e.e.e.e.e.e.u.e.e.e.e.e.u.D.w.e.D.p.t.t.d.u.d.u.d.w.t.d.d.w.d.w.d.u.u.t.u.u.u.u.w.9.D.D.t.t.g.f.a.d.f.a.d.f.a.f.k.a.f.a.a.a.f.s.a.f.f.a.g.a.0.s.XXh.s.s.f.0.a.0.k.0.s.a.s.s.a.a.a.s.s.a.a.a.0.Z.a.7.s.9.7.]..X0.0.0.0.9.9.9.9.9.9.9.9.9.9.9.9.9.9.9.C 0X] d p p p s p & 5 7 7 7 3 2XFXDXa 5 5 7 y & * N W.U S V.S.V.` & # z K.K.c I U Y V & * Z I.I.K.;XdXdX-X+ 3 > 2.k 1./ i b.5 k m.b.m.~ 5 7 5 u 5 y f OXP.(.(.L.OXD &.hX8X8X8X8XgX) 3 ",
"f.`.f.f.a.0.U 8.8.8.8.q.8.).U q.8.8.8.8.q.U 8.8.8.8.q.8.).U 8.8.8.8.8.8.8.8.8.q.8.U 8.8.8.).U ).Y 8.8.r.r.8.r.Y 8.r.r.8.8.Y r.r.r.U r.r.U r.r.r.8.r.|.r.).Y r.r.8.r.8.U Y 8.r.8.r.8.8.8.8.Y r.I P C P H Q.P 4 H t $ 3.lXJ J J J w.Y I e.e.Y u.e.e.e.e.e.e.e.e.e.e.e.e.i.t.z.u.u.g.d.u.t.d.t.t.t.d.u.t.d.d.u.u.d.u.p.u.w.t.u.u.u.t.w.D.D.p.p.C.f.a.f.f.a.f.d.d.f.f.d.f.a.f.d.d.f.k.a.f.a.C.f.a.s..Xf.s.f.k.a.a.s.0.a.a.0.a.s.0.a.0.a.a.a.0.0.s.a.f.9.0.0.7.].[.0.0.0.9.9.9.9.9.9.9.0.7.9.9.9.9.9.9.9.A 9X[ d p p p p i & 7 7 7 7 - 2XFXDXa 5 5 5 y = * n Z Z Z ` [ *.~ & $ z x z z M m m V & & n c x v -X-X-X] $ & 5 i 7 7 7 5 i 5 j k 3 k j 5 7 7 5 7 > w +XP.P.P.| OXD -.gX>X:X:X>XgXQ 5 ",
"f.[.0.s.a.9.8.).).U 8.8.8.).8.8.8.8.8.8.q.8.).8.8.8.8.8.8.q.U 8.q.8.U ).8.8.8.8.q.8.8.8.0.8.8.Y r.8.r.r.r.8.r.8.8.r.r.Y r.8.r.r.r.r.r.r.8.r.r.r.Y ).|.Y r.).Y r.r.r.8.r.r.8.U r.r.8.8.8.r.U r.U P P P C T E.n M M % uXwXH J H J e.I w.e.e.e.e.e.e.e.e.e.e.e.e.e.e.e.e.e.u.z.u.d.D.u.d.t.d.t.t.u.d.u.t.d.d.t.u.w.t.u.u.d.u.t.t.u.u.t.p.D.p.p.C.d.f.f.f.k.a.d.f.d.d.d.a.a.f.a.f.f.d.d.f.a.p.g.t.s..Xs.s.s.s.a.0.s.a.a.0.0.a.s.0.a.s.0.0.a.a.a.0.a.C.7.9.9.0.]. X0.].0.0.7.9.9.9.9.9.0.9.9.9.9.9.9.9.9.A 0X,X= W p p p y & 5 5 7 7 9 2XFXDXu 7 7 5 y & & V Z Z v ` ` *.) & * n x x z m m C V , & n F x v ] ;X;X]   > y 7 7 5 5 7 7 7 5 5 7 3 7 7 7 7 7 7 3 f +XOXOXOXOX@XZ -.vXgXlXgXlXvXg 4 ",
"p.`.).).).8.q.U 8.q.8.8.q.U 8.U 8.8.q.8.8.8.8.8.U 8.U q.8.8.8.8.U 8.8.8.8.8.8.U U 8.8.8.).8.Y Y 8.r.8.r.r.Y 8.r.8.).r.8.8.r.r.r.8.8.r.r.r.r.r.r.U r.|.Y Y r.8.Y 8.8.8.r.U r.r.r.Y 8.8.Y r.8.r.U P T T C H Q.m H M k kX5.H J J K u.I I u.e.e.u.e.e.e.e.e.e.e.e.e.e.e.e.e.u.D.u.p.z.u.t.t.d.t.t.t.d.t.u.d.u.w.t.u.u.d.w.w.t.t.t.t.i.w.p.D.k.C.C.p.a.a.f.d.a.a.a.k.a.f.f.d.a.a.d.s.a.f.a.d.k.C.a.s.XXC.s.f.0.s.a.a.a.a.a.k.q.s.a.a.0.k.s.a.a.a.s.0.C.k.9.9.q.].[.0.0.0.0.0.9.9.9.7.9.7.9.9.9.9.9.9.9.9.Z qX[ - p p y p y X 7 7 7 7 8 >.FXDXa 3 7 7 7 & * V Z Z { ` 4.*.) = , n x z z M m m V & = n x D v -X-X-X] * & u 7 7 7 7 7 u 7 7 7 u 7 7 7 7 7 i 7 7 6 f l l n f f i u g k Q W ! h u 7 ",
"p.'.).).).0.).8.8.8.0.8.8.).8.0.8.8.8.).8.8.0.8.0.).).8.).0.8.8.).8.8.).).0.0.).8.8.).8.r.8.).r.r.r.r.r.r.r.r.r.r.).r.r.r.r.r.r.r.r.r.r.r.r.r.r.r._.|.`.`.).).r.r.r.r.r.r.r.r.).r.r.).r.r.r._.U P U r.T H W.W.H z ,XkXP K I J w.i.e.e.e.e.e.i.e.e.i.e.e.e.i.e.u.e.e.i.i.u.z.d.F.d.d.d.u.d.d.d.d.d.d.u.d.d.d.d.u.d.d.d.u.d.u.d.d.i.u.g.D.d.F.f.f.s.g.g.s.f.f.d.f.f.f.f.f.f.f.f.f.f.f.s.f.d.C.p.s.XXC.s.s.s.s.s.s.0.s.s.s.s.s.a.s.s.s.s.a.s.s.s.s.f.f.0.0.9.]..X).0.].0.9.a.0.0.9.0.0.9.9.0.y.9.y.0.s.P 0X,Xy W ' W W i & > 7 7 7 3 2XFXDXa 5 7 7 7 & & V D N v ` [ 4.) & & n x x z M m m t * & n b x v -X-X-X] * & & : & & & & : & & & & & : & : & & & : & & * & & * * & & & & & > & & & & ",
"Z.`.).).).8.8.8.8.8.8.8.8.8.8.8.0.8.8.8.8.8.).8.8.8.8.8.8.8.8.).8.8.8.0.8.8.8.8.8.8.8.8.0.r.Y r.8.r.r.r.r.r.r.r.r.r.r.r.r.r.r.r.r.r.r.r.r.r.r.r.r.r.|.r.Y r.r.r.r.r.r.r.r.r.r.r.8.r.r.r.r.r.r.U P I r.P P P Q.H H lXB.R K K K K e.e.e.e.i.e.i.e.e.e.e.e.e.i.e.e.e.e.e.e.u.z.g.D.d.d.a.u.d.u.u.u.d.u.u.d.d.u.t.d.u.t.d.t.u.d.t.u.u.t.D.D.C.C.f.f.s.f.f.d.f.d.f.f.a.f.d.a.f.d.f.f.a.f.d.f.s.f.g.g.XXs.s.s.s.a.s.s.a.s.a.a.s.s.s.s.a.a.s.s.a.a.s.a.a.C.0.a.0.]. X0.0.0.0.0.9.9.0.0.9.0.9.y.9.0.9.0.0._.Z B.,X' p s p s y & 7 7 7 7 5 >.FXDXa 5 7 7 7 & * V Z Z N ` #.*.W & & n x z z M m m V * & n F c v -X;X-X] . & : & : & = : & 3 & 3 & : & : & > & : & = & = & & & 5 & : : & & > & = & & ",
"f.`.).8.8.8.q.8.q.U 8.8.8.8.).U 8.8.8.q.U U ).8.8.q.U U 8.8.q.U 8.q.8.8.8.8.q.8.U 8.8.U ).8.Y 8.8.8.U r.r.8.r.8.8.r.r.r.U r.).r.8.r.r.).r.8.r.r.8.r.|.Y ).Y Y 8.8.r.8.8.8.Y 8.8.8.8.r.r.8.r.8.r.I U r.P C m Q.c 5.cXK P J K J Y u.Y Y w.w.w.e.e.e.e.e.Y w.e.e.e.e.e.e.e.t.z.p.z.d.u.w.u.d.u.t.w.u.u.t.d.t.w.d.d.w.u.w.d.u.d.u.t.t.u.D.D.C.C.f.a.a.f.f.a.f.a.a.a.f.d.f.a.a.a.s.f.a.a.f.d.f.d.p.f.XXs.s.s.s.k.0.s.a.a.a.a.0.s.a.q.a.0.s.a.a.0.s.a.a.C.a.9.q.]..Xy.0.0.0.7.9.9.9.7.7.9.9.9.9.7.9.9.7.9.P B.xXtX' 4X- y i & 3 7 7 7 - 2XFXDXa 5 7 5 7 : & V D N V ` *.` ~ , # z z x z M m m V & , v x c v -X;X-X] * * 1 7 7 7 7 7 7 7 7 7 7 7 7 7 7 7 7 7 7 7 y 8 8 y y 6 7 5 u u u u u u 7 7 ",
"k.'.).).).8.8.8.8.8.8.8.8.8.U q.q.8.8.8.).q.8.8.8.8.).8.U q.8.8.8.8.8.8.8.8.8.8.8.8.8.q.y.W.Y r.r.8.8.r.r.r.r.r.Y r.r.8.8.r.r.r.r.8.8.r.Y 8.r.8.Y ).|.r.).r.8.r.r.8.Y r.8.r.).8.8.Y U r.r.8.8.8.e.U r.T P P T E.wXyXM I P K J L w.w.e.e.Y w.u.e.e.e.e.e.e.e.e.e.e.e.e.i.t.D.D.u.z.d.d.d.d.u.u.u.d.t.t.d.d.u.u.u.w.d.t.u.u.w.p.u.t.u.z.D.C.k.p.f.f.d.f.a.d.f.a.f.d.k.a.a.d.f.d.f.a.f.a.d.a.d.p.C.XXs.s.s.a.a.s.s.0.a.a.s.a.s.a.s.a.s.s.a.a.a.s.a.0.k.f.0.0.].[.y.0.0.0.9.0.9.9.0.0.9.9.0.9.0.9.7.0.0.S V.vX4X[ vXp W d & y 7 7 7 - 2XFXDXa 5 7 7 7 : * V Z Z Z [ #.*.) X , z x x z M N m t & # n x b x -X-X-X] * * y y u 7 7 7 u 7 7 7 7 5 7 5 7 7 5 7 7 y > , , , > , y 5 + 3 & 3 3 4 7 7 ",
"p.'.q.).).).8.U 8.8.q.8.U 8.q.).8.q.U U 8.8.).8.8.8.8.8.).U ).8.8.q.U 8.8.8.U 8.8.8.U q.r.Y r.r.8.8.8.r.r.8.U r.8.).r.8.r.8.r.r.8.8.r.r.8.r.r.r.r.r.|.r.Y r.r.r.Y 8.).8.Y r.Y 8.8.r.r.U U 8.r.Y Y U r.I P P C Q.kXb.H U K J K w.Y Y w.e.e.e.e.Y e.e.e.e.e.e.e.e.e.e.e.e.e.D.p.p.d.p.u.w.u.d.p.u.d.t.u.d.u.t.u.t.d.t.u.d.t.u.u.u.t.t.z.H.C.p.g.f.a.f.f.a.k.d.a.f.a.f.f.a.f.k.d.f.a.p.f.k.f.a.a.C.XXs.C.s.a.0.a.s.a.a.a.0.a.s.a.0.0.s.a.a.k.a.s.0.a.k.f.0.7.].[.0.s.0.9.9.7.9.9.9.9.9.9.7.9.9.9.0.9.9.A k.vXtX[ vX' uX' X 7 7 7 7 - 2XFXDXu 5 7 5 8 & * V Z Z N ` *.#.) & , % x z z M m m V * : n F x x -X-X;X] X & y 3 & 5 3 3 & 5 5 3 3 7 7 5 5 7 7 5 5 i {.{.(.{.{.{.M _ jX4XjXaXaXaXg 5 ",
"p.`.).).).q.8.8.U ).U 8.8.8.8.U U ).).8.8.8.8.8.U 8.8.8.8.q.8.U 8.8.8.).8.8.8.8.8.8.8.8.r.r.r.Y r.Y 8.r.r.r.8.r.8.r.r.8.8.Y r.8.Y 8.r.r.r.8.r.r.U r.|.r.).Y r.Y 8.8.Y 8.8.r.8.8.r.8.r.r.r.r.8.r.r.7.r.U T P P Z.lXH L I I J I e.w.w.e.e.e.e.u.e.e.e.e.e.e.e.e.e.e.e.e.u.d.D.z.d.d.t.t.t.d.t.u.t.d.u.t.d.d.w.d.u.t.u.d.w.u.t.w.u.d.t.l.H.p.f.f.f.a.d.s.p.a.f.a.d.d.a.a.f.d.d.s.f.a.a.d.a.f.a.p.C.XX].k.s.a.0.a.f.a.0.k.0.a.s.a.a.k.a.0.0.0.0.s.a.a.a.C.0.7.[. X0.).0.0.9.0.9.9.9.9.9.9.9.9.0.9.9.9.y.<.I.OXjXjXvX~.zXW X 7 7 7 7 9 2XFXDXj 5 5 7 7 & , n Z A v ` ` *.) X # n x x z m M m V & & n x x v -X-X-X] X - y ~ 1.^ 1.O.c.k 5 2./ 3 5 7 j 7 7 7 > f +XU.U.U.U.+XD &.PX7X8X8X7XgXh 5 ",
"k.).).).8.8.8.8.8.8.8.).q.8.8.8.8.8.q.8.8.8.8.8.U ).8.U 8.8.W.| 8.8.q.).8.8.q.8.U 8.8.8.Y r.8.r.r.8.r.r.r.8.r.Y 8.r.r.8.r.8.r.r.r.8.r.r.U 8.r.r.Y r.|.Y W.).).8.8.8.).8.8.).Y 8.U r.r.8.r.r.r.8.r.r.8.r.T P c aXeXm J T I L L Y e.e.e.e.e.e.e.e.e.e.e.e.e.e.e.e.e.e.e.e.d.D.z.d.d.d.t.t.u.t.t.u.u.u.t.d.u.u.w.t.u.u.u.d.d.t.u.t.t.t.l.F.p.f.f.d.d.f.f.a.a.f.f.a.f.f.k.d.f.d.f.f.f.f.a.a.a.d.a.f.H.f.h.f.a.a.0.s.s.0.a.0.0.s.k.0.a.0.s.a.a.a.s.s.9.0.C.k.7.]..X0.0.0.0.9.9.9.9.0.9.9.7.0.9.9.9.9.9.9.7.B P.zXkXjX[.xXQ X 5 5 7 7 - 2XFXDXu 5 7 5 7 & * V C C M ` *.#.) = , n x x z M N M V * * n F x v -X-X;X] X 3 : 3.b.c.n.^ A.3 3.4.c.3.k b.A.5 7 7 > l OXP.U.P.S OXb -.gX:XgX8X>XhX_ 3 ",
"Z.'.8.).8.8.8.8.8.8.q.U 8.8.8.q.8.8.U 8.8.q.8.8.q.8.8.q.8.8.U 8.8.8.8.8.8.8.8.8.q.8.8.8.`.r.r.r.Y r.8.r.r.r.8.8.r.r.r.Y Y 8.r.r.8.r.r.r.r.r.r.r.r.r.|.r.i.8.Y Y r.8.Y 8.8.8.r.8.r.r.8.r.8.r.U r.r.r.8.r.U C I vX XT J I I 6.w.w.e.e.e.e.e.e.u.e.e.e.e.e.e.e.e.e.e.e.e.e.g.D.p.d.d.d.u.t.d.t.d.t.d.t.u.d.d.t.u.u.u.p.u.w.w.d.p.u.u.t.F.F.f.p.f.f.a.f.f.d.d.a.d.d.a.a.f.d.d.k.a.f.a.d.k.f.p.a.a.f.H.C.s.s.a.0.a.f.0.k.a.a.a.s.a.0.a.a.s.a.0.a.s.0.a.a.C.k.7.]. X0.].0.0.9.9.9.9.7.9.9.9.9.9.9.7.0.9.9.7.B P.zXvX4XmXbX( . 7 7 7 7 - 2XFXDXj 5 7 7 u = * V Z Z M ` 4.[ ) & # n x z z M m N V * : n F x v ] -X-X] * : : c.c.3.n.j n., n.k 2.G.4.A.2.: 7 5 5 l OXP.(.U.P.OXA &.gX>XgX8X:XgX~ 5 ",
"f.`.).8.8.8.S 8.8.8.8.q.8.8.8.8.8.8.8.8.8.8.8.8.8.8.8.q.U 8.8.8.8.U U 8.8.8.8.8.8.8.8.Y Y r.r.U 8.8.U r.8.8.8.r.8.r.r.r.8.8.r.r.r.U ).r.r.8.r.r.r.r.|.i.r.Y 8.r.8.r.8.8.r.8.Y 8.r.8.8.r.r.U 8.8.r.r.8.8.U c eXuXT W.L e.T w.w.e.e.e.e.e.e.e.e.e.e.e.e.e.e.e.e.e.e.e.e.i.D.D.p.d.d.u.t.u.u.d.u.u.d.t.w.d.u.u.t.u.w.t.t.u.t.t.u.u.t.t.H.D.g.g.f.p.a.f.f.d.f.f.a.f.a.f.a.a.f.a.f.f.a.f.d.d.a.f.s.f.XXC.s.s.a.0.s.s.a.a.a.a.k.s.a.0.s.s.0.a.a.a.s.k.a.a.s.C.9.].[.r.0.0.0.7.9.9.9.9.9.9.9.9.9.9.9.9.9.0.7.{ I.xXvXtXvXvX{ . 7 7 > u 3 2XFXDXu 7 7 5 7 : & V Z Z v ` ` #.) & , n x x z M m m t & : v c x v -X-X;X] * : 5 ( i / j 5 4.3 h M.4.k N.1.3.u 5 7 > w OXP.P.U.| OXD ,XgX>X8X8X>XlX! 3 ",
"k.'.).).).).8.8.8.U 8.8.8.U 8.8.8.U 8.q.8.8.).8.8.8.U 8.8.8.8.8.8.8.).q.8.8.8.U 8.8.U Y r.r.8.r.r.8.r.r.).Y r.8.8.r.r.U r.8.r.r.r.r.8.8.Y 8.r.r.Y r.|.W.r.r.r.r.8.Y Y 8.Y r.8.8.r.U r.8.r.r.8.Y ).8.Y 7.Y P kXB.P Q.K e.Y L K w.e.e.e.e.e.e.e.e.e.e.e.e.e.i.e.e.e.e.e.d.z.D.t.z.d.p.d.t.d.u.w.u.d.u.u.d.w.d.u.p.u.t.t.d.u.w.u.u.u.j.H.F.d.g.f.d.f.a.d.k.a.a.a.k.f.d.a.f.d.a.a.f.d.a.a.f.a.f.d.f.XXZ.s.s.s.k.0.s.a.s.0.s.0.s.a.a.0.k.s.a.0.a.s.a.a.0.s.f.9.]..X0.0.0.0.0.0.7.9.9.0.9.7.0.9.0.7.9.9.9.7.K M mXvX,XcXcX_   7 7 7 u 3 2XFXHXu 5 7 5 7 & & V Z Z B [ *.*.) X , n x x z M m m V , : n x F D -X;X-X] O & 7 5 7 5 7 7 3 7 5 3 5 5 3 > 5 7 7 7 5 l +XU.U.U.U.+XD -.gX;XfX8X7XlXQ 5 ",
"p.'.0.s.0.0.8.).8.8.8.q.8.8.8.).8.0.8.8.8.U 8.).8.q.8.8.8.8.q.8.8.8.U ).8.).0.0.8.8.8.Y r.r.8.8.8.8.8.8.r.8.8.r.8.r.r.).r.y.).r.8.r.r.r.r.8.r.r.8.r.|.W.r.Y r.8.8.).`.r.r.r.r.r.Y 8.r.8.r.r.8.r.r.r.Y 8.W.p.kXK K W.`.e.Y 6.Y Y e.e.e.e.e.e.u.e.e.e.e.e.e.e.i.u.e.e.e.p.d.D.z.d.d.p.u.w.u.d.u.p.d.u.u.d.l.d.d.u.u.d.t.u.t.d.u.d.u.h.F.D.d.g.p.f.d.s.C.f.h.g.a.a.k.d.d.f.a.f.d.f.d.f.a.a.f.a.s.f.XXF.C.s.a.0.a.s.a.0.0.a.a.s.k.0.0.a.s.0.s.a.C.s.s.s.0.f.a.[. Xy.0.0.0.7.9.9.9.9.9.9.9.9.9.9.0.9.9.0.q.6.f #XmX[ sXpX[ o 6 7 7 7 - 2XFXDXa 5 7 7 p - * n Z A M ` #.*.) & * n x x z B m m V * & n F x v -X-X-X] = : u 7 7 7 7 7 7 7 7 7 7 7 7 7 7 5 7 7 7 i {.{.{.(.(.{.M _ jXaXaXaXaX4Xu > ",
"p.`.0.s.0.a.q.U 8.U 8.8.8.U ).).).].8.U 8.8.0.8.U 8.8.8.8.U 8.U q.8.8.8._.8.)._.U 8.W.8.r.r.8.r.r.Y Y ).r.Y r.8.r.r.r._.r._._.Y r.U r.r.r.U r.r.8.r.|.i.).Y r.Y 8.`.r._._.U r.8.8.8.U r.U r.r.8.r.r.8.r.T iXyXU I Y '.e.I w.w.w.Y e.e.e.e.e.e.e.e.e.e.e.e.i.i.i.i.e.t.C.d.D.d.d.d.d.u.u.d.t.t.u.d.d.e.d.u.j.j.t.d.w.d.w.u.w.u.w.s.C.C.D.d.l.f.f.a.g.h.a.h.g.k.f.f.d.a.a.a.a.f.f.d.k.d.f.k.a.a.g.XXC.XXs.a.a.a.s.a.a.a.a.a.0.0.s.a.a.s.k.a.0.].s.].h.s.a.p._..Xy.s.0.0.0.9.0.7.9.9.9.9.9.0.9.9.9.9.0.7.6.f #XT.{ pX[ [ o u 7 7 7 - 2XFXDXa 5 7 5 y > > V D D V ` ` *.) & & n x z z M m m V & & n x x v -X;X-X] o & 7 7 5 5 5 5 5 7 7 > 7 5 7 7 y 5 7 5 7 7 , > , * & , 7 y = # , 3 3 , e u ",
"k.].s.0.f.8.8.8.8.8.8.U 8.q._.0.)._.).q.8.q.8.8.q.8.8.U ).8.8.8.8.8.q.).].).8.).8.8.i.Y r.r.U r.r.r.8.r.r.8.r.r.Y r.`._.r._.r.r.8.r.r.r.7.r.r.r.r.r.|.Y Y ).r.U r.`.r.r._.r.8.r.r.r.r.r.r.8.U r.).8.r.8.0.kXb.e.6.Y '.i.e.w.e.e.e.e.e.e.e.e.e.e.e.e.e.e.e.i.i.e.l.e.d.z.z.D.p.z.d.d.u.t.u.u.t.t.u.t.u.l.d.d.l.u.t.u.w.d.w.u.d.w.j.j.F.D.g.l.d.s.a.f.h.d.h.s.f.a.a.a.a.p.f.a.a.f.a.f.a.a.d.f.a.f.XXC.H.h.k.0.9.s.a.a.k.s.a.s.a.a.a.0.0.a.a.0.s.s.h.h.s.a.p.].[.s.0.0.0.0.9.9.0.9.0.9.9.9.7.9.0.9.9.9.0.7.f #Xn { (.q p & 7 7 7 7 9 2XFXDXu 5 7 7 y & * V Z N Z ` *.` ) & , z x x z M m m V & , n b x v -X-X-X] * & & * * & & & & & & & & & * & & & & * & & & , X & & & * & & & & & & : X , ",
"Z.'.0.).a.8.8.8.q.8.8.8.8.8.8.).8.).8.8.8.8.).8.U 8.8.8.U q.8.8.8.8.U 8.8.y.8.8.7.Y Y r.r.r.r.8.U 8.8.r.r.7.Y r.8.r.r.r.r._.r.r.r.8.r.r.r.r.r.r.Y r.|.r.r.r.r.r.r.r.r.r.r.8.r.r.r.U r.8.8.r.r.r.r.Y r.U H.lXP r.e.H `.`.e.e.e.e.e.e.e.e.e.e.r.e.e.e.e.e.e.e.i.e.e.e.g.d.t.D.d.w.d.d.t.u.d.t.t.d.d.d.u.d.d.d.d.t.t.u.d.u.d.t.u.d.C.d.F.F.g.l.d.f.a.f.h.f.f.d.a.d.a.f.f.a.a.a.d.f.a.a.f.f.f.d.a.f.H.C.C.h.0.s.a.s.0.a.0.0.a.s.a.s.a.a.s.a.a.a.s.s.s.a.s.a.p..X[.0.0.0.0.0.7.9.9.9.9.9.9.9.9.9.7.9.7.9.q.q.f #X{ n Y.q p * 5 7 7 7 - 2XFXDXj 5 7 5 y & * n Z Z N ` #.x.! = . z x z z M m m w > & n F x v -X-X;X] * & 3 3 7 3 3 3 & + & 3 5 : 3 3 3 > = 3 3 5 3 5 3 y 3 5 3 5 > 3 > 3 5 > 5 3 ",
"p.`.).).).8.8.8.).U 8.8.8.8.8.8.8.8.8.8.8.q.0.8.).8.8.8.8.q.8.8.8.q.U ).8.8.8.8.U W.r.8.r.r.Y r.r.r.r.r.).Y r.r.8.r.r.r.r.8.r.8.8.r.r.r.r.r.r.r.8.r.|.r.r.`.r.r.r.r.r.r.Y r.r.r.8.r.r.r.r.Y r.r.r.r.i.Y zXwXH y.Y J 7.'.e.e.e.e.e.e.e.e.e.e.u.e.e.e.e.e.e.e.e.e.e.d.g.u.d.z.z.d.d.d.d.u.d.u.t.u.u.u.u.d.t.a.u.u.u.t.t.t.u.u.t.g.h.a.F.D.g.g.l.f.f.d.g.a.d.d.f.s.a.f.f.d.f.d.f.f.s.f.d.d.d.d.s.s.XXf.C.C.f.a.s.a.0.s.a.s.0.0.s.a.a.a.s.s.a.a.s.s.a.0.s.a.a.XX[.y.s.0.0.0.0.0.0.0.9.0.9.9.0.9.a.9.0.9.0.9.l Y.B V Y.s y & 7 7 7 5 5 2XFXDXu 7 7 7 y & & V D A V ` *.#.Q & , n x z z M m m V : : v x x v -X;X-X] * & 7 7 u u 5 7 ! +.+.i 0 7 7 7 7 7 7 3 7 7 7 7 7 7 8 7 7 7 u 7 u u 7 7 7 5 ",
"p.'.).).).8.8.).).8.8.8.0.).8._.].8.8._.).).8.).).].).U _.].8.8._.).q.8._.).].).e.|.`.8.r._._.]._.U i.`.r.U _.`.U r.`.r.].r.Y r.`.r.r._.y._._.U r.`.|.r.`.`.`.U _.r.`._.U r.`.r.U r._._._.r.r.`._.8.W.l.kXk.Y i.e.w.e.'.].i.e.e.i.u.].e.e.i.i.e.e.i.u.e.y.i.i.l.e.p.l.j.p.D.l.g.l.d.t.d.l.t.t.l.j.t.u.h.i.l.d.w.d.l.d.t.l.d.l.F.g.d.F.F.d.l.l.d.k.C.j.C.h.k.f.C.f.a.g.h.C.h.k.a.C.g.a.g.C.f.a.F.XXF.F.g.s.C.s.a.f.h.s.C.a.k.].j.9.a.h.s.9.h.s.s.h.a.k.].f.XX.X_.].].0.q.s.j.a.0.9.0.y.9.0.9.0.9.0.9.0.t.' Y.{ V Y.W i X 3 y 7 u 9 >.FXDXa 3 7 5 5 = * V Z Z v [ #.*.) X , n x x z B m m t * : n x F x -X-X-X] * & 7 7 6 3 +.DXFXDXFXHX>.5 5 7 7 7 7 h i > > 5 5 5 > 3 i 5 3 i > 3 5 5 7 5 ",
"k.`.).).8.8.8.U 8.U 8.8.8.q.U _.].8.U _.].8.).].).].0.q.).].8.U [._.q.)._.).].0.Y `.`.r.r.].i.`._.U `.`.y.U `.].r.r._.r.`._.Y `.].r.r._._.`.`.Y r.|.|.r.i.|.r.U _.`._.`.7.r.].`.r.y.`._.`.8.r.`._.U W.sXzXY u._.i.e.e.`. Xi.e.i.l.i.l.u.e.i.l.e.e.l.i.e.u.i.i.i.u.p.d.h.u.D.l.l.l.d.t.j.l.t.t.j.g.t.d.d.d.l.d.t.d.l.t.t.l.d.l.XXa.j.H.F.g.l.].l.s.C.f.C.C.a.C.].f.a.C.h.h.C.d.f.].C.a.f.C.h.k.l.XXXXC.C.g.].s.k.s.].h.].a.a.C.h.a.a.].s.k.j.h.j.].a.a.C.s.C..X].].].0.0.s.].0.0.9.9.9.9.9.9.7.0.9.0.0.7.f Y.f n Y.1 i & 7 7 7 5 3 2XFXDXa 7 7 7 8 & * V Z Z C ` #.*.) , # % x z z M m m V * & n x b v -X;X-X] # 3 y 9 3 =.FX>.! > > =.FX3X6 7 7 3 k G.c./ O.l / k c.b.O.k k O.m.O.j h 5 u ",
"p.[.).).).8.8.q.8.q.8.8.8.8.8.).].q.8._.).q.8.]._.].).U _.].8.q.]._.U 0._.0.].).Y y.].Y U `.`.`._.U r.].`.U _.`.r.8._.r.`._.U y.`.r.U `._.`._.r.r.].|.r.`.|.r.e.`.y._._.Y 8.`._.U _._.`.].Y U ]._.Y r.kXG.U u.y.i.t.7.r.}.i.e.u.i.i._.e.e.i.i.e.e.].i.e.i.i.e.].d.p.z.l.d.D.l.l.l.d.t.j.l.t.u.j.l.t.u.h.d.h.d.t.j.l.d.t.j.l.].h.d.g.F.F.d.F.F.d.d.C.j.C.g.a.g.F.g.k.h.h.C.C.a.f.F.h.k.h.C.f.p.C.XXC.C.g.C.].s.a.f.C.h.h.a.k.].h.w.a.XXs.k.j.s.h.C.k.a.].f.h.XX].h.].0.9.j.j.0.9.9.9.9.9.9.9.9.9.9.9.9.9.p U.V f P.W u & > 7 7 u 5 >.FXDXa 5 7 7 y & * V Z Z m ` ` *.) # # z x x z M m M V & * n D x D ] -X-X] = & u - $.FX=.o X X X o u FX>.3 7 5 j rXn.A.G.3.eXM.O.m.b.m.m.N.m.3.A.~ 5 7 ",
"k.'.).).).8.8.8.).U ).U U 8.8._.[.8.q._._.8.8.]._.].).U _.[.8.8.]._.q.)._.y.].i.Y _._.r.Y _._.]._.U _.].r.7._.|.r.r.`.r.`._.U i.].r.Y _._.`.`.U r.].|.r.`.].r.Y _.r.].|.U _.].r.Y _.|._.`.r.r.`.`.U D.bXi.e.d._.i.u.r.e. X`.e.i.l.d.h.e.e.j.i.e.e.j.i.e.u.i.i.l.F.t.l.j.u.D.l.z.l.j.u.d.l.u.t.j.l.t.u.h.d.l.d.t.d.l.t.t.h.d.XXl.d.j.F.F.g.l.].l.d.h.j.C.g.a.f.C.h.a.h.C.h.C.f.f.].C.p.f.C.h.k.F.XXXXh.s.C.h.j.9.f.h.h.].a.a.].h.9.a.].s.a.h.h.s.].a.a.].s.].XX].].].s.9.s.h.0.0.7.9.9.9.9.7.9.9.9.9.8.9.f P.n d D W d & 5 5 y 7 9 2XFXDXi 5 7 5 7 : & V Z Z V ` [ x.) & * n x x z M M m V & & n x x v -X-X;X] * * y - 3XDX. & & & & * o =.HXj 9 5 k c.3.A.3.A.G.m.1.n.4.b.b.4.b.1.G.3 7 7 ",
"p.`.).8.8.8.8.U U q.8.q.8.8.q.)._.8.U ]._.q.8.).).].).q.0._.8.q._._.8.8._.y.|.W.U _.`.Y r._.`.`._.Y r.`.r.Y _.].7.r.`.i.].`.U _.`.r.U _._.].`.Y r.|.|.r.`.`.r.U _.r._._.Y r.`._.U _.i._._.8.Y ].i.Y iXiXW.r.i.i.i.d.e.y.'.'.6.y._.i._.t.e.i.i.e.e.i.i.e.i.i.r.l.p.w.j.l.u.D.l.l.l.d.t.d.l.t.e.l.j.t.t.l.d.].d.t.d.l.u.t.l.j.XXh.a.j.H.D.g.l.F.d.d.F.j.C.C.d.f.C.f.a.h.C.C.].k.f.C.h.d.f.C.f.a.h.XXF.C.d.C.C.s.a.s.h.h.C.a.k.h.h.k.a.C.j.a.s.s.f.C.f.a.C.d.].XXC.C.].0.q._.].a.0.0.9.0.9.9.0.9.0.9.9.9.9.s P.f W p p 6 & 5 5 7 y - 2XFXDXu 5 7 7 7 : * V A Z v [ [ ` ~ & & n x z z B N m V & = n F c x -X-X-X]   * y y DX+.o & & & > 5 o u FX$.3 y y 7 i u h j i i k j j 8 i 8 5 2.4.3 7 7 ",
"Z.).).).).8.U ).8.8.8.8.8.8.q._.].0.).]._.)._.]._.].].8.].].0._.].).0._._.0._.i.y.`.].y.r.`._.`._.r.`.]._.r.`.`.`.`.`.r.`._.r.`.`._._.]._._._.y.i.`.|.i.|._._.`.].r.`._.r._.`.`.r.]._._.].r._.`.`.i.bXH.i.i.|.d._.].i.i.].'.i.d.i.i.|.u.i.i.j.i.i.].i.i.i.i.i.F.l.d.l.j.l.D.l.l.l.h.d.d.l.d.d.h.l.d.j.l.d.l.j.d.h.l.d.i.l.F.l.l.l.l.H.F.l.F.F.d.].C.h.C.h.j.h.C.g.s.C.h.F.].g.h.C.h.h.h.C.C.f.C.XX].F.h.g.F.h.s.h.h.h.C.f.h.C.].s.h.].s.a.C.s.h.].s.s.C.h..XXX].].].s.s.].j.0.9.9.9.7.9.9.9.9.7.9.9.9.0.f p d p p p p & 5 7 7 7 3 2XFXDXa 5 7 5 7 & & V D Z Z ` #.4.) & , z x x z M m m t & & n x x v -X-X;X] = * y y DX+.o & & o m.UXrX5 HX+.3 7 7 5 5 > 4 5 3 3 : 3 3 5 5 5 3 j 5 5 7 7 ",
"k.'.).).).q.q.8.8.8.8.8.8.8.U ].]._.].).].].]._.).].).]._._.).]._.]._.]._.).|.`.`.].|._.`.]._.].`._.`.].`._.].`.y._._.r.].|._.`.]._.i.|._.`.`._.].`.|.|.].|._.`.|.r.`.]._.`.]._._.`._.`.`._.`.].'.eXlX|.].].].i.i.].|.].]. X'.i.l.i.l.i.i.].i.i.i.l.j.i.j.i.i.F.g.l.h.l.l.D.l.l.l.l.l.l.].l.l.l.l.j.l.d.u.l.l.l.].l.l.l.].H.].h.l.l.F.H.F.].XXl.l.F.s.C.C.h.C.C.C.C.F.h.C.C.h.F.C.C.h.C.].F.C.XXXXC.C.XXXXF.h.h.].C.h.].h.].h.C.s.XXC.h.h.].h.s.C.h.C.].C. XXXC.].].j.].j.].s.0.9.9.0.9.9.9.9.9.9.9.9.9.f p p p p p p & 7 7 7 7 - 2XFXDXa 5 5 7 7 & , n Z Z V ` #.*.) * . z z x z M m m V * * n b b D ] -X-X] o > y y DX=.o * & & 7 l ( < =.g 7 7 7 8 m.O.7 b.2.n.1.n.O.3 h h j 5 h 7 5 5 ",
"p.`.).).8.8.8.).q.8.8.q.8.8.U ).]._._.]._.).].].y.].)._.]._.)._.[._.0.].).0.`._._.`.`._._._.`.`._.i.|.]._._._._.`._._.r.`.`._.].`._._.`._._.`._.`.`.|.|.`.|.i._.].r._.`.`._.`._._.`._._.`._._._.).zXrX_.i.].].r.i.].i.|._.|. X].i.i.i.i.i.l.i.i.i.i.i.i.i.i.d.D.d.d.l.l.l.z.l.l.l.d.l.l.h.d.z.l.l.i.h.l.u.l.d.g.h.l.h.d.F.XXj.l.h.l.F.D.h.F.F.h.l. Xf.C.C.h.C.C.h.C.C.h.h.C.h.C.C.h.g.C.C.h.h.C.XXH.C.C.].H.C.s.].s.f.].s.h.h.s.s.].C.h.s.C.s.h.].C.C.h.s..XXXC.].].].s.].j.s.0.9.9.9.9.9.9.9.9.9.9.9.0.f p p p p p y X 5 7 7 7 - 2XFXDXa 3 7 7 7 & * V Z C B ` *.#.Q & , n x z x M m m V & = n x x v -X-X-X] * & u 3 >.DX= . & X . . O o.X.5 5 7 : O.3.c.: h G.1.G.3.3.k G.A.b.c.b.5 5 5 ",
"f.`.).).).8.q.U U ).).U 8.U 8.8.U 8.8.8.8.8.8.8.8.8.8.8.8.).8.8.8.8.8.8.8.Y `.r.r.r.r.r.r.r.r.8.e.W.r.r.r.r.r.r.Y r.r.r.8.r.r.r.r.r.r.r.r.8.r.r.r._.|.r.`.r.r.r.r.r.r.r.8.8.r.r.r.r.r.r.r.8.r.Y h.kXd.y.i.r.e.i.i.r.i.u.i.y.'._.e.e.e.u.e.e.i.e.e.i.e.e.e.e.g.d.u.u.u.d.u.D.d.z.d.d.t.t.d.u.a.t.d.u.t.u.u.t.u.t.u.u.u.t.h.h.d.d.j.s.F.F.j.g.j.g.d.z.f.d.d.s.f.a.a.d.f.d.s.s.s.g.f.a.a.f.d.s.f.f.XXg.h.f.g.f.g.s.f.a.s.a.s.s.s.s.a.f.s.a.s.a.s.0.a.a.s.0.a.]..XC.s.0.9.9.9.9.9.9.9.0.9.9.9.9.9.9.9.9.9.0.f p p p p p d & 5 7 7 7 - 2XFXDXj 5 7 5 7 3 * V Z Z Z ` #.*.) X , n x x z V m N l & & n c b Z ] -X;X] * & u 9 a FX3X> X & & & E =.g 5 7 7 5 ~ n.n.l A.2.b.A.n.3.^ v.2.3.1.A.i 5 7 ",
"p.'.).).).8.8.8.U q.U 8.8.q.).U U ).q.U 8.q.8.8.U 8.q.8.8.U 8.U 8.q.8.8.8.Y Y 8.r.8.r.Y r.Y 8.8.8.8.r.r.r.r.8.8.r.r.r.8.r.8.r.r.Y r.r.r.8.r.r.r.Y r.|.r.).Y 8.Y 8.8.r.r.r.Y 8.Y 8.Y r.8.r.r.e.W.pXzXY r.r.u.r.u.i.e.r.y.r.i.`.'.e.e.e.e.e.e.e.e.e.e.e.e.e.u.g.w.u.t.u.d.u.D.d.d.d.d.t.u.d.u.u.d.d.u.t.d.u.t.u.u.t.t.u.d.C.a.d.s.j.t.F.D.d.g.j.d.d.j.j.d.a.f.f.f.a.f.f.k.d.a.d.g.a.f.d.a.f.a.f.f.XXg.h.f.s.d.C.f.k.s.0.a.a.s.s.a.s.0.0.a.0.a.s.a.a.a.0.a.9.]..Xf.s.0.0.9.9.9.9.9.9.7.9.7.9.9.9.9.9.9.9.y.k d d p p p i & 3 7 7 7 3 2XFXDXu 7 7 5 7 3 & V Z Z V ` #.*.) , # % x z z M m m V & & n F b x -X-X-X] * 3 y 7 3 ! HX+.+ : : 5 =.o.5 7 7 5 5 5 1.^ O.3.^ 1.k O.k u l k k ~ O.7 5 7 ",
"p.[.0.0.0.8.U 8.).8.8.8.8.8.8.q.8.U q.).8.8.8.0.a.a.0.8.8.q.8.8.8.8.8.8.y.i.a.t.U r.8.8.).r.r.8.r.Y 7.r.r.a.y.a.Y r.r.8.r.8.r.8.8.r.r.r.r.U r.r.r.).|.u.y.d.y.a.r.Y 7.r.8.8.8.r.8.7.r.r.U r.r.8.lXG.u.f.d.d.y.r.r.r.u.r.y.r.s. Xd.d.d.e.e.e.i.e.e.e.e.e.e.d.D.p.p.p.p.d.d.D.z.p.d.d.u.t.d.u.w.d.i.t.d.d.d.p.p.d.t.t.t.j.h.d.j.d.d.u.F.F.g.g.g.d.s.d.l.f.g.p.a.a.d.a.a.a.f.d.s.f.D.g.k.a.f.a.a.f.H.C.f.f.g.s.p.g.f.f.s.k.a.s.0.a.0.k.s.a.a.s.s.a.a.a.s.s.a.].XXg.Z.f.9.9.9.9.0.9.9.0.9.0.9.9.9.9.9.9.9.0.~ ) ) ( ' s u * 7 7 7 7 3 2XFXHXu 5 7 7 7 & * V Z Z v [  .*.) # # z x x z M m C t & * z x x v -X-X;X] * & u 7 u 6 u 7 7 7 7 5 7 5 7 5 7 7 7 7 : > > : 3 > 4 > 5 7 5 3 5 5 3 7 7 5 ",
"k.].C.a.f.0.8.q.).U 8.q.U ).8.8.8.8.8.8.8.U ).8.k.d.a.7.U 8.U ).8.8.8.8.r.g.d.d.r.r.8.8.).r.Y 8.Y 8.r.r.r.p.d.a.y.r.r.r.8.r.r.r.8.r.r.r.8.8.r.r.8.r.|.i.d.d.g.d.r.8.8.r.U 8.r.8.Y 8.8.r.Y 8.Y D.kXy.p.g.g.d.u.y.e.y.i.u.r.i.u.F.d.p.d.u.e.e.e.e.e.e.e.e.e.p.p.D.g.D.p.d.z.D.u.p.t.d.w.u.d.t.t.t.d.u.t.u.u.p.p.D.u.t.t.C.g.d.j.d.j.a.F.F.f.g.d.j.d.j.l.d.Z.D.k.f.f.f.k.d.d.f.a.d.p.D.p.f.f.a.a.f.XXf.h.f.f.a.f.p.f.Z.p.f.a.s.a.a.a.a.s.0.a.a.s.a.a.a.s.0.k.].XXC.C.Z.p.9.9.9.9.9.9.9.9.9.9.9.9.9.9.9.9.y.l Q { ) x.~ 6 * 5 5 7 y - 2XFXDXi 7 7 5 p - * V Z Z N ` #.*.) & , n x x z M H m V * , n x x v ] -X-X] X & u 7 5 7 3 7 7 7 7 7 5 7 7 7 5 7 5 7 7 7 7 7 7 7 7 7 7 7 7 7 7 7 7 7 5 7 ",
"p.].0.a.a.8.8.U U q.8.8.8.8.8.8.q.8.q.8.8.q.8.a.d.a.a.8.q.8.q.8.8.8.8.8.r.d.f.a.8.8.Y 8.r.r.r.8.8.8.8.r.r.a.d.d.r.).r.U r.8.r.r.r.8.r.r.8.r.r.r.Y r.|.r.s.d.d.d.8.r.r.8.r.r.U r.r.8.8.8.8.8.W.iXpXi.f.d.p.l.u.r.r.i.r.r.r.i.d.g.].p.p.e.e.e.e.e.e.e.e.e.t.g.w.D.p.D.p.p.u.D.d.z.d.u.u.t.d.t.t.u.d.t.u.d.u.p.D.p.u.t.s.C.d.a.d.s.d.s.l.D.g.g.g.g.d.d.d.g.p.D.f.d.a.a.f.d.a.f.f.f.Z.D.p.f.a.d.d.f.XXh.f.f.f.f.d.C.d.p.Z.f.a.a.a.9.a.0.s.a.q.a.s.0.a.a.s.a.a.].].g.C.D.p.a.9.9.9.9.9.9.7.9.9.9.9.9.9.9.9.0.{ #.( ` 4.~ 5 & 7 7 7 7 6 2XFXDXa 5 7 7 y > * V Z A v ` #.#.) + # n x z z z m C V & * n b b v -X;X-X] # & u 7 7 7 7 y 7 5 7 7 7 5 7 7 5 7 7 5 7 5 7 7 7 7 7 7 7 7 5 5 7 5 7 5 7 7 ",
"p.`.).).0.8.8.8.8.8.8.8.8.8.U q.U 8.8.8.8.U ).8.8.8.8.8.8.8.8.8.U q.8.r.r.8.r.8.Y 8.r.8.r.r.8.8.8.8.r.8.r.e.8.r.Y 8.).8.U 8.r.r.U 8.r.r.r.r.r.r.U ).|.).).i.r.r.Y r.r.r.8.r.r.r.8.r.r.8.).Y s.bXF.e.i.i.r.i.r.r.y.r.e.r.r.i.y.r. Xy.e.e.e.e.e.e.e.e.e.e.p.g.u.u.p.u.d.d.d.D.d.d.u.p.u.w.d.t.u.u.d.t.t.d.u.t.u.t.d.u.g.h.s.d.j.d.d.d.C.D.d.l.d.d.j.d.h.l.f.d.a.a.d.d.a.a.a.a.s.f.f.a.f.f.d.f.s.g.XXC.f.f.f.a.d.g.f.a.t.a.a.s.0.a.a.a.s.9.s.a.s.0.0.a.s.a.a.]..Xy.C.f.9.9.0.9.9.9.9.9.0.9.9.9.9.9.9.9.9.0.k p s p y p d & 5 7 7 7 6 >.FXDXu 5 7 5 y * * V D N M ` #.#.) * . t x x z M m H t : , v c x v -X-X-X] + & y y 7 7 5 = 7 h u = 9 7 7 7 7 5 7 7 5 7 5 7 5 5 7 7 5 5 5 7 5 7 7 7 7 5 ",
"p.).0.).8.8.8.8.7.8.7.8.8.7.8.8.8.8.8.8.8.7.0.8.q.8.7.8.8.8.8.7.8.8.8.r.e.r.8.e.7.r.r.8.r.r.r.e.r.r.r.r.r.r.r.7.e.r.r.8.r.r.r.e.r.e.r.r.8.7.r.r.e.r.|.8.e.W.r.e.8.7.8.r.r.r.7.r.e.8.r.8.r.U qXlXY t.r.e.e.y.e.u.i.e.y.y.e.i.y.t.`.'.w.e.t.e.e.u.e.e.e.t.g.d.d.u.u.d.u.d.u.D.p.d.d.d.d.d.d.d.t.a.d.u.t.t.p.d.a.t.w.d.F.d.f.d.d.s.g.d.p.F.g.g.f.d.g.d.g.d.d.k.f.d.f.f.k.f.d.p.f.d.k.d.k.f.k.f.d.f.C.p.f.f.f.f.f.f.C.k.a.a.k.a.a.a.a.a.a.a.a.a.a.k.0.k.a.f.k.].].a.f.C.9.9.t.9.9.9.9.9.9.9.9.9.9.9.9.9.9.y.l p p s p W a & 5 7 7 y 6 3XFXDXj 5 7 7 y = * n Z Z N ` *.*.Q & , z x x z M m m n & & n x b n -X-X;X] X 3 u 7 7 5 u >.DXDXDX2X! 3 7 7 5 7 5 7 5 7 7 5 5 7 5 7 7 i 5 5 7 5 5 7 5 7 ",
"7 9 5 6 6 6 6 6 9 7 6 7 6 5 6 6 7 6 9 5 6 7 6 6 6 6 5 6 6 6 6 6 6 7 6 9 8 8 9 7 5 9 7 6 6 5 5 7 9 7 6 6 y 6 6 7 7 9 7 6 6 6 7 9 6 6 6 5 7 7 5 9 6 7 5 6 6 5 6 6 7 9 5 7 7 5 5 9 9 7 6 7 7 6 8 7 9 7 9 5 i 7 5 9 9 7 6 6 7 9 5 7 6 9 5 7 5 9 7 7 5 9 7 7 8 5 8 5 > 5 7 5 9 6 5 9 < 5 6 6 7 5 5 9 5 5 7 5 5 9 7 7 9 7 6 7 7 7 7 6 7 6 9 7 9 5 6 5 6 6 7 6 5 8 9 7 7 5 7 7 9 y 5 6 u 7 7 7 8 6 7 9 y 6 8 7 8 8 8 9 y 9 6 6 6 6 6 6 8 9 6 7 6 5 6 6 8 6 6 6 8 6 7 5 5 5 5 5 9 6 9 6 7 7 6 6 6 7 5 9 7 7 5 6 5 3 7 3 5 7 & & 7 7 7 5 3 $.+.+.7 5 7 7 5 - * V Z Z Z ` *.x.) & & n x x z M m C V , , n F c b -X-X;X] X & y 7 3 ! DXFX=.$.=.DXFX=.3 7 5 7 5 7 7 7 3 O.3.c.O.7 / A.4.8 7 7 5 5 7 5 ",
"& & & & & * & & & & & & & & & & & & & & & & & & & & & & & & & & & & & & : & & & & & & * & & & & & & & & & & & & & & * & & & & & & & & & & & & & & & & & & & & & & & & & & & & & & & & & & & & & & & & & & & & & & & & & * & & & & & & & , X & & & & & & & & & : # , & & & & & & X , & & & & & & , & & & & & & & & & & & & & & & & & & & & & & & & & & & & & & & & * & & & & & & & & X & & & & & & * & & X X & & & & & & & & & & & X & & & & & & * & & * X & & & & & & & & & & & & & X & & & & & & & X & & = & & & & & & 5 7 3 i j 3 9 6 u s 3 7 8 & & f M V n _ ) ) Q & : w n z n V V V f & , n z v n ] -X] ]   : 6 5 i HX3X3 o o o O $.DXg 5 7 5 7 7 5 7 > 2.3.3.A.3.n.M.G.k 5 7 7 7 7 7 ",
"y 7 u y u 6 y 7 7 7 7 6 5 7 5 7 y 7 7 7 7 5 y 7 5 6 5 5 5 5 5 5 7 7 5 7 7 7 7 7 7 5 7 7 7 7 7 7 u u 6 7 7 7 7 7 7 7 7 7 y 7 5 6 5 7 7 7 7 7 u 7 6 7 7 7 7 7 7 7 7 7 7 7 7 7 u u 6 y 7 7 7 7 7 7 y y 7 7 7 7 u 7 7 7 7 7 6 y 7 7 y 7 7 7 7 7 7 7 7 7 8 7 7 7 7 7 7 7 u 7 u 7 7 7 8 5 7 7 8 5 7 7 7 7 7 7 5 7 7 7 y 7 7 7 7 5 7 7 7 7 7 i u i i 8 8 i i 7 i u i u i i i 7 7 i i 8 i i 8 i 7 i 7 u y & 3 y i h h h i s h j j s i s h h s j i j h j f k i k k i s h i i h h s h j i i i k k i h f h h h i s s j j h u y 3 & 7 7 7 b.M.8 n.m.m.m.u 7 u & = 7 7 > < , 3 > y & # 5 < , > > < > 5 : : 5 < > > 5 3 4 5 : & i = >.DX& X : , X eX1.2 =.5 5 7 5 5 7 7 7 i b.G.O.A.n.2.b.j 5 7 7 7 5 7 ",
"7 7 3 7 7 7 7 7 7 5 7 7 5 & & & & & & X & & & & & & & & & & & & & & & & & & & & & & = 7 7 5 7 7 3 7 y 7 7 7 7 7 7 3 & & & & & & & X & & & & & & X & & & & & & & & & 7 7 7 7 3 5 7 7 7 7 7 7 7 : & & & & & & & & X & & & & & & = & & X & & 7 7 7 7 5 5 7 7 7 7 7 7 7 7 7 y 7 : & & & & X & & & & & & X & & & & & & : X & & & & 7 7 7 7 k h k k k h k h k k k h h h h k f 7 k h k h k h k k h k 8 7 & 3 7 k h i i h i j i f j f i i h i h i f i j i i i i i j i i i s i f i i i k i s i i i j i j i f j i j f i i k 7 3 & 5 5 h 3.4.O.1.b.N.1.^ 3 u & & 7 i V f V i B i & : 7 v n n v v n > > : 5 v n n v v v < = & 7 5 DX>.o : & . rXIX8 , &.g 5 7 7 5 7 u 7 l 1.k k l ~ j O.k 5 7 5 5 7 5 ",
"7 u i 5 j 5 3 5 7 k 3 3 7 :   X 3 & . & . & X & X & & & & & . X & & . & & & & & & . : u 7 7 7 i k k : 5 > > 4 3 u 5 & .   X . & X & X X X X . & & o o & & & & & & & 7 7 7 u ~ j 5 5 3 3 5 3 7 :   & X &   X & &   & . & . & & 3 & X & * & 5 7 7 3 u ~ 3 3 3 5 5 3 5 3 5 3 7 : X & & . = &   . X X & & X & X X   & & & X & & & 5 7 5 7 k 5 5 5 3 7 5 5 5 > 5 > 7 3 7 6 j u h 7 5 5 5 5 > 3 5 k 7 5 & 3 y h 7 5 5 5 3 7 5 5 5 3 7 > 7 3 7 7 > 5 5 5 5 u a 5 5 u 7 u 5 5 5 5 5 5 5 5 5 5 5 5 5 5 5 5 5 5 5 5 5 5 7 h 7 : & 5 7 5 c.N.1.b.m.b.M.u 7 7 : & i f B f V f B l & & y v v v v v b < 3 = < v v v F n n - & & 7 u FX$.o & & X 4.= o > =.g 5 7 7 5 5 > 3 3 , > 3 : 3 5 3 > : 5 7 5 7 5 ",
"3 k G.h G./ 1.7 m.3./ k 5 . ~ 3.3.i 3 & y & i 5 7 3 & . X & & & X & . & & =   B.B.  : 7 7 3 ~ N.4.4.O.l / 1.j 1.i 3   ~ 1.4./   y 3.1.x.i ~ 7 & & k ~ & =   B.B.  3 7 7 7 i G.c.i ^ 4.~ h O.5 , 2.1.& & ( 3 3 & 7 3 y = & @.i &   ( rX5 X 7 5 7 7 N.O.^ 1.h h k O.k O.~ ( 7 & ( & & & c.3.7 k b.2.s : 3 k 2.& / 3 =   ( rX5 * 7 7 7 7 k 5 1.@.1.( #.~ i @.~ 1.1.) k 7 k u h 3 @.h @.@.O.^ 5 k i 3 & > 7 h i 7 7 5 7 7 7 7 7 7 7 7 7 5 7 7 7 7 > @.h O.2.v.~ @.#.@.7 5 7 7 5 7 7 5 7 5 7 5 7 5 7 7 7 7 7 7 7 5 7 k 5 5 & 5 7 5 i j 7 i i i j 3 7 7 & = 8 8 l 8 l f B i & & 6 v n w v v n 5 & & 7 v v v v v 5 y & & 7 7 DX=.o & X & o & & > &.g 5 7 5 7 5 / O.: O.O.~ O.5 : ( O.4.h 5 7 5 7 ",
"3 k eXn.G.b.c.A.c.A.G.b.: = m.o 1.~ b.m.2.b.1.2.2.5 . & & & . & & X & & & & & #.2.& & 7 7 5 i c.3.A.3.n.M.c.G.eX1.& & m.b.G.1.7 n.n.n.m.1.3.3.2.4.3.m.& & & #.2.& & 7 5 7 > 2.1.M.M.n.m.eXG.h X M.~ 3.c.M.2.N.N.1.c.n.h b.m.i & & ) x.i . 5 7 7 5 1.c.n.3.A.( A.v.c.1.G.G.h & 3.. b.N.M.N.1.1.N.M.4.2.b.b.M.x.N.y & & ) x.i . 7 7 5 7 k 5 c.2.v.2.x.k ~ v.x.2.( m.h 5 k u k 5 v.c.x.( x.@.> k 7 7 X 3 7 h 7 5 7 5 7 7 7 7 7 5 5 7 5 7 7 7 7 7 3 @.h k @.c.v.@.eX^ : 5 5 5 7 7 5 5 7 5 7 5 7 7 7 7 5 5 7 5 7 7 7 h 5 3 X 5 5 7 5 5 5 7 3 3 5 7 7 7 & : u 7 > 5 5 7 3 7 & & d = > 3 < 5 > 7 : & 7 > y > y > 7 y & & i - 2X3Xo = & & & & o 2 =.u 5 7 7 5 i n.b.k b.m.M.b.j 1.G.m.A.3.> 7 7 5 ",
"3 k b.A.c.b.b.3.m.b.A.1.5 , n.i 4.n.G.3.b.4.N.N.4.. & & . & & & & & & . & & X eXA.* : u 7 5 i 3.A.c.b.3.A.n.b.M.j & s G.G.n.4.s c.b.m.b.M.( 2.c.b.k 3.. = X wXA.X & 7 7 7 3 c.i G.4.A.c.M.c.5 X N.~ n.n.1.n.m.m.i 1.( N.G.G.u & . @.rXy & 7 7 5 7 ( A.n.b.3.N.N.^ 1.3.N.3.u & n.h G.c.4.1.3.( 3.b.c.b.1.M./ 2.b.> &   @.rX8 . 5 7 7 7 k 5 1.u #.@.x.^ ^ 3.x.@.3.2.~ 7 k 7 k 7 1.c.O.2.4.@.7 k u 7 * 3 u k 7 5 7 7 7 5 7 7 5 7 7 7 7 7 5 7 7 7 > @.x.@.3.~ v.2.@.2.( / ( 7 5 5 7 5 7 7 7 5 7 5 7 5 7 7 5 7 7 5 i k 5 5 & 7 7 7 7 5 O.c.c.3.8 7 7 7 & & 7 u ( h ~ u @.i & & y v n v n w n < & & 7 v w n v v q u & : u 3 $.FX=.X & & X   < &.$.5 5 5 5 5 j 3.3.1.2.b.A.2.O.c.c.M.A.c.3 7 7 7 ",
"7 7 u 7 7 i j 5 h 7 i i 5 . u O.i h ( k ~ ~ ~ 7 / i   & & & & . . & * & & =   s s   : 7 7 5 7 k 7 7 i u b.h > h 8 5   3 i / i . ( k k ( h & ( i s / ~ & &   s s   : u 7 7 7 7 k c.k c.5 7 h 7 & ~ ( s i ~ h ~ s 3 u y k ~ s 3 & X 3 ) . * 7 7 7 5 k u i j 5 k u 7 5 k 8 h u & / ( i ~ i y O.> y 7 k i A.2.5 i ~ i & * = ) X & 7 7 5 u k 7 6 5 7 7 j i 5 7 5 u i 7 u 7 h 7 h 5 u u 7 i 7 7 5 h 8 5 & 5 7 h 7 5 7 7 7 7 7 7 7 7 7 5 7 7 7 5 5 7 5 u h s i 7 5 u 7 u i a i 7 5 5 7 5 5 5 5 7 5 5 7 5 7 7 7 5 7 5 7 h 7 : & 5 7 7 > 1.N.m.N.N.i 5 7 7 : & i h ` Q ( h 2.Q & 3 < v v n b F b < & = < v v v L.b n 5 & & u y - =.FX$.X , : , =.X.7 5 7 7 5 7 5 2.c./ 2.c.2.c.5 4.n.1.m.O.5 5 5 7 ",
"7 5 5 5 7 5 5 5 5 7 7 5 5 & .                 . o . & * & X & & . &   & & & *   . & & 7 5 7 7 5 7 7 5 7 7 5 y 5 7 3 * & .     & o X       X   . .     & & & X X & & 7 7 7 7 5 i 8 5 5 5 5 5 7 : o X             & X .     X & & * &   & & 3 7 7 7 5 5 5 5 7 > 7 5 7 5 7 3 7 &   o . X .   o &   & o 3 ( &       . & X * . & & 5 5 5 7 k i j i i j i i i i i i i s u s k 7 ~ i i a j i i h i k i 5 & : 7 k i 7 7 u u 7 7 7 8 y y 7 u u u 7 y u 8 7 7 7 7 7 i 7 u u 5 7 7 i u 7 u 7 i i 7 i u 7 u 7 7 7 7 7 7 u i k 7 > & 5 7 7 3 3.b.N.N.N.i 5 7 7 & & i i k j h h #.i & & y v n w v v v 1 = & y v n v v v n < = & 7 7 7 9 +.a 5 5 7 7 g u 7 7 5 7 5 7 5 3 5 5 5 3 3 5 5 5 5 4 7 5 5 5 7 5 ",
"7 7 7 7 7 7 7 7 7 7 7 7 5 3 5 5 7 5 5 5 7 5 5 5 5 5 = 5 3 3 5 > 5 3 5 5 3 7 > 7 5 5 7 7 7 7 7 7 7 7 u u 7 7 y u 7 y 5 > 7 5 3 5 5 5 5 7 7 > 7 > 5 5 5 > 7 3 5 3 > 7 y u 7 7 y 7 7 7 7 5 7 7 7 5 3 y 7 7 7 5 5 > 5 3 > 7 7 7 5 5 7 > 7 3 3 y 7 7 7 5 7 7 7 7 7 7 7 7 7 7 y 7 5 y 5 5 3 5 5 5 3 5 3 7 > & 5 5 5 5 5 5 5 5 5 5 3 y 7 7 7 s i h i h j h s h j i h i s h j i 7 i j i h i j s h i s y 5 & > 7 h k k k h k k k k h ~ h k k k k k k k k h k k k k k k k k h k k h k k k h h k k k k ~ h k k k h k h k k i 7 5 X 7 7 7 5 j 3.l 4./ 7 y 7 u & : 7 5 5 7 5 7 7 7 & & u 7 y 5 < * > 8 & & y 3 > y > 7 y 5 & & u 7 y 6 5 7 7 7 7 7 5 5 7 7 7 5 5 7 7 7 7 7 7 7 7 7 7 7 7 7 5 7 7 7 7 5 ",
"5 > 5 3 5 > 3 5 > 3 5 > 5 5 5 3 3 5 > 5 3 5 7 > 5 5 5 3 5 > 5 5 - 5 5 > 7 3 5 3 5 3 3 5 : 5 : 5 7 3 > 3 5 3 - 5 3 3 3 7 3 7 7 > 3 5 3 > 3 7 3 7 3 5 5 5 > 5 3 7 3 7 3 > 3 3 > 3 5 3 5 5 5 > 3 5 7 3 > 3 3 7 3 7 > 5 7 3 > 3 5 3 3 5 > 7 3 5 = 5 3 5 5 > 3 5 3 5 5 3 > 5 > 5 3 & 5 5 3 5 5 7 > 3 5 > 3 7 3 5 > 5 7 3 > 5 3 > 7 3 5 3 5 > 3 3 > 3 3 3 3 > 5 3 3 5 3 3 3 3 7 3 3 5 : 3 5 3 > 3 3 y > X : 5 3 : 5 3 5 > 3 > 3 3 & 5 > 3 3 > 3 > 3 3 5 > 3 3 > 3 3 3 5 3 3 > 3 > 3 : 5 5 3 : > 3 > 3 5 : : 5 5 3 3 > 3 5 : & 5 > 3 5 : & > X & 5 3 5 5 & & 5 3 5 5 3 3 3 5 & & 3 > 5 = 5 5 & 5 & & = 5 5 5 3 > - 5 & & 7 3 3 3 5 = 5 3 3 3 > 5 5 3 5 5 5 3 > 5 5 5 3 5 > 5 3 3 > 5 5 5 3 > 5 5 ",
"X & X & X & & X & & & X & X & * & & . & & . & & & * & & & & * * & * & & & * = * & & & & & & & * & & & & & & & & & & & * & & & & & & & & & & & & & & & & & & . & & & * & . & & & & & & * & & & * & & X * & . & & * & * & X X & * & X & X & & & & & & & & & X & & X & & & & & & X & . & X & . & & & & & * & & & * & . & & & X & * & & & & & X & & & & & & X & & & & & & & X & & & & & & & & & * * & & & * & & & & & & & & * & & & & & & & * & & & & . & & & & * & , & & & & & & * : & & & & * & & & & & * & * & & & & & & * * & & * & & & & & & * & & * - - *   - & & & & & * & & * - * * * = * = & & & & * & & & & & & & & & & X & = & & & & & = & + & & : & & = : & 3 X & & & & . * & X & ",
"7 7 7 5 7 7 7 5 5 7 5 5 7 7 5 5 5 5 5 5 * = > < > , > > > > * 1 > > > & * > * 1 , , > > > , > & > > > , , > , , , > 7 = X & & & & & & & * & & & & & & & & & & * & & & & & & & & & & & & & & & & & & & & & : & & & & & & & & & X & & & * & X * & &   & & & * & * * & & & & . & & & : & & & : & & & & & & & & & & & & & & & & & & & & & & & & & & & & & & & & & & : & & & 7 3 - = - 5 3 - - 3 - ; = 9 - = - = = = - - = 3 - - 6 - - 3 = - - - 5 y 5 & - 5 6 - - - 9 + - - 9 + + 9 3 9 9 = + 9 = 9 - $ - 9 = 9 - 0 = 9 9 + + 9 7 3 & 6 5 = : = + = = & - - & * - - : : 3 = 3 $ : = - - - = = * = - : # : & = y & & 7 3 , : , , , , , , , : , , , , , , , , > , , , , , , , , : : , , , , 5 5 ",
"7 7 7 5 7 3 4 5 7 7 7 7 7 5 5 7 7 7 7 5 & 5 > P.{.{.(.{.(.{.(.(.{.{.{.{.{.{.(.(.{.{.{.{.{.{.{.{.{.{.{.(.(.{.{.(.{.P.< 5 & & & y 5 7 y y 7 5 y y 7 y u y y y 7 7 7 7 y 7 7 y y 7 7 7 y y 5 5 y y 7 > : & & & i 1.( { @.@.@.( O.( O.O.@.{ ( @.( ( ( ( ( 1.O.O.{ @.O.O.O.( { ( ( ( ` 3 & & & > 7 y 7 7 y u 7 7 y y y y y 7 y y 7 7 y y 7 y y y 7 y 7 7 y u y 7 y y > & & > 6 $.AX1X1X1X1X1X1X1X1X1X1X1X1X1X1X1X1X1X1X1X1X1X1X1X1X1X1X1X1X1X1X1X1Xa 3 & 5 3 >XAX6X6X6X6X6X6X6X6X6X6X6X6X6X6X6X6X6X6X6X6X6X6X6X6XAX6X6X6X6X6XAX>X9 5 * 5 d iXiXiXiXiXiXiXiXiXiXiXpXiXiXiXiXiXiXiXiXiXiXiXiXiXiXiXiXiXiXiXiXsX[ = > & > { MXnXMXMX/.nXMX/.MXMXMXMXMXMXMXMX/.MXMX/.MXMX/.MXMXMXMXMX/.MXnXMXnXs 5 ",
"5 7 7 7 5 Q 2.k 5 : 5 5 & O.h 3 7 5 7 7 & 5 > {.OXU.(.U.U.(.(.(.U.U.(.U.(.(.(.(.U.(.U.U.(.U.U.(.U.U.(.(.(.U.(.U.OX{., 3 & & : u & & > > & = > & & & 3 > > > = & > 7 & > & = > > & & > > = & 5 > 5 7 & & & . Q { s h h h k k k h Q h h k h h k ~ ~ k h k h h h k h k h k Q k k s 4.3 & & & & 7 > & & & > = & & y > & 3 > > 3 & & 3 > & > & > > & & & & > & > & y 7 & & & - &.SX;.<X<X:X<X<X<X<X<X<X<X<X<X<X<X:X<X<X<X<X<X<X<X<X:X<X<X<X<X<X<XSX2 5 & 7 - 6X6X5X5X5X5X5X5X5X5X5X5X5X5X5X5X5X5X5X5X5X5X5X5X5X5X5X5X5X5X5X5XfX6X= > & - ' xXyXyXyXyXyXyXyXyXyXyXyX9XyXyXyXyXiXyXyXyXyXyX9X9XyXyXyXyXyXyXyXxXV.- > > : ..BX^./././././././././.^././././././././././././././././././././.BXf > ",
"7 7 5 7 : 2.G.2.1.3.m.4.O.eXl 5 7 7 5 5 * - 1 {.U.P.P.P.P.P.P.P.P.P.P.P.P.P.P.(.(.(.L.P.P.P.P.P.P.P.P.L.P.P.P.P.U.{., > & & & y & & > & & > & & & & = & & & 5 ) s s & : & & & & & & & & & & > & 3 5 & * & & h ) y i d i i i d i i d i d i 6 ~ ` ) ~ y d d i i d d i i y s a i u @.7 & X & & y & & > & & & & & & & & & & & > ) s Q & & & & & & & & & & & & & & 7 y & & > - =.ZX%.;.;.%.;.;.%.;.;.;.;.;.;.;.1X1X<X;.;.;.;.;.;.;.%.;.;.;.%.;.%.AXQ 5 X > 9 7X5X:X:X:X:X:X:X:X:X:X:X:X:X:X5X6X5X:X:X:X:X:X:X:X:X:X:X:X:X:X>X7X7X; 5 * y ' xX9X9X9X9X9X9X9X9X9X9X9X9X9X9XiXpXiX9X9X9X9X9X9X9X9X9X9X9X9X9X9XiX .- > = , | nX..~.~.~.~.~.~.~.~.~.~.~.~.~.nXnX/.~.~.~.~.~.~.~.~.~.~.~.~.~.~.BXf 5 ",
"5 7 7 7 > 2.A.M.M.rX3.M.m.b./ > 7 5 7 5 * y , (.U.P.P.P.P.P.P.P.P.P.P.P.P.P.P.OX(.(.P.P.P.P.P.P.P.P.~.P.P.P.P.P.U.{., y & & & y & & > - & > & 5 > & > & & & i *.Q s & : y & > & = > & > & & & & 5 > & & &   ~ ( 8 a i i a i i a i s i a a i ` 2.) ) i a i i i a s i a i i i i i @.7 & & & & y > & = > & > & > & y & > & & u *.) ) & & > & & 5 & & 3 & > & > & y 5 & & > - &.1X;.;.;.;.;.;.;.;.;.;.;.;.;.<XAX1X1X;.;.;.;.;.;.;.;.<X;.;.;.;.:XAXW 5 & 7 - 6X5X:X:X:X:X:X:X:X:X5X:X:X:X:X6XKXfX5X:X:X:X5X:X:X:X:X:X:X:X:X:X5X6X9 3 * - ' xX9X9X9X9X9X9X9X9X9X9X9X9X9X9XzXiXyX9X9X9X9X9X9X9X9X9X9X9X9X9X9XzXV.- > = , ..nX~.~.~.~.~.~.~.~.~.~.~.~.~.^.BXMX/.~.~.~.~.~.~.~.~.~.~.~.~.~.~.BXf > ",
"7 7 7 7 3 O.m.3.m.c./ O.2.M.h 5 7 7 7 7 & 5 > (.(.P.P.P.P.P.~.L.P.P.P.P.P.P.P.P.P.P.L.~.P.P.P.P.P.P.P.L.P.~.P.P.U.{.> y & & > 7 & & & & & * & & & & * & & & = > p p & * & & & & & & & & & & & * 5 5 & & & & k / y d d i i d d i i d i i i 8 s i ~ s 8 d d i i i i 8 i i i i i y { < & & : & y & > * & & * > & & & & & & & & 7 3 p & & * & > & & & & & > & & * - - & & & - &.AX%.;.;.;.%.;.;.;.;.;.;.;.%.;.;.;.<X;.;.;.%.;.%.;.;.%.;.;.;.%.%.AXE 3 X 5 9 6X5X:X:X:X:X:X:X:X:X:X:X:X:X:X:X:X5X:X:X:X:X:X:X:X:X:X:X:X:X:X:X5X6X- 7   - ' xX .9X9X9X9X9X9X9X9X9X9X9X9X9X9X9X9X9X9X9X9X9X9X9X9XV.9X9X9X9XV.zX9X& = > , | nX~.~.~.~.~.~.~.~.~.~.~.~.~.~.~.^.^.~.~.~.~.~.~.~.~.~.~.~.~.~.~.BXf , ",
"5 5 7 7 5 5 5 : 5 4 5 3 5 > 5 5 5 7 7 7 * - 1 (.(.P.U.(.U.U.U.U.(.(.(.(.U.(.(.U.U.(.(.U.U.(.(.(.U.U.(.U.U.U.(.U.(.{., 5 & & 3 y > & > > > - > & 5 > 5 > > 3 & > > * - 5 > & & 5 > & 5 > 5 & 3 & y 5 & & & & ~ 1.s k k k ' h k h h k s h k ' s k s ' h k k Q h h h ' h ' h k k s 4.5 & & & > y 5 > - > > - > > & 5 & & 5 > 5 & & & & y > - > > & y & & 5 > > & y < & & & ; &.AX<X<X:X<X<X<X:X<X<X<X:X<X<X:X<X<X<X<X:X<X<X:X<X<X<X:X<X<X<X<X<XSXW 5 & 3 - 6X6X5X5X5X5X5X5X5X5X5X5X5X5X5X5X5X5X5X5X5X5X5X5X5X5X5X5X5X5X5X5XfX6X3 3 - - ' xXyXyXyXyXyXyXyX9XyXyXyXyXyX9XyXyXyXyXyX9XyXyXyXyXyXyXyXyXyXyX9XxX .& > = , ..BX^./././././././././././././././.^././././././././././././././.BXl 8 ",
"7 5 5 7 5 7 7 7 7 7 7 7 7 7 7 5 7 5 7 5 & 3 > W.{.{.{.{.{.{.{.{.{.{.{.{.{.{.{.{.{.{.{.{.{.{.{.{.{.{.{.{.{.{.{.{.{.P.< 3 * & > y y y y y y y y 7 y y y u y y y y u y 7 7 u y y u y 7 u y y u y 7 p 5 & & & & i 1.( ( { @.( 1.( { @.O.( ( @.( O.O.{ @.@.O.O.O.( @.( O.( @.{ @.@.( O.3 & & * & 7 y y y 7 y y 7 u y y u 7 7 y y y y y u y y u y y y 7 7 u y y u y y 5 & & > 6 o.ZX1X1X1X1X1X1X1X1X1X1X1X1X1X1X1X1X1X1X1X1X1X1X1X1X1X1X1X1X1X1X1X1Xu 3 & 7 4 >X6X6X6X6X6X6X6X6X6X6X6X6X6X6X6X6X6X6X6X6X6X6X6X6X6X6X6X6X6X6X6X6X>X$ 5 & 5 i iXiXiXiXiXiXiXiXiXiXiXiXiXiXiXiXiXiXiXiXiXiXiXiXiXiXiXiXiXiXiXiXiX` 3 : = 5 { MX/.MXMXMX/.MX/.MXMXMX/.MXMXMX/.MXMXMXMXMX/.MXMXMXMX/.MXMXMXMXMX/.h 5 ",
"7 7 7 7 7 7 y 3 7 5 5 7 7 5 7 5 5 7 7 5 & > u , * 1 , > > , < > , , > , > < , > > , < > , , > , > > , > , > < > , > u 7 & & & & & & & & & & & & & & & & & & & & & & & & & & & & & & & & & & & & & & & & & & & * & & & , & & & * & , & & & & & & * & * & & * & & & & & & * & * , & & & & & & & & > & & & & & & & & & & & & & & & & & & & & & & : & & & & & & & & & & * & 7 6 - - ; 6 ; 9 9 3 9 6 6 - 9 - 6 9 9 - 0 - 9 3 9 - 9 9 9 - 9 3 5 - - 5 7 & > 7 9 + = 4 9 4 9 9 + = 9 + = 9 + 9 = + = 9 - $ ; - = 9 + 9 - + 9 = = 9 7 5 & 3 7 & : # : 3 $ : # : : & # 3 3 # : : # 4 # : # : 3 : : $ $ : 4 : 3 # 7 u & : 7 5 5 , , , , > > , , , > , , , 5 , , , > , > , , , , , , , > > , , , 5 8 ",
"5 7 7 5 7 7 7 7 7 7 8 5 7 5 7 5 7 5 7 5 & 3 7 7 d 6 8 7 6 y y 7 8 7 7 8 y 7 6 7 5 7 y 7 7 6 7 7 u y 7 7 7 7 y 7 7 7 y > & & & > > > & & & > : : & > 5 & > & > > > & & 3 & & & > : & : & & > : & * > & & & & > > & > & & > & & > & : > > 3 & & & & > > = & : & & & & & & & & & > > & > & & & & 3 = & & & : > & & & > & & & 5 & > & : : & & & & & & & & & & > : : & > & : 5 7 7 7 u 7 y y u 7 7 7 7 7 7 7 y 7 7 7 u u 7 7 7 7 5 5 i y 7 5 7 u 7 7 7 & 3 7 u u u u 7 5 u u 7 7 7 7 u u 5 7 7 7 u 5 7 u 3 7 7 7 5 7 8 7 u 7 u u 7 3 X 7 7 y 7 u 7 7 7 7 u u 7 7 7 7 u 7 7 7 u 7 y 7 8 7 8 5 u 7 u u y y 7 y u 7 : & 7 7 8 i j 8 5 8 j 8 8 7 i 8 7 7 8 8 8 7 7 8 5 8 y 9 8 8 7 7 8 7 8 7 7 5 7 ",
"7 5 5 7 5 5 > 5 7 > 5 8 5 5 5 8 7 7 7 5 & 3 7 7 8 y y 7 7 5 7 5 7 5 7 7 7 7 7 7 h 5 7 5 7 5 7 5 u y 7 7 5 7 7 7 7 7 7 5 & & & & & & & 5 > & & & & & & & & : & & & & > & > & y & & y & : & & & > > - & & & & & & & & & > & & & & & & & & & & > & > & & & > : 7 & y > & > 5 & & & & & & & & & > & * & > = & & & > & & & > & > & * > : & y > > 7 y 7 & & > & & : & & & & : 7 5 7 5 = u a 7 3 7 7 7 7 7 7 7 7 7 5 7 7 7 7 s h i h j 7 7 5 7 7 7 7 5 7 & 5 7 7 7 > < i a 3 3 7 7 7 7 u 5 5 7 7 7 7 5 u u h i j i k j 7 7 7 7 7 7 y 3 * 7 7 7 7 : 5 i i : 5 7 7 7 7 7 7 7 7 7 7 5 i h 5 k 5 j 5 7 7 7 7 7 7 7 7 7 & : 7 7 7 5 : 8 f 0 : 8 7 7 7 7 7 5 7 7 5 5 j 7 i i i j 8 j i i 5 7 7 8 7 7 7 ",
"7 5 7 3 ( N./ j 8 k 8 7 k 5 j 7 7 5 7 5 , 3 7 5 5 7 7 5 7 7 5 7 5 7 7 5 5 7 > 1.G.~ 3 7 5 7 7 7 5 7 7 5 7 7 5 7 7 5 y 3 & & & & & u h s s s 3 & & > & & & & & > & & & & 4.( 4.y W 2.u & > > & & & & > & & > & & 5 a s h h 8 & = & & & & > > & & & > & & 2.~ 4.( 4.^ & & & > & > = & & & & & & & s ^ s h s 7 & & & > & > & & - > & & & Q 1.x.~ s 4.5 & & > > & & > & & = 7 7 : j >.DXDX=.o.4 5 7 7 5 7 5 7 7 5 5 7 > b.3.1.M.1.M.u 5 7 7 7 5 7 7 3 & > 7 7 & #.wXJXJXwX+.: 7 7 7 5 7 7 5 7 7 7 7 A.1.G.O.A.c.3.M.& 7 7 5 7 5 7 3 X 7 7 7 7 B.NXrXrXrXl 6 d 6 7 5 5 7 7 5 7 3 ~ m.M.b.b.G.k A.k 5 7 7 7 7 5 7 : & 7 7 > f XXNXNXNXp.7 7 7 7 5 7 7 7 7 7 > b.c.3.M.m.m.b.m.m.m.i 5 5 7 7 5 7 ",
"5 7 7 : 4.eX1.3.N.N.b.c.M.n.G./ > 7 7 5 & 3 7 7 7 7 5 7 7 7 7 5 7 5 5 7 7 7 5 3.1.4.: 7 7 5 7 7 7 5 7 7 7 5 5 7 5 7 7 3 & > & & s s =   & 8 s 5 & & & > & 5 & & & 5 & ^ x.4.h ~ ~ ~ ^ & & & & > & > & & & & & = k y & & = s s & & > & & & & > & & > > * ~ ( a v.~ ( > & & & & & & & & & & 5 * ~ b.i X . 5 Q u & = & & > 5 & & > & > & : ( j ( 5 ) > & > & & > & & & & & 7 3 g DX,.< u a o.o.5 8 7 7 7 7 5 7 7 7 5 u A.c./ N.i 3.7 7 5 7 7 5 5 7 7 & 3 7 4 -.JX+.< a =.JX*.4 7 7 7 5 5 7 5 7 7 : 3./ O.n.G.1./ 1.> 7 5 7 7 5 7 > & 7 7 3 rXrX` 8 f G.JX) 3 6 7 7 7 7 5 7 7 7 7 m.M.b.eXG.m.eX/ 3 7 7 7 5 7 7 : : 7 5 V NXZ.i % V mXXX5 7 7 5 7 5 5 7 7 3 ~ b.1.b.m.c.M.c.N.4.^ 3 7 7 5 7 5 ",
"7 7 7 3 4.G.b.G.rX1.m.m.c.G.A.k 5 7 7 5 & > 7 5 5 7 5 7 7 5 7 5 7 7 7 7 5 7 3 O.G.~ 5 7 5 5 7 7 5 7 7 5 5 7 7 5 7 5 7 5 & & & i s .   * o o y s & > & > & & * > & > & W 2.@.4.) ~ 2.s * & > & > > * & & & & & ( y   O       s i & 5 & 5 & > & - = & & & ~ Q @.@.#.( & = & & > > & > & & & & y b.* W V.o o * k 3 & & & & & & & & & & & x.( s O.x.` & & & & > & & & > X : 7 5 >.,.o o rX3.o X.! 3 7 5 5 7 7 5 5 7 7 7 c.M.3.b.G.c.3 7 7 5 5 7 7 5 5 & 5 3 s JXa o   O i Q -.u 3 y 7 7 7 7 7 7 7 : 4./ 1.A.M.3.c.j 7 7 7 5 7 7 7 3 & 7 = B.rXo   X & O V.NX3 y y 7 5 7 5 7 7 5 ~ m.4.m.b.N.b.A.O.: 7 5 5 7 5 7 : : 7 , NXw.O . *   o NXk., 7 7 5 7 7 5 7 5 ~ 4.3.M.b.m.m.m.b.N.8 5 7 7 5 7 7 ",
"7 5 8 3 h i / 1./ k h 4.eXl O.i 5 5 7 5 X 5 7 7 7 5 7 5 7 7 5 7 5 7 5 5 7 7 5 7 f 5 7 5 u 7 5 7 5 7 7 5 7 7 5 7 7 5 7 3 & & & k & O o     . . h y * - & & > & > & & & & & > y > > y & > & = & & - & & & & & i 3.= eX*.  * o & s & & & & > * & > & & & * 5 & y & 7 & * & > & & = & & * & & & ( ( O < eX=   o y i & > > & & & > & > & & u y i 5 7 i & > = & & & > : & & & 9 $.DX# & & IX( o < X.4 7 7 7 5 7 5 7 5 7 5 i j k j k k u 5 7 7 7 7 5 7 7 & 7 & wX>.o > . v.UXy $.+.3 u 5 7 5 5 7 5 5 7 7 i l 5 k j i 5 7 7 7 5 7 7 7 7 & 7 y rX{ o & & - - & rX( 3 u 7 5 7 7 7 7 7 i k i i 7 k > 4 7 7 7 7 5 7 5 7 : : > B NX& & & X . . V NX> 7 7 7 5 7 5 5 5 u u i u i i i i 8 j 5 7 7 5 7 5 7 ",
"5 5 7 7 5 5 > # : 5 : ^ / 5 3 7 7 5 7 5 & 3 7 5 7 5 7 5 7 7 5 7 7 5 7 7 5 7 5 7 : 5 7 5 5 7 7 5 7 7 5 7 7 7 5 7 7 5 7 3 X * = s & B.B.*   & o i y & & & & & > - 3 & & & & & & & & * & & > & > & & & & & & * k 1.o W x.      & h & & & y > & = & & & > & & & & & * & & & & > & > > & & & & & 1.s o   & & o   = s & & & > > & & > & & & & * & & X . & : & > & > & & > & 3 - =.2X# & & 7 & , > X.u 3 y 7 7 5 7 7 3 7 5 5 5 : 5 3 3 3 y 7 5 7 7 5 7 7 & > 3 wX=.o = . 2.~ o ! +.6 7 7 7 7 5 7 7 5 5 3 5 3 5 3 5 5 5 7 3 7 5 7 5 7 3 & 3 s NXg & &   eXUX{  . .3 7 5 7 7 5 7 7 5 : 5 5 5 5 5 5 8 3 7 7 5 7 5 7 7 & = > 5.XXo 4 X 7 ~ O 8 NXn 4 7 7 5 5 7 7 7 5 5 7 7 5 5 > 7 5 5 7 7 5 7 7 5 7 ",
"7 7 7 5 7 7 7 O.h i h : k 5 7 7 5 7 7 5 & > 7 7 5 7 5 7 7 5 5 7 5 7 7 5 5 7 i 7 h 7 h 5 7 7 5 7 5 7 7 5 5 7 7 5 5 7 y > & & > 2.5 ( ) &       a 5 & - & > & & & & & > & & u & y i i & > & & > & 5 & & & & & s 4.o O O     o & h > & & & & & > & > & & & > 7 7 & i > & > * - & & > & & & = * 1.^ O & *   * o 7 i & > & & & > * - > > & & u 3 > h s 3 & : & & > & & > & & - $.3XX & & X X X > X.8 7 7 5 7 7 5 7 y 5 7 8 j j i i k k 7 5 7 5 7 5 7 7 X 3 = wX-.o & &   . . ! +.5 7 7 5 5 7 5 7 7 7 k 7 h 8 j i 5 i 7 y 7 5 5 7 u 3 & 5 i rXs . & X p h >  .h 3 7 7 5 7 5 7 7 i k 5 7 7 j 5 h 5 k 5 7 7 5 7 5 7 & : 5 { mXX &   h UXM.q NX8 7 7 7 7 7 5 5 5 7 h 4 8 j 7 h 4 h 5 5 7 5 7 5 7 7 ",
"7 5 5 7 7 3 k A.c.3.c.m.m.j 5 5 7 5 7 7 & : 7 7 7 7 5 5 5 7 7 5 7 5 5 7 3 ~ A.O.A.v.A.l 3 7 5 7 7 5 5 7 7 5 5 7 7 7 7 3 & & & 1.) O O       & h > & > & > & > = & > > & ( @.) 4.x.( & & > & & = & & & & & & 5 c.y o &   & o y s & & & & & > & & & & & y 2.s ` ) ( ( * = > & > & & & & & & & s 3.  o *   o   s 7 & & & & & = > & & & & s @.( ` x.x.: & & > & & & & & & > 7 i DX! o & & & o $.o.3 7 7 5 5 5 7 7 7 : c.3.A.4.b.M.1.G.i 5 7 5 7 7 5 7 * 5 3 +.JX, * & & & X -.! 3 7 5 7 7 7 5 7 7 i v.M.b.b.G.1.2.c.& u 7 7 7 7 u > & 7 = eXeXO , X * o p V.u 7 5 7 7 7 7 7 5 k A.k m.b.M.b.M.b.A.~ : 7 7 7 7 7 & > 6 i NX{ o :   k O.k.H.* 8 5 5 7 7 7 7 > 1.G.k O.N.n.m.b.A.k 3 7 7 7 5 7 5 ",
"5 7 7 5 5 > O.c.M.N.b.4.3.~ : 7 7 7 7 7 & 3 7 7 7 5 7 7 7 5 7 7 7 5 7 7 y y c.3.O.eX( 2.: u 7 5 7 7 5 7 5 7 7 7 5 7 7 7 & & & 5 c.~ o *   & k y & & > & & & & & & & & > @.* 4.@.@.k & & & & & > > & & & & & * ~ n.& o   * & ~ & & & > & & & > > & & & Q 2.~ ~ ( y ~ * 3 & > & & & 3 > * & & & 4.4..       p s & & > > & & > & & & > & @.& ~ 2.( O.* : : & & & > & & & = 7 3 +.HX< X & X 2 X.u 5 7 7 7 7 7 7 7 7 3 / 3.~ b.G.N.h c.3 u 5 7 5 7 7 7 & 3 7 4 wX3X& & & * +.+.5 7 7 7 5 7 5 7 7 7 3 1.G.c.G.G.m.G.c.: 7 7 7 7 7 u 3 * u 3 s NXV.  , . 7  .~ 5 7 7 5 5 5 7 5 8 3 1.b.G.A./ rX( eX( 3.& u 7 7 7 i & & 6 4 t.NXf . &   q k.d y 7 7 7 5 5 7 7 5 3.1.1.1.1.eXO.eXO.3.> 7 5 7 7 5 7 ",
"7 7 5 7 7 5 ~ M.k j N.3.b.h 5 7 5 7 7 3 & 3 y 7 5 7 7 y 5 5 7 5 7 7 5 5 5 7 2.1.A.b.A.^ > 7 7 7 5 7 7 7 5 7 7 7 7 5 7 > & & > * i k & & & 3 y & & & & & & - & > > > - & ( @.) ~ ) s & & & & > & 3 & > & & 3 & & ~ i & & & y 5 & > & > & & 3 = & 3 & & y 1.( ( 1.x.s & & & & > 3 > & & & & & & 3 ( & * & > u = & & & & & & > & > & 3 * h 1.( ~ ~ ) & > & & > & & & > & & 7 7 9 =.! 3 5 5 ! j 5 5 7 7 7 7 7 5 7 7 5 k 2.~ N.N.b.c./ : 7 7 7 5 7 7 7 & > y 5 i -.u = 3 7 _ 5 5 7 7 7 5 7 7 5 7 5 i c.3.c.m.n.m.m.m.: 7 7 7 7 3 y > & 7 7 : ( x.3 5 > s ) 5 y 7 7 7 7 5 5 7 3 2.G.1.G.M.m.b.M.b.N./ 3 7 7 7 5 7 & & 7 7 : 5.{ : 3 7 { h > 7 7 7 7 5 7 5 7 3 1.N.2.4.M.b.M.b.A.^ 3 u 5 7 7 5 5 ",
"7 5 7 5 5 5 7 k 5 8 3 7 k 5 7 5 7 5 7 y * 3 7 7 7 7 7 y 7 7 7 7 7 7 7 7 7 7 i 7 j 5 k 3 7 y 7 7 7 5 7 y 5 7 y y 5 7 y 5 & & & & & & & & & & & & & > & & & > & & & & * & & u & > > 3 & & > & - & & & & & & & & & * * & & & & & & y & & & & & & > & > & & y 5 y > u 7 & & > & & & & & & & & & > & * & = > & & & > 5 & & > & & & & > & & & y & & > & & & = 3 & > & & > & & 7 5 5 3 5 8 7 7 5 7 5 5 5 5 7 7 5 7 7 5 7 7 7 k i i i 7 7 7 7 7 5 7 7 5 3 & 3 y 7 7 9 y u y 7 5 5 8 7 7 5 7 7 7 5 7 5 i l j j 5 h 7 : 7 7 7 5 7 7 7 7 5 X 7 7 7 5 : 7 7 7 5 5 7 5 7 5 7 7 7 7 5 7 i k 7 3 8 h 7 h 7 s 7 7 5 7 7 7 7 & & 7 7 7 : , 7 u 7 3 5 7 7 7 5 5 7 7 7 7 5 7 h d 6 k 5 k 5 h 5 7 5 7 7 5 7 7 ",
"5 5 7 7 5 7 5 5 7 7 7 7 5 7 7 7 5 7 7 7 & 3 y y 7 6 y y 8 y 7 7 y i y y 7 6 y y 7 y 8 8 y y 7 y 7 u 8 y 7 u 8 y 7 y 7 3 & & & & & & & & > & & & & & 5 & > & & & & & > > & & & & & & & > & & > > & & & & & & * & & & & & & & & & & = & & > & = & > & & & * * & & & & > & & & & & = > & * & = & 3 & 3 & & & > & & = & > - & = & & & = 3 & & & & & & > & & & * & 5 & & & & 7 7 7 u 7 7 7 5 7 7 7 7 7 5 7 u u 7 7 > 7 u 7 7 5 5 7 7 u u u 7 y 7 u 5 5 & 3 y 7 u u u u 7 u u 7 u u u y u u 7 7 y y 7 7 y 5 u 7 u u u 7 u 7 y u 7 7 3 X 7 7 7 8 i 7 7 7 i 6 y 6 y p - 7 u u i u y 5 y 8 7 7 y 7 u 7 8 u y i 7 7 7 3 & 7 5 u 9 u 7 4 6 8 7 7 8 6 5 8 6 7 7 7 5 6 7 y y 5 8 5 8 3 8 8 7 7 8 8 7 7 ",
"7 7 5 7 5 7 7 7 7 7 7 5 7 7 5 7 7 5 7 7 & > 7 > , , , , , , , * * , , , , , , , , , , , , * , , , * , , , * , , , > 7 > X & & & & & & * * & & & & * * & * & * & & & & * X & & * & &   & & * & * & & & * & & & & & & & & & & * & * * * & * & * * * & & & & & & X . & & & . & & * & & & & & & * *   & & & & * & * * * * * . * & & & & * * * & & & & * . & & & & * & & X = 7 5 + - = - - = - + - + = 9 + - = - = - + - = + - = - + = = + = = = 9 7 7 & 5 8 3 $ @ ; + = + + $ = + + + + + - + $ - + + + - $ + + 9 + + + 9 + + 3 u > & 7 5 : # X : # X & # # X & = o X # # & # # & # # : # # X # & # X # X # 5 u & : 7 5 , , , , , , , , . , , , , , . , , , , : * * , . , , , , , . , , , 5 5 ",
"7 5 7 7 5 7 7 5 5 7 7 5 7 7 5 7 7 7 7 > & 3 y B | S S S S S S S U S | S S S S S S S S S A S S S S S S S S S S U | B > 5 * & = h ~ h k ~ k ' h ~ ~ h ~ ' s ~ h ~ ~ h ~ ' k ~ k k ~ h ' k ~ k k ~ k 5 X & & X - ~ Q ~ ' h ' k ~ h k k ' ~ k k ' ~ ~ k ~ ~ k k ' ~ k ~ ~ h ~ k ~ k h & & X & . 8 ~ h ~ ' ~ k k ~ h k ~ h ' k k k ~ Q k ~ ~ h ' k k ~ ' k k k ~ k ~ - & & & 6 g &.&.&.&.&.X.&.&.&.&.&.&.&.=.&.&.&.&.=.&.&.X.&.X.&.&.&.&.&.&.&.&.X.e < X 5 9 o.>X&.&.>X=.>X&.=.>X&.&.&.&.>X&.&.>X&.&.&.>X=.&.&.>X=.&.>X&.&.&.>X+.y 5 & 5 7 V.0XV. .9X .V.V.9X .9X .9X9X . .9X9XV.9X . .9XV.V.9X .9X .V.V.V.9XW 5 & > 7 f ................................................| ..............| d = ",
"7 7 5 5 7 7 5 7 7 7 5 7 5 5 7 7 3 7 5 y * 3 , {.+X#XOX{.OXOXU.OXQ.OX#XOXOXOXOXOXOXU.OXOXOXOXOXOXOXOXOX{.OXOXOX{.#X}.> 3 X & 3 3.) ( ( ( ( ( ( ( ( ( ( ( ( ( ( ( ^ ( ( ( ( ( ( ( ( ( ( ( ( ( ( ^ 2.k . & & . f 2.( ( ( ( ( ( ( ( ( ( ( ( ( ( ) ( ) ( ) ( ( ( ( ( ( ( ( ( ) ( ( ( x.3 X & &   1.1.) ( ( ( ( ( ( ( ( ( ( ( ( ( ( ) ( ( ( ( ( ( ( ( ( ( ( ( ( ( / 2.k   & > - &.SXZXAX1XAXAXZXAXAX6XAXZXAXAX5X1XZXAXAXZXAXAXAXAXAXAX1XAXAXZXAXZXKX2 3 , 5 9 6XKXfXfXfXfXfXfXfXfXfXfXfXfXfX6XfXfXfXfXfXfXfXfXfXfXfXfXfXfXKX6XKX6X- > & 5 s xXzXzXzXiXxXzXzXiXzXzXzXzXzXzXzXzXiXiXzXzXzXzXzXiXzXzXzXzXzXzXzXxXV.# & = > ..VXnXnXnXnXnXnXnXnXnXnXnXnXnXnXnXnXnXnXnXnXnXBXMXnXnXnXnXnXnXnXnXVXf > ",
"5 7 5 7 5 7 5 7 5 7 5 7 7 5 7 5 5 7 7 7 & 3 > {.P.I.I.I.I.I.P.I.I.I.P.I.I.I.P.Q.Y.U.I.I.I.I.I.I.I.I.I.I.I.I.I.I.U.{.> 5 & . 5 ` 8 d 8 d 8 y 6 y y y 8 8 8 y ) ~ ) W y y 8 d y y y 6 y 8 y 8 y 5 ) h X & & . h / y 8 y 8 8 8 d 8 y y 8 y u i ) ~ ) i 8 y y y 8 y y y y 8 y 8 6 y @.3 . & &   ( s 8 8 y 8 d 8 8 y 8 d 8 8 y h ) ) ~ i y 8 y 8 y y 8 8 y y y 8 y ) h   & & = =.AX%.%.;.%.%.%.%.;.%.%.;.%.%.<X<X<X<X:.;.;.%.%.%.%.%.%.;.%.;.:.%.AXQ = & > 9 6X5X>X:X:X>X:X:X:X:X:X:X>X:X:X5X7X5X5X>X:X:X:X:X:X:X:X:X>X:X>X>X5X6X9 5 & 3 ' zXV.9X9X9XV.9X9X9X9XV.9X9X9X9XyXyXyX9X9XV.9X9X9X9X9XV.0XV.9X9XV.zX0X  > > , | nX..~.~.~.~.~.~.~.~.~.~.~.~.~.^.^.^.~.~.~.~.~.~.~.~.~.~.~.~.~.~.BX' 5 ",
"7 5 7 7 7 5 7 5 5 7 7 5 7 7 5 7 7 7 7 7 & 5 1 {.Y.P.P.P.P.I.P.P.P.P.P.P.I.P.U.U.{.+XP.P.P.P.W.P.P.I.P.P.P.I.P.I.Y.{.> 5 & . & 1.d i i s i a s i i i s i s s ) ( x.2.i i i s i i i s s i s d s y ( h o & & o k ( 8 i s a s i a i s i i a i ~ ) ` x.( 8 s i i i s i i i s s i s d @.= & . & X ( ~ d s a i i d s a d s a s i ) ) 4.x.W i i s i s i s i a i i a y ( h & & & = &.AX;.;.;.:X;.<X;.;.;.:X;.;.;.1X1X1XAX;.;.;.;.;.:X;.;.;.:.:X;.;.;.AXQ 3 & 5 = 6X5X:X:X:X:X:X:X:X:X:X:X:X:X5X6X7XfXfX:X:X:X:X:X:X:X:X:X5X:X:X:X5X6X3 > & 3 ' xX9X9X9X9X9X9X9X9X9X9X9X9X9X9XyXiXxXiX9X9X9X9X9X9X9X9X9X9X9X9X9XzXV.: - - , ..nX~.~.~.~.~.~.~.~.~.~.~.~.~.nXnXnXBX^.~.~.~.~.~.~.~.~.^.~.~.~.~.BXf > ",
"7 5 u 5 5 8 7 7 7 7 7 7 7 7 5 5 7 7 7 5 & 3 > {.Q.P.P.P.P.P.I.W.I.P.P.W.P.P.U.Q.U.U.Q.I.P.P.P.I.P.P.P.P.P.P.W.P.U.{., 6 & . 3 1.i s i i a i s s a i i s i i ) ) h ` i a i s i i s i i a i i s 8 ( k . & & . h ( y s i s i i i s i i i s i s ` ~ ) ) i i a s i i i i i i d i s d 1.> & & &   ( ' i i a i s s i i i i a i i ~ ` ~ ` h i a i i i s i i i i i i 8 ( k . * > - =.AX%.<X;.;.;.;.;.;.;.:.;.;.;.<X1X<X<X<X;.;.;.;.;.;.;.;.;.;.;.;.;.AXg 5 * 5 - 6X5X:X:X:X:X:X:X:X5X:X:X:X:X:X6X5X5X6X:X:X:X:X:X5X:X:X:X:X:X:X:X5X6X+ 5 & 3 Q xX9X9X9X9X9X9X9X9X9X9X9X9X9X9XiXyXyXyX9X9X9X9X9X9X9X9X9X9X9X9X9XiX .y > & * ..nX~.~.~.~.~.~.^.~.~.^.~.~.~.~.nX^./.^.~.^.~.~.^.~.~.~.~.~.~.~.~.BXf > ",
"5 7 5 h j > 5 3 3 5 5 : 5 # i k & 5 7 5 & 5 , {.U.I.P.I.I.P.I.P.P.I.I.I.I.P.I.P.I.I.I.P.I.P.P.I.I.P.I.I.I.P.I.I.U.{.> 5 &   3 1.8 p i d u i i 8 d i d 8 8 7 i y 8 7 a u d 8 i u 8 i d y d i d y ( k . & & . h ( y d u a i i d a i d 8 i i d 8 8 d d i d y y d i i y i u d i i 8 1.3 & & & & O.h y i i y 8 d d d i i d i d y 6 y 8 u u a i d d 8 i 7 i i d i y ( h . & & + &.AX%.;.;.;.;.;.;.;.;.%.;.;.;.;.;.;.;.%.;.;.;.;.;.;.;.;.;.;.;.;.;.AX! 5 & 3 9 6X5X:X:X:X:X:X:X:X:X:X:X:X:X:X:X:X:X:X:X:X:X:X:X:X:X:X:X:X:X:X:X5X6X- 5 & 3 ~ xX9X9X9X9X9X9X9X9X9X9X9X9X9X9X9X9X9X9X9X9X9X9X9X9X9X9X9X9X9X9X9XxX .= = > * ..nX~.~.~.~.~.~.~.~.~.~.~.~.~.~...~.~.~.~.~.~.~.~.~.~.~.~.~.~.~.~.BX' > ",
"7 3 O.m.l 1.k O.O.2.2.( k 1.O.c.( i 7 5 X 5 , {.+XOXOX+X+XOX+XOX+XOX+XOXOXOXOX+X+XOXOX+XOXOXOX+XOXOXOXOX+XOX+XOX+X{., 5 X & : 2.1.@.1.1.@.@.1.1.O. .1.1.1. .1.1.1.1.{ 1.1.1. .1.1. .1.1.1.1.1.{ x.i o & & . s 3.{ @.@.1.1.@.1.( 1.#.1.1.1.1.1.` 1.4.1.1.4.4. .{ 1.1.4. .1.@.1.{ 2.= . & & . ( 4.1.1.@.1.@.{ 1.1.@.#.1.1.1.1.@.1.1.1.1.{ 1.` 1.1. .O.1.( 1.1.( x.h . & & = X.SXAXAXAXAXAXAXAXAXSXAXAXAXAXAXAXAXAXAXAXAXSXAXAXAXAXAXAXAXAXAXAXSXg 5 & 3 - 6XKXKXKXKXKXKXKXfXKXKXKXKXfXKXKXKXKXKXKXKXfXKXKXKXKXKXKXKXKXKXKXKX6X9 3 & 3 ' xXzXxXxXxXzXxXxXxXzXxXxXxXxXzXzXxXxXxXxXxXxXxXzXzXxXxXxXxXzXzXzXxX9X& = = , | VXnXBXBXBXBXBXBXBXBXBXBXBXBXBXBXBXBXBXBXBXBXBXBXBXBXBXBXBXBXBXBXBXf 5 ",
"u : m.u k b.b.N.b.A.c.b.2.c.M.c.N.h 5 7 & 3 y 8 w f t w f l w f f f w f t l w f f w l w t f f f l t f l w f w f f 6 y 3 & & & & y - 5 5 7 3 5 5 3 5 5 5 > 5 5 5 5 5 > < 5 5 3 5 5 3 > 5 5 > 7 < - & & & X & & 5 > u 5 5 5 5 5 5 5 - 5 5 3 5 7 y , > , > > > * p > > , > , < , < * & & & X & & 5 - 5 5 7 < 5 5 5 - 5 5 > 5 5 7 y 3 7 5 5 5 5 5 5 5 5 y 5 5 5 5 > & & & & y 7 E W g g g E g W g g Q 2 ! 2 W W E g W W g 2 ! a E W Q 2 ! ! 2 Q g 5 5 X 5 7 u Q E g g g E ! E 2 W W E W E ! g E Q g ! E ! W g Q E a ! g Q E ! u y 3 & 7 i s W f h ' p ' ' W ' p ' ' ' ' ' ' ' p ' ' ' p ' ' W k ' s p ' ' ' y 5 & & 5 y f f f { f f f f f ' f f f f f f f ' f f ' w f f ' f f f f f f l f 7 5 ",
"7 5 O.m.O.b.b.2.O.b.n.( ( m.c.4.n.O.: 7 & 5 7 i j j j h h h j h h j h h h j h u u h j j h h j j s h i h j h h j h i 7 5 . & & 7 5 5 y 7 5 5 5 y 7 5 7 y 7 7 y & 5 y 7 y 5 y > 5 5 5 > 7 5 y 7 5 y & & X & * & y y y 5 5 5 5 7 y 5 5 y y 7 y > = L.L.L.L.~.L.U.L.L.L.L.I.L.P.L.L.L.-   * & o - y y y 7 > 3 7 5 y 5 y 7 > 5 y & & y 7 7 5 y 5 5 y > > 5 5 y 5 5 y = & & * 7 i f h f h f j i h f j f h i f k 8 8 f p h f i h h f i s i f k f j f 5 7 X 5 5 i h f j f i i h f j f f h f f j 5 e h f j f h i h h f i i f h h f j 5 3 X 7 7 i j h h j j i j h f i h j q f i 3 j f j j j j i h f e i j h i j h i 7 > & y y h j j j i j a j h j j j h j h 7 7 h j h h j f i s j h j i h j j j 7 7 ",
"5 5 5 h j j i 8 u 7 h 8 5 k 5 i h 7 7 7 X 3 7 k i i i 7 j i s u u h u u u u k j i h i u 7 i i i i i k j i u u u i k 5 5 & X & u > & > > 5 > 5 & > y & & & & u > y > & 3 & 5 > 7 > 3 y 7 > & & & y > & & & . > 5 & & & 5 & 5 > > > 5 & > & 5 y ; R.L.L.L.L.L.L.L.L.L.L.L.L.L.L.L.U.; * & & . y 5 & > & 5 7 7 & > y & & > & y 5 > y & > & > > > = y y y > 5 > & y 3 & & & 7 i h 7 u 7 j i h u 8 h i u i 7 h j i k u u u i i i 8 j h h i u i 8 k i 5 & > 7 k i 7 7 u h s j 8 i j 7 u u 7 k i k i 7 8 i i u i u h h h u u u i k 5 5 & 5 y k 8 i u i i h i u j i 8 u d p k y k i i i i j i i i h h h 8 i 8 k i 7 & : 7 i h 7 i 8 h i h u u h i i u u h i i k 7 u 7 i d s i i h h i u u i k i 5 ",
"7 7 7 5 5 5 5 5 5 5 5 5 7 5 5 5 5 7 7 5 & > 7 h 7 5 5 u @.( @.O.h @.~ 5 5 5 i i i j 5 7 > k @.x./ ) 2.x.^ 3 7 7 u h 7 3 & X & 7 & & & p Q W W p p ~ 7 & & & y & 7 & & > * W ~ ) u Q ) ) y & & & 5 =   & X & & 5 & & & s Q Q Q u W k & & & & < - U.b L.b b L.L.L.L.L.L.L.b b b b T.; * X & * y = & & & ) Q Q h y ) a & & & 5 5 > 7 & & * h ~ ) u W ! ) > & & & > 3 X X = 7 i i 3 7 8 1.( @.` h 1.~ 5 7 5 f i i j > 7 > @.@.x.~ ( 4.2.i 5 7 5 h u 5 & 3 5 k 8 5 5 h @.O.2.) ~ 2.j 3 7 5 k 8 h 7 5 7 u 4.4.1.k @.2.@.5 u 5 7 k 5 5 X 7 7 k 5 7 3 ( 1.( @.h O.@.7 5 - d f 8 h 5 5 3 ~ @.x.^ ) #.3.^ 3 7 5 i i 7 & : 7 i i 5 7 7 1.( @.@.h @.~ 5 7 3 j i i j 5 7 3 @.@.x.~ ( 2.2.j 5 7 5 k 7 7 ",
"7 5 5 7 5 7 7 5 5 7 7 5 7 7 5 7 7 7 7 7 X 5 5 k 8 7 7 5 @.x.( 2.O.O.( 5 u 7 i i i j 5 7 5 h n.x.@.( ~ 2.) > 7 7 u h 7 5 . & & y & & & > ) ~ Q ) s Q y & > & y > y > & & & h #.W Q s s ) > & > & 5 & & & & X 3 y & > & i ` s ) Q W Q 3 & & & 7 ; T.b b b b L.T.L.L.L.L.L.L.b L.b U.; * X & * y & & > & W ) W ) W W s & > & y & 5 5 & & & Q #.) Q s s ) 5 & & & 5 5 & * & 7 j s 7 7 5 @.x.( 2.@.@./ 5 7 5 j i i i 7 u 5 ( m.2.@.^ ( 2.j 5 7 5 h 8 5 & 5 7 k 8 7 5 i x.@.@.4.( @.k 5 7 5 h 7 k i 5 7 7 x.n.1.@.~ @.@.5 7 5 8 h 7 3 & 7 8 h 5 7 7 h v.( 2.@.( @.i 5 d d s y k 7 7 5 h n.x.@.O.~ 3.) 5 8 7 i i 7 : : 7 i s 5 7 7 @.x.( 3.O.@.( 3 7 7 i j i i 5 7 5 O.n.4.1./ ) 3.i 5 7 5 k 8 5 ",
"7 5 5 7 5 7 7 5 7 5 7 7 7 5 5 7 5 7 7 5 & : 7 h 7 7 5 7 Q k ^ h k ^ i 5 5 5 i i i i 7 8 7 7 k h k h i k h 7 7 5 7 h 7 3 X & & y & & & 3 u a y u y p : & & & y & 7 & & & & 5 y 5 p > 7 p 5 & & & 5 = * & & X 5 3 & & & y u p y u p u & & & & y - L.F L.b b b L.b L.L.b L.b b b b T.; X * * X p & & & & i y u u p a 3 & & & 7 5 > 5 * & & 5 y 7 p 5 - p 7 & & & 7 & * & & 7 i i 7 7 7 k k ^ h k ^ i 5 7 5 j i i j 5 5 5 i Q j ^ i i ~ i 5 7 5 h 8 5 & > 7 k 7 5 7 i k ~ k Q k ^ 7 7 5 5 k 7 h 8 5 5 7 h h j ~ i h ~ 7 5 5 u h 7 5 X 7 7 k 7 7 5 s ~ ^ s ~ k ~ 5 5 5 7 k u h 5 5 5 7 k j ~ h i k k 5 7 5 i j 7 & & 7 f i 5 7 7 ~ h ~ h k / i 5 5 5 h i i h 5 7 5 i ~ s ~ i i ~ i 5 5 5 k 7 7 ",
"5 7 7 5 7 5 5 7 7 5 5 7 5 7 7 5 7 5 7 5 & 5 7 h i 7 7 8 7 7 7 7 5 5 7 u 8 5 k i i k 7 i 8 7 7 7 7 5 7 5 7 u u 7 i k 5 5 & & & y & > > > > & & & > & > > 3 & i > 7 > & 5 > & & > & > & & & & 5 > y 3 & & & & > 7 & 5 > & : & : & & & 3 > 5 5 y ; U.L.L.L.L.L.L.L.L.L.L.L.L.L.L.L.T.; * + - X y - > > > & & & & & & > > 3 & 7 > 7 y & > 3 > & : & > & & > & > & 7 3 & & = 7 i h u u 7 5 5 7 u 5 5 7 u 7 7 j i f h 7 i 8 5 7 7 7 u 7 5 7 i 8 u k 7 5 X 3 5 k i 7 8 7 7 5 5 7 7 5 u 8 7 7 k 7 k i 7 8 u 7 7 7 5 7 7 7 8 8 7 i k 5 3 & 5 y k 7 8 8 7 7 5 7 7 5 5 8 i 7 i k 8 k 7 i 8 7 5 8 7 7 8 5 5 7 u 7 h i 5 = : 5 i j 7 7 7 7 7 5 5 7 7 7 i 8 7 h i 8 h y 6 7 7 7 y 5 7 7 7 7 7 7 7 k 8 7 ",
"7 7 7 7 7 7 7 7 5 7 7 5 7 7 7 7 7 7 7 5 & 3 7 j k k k k k h k h k k k k k k k i 8 k h k k h k k k k k k k k k h h s 7 5 X & & y u y u y y i u y u y y u u y y & 7 u y y y u y u u 7 y u y y y y 5 & . & &   > y y u y y u y y u u y y y y u > 3 L.I.L.L.L.L.L.I.I.L.I.L.L.L.L.L.L.- * * * X - p y y y u u y u u y u y y y y > 3 y y 7 u y y y u y y u y y u y u & & & & 7 u k h k k k k h h k k k h h k k i i k h k h k k k k k k k k h k h k 7 5 & 5 7 j k k h h k k k k k k k k k h k 7 i k h h k k k k k k h h k k k k j 7 5 X 7 7 k k h h k k k k k k k j k k k i 7 k k h k k k k k h k k k h k k k u 7 & : 7 i k k h k k k k k k k h k k h k 8 i k h k h k h h k k k k h k k k h 7 7 ",
"7 5 5 7 5 5 7 5 7 5 7 7 7 5 5 7 5 5 7 5 & 3 7 5 5 5 5 5 5 7 5 7 5 5 5 5 5 5 5 7 7 5 5 5 5 5 5 5 5 5 5 5 5 5 5 5 5 5 7 3 X & & & & & & & & & & & & & & & & & & & & & & & : & & & & & & & & & & & & & & & & & & & & & & & & & & : & & > & & & & & * , , * , , , * * * * * , , , , p * * * X & * > & & & : & & & & & & & & & & & & & & & & & & & & & & & & & & & & & & & & 7 7 7 3 5 5 5 5 7 5 7 5 5 7 5 5 5 5 5 5 5 5 5 5 5 5 5 5 5 5 5 5 5 7 5 5 5 & > 7 5 5 7 5 5 7 5 5 5 5 5 5 5 5 5 7 7 7 7 5 5 5 5 5 5 5 5 5 5 7 5 5 5 5 7 > & 5 7 5 5 5 5 7 5 5 5 5 7 5 5 5 5 5 5 5 5 5 5 5 5 5 5 5 5 5 5 5 5 5 5 5 7 7 : : 7 5 5 5 5 5 7 5 5 5 5 5 5 5 5 5 7 5 8 8 5 5 7 5 5 7 5 5 7 5 5 5 7 5 5 5 5 ",
"5 5 7 5 7 7 7 7 7 5 5 7 5 5 7 7 5 7 7 7 & = 7 7 7 u 7 > > y y 7 7 7 7 7 7 7 5 7 > 1 5 8 6 y 7 7 5 5 7 7 7 7 7 5 7 7 7 5 * : : & & > & & & & & > & & > & & - > & & & & & = & & > & > & > & & : & > & & & & & & & > & & & & & = & > & & - > * & & & & = : & 5 & - = & > = = & = & & = & & & & & & & & & & & > & > - & & > > & & & & & & & & & & > & > & : & & & & & & & : 7 7 7 7 7 7 5 5 7 7 5 7 5 5 7 7 7 7 5 3 5 7 7 5 6 7 5 7 8 7 7 7 5 5 7 5 5 & 5 7 5 7 5 7 3 5 5 u 5 5 7 5 7 7 7 7 7 5 5 5 5 5 5 7 5 7 7 7 7 7 5 5 7 5 5 5 & 5 5 5 7 7 5 = > 5 y 7 5 7 7 7 5 7 7 5 3 5 7 7 7 7 7 7 5 7 7 7 7 5 5 7 7 7 & & 8 7 y y 7 5 > 7 5 y 5 7 5 7 7 5 7 y 5 > 7 7 7 7 5 7 7 5 7 7 7 7 5 5 7 7 7 ",
"7 7 7 7 7 5 5 5 5 5 7 5 7 7 5 7 7 5 5 5 & 3 7 7 3 > i V V d > y 7 7 5 7 5 7 5 5 f V f 6 5 7 7 7 7 7 3 5 7 3 7 i 5 5 7 3 X : : : 3 & 5 y y & & & & 3 & & & & * > y y 5 & & & & & & > & & & & 3 & & & > & & & = > & & 7 y 5 * & > & & > & & > & = y y > & & > & & & & & > & & > * & & & & & & > > & = 5 7 5 & & = > > & & & & & 5 y y = * & 5 & & & & & & & > > & & & & : 7 7 7 4 7 g g j 5 5 7 7 7 7 5 7 5 5 j ! g 7 5 5 7 7 7 5 3 8 5 5 i 7 3 5 7 X 3 7 7 7 5 u ! ! u 5 5 u 5 7 7 7 7 3 7 Q ) s 5 5 7 5 7 5 5 3 7 5 5 i 5 5 7 3 & 5 7 7 7 3 ' ) ) y 3 7 7 5 5 7 5 7 5 p ) ' a 3 7 7 5 7 7 > 5 7 5 7 7 5 5 7 & & 7 7 y , 7 l { f y y 5 7 7 5 7 7 5 3 f { l 8 > 7 7 7 5 5 3 7 5 3 i 7 5 7 7 ",
"5 7 5 7 7 O.i O.i i c.5 n.k 3 7 5 7 7 7 & 3 y 7 - B A A A S B y 7 7 7 5 7 5 6 A A Z A I V 5 5 7 7 3 ( n.k j j h i i 5 5 & & & & & s s u s k y & & > > & & & y h s a h h > & & > & & ) ^ 5 > y 5 y & & & & & & & y k s i h s > & & > & & & & s h i i h a & = > & & y @.s > y y 5 y & & & & 3 & & s h i s s a & & & * > & & y s s i s ~ y & & > & & h @.7 7 > y 7 5 & & & 7 7 5 ! X.X.o.X.X.8 5 7 5 7 7 5 j X.X.$.X.X.g 4 7 7 7 5 3.3.j j j i k 5 5 & 5 7 5 5 +.-.+.*.=.*.5 7 u 7 7 7 6 ! =.+.+.-.=.s 5 7 7 5 i n.( i j k i j 7 5 X 5 7 7 a  . . . . .) 3 5 7 7 7 7 5 ` x. . .V.` 7 7 7 7 3 ( n.k i i h j i 7 : & 7 7 > { } } { } } d > 7 7 7 5 7 s } } { } } ' < 7 5 5 5 c.3.j i j i h 7 5 ",
"7 7 5 7 3 A.b.A.c.b.b.c.G.k 5 7 7 7 5 5 & > 7 7 B A = * * & Z A > 7 7 7 7 i S V . & & 0 S l > y 7 i m./ / c.M.3.A.b.5 3 & > & > k 7   o   & k y & & 3 & & 8 h &     . 5 Q y * - & h ( s s 4.` O.2.Q & & & & & 7 ~ * o   . y s 5 & > & > & s s &     X s s & & & * ( k s Q 2.( 1.4.y & * & > = i a &     X s a & & > & & 3 s -       & ~ y & & & > @.s s ) 4.) 4.( & & : 7 5 g X.< X X X ! X.u 5 7 7 5 u X.2 X X X < X.$.5 u 3 / c.^ / N.n.b.G.1.: & > 7 5 *.+.& & X & +.+.5 7 5 y 7 ! =.y & * * ! =.u 5 7 3 b.1./ O.G.3.N.N.h : & 7 7 i x.' = * & y V.) 5 7 5 5 5  . .3 . . =  . .3 7 7 u m.^ / c.N.b.N.b.7 : & 7 5 V } 6 & X X V k.i 7 5 7 5 d } V X X X f | V 5 7 : O.c.^ / A.n.b.A.O.: ",
"5 7 7 7 5 m.1.G.c.n.N.b.m.O.> 5 7 5 7 5 * - 1 V S * & & & . * A f 5 7 7 > N V * & & X   w S u y 7 7 n.3.G.G.eXA.1.b.i > * & & s y o   *   o = k & > & & > Q * o *       8 s & = & u @.@.x.c.x.@.~ ) * & & & & k * o   * . o d i & > & & 5 h   . &   o   f y & > & ^ ) 2.2.v.2.( ) s * & & & 7 s   o   * o   s 5 & & & & i 8   &   .   & h = & > & @.) c.2.x.2.~ ` > & : 7 7 X.< o : X , o $.$.3 7 7 3 $.o.o & X X X < X.7 7 3 ~ n.n.G.G.G.m.1.x.: & 3 7 ! =.& X & & X & =.! 5 y 7 7 =.1 o & & & o _ #.3 u > 2.3.G.A.eXA.3.3.( : & 5 3  .`   & & & * p  .d d 7 5 )  .& X & & o &  .~ 5 y 7 n.3.G.G.G.A.@.v.j & 3 y 6 k.0 O o & &   { { 5 7 y - { { o X & &   q | 7 5 5 ~ c.n.G.G.G.M.1.3.& ",
"5 7 5 5 8 k 7 k 1.~ h / 1.3.h 4 7 5 7 5 * 5 > B n * & . & & * n N > 7 5 7 S 0   & X & = . A f > u 3 h 2.^ 1./ ^ k k 7 7 X & & h &       *     s y & > & 7 s o & o o *   & s & & & & s ~ j Q i p 7 y & & & & 7 s o * o   . o & s & & = & s 5   . o   *   y d & 3 & & ~ h h s a y u 7 & X & * s 5 o * o o * o 7 i & > & 5 s &         *   i 7 & & & y ^ s ~ s i y i : & : 8 g X.X X o & X X , X.5 7 5 8 X.5 o o X & : X o.g 5 7 5 / 4./ 1.^ k k h 3 & 5 3 +.! X . o & & . ! #.3 7 3 ! *.# = 5 . & X u =.7 7 7 7 4.O.O.O.~ k k i 3 & 5 y  .5 o o & = * .  .' 5 7 3  .( O   & & & o '  .3 y 5 h 2./ 1.( l h k 7 : & 5 f } j b.^ . * * 6 | 9 7 y 8 } 6 y s & & & . } l 5 5 5 O.1./ 1.~ ~ k k 5 ",
"7 5 7 5 : 3 7 5 # 5 5 : : 7 7 7 5 7 7 5 * 5 > A n * * ~ & &   n A > 7 7 f I - . i s . = * N V > 7 7 3 : 3 5 > 3 5 3 7 3 & & 3 h & o * y       i y * & & 6 i     - *     & h > & > & & & & & & & & & : & & & 7 i   o > &     & s > & & & s -     y X .   & s & & > & * & & & & & & & & & = & s 5   * y   * o 5 s & & & & s & o * 5       i y & & & & * & * & & & & & X : 5 g o.  i m.& X X : X.7 5 5 u X., 8 eXf X & X o.! 5 7 7 > : 5 3 3 5 3 5 7 & : 5 *.! o ) 4.o & . ! *.3 u 4 _ _ ^ UXeXo & & & -.u 5 7 5 & : 3 : 5 5 5 7 5 & 5 p x.& ) rXi . & o  .) 3 y 5  .p 4.IX4.o & . '  .4 7 5 5 : 5 3 3 5 5 5 7 : : & 5..Xk IXN.o = & - | 8 5 5 f C.8 IXIX> X &   { V > 7 7 5 : > 3 3 5 3 5 7 ",
"7 7 5 k 3.j & k O.& 5 7 5 5 5 5 5 7 5 5 & 5 , B V O x.IX& X * M B > y 5 7 A q O rXeXO & & A f 5 7 7 y 7 7 7 7 7 7 7 y 3 & & > s > O B.x.o     h 5 & = & 5 s   & rXW o   & h & > & & & : & & & & & : & & & & 5 s   & rXW o   = h & > & & i d O ( wXX . o y i & & & & > & & > & > & & & & & * i 8 O ) eX*   o d s & & > & ~ & O B.V.O .   s 7 & > & > & & > & & & > & & : 5 j X.X IXrX. & X < X.5 5 7 7 X., rXJX0 X X X X.g 3 7 7 7 7 7 7 7 7 7 7 7 & 3 5 +.! d UXn.  & o $.+.3 u $ $.aXy ~ 5 . & X < =.7 7 5 7 7 7 7 7 7 5 7 7 3 & y 6  .5 rXrX3 & & &  .f 5 y : x.x.( B.5 . & X ` ` 5 7 5 7 7 u 7 7 7 7 5 8 : : > { NX. o . & * . 8 } 7 5 7 9 NX{ & & X & X & } k 5 7 5 7 u 7 7 7 7 7 7 7 ",
"7 7 : 3.G.3.3.n.3.c.1.1.c.c.O.m.h 5 5 5 , 3 5 f U + n.3.o & 9 S f 5 7 7 > B A * eXa . * V A < 5 5 5 u 5 7 7 y y 7 7 7 > & & & y s . v.5     y s & > > & & ~ & u x.o     s i & > & 3 & > * > & & & > & & & & & s 5 p x.      s i & = > & y Q   #.( O   & ~ y & & & > * > & & & & & & > & & & 5 Q   ` ) O . & h 3 & > & & u s * v.3     y s & > & & > & & & & & & & & & & u 5 X.+.9 X X & . o.$.= 7 7 3 $.>.3   . & X o.$.4 7 7 5 u 5 u u 7 7 < 7 5 & 5 5 g -.~ k o & . y -.g 5 7 7 5 wX>.O X & & X =._ 3 7 7 7 y 5 7 u u 7 u 7 3 X 7 & x.rXX o   * . )  .5 7 7 > ' NXQ O X &   y  .s y y 7 5 u 5 7 y 5 u 7 7 : & u > NXs.. # , X . } V > u u , p.mX* X & & * V } y 7 5 7 7 7 7 7 > u 7 7 7 ",
"7 7 : 2.eXm.G.A.A.eXm.A.G.c.eXG.O.3 7 5 X 5 8 > V [.3   & 3 A V > y 5 7 5 5 I 0.  & & w T f 5 y 5 5 a Q Q Q a Q Q u 7 7 & & & & k ^ O . & & Q - & & & & & > ( y O * * u s & & & & & 5 5 - 5 y 5 5 & & & & > & > ( y o     u s & & > & & & i ( X o X * s y & & > & & > - y 5 5 y > & & & & & & y { &   . & s y & = & & > & ~ ^ O     & k 3 & > & & & y 5 5 y y y 3 > & & u 5 k HXo.X & & o.$.5 7 7 7 7 7 DX>.X & & 2 X.u 7 7 7 7 a Q Q a W Q Q u 5 & 3 u 4 =.JX: & & - =.! 3 7 7 7 3 _ JX+.  = X _ +.5 7 7 7 u Q ! h a Q Q a u > & 5 7 7 rXA.* & & p V.i 5 7 7 y = n.NXu & & 3 x.` - 7 5 5 a Q Q s g Q Q a u & : u > V NX{ . & X { } > u 7 7 7 > oXC.. & * f } f > 7 7 5 a Q Q a Q Q Q u 7 ",
"7 7 : / O.4.3.1.O.3.1.M.2.3.c.c.i 5 7 5 & > 7 7 y l i 7 7 u f 5 7 7 7 7 5 7 j l u u 7 i 8 5 5 7 u 5 a Q Q a a Q Q a u > & & : & > 7 : : * = & & & > > & & & y 7 & * & 5 3 & > & & & - > y > > 5 5 & > & & & > & y 7 & & & 3 : & & & & > & & y > & & & 3 & & & & > & y 5 5 5 - > 5 & * & & & - > u > : : & > & > & > & & & = y > > & > & > & & & & y > y & & y > > & & = 7 7 5 g j 7 7 5 j u 7 5 7 7 7 7 5 g 7 7 5 a a 5 7 7 5 7 W Q Q a Q Q W u 5 & 3 y 7 7 ! i y 7 y a 7 7 7 7 5 7 5 j h 7 7 7 h u 5 7 7 3 u Q Q Q a Q Q W u 3 & 5 u 3 f ) y y 6 d i 5 7 7 7 3 7 5 $.u 7 7 i s 5 7 7 5 5 a h ! W g Q Q i 7 : & 7 7 5 k k 5 7 7 f 7 5 5 7 5 7 5 a ^ 7 7 5 i j 5 u 7 7 7 a Q Q a Q Q Q u > ",
"7 7 7 5 7 4 5 7 5 5 5 3 5 5 4 8 7 5 7 7 & 3 7 5 > > 7 & 7 : > 4 5 5 7 5 5 5 3 > 3 > 3 = 5 3 7 5 5 5 a Q Q W W Q Q a 7 3 & > & & * & & & & & * & - & & = & * & & & & & & * & & & > & > y > - 5 3 y & & & & = & & & & * & & & & & > & & & & & & & * & & * & & > & & 3 5 5 - & 5 y 3 = & & & > * & * : * & & & & & & > & > * & & & & & & & * & > = & & y > 5 5 5 - > & & & 7 5 5 3 5 3 5 : 3 3 5 7 7 7 u 4 3 5 3 5 3 3 3 > 7 5 7 5 Q Q Q g g Q Q u 7 X > 7 7 & 5 > & 5 & 5 & 7 7 7 7 7 > 5 7 3 3 4 3 : 7 7 7 7 u W Q Q a Q Q a 7 7 & 7 7 7 - & 8 - 5 3 : 7 7 5 7 7 5 : 5 y : 5 : 5 = 7 5 7 5 j Q ! s W Q Q p 7 & : 7 7 5 & : 7 3 5 , 5 7 7 7 7 7 3 : 5 > 5 3 : > 5 7 7 7 7 Q Q Q W Q Q Q u 7 ",
"5 5 5 7 4 : 5 5 3 7 7 3 > 4 5 : 8 7 7 5 X 5 5 j 2.7 i 4.h 1.k 4.y 7 7 7 3 ^ O.3 ( ( / O.l O.5 5 7 5 j Q ! h j W Q p y & & & & s h * s s i s a h & & > & & ~ u & ~ 7 ~ y Q 7 & & & & 7 3 5 > 7 5 5 > & & & & & ~ y & ~ u Q u ~ y & > & & y ~ & 5 ^ y ~ 7 ^ & & & & > 3 5 > > y 5 3 & & & & & 7 ^ & y ~ y ~ y ~ & & & & & i h & s h p s u k & & & & > y - 5 > 5 5 > & & : 7 7 1.h 5 O.k 1.h 1.h 7 7 y 5 ^ 1.4 / / l O.~ O.3 7 7 7 j k ! a W W h 7 5 X > 7 j 2.5 l 3.( 1.j 1.8 7 7 7 5 1.k 4 4.j 1.h ( i 5 5 5 u Q Q s j g Q W 5 & & 7 7 5 ^ ~ 3 ~ k ~ 1.3 7 7 7 7 i 4.5 j 4.h 1.t ( 7 7 5 5 i j ~ h s Q Q a 7 : & 8 5 8 4.k 5 ( j 1.k 5 5 7 7 3 / O.> O./ ~ O.k l 5 7 7 u g W W s k k ! u 5 ",
"7 5 h c.1.1./ k O.7 5 ( 4.1.h ( 3.~ 5 5 & 5 3 2.M./ 1.n.G.c.G.b.1.& 7 7 u n.n.k c.m.M.b.A.n.j 5 u 5 p ! E g ! ! ! s y 5 X * 5 ( @.u ( 1.2.@.4.@.y & > * s 1.^ u ( 2.( 2.@.( & > > & 3 7 - 5 3 7 - * & & & & i @.) u @.2.( 2.@.) & & & & ) 1.a ~ ` 3.( 2.( W * 3 & & 5 7 1 - y > 5 & > & & & ~ 1.s ~ ( 2.( 2.( Q & : & > @.` y ( @.2.@.4.( y & > & = 5 5 & - y - 3 : X : 4 ^ M.3.j eXG.c.G.m.3.3 7 3 u b.b.j c.M.A.b.A.b.h 5 7 7 g 2 ! W W E ! 5 5 & 5 3 2.m.1.3 b.G.c.G.b.1.3 u 3 ^ M.2.~ n.G.m.3.A.~ 5 u 5 u E ! E ! ! E W y 5 X 5 7 & 3.b.  c.n.3.m.h 5 7 7 : 2.M./ 1.b.G.c.c.N.7 7 7 7 a k k W E E W u 8 : : 7 5 5 1.b.: A.1.eXk 5 8 7 5 i b.n.h c.m.A.3.b.c., u 5 > W E E W g g ! u 5 ",
"7 5 ( b.M.N.b.c.n.5 7 N.M.M.c.n.4.2.: 5 & 5 5 3.1.4.2.1.eXO.eX1.4.3 7 5 h 3.3.O.2.m.N.b.M.3.k 5 e , V R R R R R R z > 5 & & 5 ( ( Q ) @.@.@.4.) p & & * s ) ( ~ ~ x.~ x.^ ( & & & & 5 8 5 4 9 9 9 > > & & * h ( ) ~ ~ c.~ c.) O.& & & & ) ^ ^ ^ ^ x.W c.~ ^ * > & 3 9 9 4 9 3 9 8 & & & > & ) ) ~ ) ) v.h b.~ ) * & & 7 ( ( ~ ^ @.4.@.4.) u * = & 3 e 9 7 9 r r 3 > & : > O.3.c.l A.G.1.G.3.c.7 7 5 h 3.3.1.2.m.M.v.N.3.~ 3 7 5 R R R R R R R t < & 3 7 3.3.2.5 c.3.4.eX1.1.4 6 > O.3.3.1.1.G.3.2.2./ 5 e > % R R R R R R R 7 > & 5 u > k c.3 ~ b.4.c.k 3 u 7 3 3.3.4.2.1.G.1.1.3.u 7 7 > t R R R R R R t 8 : : 7 7 5 3./ 3 2.^ ~ m.3 7 7 5 i c.3.1.2.b.A.4.1.2.: 7 5 e R R R z R R R r 7 ",
"7 3 / M.1.1.2.O.A.O.7 3.1.1.1.b.M.1.> 5 & 3 5 l M.1.1.m.O.m.@.m.i 7 7 7 5 4.b.O.3.3.4.c.4.c.7 7 7 4 L z.z.R z.z.z.L 5 3 & & * ^ ( h ) ( ~ ( ~ @.& & 3 & > @.) s ` ~ O.~ @.h & > & 5 9 4 4 8 4 e 4 3 & & & & > @.~ s O.k ` Q @.h & > & & s @.Q k @.k 1.Q 1.y & > & > r 9 e 9 4 e 4 & & & & * i @.k Q ( ~ @.Q @.7 & > & & ~ ( Q ) ( ) ( ) ( & & > & 9 r 4 8 4 8 4 3 & & : 5 u n.4.1.b.4.b.1.b.O.> 7 7 5 2.c.O.3.3.2.3.4.c.7 7 5 7 z.Y z.L z.z.z.l = & 3 > ~ m.O.( ( k m.O.M.h 5 7 5 u n.2.O.b.1.b.O./ h 5 u e t z.Y z.L Y z.z.u 3 & 7 7 4 k O.( k / 1.b.7 7 7 7 > ~ m.1.O.m.1.M.k @.u 7 7 > <.z.z.L Y z.z.L 5 : : 7 5 k G.4.^ / ^ 3.O.5 7 5 7 4 2.c.O.3.c.2.3.h ( 3 7 7 j R z.z.z.Y z.z.l > ",
"7 5 u 1.7 u 7 j h 1.5 i 7 7 i j O.j 5 5 X 5 7 5 > 5 5 3 > 5 3 3 5 7 y 3 u 3 3 3 7 3 3 5 3 3 5 7 u 4 ,XvXPXaXgXvXvX,X4 5 & & & & & & & & & & & & & & & 5 & & & & & * * & & * > & & & y & & y 1 > y > & & & - * & * & & & & * * & & & & 5 * & & & & & & & & & - * & 3 y > 1 - > & y * & * & 5 * & & & & & & & & & & > & & & & & & * & & * & & & & & y y & y > y > & & & = u y : 3 > 5 3 5 > 3 7 7 5 7 7 5 3 5 5 > 3 5 > 5 5 7 7 7 gXlXPXaXgXPXPX! 3 & > 7 5 : 5 5 3 7 3 > 3 3 7 5 7 7 > 3 3 5 > 5 3 5 5 5 u 3 _ lXvXgX8XPXlXgXr > & 5 5 7 5 > 7 5 5 > 3 5 7 > 7 7 5 > 5 3 5 3 3 5 5 7 7 y 5 2XgXPXaXgXvXvX,X4 > > 7 7 5 3 7 7 5 5 5 5 7 7 5 7 7 5 : 3 > 3 7 > 3 7 7 7 5 7 jXlXgXaXgXvXlX_ > ",
"7 5 5 5 5 7 5 5 5 3 7 5 5 7 5 5 5 5 7 5 & 3 7 7 7 7 7 7 7 7 7 7 7 7 7 7 7 u u 7 7 7 u 7 y 7 7 7 7 3 ,XlXlXaXaXDXlX,X3 > & * & & & > & & > & & > & > & & > & & & & 5 & > & 5 & & & * 5 y y > - - 5 = & & & & & > & 5 & = > & 5 & & = & > & = > * & 3 & & > & & > > & 5 y > - y y 5 & = * & & = & & > & & > & > & & & & > 3 & & & : : : & > & & > * - > 5 - > y y 5 & & & 5 y 7 7 u u 7 7 7 7 7 7 7 5 5 7 5 7 7 7 7 7 7 7 5 7 5 u aXlXlXaXaXlXlX$.3 & 5 7 7 7 7 7 u 7 u 7 u 7 5 7 7 7 u 7 7 7 7 7 5 7 5 7 u 4 _ lXJXlXaXlXlXaXe > & 7 7 5 7 y 7 7 7 7 7 7 7 7 7 7 7 7 7 7 7 7 y 7 5 5 7 u 5 ,XlXlXaXaXFXlX-.4 > : 7 5 7 7 7 7 7 7 7 5 5 7 7 5 5 5 7 7 u u 7 7 7 7 7 7 7 7 Q Q ! Q Q g Q u u ",
"7 7 7 7 7 7 8 7 7 7 7 7 7 7 7 7 8 7 7 5 & > 7 7 7 7 y y 7 u 7 7 7 7 5 7 7 7 7 7 7 7 u 7 y 7 7 5 u 4 2XlXgXaXaXlXPX-.8 7 & & 3 & & & = & & & & & > & & & > & & & & = & & & = > & & - & y y & y 5 5 & & & & & > & & & & & & & > > & & & & 5 & & > & & > & & & & & & & - > & 5 > - - & & & & > & & > & & & & & > 3 & & & - > & > & & & : & & & & & > 5 y y > - - > > & & = u 7 7 7 7 7 7 7 u 7 7 7 7 5 7 7 7 7 7 5 7 7 5 7 7 7 5 u aXlXlX3XaXlXlX$.5 & > 7 7 5 7 7 7 7 7 7 y 7 5 7 5 7 7 7 5 u y y 7 7 7 7 7 3 +.lXgXlXaXlXlXaXu > & 3 7 7 7 y 7 5 7 5 5 7 7 7 7 5 7 7 7 7 7 7 y 7 5 7 7 7 - ,XPXJXaXjXlXlX,X3 > & 7 7 7 7 7 7 7 7 7 7 5 5 5 7 7 5 7 7 7 y 7 7 7 5 5 7 7 7 a ! Q a g Q Q u u ",
"5 5 7 7 7 u 3 7 7 7 5 7 7 7 7 7 7 7 5 5 & : 7 7 y y > > > > 7 7 7 5 7 7 7 7 6 7 , > > > 7 7 5 7 u 4 ,XlXlXaXgXlXlX>.4 5 * & > & > & & & & & > & & & > & & 3 & & & & & & > & > * & > 5 > y - > y > & > & & > & & & & & & & & & & > & > & & & & & & & & & & > > & > & > y y > y 5 > & > & & & & > & & & & & & & & > > * > & & & & & & & > & 5 & > & > - > > 5 > y > & & & 7 7 7 7 5 5 5 3 3 7 7 7 5 7 7 5 7 7 3 5 5 5 7 5 5 7 5 7 aXgXlXaXlXlXlX_ 3 & 3 7 7 7 5 3 3 3 3 7 7 7 7 5 5 7 7 7 5 3 = = 5 5 7 5 u 3 ) lXlXlX3XlXgXaXu 5 & 5 7 7 7 3 5 3 > 5 7 7 y 3 7 7 5 7 7 > 5 3 5 8 7 7 7 u $ ,XlXlXaXDXlXPX,X3 3 & 7 7 7 6 > > > > 5 5 7 7 7 7 5 7 7 7 > , > 7 7 7 7 7 5 7 Q Q Q Q Q Q Q u 5 ",
"8 5 > 5 5 & k i 3 > k 7 5 3 5 3 7 3 k 7 X 3 u y < 6 V A A V 7 7 5 7 7 7 7 5 > f B A B V 5 y 5 y u 3 0XlXlXaXaXFXlX,X3 > & & = & & 3 i a s 7 & = - > & & > & & 7 a s i 5 & & & - & & y 5 y & 5 > 5 3 & & & & 5 & & 7 i s a - & & & & & & & * & i s s y > & & & 3 & 5 y 5 & 5 > 5 5 3 & * & & & & & i s s i & & & & & & & y * 3 i s s 7 & & & & & * 5 > y y - > y 3 & & > 7 7 7 4 g $.+.$.g 3 7 7 5 7 7 7 5 j $.o.$.g 4 7 7 7 7 u aXlXFXaXlXlXlX+.: & 3 u 7 5 7 _ +.*.$.y 5 7 7 7 7 7 5 3 g +.*.+.j 5 7 7 7 3 +.lXlXaXaXlXlXaXr 4 X 7 7 7 5 ' `  . .~ 3 7 7 7 7 7 7 5 7 )  . .` 8 5 7 7 7 9 ,XlXlXaXaXlXlX,X4 5 : 7 7 5 8 f { } { s > 7 5 5 5 7 7 > f { } } V 7 7 5 7 5 7 s Q Q a Q Q Q u 5 ",
"c.> 1.l ~ ( 4.1.k / b.b.8 O.k ( h @.A.7 & 3 7 7 f A N n n A A f > 7 7 7 7 5 V I V n n } N 5 5 5 u 3 >.PXFXaXaXlXlX,X3 7 & & > & y s u 5 5 h a & > * & > - & s s y 3 i s 8 * & & & > 5 > y & 5 - 5 & > & & & & & i s 5 5 d h 8 & & & 5 > & 5 h a - 5 i h y & > & & & > y y & y y 5 & & & & > & y Q p 3 5 s h 5 & & 5 > & & 8 s y 3 7 h a & & & & & & y > & y > y > & & & 7 5 8 $.X.2 2 E X.$.9 5 7 7 7 5 g X.o.2 E X.$.5 5 7 5 u aXlXjXaXDXlXlX_ = & 3 u 5 i =.+.! ! +.=.s 6 7 7 7 5 y +.-.! ! $.=.! 3 6 y 3 +.lXFXgXaXkXPXaXu < & 5 7 3 )  .` ' ) x. .y 5 7 7 7 5 i  . .' '  . .i 5 7 7 4 ,XPXlXDXaXPXvX,X$ : : 7 7 5 { | { n { k.V 5 5 7 7 7 > { | { n { } { 9 5 7 7 7 h Q Q a Q Q Q u 5 ",
"2.k b.M.b.3.G.G.k G.G.b.A.eXm.b.eXc.m.3 & > 7 7 S n   * * * n A 7 7 5 7 7 f S 9   *   & A B > 7 7 3 ,XlXlXaXgXlXPX>.3 7 & & & y W & o o o   d i & & & > & s i   o o o * ~ 5 & & & & - > > 5 5 > 5 * & & & : & a i   o o   & h 5 & > & & = h 5   o   o 5 s & > & & & y > 5 > y > & & & & & & & ~ -   o o o 5 k & & & > & y Q * o   o   i s & & 5 & 5 5 - > - y 5 3 > X & 7 5 $.o.& . X . , X.g 5 7 7 5 g X.> X o X X o.$.3 u 5 u gXlXlXaXaXPXlX+.9 & 3 6 7 =.!   = o * Q =.8 5 7 7 5 +.*.X X X X u -.g 5 u 9 _ lXlXkX-.-.-.*.u > & 5 7 '  .p   X   .  . .3 y 7 7 8  .) . . .   ' x.y 7 7 5 _ -.-.*.*.-.-.! 5 : : 6 5 { } X .   . d | f 5 7 7 5 l } 6 . . O * } { > 7 5 5 W Q Q W Q Q Q u 7 ",
"G.1.b.c.b.b.b.N.N.G.M./ b.m.c.G.A.m.m.~ & 7 > V N   & = * * * N V > 7 7 y A w . & & &   = S i 5 u 3 ,XlXlXaXaXlXlX0X3 3 & & & s = o * . *   & h 5 * - * > Q & o * *   o 5 W & > & & > y y > - 5 y & & & & & > ' * o * *   o 5 s & & & & y d   . . *     a i & & & 5 y - - > 5 - y & & & = * y i o   * *     i y & & & & s - o & *     & h 3 & & & = y > y 5 & 5 3 & & , 5 j X.: X & & & o g X.9 7 7 9 X.2 X & 3 & X , X.u 7 5 u aXlXlXtX3XtXtX) 5 * 5 6 _ +.o & & * & . +._ 3 7 5 p =.> X * & & . ! =.5 7 5 Q tX3XtX! u a a 5 5 & 7 5  .' . & & * & -  .i 7 7 3 )  .. & * & &    .) : 7 7 u p W s s a s u 7 : : 7 8 } = * : & &   V } > 7 7 > } l O   X & * - } i 5 7 7 a ! Q a W Q Q u 5 ",
"k j k 5 i j 5 u i i i i 5 j i j 7 j k 1.& 3 > A n * * O & & . n N > 7 5 6 S 6 & X   & & . A l 5 7 : >.lXlXaXaXlXlX>.3 7 & & & h * . o o   *   s y & > & y i o * o o     * h = & & 5 5 5 - > > y 5 & & & & & y s     o   * o & s 5 & & & s 7     O       3 s & & & & > - & 5 > - 5 & & & & & s y o   O   .   5 s & > & & f & & o O     o s y & & & > y > 5 > y y 5 & * & 6 ! o.X & o . & X , X.7 5 5 7 X., & X o & & & o.2 7 7 7 3XlXlX,X> a u u y & > 3 *.! . & o & & o Q *.3 u 3 ! *.X &   . & & > =.u > 7 y u W a a ! Q Q 7 > & 3 u  .y & . o & &    .~ 3 7 :  .' O 5 u . &   '  .5 y 5 a Q Q W Q Q Q i 7 & & 7 ~ } * &   X & * - } p 5 7 8 } 6 i 1.= X & . { V > u 5 Q Q Q a g Q Q < 7 ",
"5 5 5 5 7 > 5 3 5 5 5 3 7 5 5 5 5 5 5 3 & 3 < N n * 5 n.& & * n A > 7 5 6 A 3 o ) 3.  & * A V > 7 : 0XvXPXaXgXlXPX,X3 5 X & 3 s * O a ) o . o s y & = & y a   o ) y     & h & & & > & y y > - 5 5 & & & & & y u     ) y o   & s & & > & s 3 o & ` &     5 s & & > & y 5 y > y 5 5 & & & & & s 5 O * ` &     3 s & & & 5 s * O s ) o * o i d * & & > > - - > & 5 3 & & & 5 ! o.,   x.~ . X , X.j 5 5 7 X.>   ^ 2.  & X o.! 5 7 7 ! ! ! ! W ! Q u 7 & 3 5 +.Q   5 n.& & X ! +.3 u 5 ! +.&   c.k . & 5 =.u 5 7 u Q W Q a Q Q W u 3 & 7 u x.>   ^ 3.o & .  .) 5 u 5  .W c.UX3.  : . '  .- 7 7 i Q Q W a Q ! a 7 : : > V { * X c.k   * - } u 5 5 i k.6 IXJXy . & . } / > 7 5 a Q Q Q W Q Q u 5 ",
"7 7 5 8 3 O.A.1.5 i 7 k c.u 7 7 7 7 7 7 & : > V A O eXIX  &   A V < 7 7 y A n   IXA.o & & A f y 7 5 _ -.=.#.*.-.-.) 7 5 & & & s - o wX2.O   & h > & & & 3 k   u rXy     5 s & > & & - 5 5 > y y y > & & & & = ~   y rXs o   3 s & > & & i s O x.wXo X o a d & > & > y > 5 & > 5 & & & * & & 8 s O x.eXo     i i & & & & h - o wXx.O . & k 3 & 5 & & y 5 y > y 5 > & & : 5 j X.. k UXk X X 2 $.5 7 5 5 X.2 X IXA.o & : X.u 7 5 7 s Q Q h Q Q Q u 7 & 7 3 _ =.O A.IX. & . +._ 5 y 5 j -.& h UX~ . o Q *.> u 7 u Q Q Q h Q Q W u 3 & 3 3 x.' * IXN.o & = V.a 5 7 &  .0Xh ^ & & &   [ ) : 7 7 a Q Q a W Q Q a 7 > & 5 q | + Q UXk X * f } > 7 7 $ NX5.  + = & . 9 | s 7 5 u Q Q Q a Q Q Q u 5 ",
"5 7 7 7 , 3.l M.c.O.m.4.G.3.5 7 5 5 7 5 & 5 u 7 S V ) y   * n I y y 5 y 5 f U q @.& X X Z B & d 5 5 u j j j a a h 8 y 3 & > & y k 5 ~       d i & > & & & i i y Q     * h y & & > * > y - > y & 5 - & & & & & i i < W o . * k y & & > & & s 7 s 5 o   5 ~ & & & & & y > - y y y y & & & & & = h y W > o   y h & & & & * 5 ~ 3 Q * o . a a & & & & y y 5 & > - 5 > & & : 7 3 $.o.h O.. & > X.g 5 7 7 5 j X.2 1.: X X o.$.3 7 7 7 Q Q Q g W Q Q u 7 & 3 7 u =.! ( p   X ! =.u 5 5 7 3 +.*.h (   & , -.! 3 7 7 u Q Q Q W Q Q a 7 7 * y 5 '  .'  .&   &  .` 3 7 7 7 8 NXb.o & & . ~ x.7 7 7 5 u Q Q Q W Q Q a 7 & : u 5 { } k (   X ; k.f 7 5 5 > { NXf   = & X } { 3 7 5 5 W Q Q Q Q Q W u 5 ",
"7 7 5 u > 3.c.b.m.m.G./ G.M.3 7 7 5 7 5 & 3 7 7 i ].5 X 3 5 A f 7 y 7 7 y > B a.  : : f N 5 5 7 7 5 j Q Q Q W Q Q a 7 > & & & & s ^   * . 5 s & & & & & > & ( i o & & i 8 & & & & & y & y & 5 y > & & & & & & & ( i o * & y u & & & & - * y @.&   & & s 5 * 3 & & > y > > > y > 5 & & * & > & 5 @.&   & & s 5 & > > & - * h / o . * 5 a & & 5 & & > - 5 y 5 5 - 3 > * = 7 5 3 >.$.X : = o.g 5 7 5 7 7 3 $.=.  > : g $.7 7 7 7 5 s Q Q a Q Q Q u 3 & 3 u 5 a wX, & 3 u +.s 5 7 5 5 7 3 >.+.o 3 : +.! 5 6 7 5 u Q Q Q a Q Q Q u > & 5 7 & 4.N.  > & '  .5 7 7 > 7 = ( rXi & & 5  .p 5 7 7 y a Q Q a Q Q Q p u : & 7 7 > Z.{ o 3 , { { > 7 7 7 7 & C..X* 3 & l { 8 y 7 7 7 Q Q Q a W Q Q u 5 ",
"7 5 5 u 5 k c.j k 2.j 2.l / j 5 7 7 7 5 & 5 7 7 7 7 7 u 7 7 7 5 7 3 7 7 7 7 7 y u 7 u 7 7 7 7 7 7 5 a Q Q Q a Q Q p 7 7 X & & & & : > : : : : : & > & > & & & & & & & & & & & > > & 5 5 5 y & > y & & & & & > & & & > = : & & & * y > & > & & 3 & & = * & & & & > - 5 y y - 5 - 5 > & & & & & & & 3 > & 3 & & & & & * > & & = > & = & & & & & & & > > 5 5 & y > > & & & 7 5 5 7 7 8 7 y 7 5 8 7 5 7 7 7 8 7 u 7 7 5 7 7 7 5 5 7 W Q Q Q Q Q Q u 7 * > 7 7 7 7 7 7 u u 7 7 7 5 7 7 7 7 7 6 u u 7 i 5 7 7 7 5 y Q Q Q a Q Q a 7 > & 7 7 7 7 7 7 7 y 7 5 5 7 7 7 7 y 3 6 7 7 7 7 7 7 7 7 7 7 a Q W W g Q Q a 7 & : 7 7 7 7 7 8 7 7 y 5 7 y 7 7 7 7 3 7 7 u 7 y 5 5 7 7 5 7 a Q Q a g Q Q u 5 ",
"5 7 5 5 7 5 > 5 5 > 5 3 5 5 5 7 5 5 7 5 X 3 u 5 3 5 5 3 5 5 5 3 5 7 7 7 7 5 > 7 7 > 3 7 3 3 5 7 7 7 a Q Q a Q Q Q a 7 3 & & > & & : & & & & & & & & & > & & & & * & * & * & & 5 & = > y 5 & > y 5 & & & & - * & & & & & & & * & & - * & & * & & & & & & & & & > & > - > 5 & y > = & & & & & & & & & & * & * * & & & > & & & * & & & & & * & > & & y & y & y y > 3 : & : 7 5 3 5 5 5 > 5 5 5 5 7 7 5 7 5 5 5 5 5 5 5 > 4 5 7 5 7 g Q Q a Q Q Q y 5 & : 7 5 5 5 5 3 3 3 5 5 5 7 7 7 5 5 5 5 5 5 3 > 5 5 7 7 7 y Q Q Q s Q Q g 7 5 & 3 7 5 3 y 5 3 5 3 5 3 7 7 7 7 7 7 > 7 5 7 3 5 7 7 7 7 7 u Q ! a g Q Q a 5 : & 7 7 3 7 5 3 5 5 = 3 7 u 7 5 7 7 5 7 7 3 7 3 5 7 5 7 7 5 Q Q Q a W Q W u 5 ",
"7 5 7 l > 3 5 3 7 8 5 5 > 5 5 > k u 5 7 & > 5 ~ N.a ~ m.O.b.O.m.i > 7 u 3 ~ M.i ^ m.O.n.@.m.j 5 7 7 a Q Q W g Q Q a 7 3 & & & ) ( & ) ) ^ ) ) ` & > = & & ) ( & ) ( ^ ( ^ ` & & & * y > - 5 - 5 5 & & & & & y #.s > 1.Q ( ~ @.h & & > & > 4.s & 4.W ( ~ @.h & & & & > y 5 & 5 5 y & & & & & p 2.5 i ` ~ ( ~ 4.y & > & & a 4.3 i 1.Q @.k 4.y & & & & 5 y 5 > - y > : X : 5 i m.( 7 m.O.b.@.b.( : 7 7 3 3.c.3 3.3.2.3.2.c.5 7 7 5 W Q Q a Q Q Q u 5 & 3 7 ~ N.u ~ m.@.n.O.m.i 5 7 7 8 m.( 6 n.O.b.1.n.O.3 y 7 u Q Q Q W Q Q s 7 > & 7 > 3.c.3 3.3.4.c.4.c.3 7 7 7 5 h n.3 ~ c.1.m.h 3 7 7 7 a Q Q Q W Q Q a 5 : : 7 u m.( 7 m.O.n.1.n.( 3 7 7 7 : 1.1.& 1.1.4.c.5 7 5 7 7 Q Q Q a Q Q Q u 7 ",
"7 3 ~ n.b.M.3.1.c.5 5 c.M.n.( c.3.O.: 7 & 5 5 3.3.O.1.2.eXO.eX1.2.: 7 7 5 3.3.O.1.2.eXO.eX1.4.: 5 5 j Q Q a Q Q Q a 7 3 & & 7 ) ) s ) @.4.` 4.) u * & & 5 ( ) a ) @.4.` 4.) i & & > y > y > > 5 7 & & & & & W ( ~ h ~ x.~ x.) ( & & & & h ) ~ s ~ c.~ x.) ( & & & 5 y y & 5 5 5 5 * & & & & ) ) k ~ ~ v.h v.~ ) * & 3 & ) ) Q ~ ^ v.k v.~ ^ * = & > y 5 5 & y > > & & = 3 O.3.2./ 4.G.4.G.3.c.7 7 5 j c.3./ 2.n.N.c.N.3.~ 3 7 7 W ! Q a W Q Q u 5 * 3 5 3.3.O.1.2.eXO.eX1.1.4 i 5 O.3.2.O.1.eX4.G.3.c.5 7 5 u W Q Q W Q Q Q y > & 3 s c.3.^ 2.m.M.c.A.3.~ 5 7 7 5 i N.5 5 m.G.1.4.: 7 7 5 a Q Q a W Q Q i 7 & : > O.3.2.( 4.G.4.G.2.c.5 7 7 7 > 1.3., G.m.c.3.k > 7 5 7 a Q Q W Q Q Q y 5 ",
"7 > O.b.b.b.c.2.b.5 7 m.b.b.3.b.3.4.> 7 X 5 3 4.m.3.3.n.G.b.G.b.@.3 7 7 3 4.m.2.3.n.G.c.G.b.1.> 8 5 a Q Q W a Q Q a 7 3 & & > ( @.~ ( 1.1.1.4.@.y & & : > ( @.~ ( 1.1.@.1.@.7 & & > 5 - - 5 y > 5 > & & & & i @.` ~ O.2.( 2.@.( & > & & s @.@.~ ( x.( 2.@.` & & & & > - y & > - 5 & & & & & ) ( ) ^ O.x.) 2.( ~ & > & & ^ @./ ) ` 2.( 2.( W & & & 5 > - > y 5 - y & * > 7 ~ m.c.1.b.G.b.G.b.c.7 7 7 8 v.m.4.c.m.N.m.N.b.h > 7 7 a Q Q g Q Q Q u 5 & 5 > 4.M.2.2.b.G.c.G.b.1.3 6 3 ~ n.b.1.c.A.c.G.b.c.4 7 5 u Q W g s Q Q a 7 5 & 3 i v.b.1.3.m.M.M.M.n.s 5 7 5 7 5 b.k k m.G.b.1.: 7 7 5 a Q Q Q Q Q Q a 7 : : 3 ^ m.c.1.b.G.c.G.n.c.5 7 7 7 3 k 3.k m.M.A.m.h 3 7 7 5 a Q Q a W Q Q < 5 ",
"7 5 ~ M.O.O.O.O.m.3.5 O./ O.( 2.N.( : 7 & 3 7 i 1.k k 1.h 1.s 1.u 5 7 7 5 j 1.l k 1.j 1.j 2.8 7 7 5 s Q Q g a Q ! a u > & & & s s 8 h s i s u h & > : > & i ~ y s s i s i h & & & & 5 & > 5 & - 5 & & & & & & ~ i u h y ~ y ~ y & > : & & Q s y Q u h u ~ y & y & & y 5 - y y > 5 & & * & & y ~ u u Q 7 ~ 5 ) 3 & & > & > ~ i u s 7 ~ y ^ & & > & > y > - > > 5 & & * = 5 7 @./ h 1.h 1.k 1.k 3 7 7 5 / O.k ( ( l O.~ O.5 7 7 5 W Q Q a W Q Q u 5 X 5 7 j 1.~ ~ 1.h 1.j 1.7 7 7 7 5 @.^ k 1.k 1.k @.k 5 7 5 u Q Q W a Q Q Q 7 3 & 7 3 / 1.k / O.^ ( ^ O.3 y 5 7 7 7 k h O.O.j 4.u 7 7 5 5 j Q Q g W Q Q a 7 : & 7 5 1./ k 1.k O.k 1.k 3 7 5 5 5 i l k / ( ^ ( 5 y 7 7 7 a Q Q g Q Q Q u 5 ",
"7 5 7 h 4 : 5 5 5 k 5 5 5 3 5 > k 8 7 7 & > y 3 > 4 3 3 5 3 7 & 7 7 7 5 7 5 > 5 5 3 5 > 4 3 7 7 7 5 a Q Q W Q Q Q p 7 5 & : & & & & & * & & & & & & & & * & & & & & & & & * & : > * - 5 y > y y y & & & & & & * & : * & & & * & & & & : : & & & & & . & & & & > & > y 5 > & 5 y y & & & & & & & & & X & * & & & & & & & & & & & & & * & & & & & & & 5 y 5 & y 5 y & & & 7 7 : 5 5 : 5 : 4 3 7 7 7 5 5 3 3 5 3 3 > > 5 : 7 7 5 7 W Q Q a Q Q Q u 5 & 3 7 7 3 3 > 3 5 > 5 : 7 7 7 7 5 > 5 4 : 5 : 5 3 5 7 7 7 u Q Q Q g Q Q a u 3 & 7 y 3 3 5 3 5 5 4 3 > 7 5 7 7 7 5 5 5 > 3 5 3 5 5 7 7 5 i Q Q Q a Q Q u 7 : & 7 7 : 3 5 3 7 & 5 : 5 7 7 7 7 7 7 5 5 3 5 3 : 7 7 7 5 7 Q Q Q W W Q Q u 5 ",
"5 7 5 5 7 7 7 7 7 5 5 7 7 7 7 7 5 5 7 5 & 5 7 7 7 7 7 7 7 7 7 7 5 7 7 5 5 7 7 7 7 7 7 7 7 7 7 5 7 5 j Q Q Q Q Q Q a y 3 * & : > 5 & & > & > 3 & & > & > & > & & 5 & > & : & & > & * y 5 5 5 & 5 5 > & & & & > 3 : & > & 3 & > > & & > & > & > 3 & > : & 5 & & & & & > - y & y 5 - & & & & & & = > & & > & = > & > & & & & & > & & > & & & > > & & 5 5 & y - > y > : & & 7 7 7 7 7 7 7 7 7 8 7 5 5 5 7 7 7 7 7 7 7 7 7 7 7 7 5 7 g Q Q a Q Q Q u 5 & 3 7 7 7 7 7 7 7 7 y u 7 7 7 7 7 u 7 7 8 7 7 7 7 7 5 7 5 u W Q W a Q Q a u > & 5 5 7 7 7 7 y 5 u 7 7 5 7 7 5 7 7 7 y 7 7 7 7 7 7 5 7 7 p Q Q s Q Q Q a 5 : : 7 7 7 7 7 6 7 7 8 7 7 7 5 7 7 5 7 7 7 7 7 7 7 5 7 5 5 5 W Q Q s g W Q u 7 ",
"7 5 7 7 5 5 7 5 5 7 7 5 7 7 7 7 7 5 7 5 * > 7 7 7 7 7 7 7 7 7 7 7 7 5 7 7 7 7 7 7 > 7 7 7 7 5 7 7 5 a Q Q a a Q Q a 7 5 X & & & & & & & > & & > & & & & & & & & & & & & & > & & > - 5 5 - & y y - & & & & & & & & : > & & & & & > & 3 & & & & & & & & > & & & & > & y 5 > 5 > - 5 & & & & & > > > & > & & > & & & & > > & > 3 & & & & 5 & & & & & & y y > > - y > & & : 7 5 5 7 7 7 5 7 7 5 7 7 7 7 7 5 7 7 7 5 5 7 7 7 5 7 7 5 W Q Q a Q W W u 5 X 5 u 7 7 7 7 7 7 7 u 7 7 7 5 5 7 5 7 7 5 5 5 7 7 7 5 7 5 u Q Q Q g Q Q Q 7 5 & 5 7 5 7 7 7 7 5 5 7 7 5 7 5 7 7 7 7 y 5 5 7 7 5 7 7 5 7 s Q Q Q a Q Q a 7 : : 7 5 5 7 y 7 7 7 5 5 5 7 7 5 5 7 7 7 7 7 7 7 7 7 7 u 5 u g Q Q a Q Q Q u 7 ",
"5 7 5 3 7 7 7 5 7 7 7 7 u 7 i 4 7 5 7 5 & = 7 7 7 7 5 8 6 7 5 7 5 7 7 7 7 7 7 : 2 e y , 5 7 7 7 7 5 a Q Q W g Q Q a 7 3 & > & > & & & = & & & & > = > > & & & & & y & & & & > & & & & 5 > y & y y & & & & & & & & & & > & & & & & > & & & > & * > 3 & & & > > & & > y > 5 5 y y 5 * & & & > : & & & = & & & & & & & & = & & * & 3 > & & > & = > & - < > y - > > 3 & & & 7 5 7 7 4 u 7 5 5 5 5 5 7 5 5 7 7 = 5 7 5 5 5 7 7 5 7 5 Q Q Q Q g Q Q u 5 & > 7 7 7 4 5 u u - 3 7 7 5 7 7 5 u 5 3 u i 5 3 5 6 7 7 5 y Q Q Q W Q Q Q 7 > X 7 5 7 7 3 d d u 3 7 7 7 7 5 7 7 7 5 3 i d 3 5 5 5 5 7 > p ! Q a W Q Q a 5 : : 7 7 7 5 7 8 8 5 > 5 7 7 7 7 5 5 5 > 7 7 i 5 5 y 5 7 5 5 Q Q Q W W Q Q y 7 ",
"7 5 j / > 5 3 5 5 5 3 5 3 5 3 j 7 7 7 5 & 3 7 7 > l A A A S f < 5 7 7 7 7 y > w.oXoXoX Xt > 7 7 5 5 i Q Q Q W Q Q a y 3 & & & & & i Q h k s > & & & & & 5 * y 1.3.3.3.( & & > & & * y 5 y & 5 y 5 5 * & & & > & 3 s k s k a & & & & & > = & i 4.3.3.2.s & & & & & & y > - & 5 > 5 > & & & & & & 7 s h h W 7 & > & > & > & & ^ 3.3.x.~ 5 & & & & & y 5 - > 5 y 5 5 & & : 7 5 5 u $.X.X.$.$.5 5 5 7 7 7 5 5 ,.=.X.X.$.7 5 7 5 7 7 W Q Q a W Q Q u 5 & 3 7 7 3 ! *.-.=.=.Q 3 7 5 7 5 5 5 u #.=.-.=.$.5 7 7 5 7 y Q Q Q a Q Q s u 3 & 5 7 5 5 `  . .x. .y 7 7 5 7 5 7 3 )  . . .x.~ 5 7 7 u 5 a Q Q Q Q Q Q a 5 : : 7 7 5 8 { } } } { 5 7 5 5 7 7 5 5 { } } | { 8 5 7 5 5 5 W Q Q a Q Q Q u > ",
"7 : 4.G./ N.m.O.1.c.O.l 4.m.3.G.k 5 u 5 & : 7 > B S w 3 3 n S V > 7 5 7 5 5  XoXl 8 t s.oXl 7 7 7 7 a Q Q a Q Q Q a 5 5 X & : : k i & * & y k 3 & > > & * y c.( & & y 4.4.& = & & > 3 y 5 & y > 5 * & & & > & y ~ - * & & s s = > & & = & ~ x.h & > Q c.^ & > & & > y > > > y > > & & & & & & i h & X & 5 s y & & 5 > & & 1.2.y & 3 u h - & & > * 5 y y 5 > - y & & * = 7 5 h X.2 , , 2 o.$.5 5 5 7 3 5 >.3X2 $ > o.X.j 4 5 7 5 a ! Q W Q Q Q u 5 X > 7 3 +.-.2 > > ! =.$.3 7 5 7 5 u =._ , > < *.+.5 5 7 7 u Q Q W a ! Q Q u > & 5 5 6 x. .y y y ` V.p 5 7 7 7 5 ' x.' = > W V.) - y y 7 u Q Q g W Q ! p 7 & & 8 > k k.{ - - f } { 5 7 7 5 7 5 { } q - 6 { } d 5 7 7 7 a Q Q Q Q Q Q u 7 ",
"7 5 A.G.A.c.b.b.b.3.G.4.A.3.b.M.5 5 7 5 & 5 5 l oXl h o * . - U i 5 7 7 , w. X* . . * O w. X5 7 7 7 a Q Q Q a Q Q a 5 5 & & * ^ ` y = o   o y s & & & & & 4.~ O   * o o 2.^ & & : & 5 > y & 5 - 5 & & & & & * 2.h p       o s 8 & - & * y c.: o   O O 3 3.& & 3 > - 5 y - y 5 - y & & * & & i 2.y y O * o & ~ = & & & & ( 2.  O > V.* 5 W & & > & & > > & y > > 5 & * > 8 5 DX$.k X . X X X.$.9 7 7 $ +.DXO G.b.O X g X.7 u 7 5 a Q Q a Q Q Q y 5 & 5 5 Q JXQ l o X o < -.j 5 7 7 5 -.! O   & X . =._ 3 > 7 u W Q g W Q Q a u 3 & 5 , m.eXp 8 o & o ' x.3 7 7 5 ~ 0X8 o o &   y  .' 7 y 7 a Q Q Q a Q Q a u : : 8 > XXk.W * X   & 6.{ > 7 7 : { }   * . & o V } > u 7 7 W Q Q a Q Q W u 3 ",
"5 i O.j b./ O./ 4.c.^ M.3.^ O.2.b.h 5 5 & 5 , j.s.> UXn.  =   M V > 6 7 7 oXV   & & & & & oXV , 7 5 a Q Q Q Q Q Q a 7 > & & & 3.> ) rXy o     s 5 & = & i 2.    &   O O y 2.& > & & 3 y > 5 5 > 5 & & * & & i c.o B.wXo *   & h & > & & ( ( O & o p eX( = a & & & & & y 5 & y y < - & & & X O./ & rX` O * o 8 d & & & * 3.y o o #.eXO * s 5 & & & 5 5 - y - 5 5 5 & & & 9 ! DXo NXJXX & X < X.5 7 5 5 DX! O m.JX  & + X.g 5 7 7 Q Q Q g W Q Q u 5 & 5 = >.>.q UXm.  - . +._ 5 7 9 +.wXg rX3.. & X < *.7 u 7 u Q Q Q a Q Q a y 3 & 5 j sX' 3.UXh . * &  .s 5 8 & A.B.( UX~ * =   ) ` 3 u 5 p ! Q a a Q Q p 7 & > 3 { NX  rXIX  & . q } y 7 7 5 } q * & & & . & } f 5 7 5 g Q Q Q Q W Q < 7 ",
"5 5 5 5 3 5 5 5 > 5 7 5 5 5 > > l u 5 5 & 7 >  X<.O / 4.  , * w A > 7 5 j oXu * & & . X *  X5.: 7 5 a Q Q Q a Q Q a 7 5 & & 7 3.&   ) y o *   u y & & & k 4.o * o * x.) & x.5 & = * 5 > y > - 5 5 & - & & & ~ 1.O & ( * o   & s > & > * 4.h o   O ) V.* > s & & & & 5 5 5 & 5 > - & & & , * 4.Q O W ) o   o 5 s & & & y 3.*     & & o   i u & & & - 5 y > > y > > & & 3 + ,.>.o 5 n.& & X : X.7 5 5 a DX5 o 6 q X & X o.g 5 7 7 W Q Q a Q Q Q u 5 X 5 & wX-.O / 4.o & . Q +.3 u 3 =.wX: A.eX. & & > =.u 5 7 u Q Q W a Q Q Q 5 5 # 8 k NXd o x.h   = .  .) 3 6 & qXx.  N.2.o & . '  .5 7 7 s W Q Q Q Q Q a 7 : = , k.XXo i n.& X & - } 8 5 7 8 } - & . & & &   } V > 7 7 W Q Q a Q Q Q u 5 ",
"i k 5 4 5 5 > 5 5 4 > 5 8 5 j 8 X 8 k 3 & > & ].k.. . o & & * n B y 8 7 8 oXq * o ( rX> *  X<., 7 5 a Q Q W g Q Q a 7 7 & & 3 x.= * O o     X s 7 & & & s 4.      * x.B.& 4.> & & > 5 & y = > y 5 & & & & . s 1.    O   &   * h 3 & & * @.^ o     o O o 7 s & > & & 5 > 5 & 5 - > & & & & * { ~ o   O * . o y i & > & > 3.3   . o o * o s y & & * & y 5 5 & y - & & & 3 - +.2X# # o X & X > X.5 5 5 8 DXg X X X & & X o.! 3 7 7 Q Q Q a g Q Q y 5 X 5 = wX=.o X   & & X ! +.3 7 3 #.wX*     & X X y -.5 7 7 u Q Q Q a Q Q s u 3 & 3 i rXs   o & & * X  .~ 5 y , eXm.O o o & & o )  .5 7 7 u Q Q a W Q Q a 7 : : : 5.XX+ & o X & X q } 6 5 5 7 } ; o B.A.o & * } ~ < 7 5 s W Q a a Q Q u 7 ",
"A.O.n./ O.l O.k O.l 1.: 3.^ h / 1.O.c.h & = > <.oX& & , & . * S f y 5 7 ,  Xf.  & 3 IX) V oX8 5 7 5 a Q Q Q W Q Q p 7 >   & & 1.( O &     o & s & & & & > c.6 o   o O O 8 a & & & & y y y > - y 5 5 & & & & = c.u o &       8 s & & > & s 3.    *   .   s y & & & y y y - y 5 y y & & & & & s c.            s 5 & = & *  ./ O . *   o & ~ > & & > 5 5 5 > y 5 5 5 & * > 5 a DX$.X : & & o o.$.5 7 5 9 >.>.o & & & X < X.7 5 5 5 Q Q Q W Q Q ! u 5 & 5 3 +.JXX , & * X & -.Q 5 7 5 u JX+.o , & &   $.+.3 5 7 u Q Q Q Q Q ! W u > X 7 : eXeXO & & & o s  .u 5 7 : x.NX& X & & & X  .' 3 7 7 a Q Q Q Q Q Q a 7 : : 7 i NX{ O & & &   { { > 7 7 5 { {   IX@.o * q } 8 5 7 5 Q Q Q W Q Q Q u 7 ",
"3.c.m.m.G.eX1.A.G.N.b.k 4.k 1.A.n.n.rX^   7 u >  X X& & X & A B 7 5 7 7 > f oX6.* . > k oX<.< 7 7 7 u u u u u a u u 7 3 & & & 3 b.k o .   & ~ y & & & > & h v.3   . . 5 ' & & & & & 5 & & > > 5 & & & & & & * ~ x.3 o *   - s 3 & & 3 & * 4.4.      & a i & > & & & y & & 5 & > & & & & & > * 4.4.    * * i s & & & 3 & 3 b.k       & s y * & & & > & & - > y > & & & = 7 3 +.HX< o & X 2 X.u 5 7 7 3 j HX+.X X X , X.! 3 u 7 7 u u u u u u y y 5 , > u 5 wXwX, & * & +.+.5 7 5 7 3 *.JXg X X X ! -.a 5 > y u u u u u u u u u 3 * 5 7 h NXV.  & & y  .` 3 7 5 7 > rXrX= & * &  . .3 y 7 7 y u u u u u u u 7 & : 8 , k.NXf . * * V } 8 7 7 7 7 8 k.} >   * - k.' 5 y 7 7 u u u u u u u 7 7 ",
"O.m.b.m.m.b.j M.c.c.M.i 2.b.2.n./ b.N.1.* 3 y < 8 w.i > 3 6 V 7 7 7 5 7 5 , L 6.: 7 & V w., 7 8 7 7 7 7 u u u 5 a 5 u 3 * : & & d ~ * & * 5 y & > & > & & & ~ u * & & 8 5 & & > > & & & & & & & & & & & & & & & ~ u * & & y y & & > & & & & ^ 5 & & & u & = & & & & & & * > & & & > & & & - & > ^ & & & & i > & & > & & * u ~ & & & 5 y & = y & & & & & & & * & & > & & 7 7 5 +.$.= 5 5 ! j 7 7 7 5 5 9 $.=.3 3 5 2 ! 3 7 7 7 7 7 u y u u y u 7 5 X 5 7 > j -.u - 3 y _ u 7 7 7 5 7 4 =._ 3 5 3 ! j 5 7 7 7 7 y u u p 7 u y 7 7 & 7 7 > ( c.& > - ' ) ; 7 5 7 7 5 i n.d = & 8 ` y 7 7 7 7 7 7 u u u 5 7 7 7 : & 7 8 3 5.{ > 5 > { f 5 7 5 7 7 5 ~ 5.: 7 5 f V 5 7 5 7 5 7 y u 7 a u a 7 7 ",
"l j u i h j 5 8 h i j 5 i ~ i i 7 u 7 i X 3 7 7 3 > 7 5 8 4 7 5 7 7 7 5 7 7 > : 7 5 u 3 : 7 5 7 5 5 5 u -.+.-.d -.W 5 > & & & & * & & & & & & & & & & & : : * & & & & * & > & > & & > - 5 & & & - & > & & & & & * & & & & & & & & > & & & & . & & & & & = > & > & > > * & & & & = & & & & & & & & & & & & & & & & : & & 3 * & & & : & * & & & & & = > & & = & & & & & : 7 7 5 9 3 5 8 5 5 5 7 5 5 5 7 5 3 3 7 5 7 5 3 7 7 7 7 7 7 _ *.-.h ` -.8 7 & 3 5 7 > 3 5 5 7 5 3 5 7 5 7 7 5 7 & 5 5 7 8 3 5 7 7 7 5 7 5 -.Q -.W ,X#.> 5 X 7 7 5 : : 5 5 8 5 3 5 5 7 5 7 8 5 X 5 5 u 5 3 5 7 7 5 7 7 s -._ *.: -.W 7 & & u 7 5 : 5 5 7 5 5 3 7 7 7 7 5 7 5 : 5 7 5 3 5 7 5 7 7 7 3 [ -.Q -.-.-.y 5 ",
"> 7 7 5 3 3 7 5 5 3 5 5 3 : 3 5 7 7 7 5 & 5 7 7 h 7 7 h 5 k 7 h 5 5 7 7 7 7 7 i 5 h 7 j u 5 7 5 7 5 W ! ` [ ,Xi -.) 7 3 & & & 5 7 & > 3 > y & 7 & > & > & & 7 & 7 5 * y 5 & & & & > * & & & > & * > & & & & & y > & y > y & y > & > & 5 & y u 3 5 & > y & & & & & & & > & & y > > & & & & & & y & & y & y > 7 & > & > & & y y 7 7 & > 7 & : > & > & > & * y & > : & & : 7 5 j 8 5 h 5 h 7 j 7 5 7 7 7 7 5 8 k i 5 i j 5 7 7 7 5 W ! _ ,X+._ ,X7 7 & 5 7 y t 7 7 j 5 k 8 j 5 7 7 5 7 7 k 5 j i 3 h u 5 7 7 5 y Q _ Q -.! ,X#.3 > & 5 5 i j 5 i i 8 i i j 5 7 7 7 5 j k 5 h 4 5 h 5 7 5 7 5 s ! _ Q _ h tXQ 3 : : 7 5 h 8 5 j 6 j 8 j 7 7 7 5 7 7 5 i j > i j 5 7 7 5 7 5 Q -.*._ -.-.*.u 5 ",
"7 7 7 5 1.i 3.c.n.O.3 k 3.O./ / : 7 7 5 * 7 > @.G.k O.N.b.M.b.M.~ 3 7 7 7 7 7 A.O.M.b.N.2.3 7 7 5 7 7 7 a g Q h _ u 7 7 & & & ` @.> O.1.@.1.@.@.= & & > & 7 3.@.x.7 5 2.) & > & > & & > & & & & & 5 & & & & y 2.~ 7 4.( 4.@.4.~ & * & > & y 2.` 1.& Q 2.y * > & - > & - & & & & & & & & > * ~ 2.y W 2.( @.@.2.i * > & & & x.~ s x.5 ( @.> & & & > & & & & & & & & > & & 5 h A.4.j G.b.m.b.N.2.5 7 5 7 > k A.O.N.7 b.m.j 5 7 7 5 5 u s Q W W Q 5 7 X > 3 1.G.k 1.A.b.M.b.A.~ 3 7 7 5 u c.m.G.2.j A.2.> 7 7 7 7 7 s h _ a ! g 7 5 & 7 7 b.M.i b.m.b.b.m.m.i 5 5 7 5 k N.b.A.k O.G.~ 3 7 7 7 7 7 s i g g Q u 7 & & 5 h A.4.j M.b.M.b.N.4.5 7 7 7 5 5 b.m.i n.m.u 7 7 5 7 7 5 h ! s ` W Q 7 7 ",
"5 5 5 i b.c.N.m.A.3., ^ G.eX2.b.5 7 7 7 X 3 5 3.1.1.1.O.eXO.eXO.2.: 7 5 7 7 3 4.b./ eX1.c.u 7 7 7 7 7 7 u 5 u 5 u y 7 3 & & 7 / ~ h ~ ` #.( 4.~ a * 5 & & 7 x.` ~ ~ s ~ ( & & & > - & > & & 5 & & & & & & & h ^ ^ Q s c.s c.Q ( > - & & & * ( y ` & ^ ~ ^ & > & > * > & & > & & & > & & & & ( Q ~ ^ Q n.i v.s ) X & & > : s ( y ) 7 ) ) i & & > & & > & > & & & & & & : 3 O.4.4.1.( eX1.G.1.c.7 7 7 5 7 M.G.k A.k 2.2.l 3 7 5 7 7 y 7 i i u u y 5 * 5 7 2.1.1.4.1.eX/ eX( 3.> 8 7 7 5 l 3.G.4./ 1.c.8 7 7 7 7 5 u u u 5 s u 7 3 X 5 h 3.4.( 1.n.N.c.A.1.^ 3 7 7 7 7 b.G.O.1.1.1.2.& 7 7 5 7 u u y 5 7 a 7 u 3 > : O.4.2.1.1.eX( eX1.c.7 7 5 5 5 h 2.4.O.4.3.~ 3 7 7 7 7 7 7 y 7 y y 7 5 7 ",
"7 7 5 j b.b.b.N.A.b.7 7 M.G.M.b.7 7 7 5 & 5 5 O.A.4.2.N.b.M.b.N.^ 5 7 5 7 7 : 1.1.m.b.N.2.3 u 7 7 5 7 p -.*.-.a -.Q 5 > X & & ` @.~ ` @.` @.@.@.> & > & & a 4.) ~ @.~ 4.) * & > * & > & > & & & & & & & & & y #.` ~ 4.@.1.@.#.( & > & > * i ( & ( i ) 2.i & > & & & & 5 & > & & & & & & & & ~ 4.^ ~ 4.` 1.@.2.a & > > & & h ( ( s s @.@.> & & > & 5 & & > & y & > > & = 5 j N.v.1.N.b.M.b.N.2.3 7 7 5 i 2.G.4.M.4.b.m.u 7 7 7 7 5 _ *.-.s Q -.5 7 & 5 3 @.A.4.4.N.n.M.b.A.^ > 7 7 5 k G.3.m.b.1.M.3.3 7 7 7 7 4 -.W -.g [ *.3 7 & 7 5 v.M.1.b.n.b.M.n.m.8 7 7 7 5 ~ m.m.N.2.4.A./ 3 y 7 7 5 u *._ *.3 -.Q 5 & 3 5 j N.c.1.N.n.m.n.N.2.3 7 5 5 7 5 b.M.1.b.N.7 5 7 7 7 7 5 *.*.! -.-.-.d 7 ",
"7 5 7 5 3.O.1.k 1.1.( & j k 4.4.: 7 7 5 * 3 5 7 h 8 i j 5 k 5 k 7 7 5 7 5 7 7 7 5 h 7 j y 5 7 7 5 5 s Q #._ ,Xu -.Q 3 7 & & & 5 y 5 3 7 3 5 > 5 & & & & = & y y y > & 5 y & & = > & 5 & & 3 & > > & & & & = & y 3 & y & y & 7 : & & & & & > & & > 3 > y & & = & & > & & & > & 5 & > & & & & & y 5 > y & 7 & y & & & & = & u > > & y 5 5 & > & & & & & & 5 & & & & & & & 7 5 f i 9 i 7 h 7 s 8 7 5 7 7 5 3 5 k j u i i 5 7 7 7 3 W ! _ *.[ s ,X8 7 X > 7 7 h i u k 4 k 5 h 5 5 5 7 5 a l s s i i j 7 5 5 5 7 a Q _ ) -.p _ Q 5 5 X 7 3 i i i i i 8 j i i 5 7 5 7 5 i k 5 s u 8 k 7 7 7 7 5 a ! [ Q _ u -.u 7 : & 7 5 h i 8 i 9 h 7 s i 5 7 7 7 7 5 i j 8 i i 5 7 3 7 7 7 Q -.*._ -.-.*.i 5 ",
"7 7 7 5 7 5 : 5 : 7 7 7 7 3 4 8 5 7 7 7 X 5 7 5 5 5 5 5 5 5 5 5 7 7 7 7 7 5 8 5 7 5 5 5 7 7 7 7 7 7 7 7 a a ! W _ s 7 3 & : & & & & & & & & & & > & 5 & & & & & & & & & & > & & & > & & & & & & & & y & * & > & & : & & & > & & & 3 & & & & & > & & & & > & > > y & & & & & & > > & & & & > & & * & & & & & & & & & > & & & & & > & & & & & : : & > & & & & > > & & & & 7 7 5 5 5 5 7 5 7 > 7 7 7 7 7 7 7 7 5 5 7 5 3 y 7 7 7 7 5 u a ) Q ! ! 8 7 . 3 u 7 5 5 5 3 7 3 7 5 7 5 7 5 7 5 5 3 7 3 7 5 5 7 7 7 7 7 5 a Q _ s Q 7 5 5 X 7 7 5 5 7 5 5 7 5 5 5 7 7 7 7 7 5 5 5 > 7 7 3 7 7 7 7 7 5 7 s i a Q #.u 7 & : 7 7 > 7 7 3 7 7 5 3 5 7 7 5 7 5 8 5 5 5 5 5 8 7 7 7 7 > 5 h _ a _ W _ 6 7 ",
"5 5 5 5 5 7 7 7 7 7 5 7 7 7 7 7 7 5 5 5 & : 7 7 5 5 7 5 5 8 5 5 5 5 5 5 7 5 7 5 5 5 7 5 7 7 3 7 5 5 5 5 7 7 3 7 5 7 7 : & & : : & > & 3 & > & & & & & & > & > & & > & & & & & y & & & & > & & * & > & * & & & = & : > & & & & & & > & > & 3 & & > & > & & & & & & & > & > & & = & & & & & & & & & & = > & : > & & > & & > & & > & & > & 3 & & & & & & 5 & & & & > & & > 7 5 5 5 5 7 5 5 5 7 5 7 5 5 5 5 7 7 5 5 5 5 7 7 7 > 7 7 7 7 5 3 5 5 3 7 5 & 3 u 5 7 5 5 7 7 7 7 5 7 5 7 5 7 5 5 7 7 7 7 7 8 5 7 5 5 5 7 5 5 4 5 5 5 5 3 & 5 7 5 7 5 7 7 7 7 5 7 5 5 5 5 5 7 5 5 7 7 7 7 5 5 5 7 7 7 7 5 7 5 5 3 7 7 & & 7 7 7 7 7 7 5 7 7 5 7 5 7 5 5 7 5 5 5 5 7 5 7 5 3 7 7 7 7 3 3 3 9 5 3 7 7 ",
"& & & & & & X & & & & X & & & & & X & & & & & & & & & & & & & , & X & & & & & & & & & & & & & & & & & & & & & , & & & & X & & & & & . * & X & & & * X & & & * & * & * & & * & & * & & & & * & & & * & & & & X & & & & & X * & & & & . * & X & * & * X & & * * & * & & * . & & & & & * & & X & & & & & X X * X * & * * & & * & & & * . * & & & * & * & & & & & & & & & & & & * & * & & & & & & & & & & & & & X & & X & & X & X & & & & & * & * & & * & & & & & & & & & & & & & & & & & & & & * & * & X & & & X & & & & * & & & * & & & & & & * & & * & & & & * & X & & & & & & & & & X & & * * & & & & & . & & & & X & & & & & & & & X & & X * & & X , # X & X , * & & & X & & & & & & & & ",
"3 > 3 3 > 3 > 5 3 : > 5 3 > > 3 3 5 > 3 3 : 3 : : : : 5 3 3 3 > 5 > 3 3 > 3 3 > 3 3 > 3 > : > 3 > 3 : > 3 3 3 > 3 3 > 3 3 > 3 & 3 > 3 5 > 3 > 3 3 3 3 > > 3 3 3 5 5 3 3 3 3 > 3 3 3 3 3 3 3 3 > 3 3 & 3 > 3 > > 3 > 3 > > 3 3 3 3 > 3 5 > 3 3 3 3 3 3 > 3 3 3 3 5 3 5 3 3 5 3 & 3 > = > 3 > 3 > 3 > 3 > 3 7 3 : 3 5 3 3 3 3 3 3 5 3 3 3 3 3 3 3 3 3 & 3 > > = > 3 3 3 > & 3 3 3 3 : 3 3 3 > 3 : > 3 : : 3 > 3 > 5 5 : 5 5 > > 3 3 > = > 5 3 3 > 3 3 3 & > 3 : : 3 > 3 > & 3 3 > 3 : > 3 3 & 3 > 3 3 3 > > 3 3 > 3 3 3 3 3 5 3 3 3 > : 3 3 > 3 > 3 3 : : > 3 3 : 3 5 : 5 : 3 3 > > : 3 5 > = 3 : 3 > : 5 5 5 : 3 3 3 3 > : 3 3 > > 3 5 : > 3 5 & 3 > 3 > 5 5 3 > 3 3 : 5 > 3 > 3 > 3 = > 3 ",
"u u k h k k 8 7 u 7 7 7 7 7 7 u 7 7 7 7 u 7 s ( ^ ^ k 7 u u 5 5 7 7 7 7 7 7 7 7 6 7 j h h k i 7 7 7 u 7 u 7 5 u u 7 7 7 7 7 y u 7 7 7 7 u 7 7 7 y 7 7 7 7 7 7 7 7 y 7 7 7 7 y 7 7 7 7 7 u 7 7 7 u y 7 7 7 7 7 7 u 7 7 7 7 7 y 7 7 7 7 7 y 7 7 7 y 7 7 7 y 7 7 7 y 7 7 7 7 7 y 7 7 7 7 7 y 7 7 7 7 7 7 7 y 7 7 7 y 7 7 7 7 7 y u 7 7 7 7 y 7 7 7 u 7 7 7 7 7 7 7 y 7 7 7 7 7 u u 7 7 7 7 y 7 7 7 7 7 7 7 y 7 7 7 5 7 7 7 7 7 7 7 7 7 7 7 7 7 7 7 u 7 7 7 7 7 7 7 7 7 7 7 7 7 y 7 7 7 7 7 u 7 7 7 u y 7 7 y 7 7 7 y 7 7 7 7 7 y 7 7 7 7 7 7 7 7 7 u 7 7 7 7 7 7 7 7 7 7 7 7 7 7 7 7 7 7 7 7 7 7 7 7 7 7 7 5 7 7 7 u 7 7 7 7 7 y 7 i i 7 8 u 7 7 7 r u 2 , 7 5 7 7 u a g g j u u g g g g 7 7 ",
"7 y ^ 1./ ( u 5 7 5 a 5 5 7 5 5 5 7 5 7 7 > ~ O.^ O.) 3 7 7 5 u 5 7 5 5 3 7 7 7 7 7 k 1.1.1.k 7 7 7 u u 7 7 5 5 7 7 7 7 7 7 7 7 5 7 5 7 7 7 7 7 7 7 5 7 7 7 5 7 5 5 7 7 7 7 7 7 5 7 5 7 7 7 7 7 7 7 5 7 5 7 5 7 7 7 7 7 7 7 7 7 5 7 5 7 7 7 7 7 7 7 7 7 7 7 7 5 7 5 7 5 7 7 7 7 7 5 7 5 7 7 7 7 7 7 7 7 7 7 7 5 7 7 7 7 7 7 7 7 5 7 5 7 y 7 7 7 7 7 5 7 5 7 5 7 7 7 7 7 7 7 7 7 7 5 7 5 7 7 7 7 7 7 7 7 7 7 5 7 5 5 7 5 7 7 7 7 5 7 5 7 7 7 7 5 7 7 7 7 7 7 7 5 7 7 7 7 7 7 7 7 7 5 7 5 7 7 7 7 7 7 7 7 7 7 5 7 7 7 7 7 5 7 7 7 5 7 5 7 7 7 7 5 7 7 7 7 7 7 7 5 5 7 5 7 7 7 7 7 7 7 5 5 7 7 7 7 7 7 7 5 7 5 7 5 y 7 7 7 k s k i ~ h k k i 7 7 G G G G r G 7 5 5 u g g ! g u u ! g g ! 7 7 ",
"7 7 ( k ~ O.8 7 5 g $.! 7 7 g ! g 5 7 5 7 5 ~ / @.^ ~ 7 7 7 g $.g 5 u ! ! u 5 u 7 5 h 7 O.~ j 5 7 u ! ! u 5 u ! g 7 7 5 7 y 7 7 5 7 5 5 y 3 5 7 7 7 7 5 5 7 5 5 7 7 7 y 5 7 7 5 5 7 7 5 7 5 5 7 7 7 7 5 5 7 7 5 7 5 5 7 7 y 7 7 5 7 7 5 7 5 5 7 7 7 7 5 7 7 5 7 7 7 5 7 5 7 7 5 7 7 5 7 7 7 5 7 7 5 7 5 7 5 7 7 5 7 7 5 7 7 3 y 5 7 7 5 7 5 7 7 7 5 7 7 7 5 7 5 5 7 7 5 7 7 5 7 7 5 7 7 5 7 7 5 7 5 7 7 5 7 5 5 y 3 5 7 7 7 7 5 5 7 7 5 7 5 7 7 7 5 7 7 7 5 7 7 5 7 7 5 7 5 7 7 7 5 7 7 5 7 7 5 7 5 7 7 5 7 7 5 7 5 5 7 7 7 7 5 5 7 7 5 7 5 5 7 7 5 7 5 7 5 7 7 5 7 7 5 7 7 5 7 7 5 7 7 7 5 7 7 7 5 7 5 7 7 5 7 5 7 7 5 k ~ ( ~ i 5 1.j u 7 , G 1 G G G G , 7 7 > j u ! u u u < g j u y 7 ",
"5 7 ( ^ c.v.u 7 5 7 g u 5 7 7 u u 5 5 7 7 5 ~ O.( 5 h 7 5 7 j ! 7 5 5 u u 5 5 5 7 5 h 5 1./ i 5 7 5 g g 5 5 u u u 7 5 7 7 3 7 7 7 7 7 7 7 7 7 5 7 7 5 7 7 7 7 7 5 7 7 3 7 5 5 7 7 5 5 7 5 7 7 5 7 5 5 7 7 5 5 7 5 7 7 5 7 3 7 7 7 5 5 7 5 7 7 5 7 7 5 7 5 7 7 5 5 5 7 7 7 5 5 7 5 7 7 5 5 5 7 5 7 7 5 7 5 7 7 5 7 7 5 7 5 7 7 7 7 5 5 7 7 7 5 5 7 7 7 5 7 5 5 7 7 7 5 7 5 7 7 5 5 7 7 5 7 7 5 7 7 7 y 3 7 7 7 7 7 7 7 5 7 5 5 7 7 5 5 7 7 7 5 5 7 7 7 5 7 7 5 7 7 7 5 7 5 7 7 5 5 7 7 5 7 7 5 7 7 7 7 5 7 5 5 7 5 7 7 5 7 5 5 7 7 5 5 7 5 7 7 5 7 7 7 7 5 7 7 5 7 5 7 7 5 7 7 5 7 5 5 7 7 7 5 5 7 7 7 7 5 7 7 5 7 5 7 5 ~ k h ^ k j k k j 7 5 G G G G G G 7 7 5 u u g u u u 5 $.g g $.7 5 ",
"5 7 ~ k ~ ^ 7 5 7 5 7 5 7 5 7 5 7 7 7 7 5 5 i k k h i 7 7 5 5 7 7 5 7 7 7 7 u 5 7 5 j h ~ k i 5 u 5 7 5 7 7 5 5 7 7 7 5 5 7 7 5 7 5 5 7 7 7 7 7 7 7 7 7 7 5 5 7 7 5 7 7 7 7 7 7 7 7 7 7 7 7 7 7 7 7 7 7 7 7 7 7 7 7 7 7 7 7 7 7 7 7 7 7 7 7 7 7 7 7 7 7 7 5 5 7 7 5 7 5 5 7 7 7 7 5 5 7 7 5 7 7 7 7 7 7 5 7 7 5 5 7 5 7 7 5 7 7 7 7 7 7 5 7 5 7 7 5 5 7 5 7 7 5 5 7 5 7 7 5 7 5 5 7 7 5 5 7 5 7 7 5 7 7 7 5 5 7 7 7 7 7 7 7 7 7 7 7 7 7 5 7 5 7 7 5 5 7 7 7 7 5 5 7 5 7 7 5 5 7 5 7 7 5 5 7 5 7 7 5 5 7 7 7 7 7 7 7 7 7 7 7 7 7 7 7 7 7 7 7 7 7 y 3 5 7 7 7 3 7 7 5 7 5 5 7 7 5 5 7 7 5 5 7 5 7 7 5 5 7 7 5 5 7 5 7 5 i k 5 5 7 i 7 5 7 i 5 7 7 < 7 , , 5 5 5 7 u g g g u 7 7 j u g j 7 7 ",
"7 7 5 7 3 5 7 7 5 7 5 7 5 7 7 7 5 7 5 5 5 5 5 5 5 5 7 7 7 5 7 7 5 7 5 7 5 5 7 5 7 7 7 5 5 5 5 7 5 7 5 7 5 7 7 7 5 7 7 5 7 7 5 7 5 7 7 5 7 7 5 7 5 5 7 5 5 7 7 5 7 7 5 7 5 5 7 5 5 7 5 5 7 5 5 7 5 5 7 5 5 7 5 5 7 5 5 7 5 5 7 5 5 7 5 5 7 5 5 7 7 7 y 3 7 5 7 7 5 7 5 7 7 5 7 5 7 5 7 5 7 7 5 7 5 5 7 5 7 5 7 7 5 7 7 5 7 7 5 7 5 7 5 5 7 5 7 7 5 7 5 7 7 7 5 7 7 5 7 5 7 7 5 7 7 5 7 7 5 7 7 5 7 7 7 7 5 7 7 5 7 7 5 7 5 5 7 5 5 7 5 5 7 5 7 7 5 7 5 7 y 3 7 7 5 7 7 5 7 7 5 7 7 5 7 7 5 7 7 5 7 7 5 7 5 7 5 5 7 5 5 7 5 5 7 5 5 7 5 5 7 5 7 7 7 7 7 5 7 7 y 7 5 7 7 5 7 7 5 7 7 7 5 7 7 5 7 7 5 7 7 5 7 5 7 7 5 7 7 i 8 5 7 7 5 5 7 7 5 7 5 5 5 7 < , 7 7 7 5 7 5 5 5 5 7 7 5 7 5 7 7 5 "
};
